(1001)
(T38  D=3.175 CR=0 - ZMIN=-4 - flat end mill)
G90 G94
G17
G21
G28 G91 Z0
G90

(2D Adaptive2)
T38
S18000 M3
G54
G0 X-0.327 Y-52.593
Z15
Z5
Z-3.365
G1 Z-3.682 F200
X-0.325 Y-52.586 Z-3.753
X-0.32 Y-52.563 Z-3.82
X-0.31 Y-52.526 Z-3.88
X-0.298 Y-52.477 Z-3.931
X-0.283 Y-52.419 Z-3.969
X-0.266 Y-52.354 Z-3.992
X-0.249 Y-52.286 Z-4
G3 X0 Y-50.557 I-7.852 J2.011
G1 Y-50.477
X0.01 Y-50.438
X0.03 Y-50.403
X0.057 Y-50.374
X0.602 Y-50.035
X0.909 Y-49.969
X1.224 Y-49.822
X1.529 Y-49.587
X1.804 Y-49.254
X2.027 Y-48.811
X2.173 Y-48.224
X2.187 Y-47.582
X2.105 Y-46.945
X2.013 Y-46.309
X1.637 Y-43.768
X1.547 Y-43.132
X1.506 Y-42.491
X1.472 Y-41.85
X1.377 Y-39.926
X1.36 Y-39.284
X1.383 Y-38.642
X1.413 Y-38
X1.507 Y-36.076
X1.564 Y-35.437
X1.651 Y-34.8
X1.744 Y-34.165
X2.026 Y-32.259
X2.155 Y-31.63
X2.306 Y-31.006
X2.617 Y-29.76
X2.929 Y-28.514
X3.129 Y-27.904
X3.342 Y-27.298
X3.99 Y-25.483
X4.21 Y-24.88
X4.475 Y-24.295
X4.748 Y-23.714
X5.571 Y-21.972
X5.858 Y-21.398
X6.181 Y-20.843
X6.51 Y-20.291
X7.5 Y-18.638
X7.851 Y-18.1
X8.228 Y-17.58
X8.609 Y-17.064
X9.756 Y-15.516
X10.167 Y-15.022
X10.594 Y-14.542
X11.455 Y-13.59
X12.318 Y-12.638
X12.782 Y-12.194
X13.255 Y-11.76
X14.682 Y-10.465
X15.16 Y-10.036
X15.669 Y-9.646
X16.184 Y-9.262
X17.731 Y-8.113
X18.255 Y-7.742
X18.801 Y-7.405
X19.351 Y-7.073
X21.003 Y-6.082
X21.566 Y-5.773
X22.144 Y-5.492
X22.724 Y-5.216
X24.465 Y-4.392
X25.06 Y-4.149
X25.662 Y-3.928
X26.266 Y-3.71
X28.08 Y-3.061
X28.699 Y-2.887
X29.321 Y-2.728
X30.566 Y-2.415
X31.189 Y-2.258
X31.813 Y-2.105
X32.446 Y-2.001
X33.081 Y-1.904
X34.987 Y-1.621
X35.624 Y-1.54
X36.265 Y-1.5
X36.906 Y-1.467
X38.831 Y-1.371
X39.473 Y-1.364
X40.114 Y-1.388
X40.756 Y-1.418
X42.68 Y-1.512
X43.319 Y-1.578
X43.955 Y-1.667
X44.59 Y-1.76
X46.496 Y-2.042
X47.123 Y-2.18
X47.747 Y-2.333
X48.993 Y-2.644
X49.616 Y-2.8
X50.239 Y-2.958
X50.847 Y-3.165
X51.452 Y-3.379
X53.266 Y-4.027
X53.866 Y-4.256
X54.451 Y-4.522
X55.032 Y-4.795
X56.774 Y-5.618
X57.344 Y-5.914
X57.898 Y-6.238
X58.45 Y-6.567
X60.103 Y-7.557
X60.635 Y-7.916
X61.154 Y-8.294
X61.671 Y-8.675
X63.219 Y-9.823
X63.707 Y-10.24
X64.185 Y-10.668
X65.138 Y-11.53
X65.614 Y-11.961
X66.088 Y-12.393
X66.527 Y-12.863
X66.96 Y-13.337
X68.254 Y-14.764
X68.676 Y-15.248
X69.066 Y-15.759
X69.45 Y-16.273
X70.598 Y-17.82
X70.961 Y-18.35
X71.298 Y-18.897
X71.63 Y-19.446
X72.62 Y-21.099
X72.921 Y-21.666
X73.201 Y-22.244
X73.477 Y-22.824
X74.301 Y-24.566
X74.535 Y-25.163
X74.755 Y-25.767
X75.189 Y-26.976
X75.405 Y-27.58
X75.621 Y-28.185
X75.787 Y-28.806
X75.945 Y-29.428
X76.414 Y-31.297
X76.558 Y-31.923
X76.661 Y-32.556
X76.757 Y-33.191
X77.04 Y-35.097
X77.112 Y-35.735
X77.151 Y-36.376
X77.184 Y-37.017
X77.279 Y-38.942
X77.277 Y-39.584
X77.252 Y-40.226
X77.222 Y-40.867
X77.127 Y-42.791
X77.052 Y-43.429
X76.962 Y-44.065
X76.775 Y-45.336
X76.586 Y-46.606
X76.44 Y-47.231
X76.286 Y-47.855
X75.819 Y-49.724
X75.651 Y-50.344
X75.443 Y-50.951
X75.229 Y-51.557
X74.58 Y-53.371
X74.343 Y-53.967
X74.075 Y-54.551
X73.802 Y-55.133
X72.979 Y-56.874
X72.675 Y-57.44
X72.35 Y-57.994
X72.021 Y-58.545
X71.031 Y-60.198
X70.665 Y-60.726
X70.286 Y-61.244
X69.521 Y-62.276
X68.756 Y-63.308
X68.333 Y-63.79
X67.903 Y-64.268
X66.61 Y-65.696
X66.17 Y-66.164
X65.7 Y-66.602
X65.226 Y-67.035
X63.799 Y-68.329
X63.309 Y-68.743
X62.797 Y-69.132
X62.283 Y-69.516
X60.736 Y-70.664
X60.201 Y-71.02
X59.653 Y-71.356
X59.103 Y-71.687
X57.451 Y-72.678
X56.879 Y-72.97
X56.301 Y-73.249
X55.14 Y-73.799
X53.979 Y-74.348
X53.378 Y-74.574
X52.774 Y-74.793
X50.961 Y-75.443
X50.352 Y-75.649
X49.732 Y-75.814
X49.109 Y-75.972
X47.241 Y-76.441
X46.613 Y-76.575
X45.979 Y-76.677
X45.344 Y-76.773
X43.438 Y-77.057
X42.799 Y-77.119
X42.158 Y-77.157
X41.517 Y-77.19
X39.592 Y-77.285
X38.95 Y-77.274
X38.309 Y-77.247
X37.026 Y-77.185
X35.743 Y-77.122
X35.106 Y-77.038
X34.471 Y-76.947
X32.565 Y-76.665
X31.931 Y-76.56
X31.306 Y-76.413
X30.683 Y-76.259
X30.06 Y-76.104
X28.814 Y-75.792
X28.196 Y-75.615
X27.589 Y-75.406
X26.984 Y-75.191
X25.17 Y-74.543
X24.576 Y-74.297
X23.993 Y-74.028
X23.412 Y-73.755
X21.67 Y-72.932
X21.109 Y-72.62
X20.556 Y-72.294
X19.453 Y-71.634
X18.352 Y-70.974
X17.829 Y-70.601
X17.312 Y-70.22
X15.764 Y-69.073
X15.254 Y-68.683
X14.772 Y-68.258
X14.295 Y-67.828
X12.867 Y-66.535
X12.406 Y-66.089
X11.968 Y-65.618
X11.536 Y-65.144
X10.242 Y-63.717
X9.834 Y-63.22
X9.446 Y-62.708
X9.063 Y-62.193
X7.915 Y-60.646
X7.566 Y-60.107
X7.232 Y-59.558
X6.571 Y-58.457
X5.91 Y-57.356
X5.625 Y-56.78
X5.348 Y-56.201
X4.524 Y-54.46
X4.258 Y-53.875
X4.033 Y-53.274
X3.815 Y-52.67
X3.422 Y-51.574
X3.418 Y-51.534
X3.425 Y-51.494
X3.441 Y-51.458
X3.84 Y-50.955
X4.266 Y-50.537
X4.614 Y-49.998
X4.858 Y-49.403
X5.016 Y-48.781
X5.086 Y-48.143
X5.093 Y-47.501
X5.04 Y-46.86
X4.96 Y-46.223
X4.871 Y-45.587
X4.684 Y-44.317
X4.59 Y-43.681
X4.498 Y-43.046
X4.444 Y-42.406
X4.406 Y-41.765
X4.373 Y-41.124
X4.341 Y-40.482
X4.312 Y-39.841
X4.306 Y-39.198
X4.326 Y-38.557
X4.354 Y-37.915
X4.416 Y-36.632
X4.462 Y-35.992
X4.539 Y-35.354
X4.628 Y-34.718
X4.721 Y-34.083
X4.815 Y-33.447
X4.915 Y-32.813
X5.045 Y-32.184
X5.193 Y-31.559
X5.347 Y-30.936
X5.658 Y-29.69
X5.838 Y-29.073
X6.043 Y-28.465
X6.257 Y-27.859
X6.688 Y-26.649
X6.912 Y-26.047
X7.173 Y-25.46
X7.443 Y-24.878
X7.991 Y-23.716
X8.27 Y-23.138
X8.575 Y-22.573
X8.898 Y-22.017
X9.226 Y-21.465
X9.885 Y-20.363
X10.235 Y-19.824
X10.607 Y-19.301
X10.987 Y-18.783
X11.751 Y-17.751
X12.143 Y-17.243
X12.559 Y-16.753
X12.985 Y-16.273
X13.415 Y-15.796
X14.277 Y-14.844
X14.734 Y-14.392
X15.204 Y-13.955
X15.678 Y-13.522
X16.154 Y-13.09
X16.63 Y-12.659
X17.118 Y-12.242
X17.626 Y-11.849
X18.14 Y-11.464
X19.171 Y-10.698
X19.691 Y-10.322
X20.231 Y-9.974
X20.779 Y-9.639
X21.329 Y-9.307
X21.879 Y-8.977
X22.432 Y-8.65
X22.998 Y-8.346
X23.574 Y-8.062
X24.153 Y-7.785
X25.314 Y-7.235
X25.903 Y-6.978
X26.502 Y-6.747
X27.105 Y-6.527
X28.314 Y-6.093
X28.92 Y-5.882
X29.538 Y-5.705
X30.159 Y-5.543
X30.782 Y-5.385
X31.404 Y-5.229
X32.028 Y-5.073
X32.657 Y-4.945
X33.291 Y-4.842
X33.925 Y-4.745
X35.196 Y-4.555
X35.833 Y-4.476
X36.474 Y-4.43
X37.115 Y-4.394
X38.397 Y-4.329
X39.039 Y-4.307
X39.681 Y-4.312
X40.323 Y-4.336
X40.965 Y-4.365
X42.248 Y-4.428
X42.887 Y-4.487
X43.524 Y-4.571
X44.159 Y-4.662
X45.43 Y-4.849
X46.063 Y-4.958
X46.69 Y-5.098
X47.314 Y-5.249
X47.937 Y-5.403
X48.56 Y-5.559
X49.183 Y-5.716
X49.795 Y-5.91
X50.402 Y-6.12
X51.007 Y-6.335
X51.612 Y-6.551
X52.216 Y-6.769
X52.812 Y-7.008
X53.398 Y-7.272
X53.98 Y-7.543
X55.141 Y-8.091
X55.716 Y-8.378
X56.276 Y-8.691
X56.83 Y-9.017
X57.381 Y-9.346
X57.932 Y-9.676
X58.481 Y-10.01
X59.012 Y-10.37
X59.533 Y-10.746
X60.051 Y-11.126
X61.083 Y-11.89
X61.584 Y-12.292
X62.069 Y-12.713
X62.547 Y-13.142
X63.499 Y-14.003
X63.971 Y-14.439
X64.414 Y-14.904
X64.849 Y-15.377
X65.713 Y-16.327
X66.14 Y-16.806
X66.547 Y-17.303
X66.937 Y-17.814
X67.322 Y-18.328
X68.087 Y-19.359
X68.453 Y-19.887
X68.794 Y-20.431
X69.128 Y-20.98
X69.789 Y-22.081
X70.109 Y-22.637
X70.404 Y-23.208
X70.684 Y-23.786
X70.961 Y-24.365
X71.511 Y-25.526
X71.755 Y-26.12
X71.979 Y-26.722
X72.198 Y-27.326
X72.631 Y-28.535
X72.832 Y-29.145
X73.001 Y-29.764
X73.16 Y-30.386
X73.474 Y-31.632
X73.623 Y-32.256
X73.739 Y-32.888
X73.839 Y-33.522
X73.935 Y-34.157
X74.03 Y-34.793
X74.12 Y-35.428
X74.186 Y-36.067
X74.228 Y-36.708
X74.263 Y-37.349
X74.327 Y-38.632
X74.341 Y-39.274
X74.325 Y-39.916
X74.299 Y-40.558
X74.237 Y-41.841
X74.201 Y-42.482
X74.129 Y-43.12
X74.041 Y-43.756
X73.949 Y-44.392
X73.761 Y-45.662
X73.64 Y-46.293
X73.494 Y-46.918
X73.34 Y-47.542
X73.029 Y-48.788
X72.861 Y-49.407
X72.659 Y-50.017
X72.446 Y-50.623
X72.015 Y-51.833
X71.791 Y-52.435
X71.542 Y-53.026
X71.275 Y-53.61
X71.002 Y-54.192
X70.454 Y-55.353
X70.156 Y-55.922
X69.835 Y-56.479
X69.508 Y-57.031
X68.849 Y-58.134
X68.507 Y-58.677
X68.139 Y-59.204
X67.761 Y-59.723
X67.38 Y-60.239
X66.615 Y-61.271
X66.202 Y-61.763
X65.776 Y-62.244
X65.346 Y-62.721
X64.915 Y-63.197
X64.483 Y-63.672
X64.035 Y-64.133
X63.568 Y-64.573
X63.095 Y-65.007
X62.144 Y-65.87
X61.66 Y-66.292
X61.156 Y-66.691
X60.644 Y-67.078
X60.129 Y-67.462
X59.613 Y-67.845
X59.095 Y-68.224
X58.56 Y-68.578
X58.014 Y-68.916
X57.464 Y-69.249
X56.363 Y-69.91
X55.801 Y-70.221
X55.227 Y-70.508
X54.648 Y-70.786
X54.068 Y-71.061
X53.487 Y-71.336
X52.905 Y-71.607
X52.306 Y-71.839
X51.703 Y-72.06
X51.099 Y-72.277
X50.494 Y-72.494
X49.889 Y-72.707
X49.274 Y-72.894
X48.654 Y-73.059
X48.031 Y-73.218
X46.786 Y-73.531
X46.158 Y-73.668
X45.525 Y-73.776
X44.891 Y-73.874
X43.62 Y-74.064
X42.984 Y-74.148
X42.344 Y-74.203
X41.703 Y-74.241
X41.062 Y-74.275
X39.779 Y-74.339
X39.137
X38.495 Y-74.317
X37.853 Y-74.288
X36.57 Y-74.226
X35.93 Y-74.179
X35.293 Y-74.098
X34.657 Y-74.008
X33.386 Y-73.821
X32.752 Y-73.721
X32.124 Y-73.588
X31.499 Y-73.438
X30.876 Y-73.284
X30.253 Y-73.128
X29.631 Y-72.969
X29.015 Y-72.787
X28.407 Y-72.581
X27.801 Y-72.368
X26.591 Y-71.936
X25.992 Y-71.704
X25.405 Y-71.445
X24.822 Y-71.175
X24.241 Y-70.902
X23.66 Y-70.628
X23.081 Y-70.349
X22.519 Y-70.04
X21.964 Y-69.716
X21.412 Y-69.388
X20.31 Y-68.728
X19.773 Y-68.376
X19.251 Y-68.002
X18.733 Y-67.622
X17.701 Y-66.858
X17.192 Y-66.467
X16.706 Y-66.047
X16.227 Y-65.619
X15.274 Y-64.758
X14.803 Y-64.321
X14.351 Y-63.865
X13.914 Y-63.395
X13.48 Y-62.921
X12.617 Y-61.97
X12.204 Y-61.478
X11.812 Y-60.969
X11.427 Y-60.456
X10.661 Y-59.425
X10.289 Y-58.902
X9.942 Y-58.361
X9.607 Y-57.813
X9.275 Y-57.263
X8.614 Y-56.162
X8.316 Y-55.593
X8.035 Y-55.016
X7.758 Y-54.436
X7.483 Y-53.856
X7.21 Y-53.275
X6.954 Y-52.686
X6.84 Y-52.386
X6.756 Y-52.16
X6.752 Y-52.12
X6.758 Y-52.08
X7.012 Y-51.49
X7.345 Y-50.942
X7.596 Y-50.35
X7.786 Y-49.737
X7.909 Y-49.107
X7.986 Y-48.469
X8.015 Y-47.827
X7.997 Y-47.186
X7.946 Y-46.545
X7.872 Y-45.907
X7.786 Y-45.271
X7.695 Y-44.635
X7.508 Y-43.365
X7.423 Y-42.728
X7.368 Y-42.088
X7.329 Y-41.447
X7.295 Y-40.806
X7.264 Y-40.165
X7.246 Y-39.523
X7.254 Y-38.881
X7.278 Y-38.239
X7.306 Y-37.597
X7.338 Y-36.956
X7.385 Y-36.315
X7.46 Y-35.678
X7.547 Y-35.041
X7.639 Y-34.406
X7.734 Y-33.771
X7.848 Y-33.139
X7.985 Y-32.511
X8.135 Y-31.887
X8.288 Y-31.263
X8.444 Y-30.64
X8.621 Y-30.023
X8.823 Y-29.413
X9.034 Y-28.807
X9.249 Y-28.201
X9.467 Y-27.598
X9.705 Y-27.001
X9.967 Y-26.415
X10.237 Y-25.832
X10.51 Y-25.251
X10.787 Y-24.672
X11.086 Y-24.103
X11.405 Y-23.546
X11.731 Y-22.993
X12.06 Y-22.441
X12.395 Y-21.893
X12.75 Y-21.358
X13.123 Y-20.835
X13.502 Y-20.317
X13.883 Y-19.8
X14.271 Y-19.288
X14.679 Y-18.792
X15.102 Y-18.309
X15.531 Y-17.831
X15.961 Y-17.354
X16.397 Y-16.883
X16.855 Y-16.432
X17.324 Y-15.994
X17.798 Y-15.56
X18.273 Y-15.128
X18.755 Y-14.704
X19.256 Y-14.302
X19.766 Y-13.912
X20.28 Y-13.528
X20.796 Y-13.145
X21.319 Y-12.772
X21.858 Y-12.423
X22.405 Y-12.086
X22.954 Y-11.753
X23.505 Y-11.424
X24.064 Y-11.108
X24.635 Y-10.813
X25.212 Y-10.532
X25.792 Y-10.255
X26.372 Y-9.98
X26.96 Y-9.722
X27.558 Y-9.488
X28.161 Y-9.266
X28.764 Y-9.047
X29.37 Y-8.832
X29.981 Y-8.635
X30.599 Y-8.463
X31.221 Y-8.301
X31.843 Y-8.143
X32.466 Y-7.987
X33.094 Y-7.854
X33.727 Y-7.746
X34.362 Y-7.647
X34.997 Y-7.551
X35.633 Y-7.46
X36.271 Y-7.391
X36.912 Y-7.346
X37.553 Y-7.31
X38.194 Y-7.277
X38.836 Y-7.25
X39.478 Y-7.247
X40.12 Y-7.266
X40.762 Y-7.293
X41.403 Y-7.323
X42.044 Y-7.361
X42.683 Y-7.425
X43.32 Y-7.507
X43.956 Y-7.598
X44.591 Y-7.691
X45.225 Y-7.792
X45.855 Y-7.92
X46.48 Y-8.067
X47.104 Y-8.219
X47.727 Y-8.374
X48.348 Y-8.537
X48.961 Y-8.731
X49.568 Y-8.939
X50.174 Y-9.153
X50.778 Y-9.369
X51.379 Y-9.597
X51.969 Y-9.849
X52.553 Y-10.116
X53.135 Y-10.388
X53.716 Y-10.662
X54.29 Y-10.95
X54.851 Y-11.262
X55.406 Y-11.585
X55.958 Y-11.913
X56.508 Y-12.244
X57.05 Y-12.589
X57.577 Y-12.956
X58.098 Y-13.332
X58.615 Y-13.713
X59.131 Y-14.095
X59.634 Y-14.494
X60.121 Y-14.912
X60.601 Y-15.339
X61.078 Y-15.769
X61.553 Y-16.201
X62.014 Y-16.648
X62.457 Y-17.114
X62.892 Y-17.586
X63.324 Y-18.061
X63.754 Y-18.538
X64.166 Y-19.031
X64.56 Y-19.538
X64.946 Y-20.051
X65.33 Y-20.566
X65.709 Y-21.084
X66.068 Y-21.616
X66.41 Y-22.16
X66.744 Y-22.709
X67.075 Y-23.259
X67.4 Y-23.813
X67.704 Y-24.379
X67.989 Y-24.954
X68.267 Y-25.533
X68.543 Y-26.113
X68.812 Y-26.696
X69.055 Y-27.29
X69.281 Y-27.891
X69.501 Y-28.495
X69.718 Y-29.099
X69.926 Y-29.707
X70.108 Y-30.322
X70.273 Y-30.943
X70.432 Y-31.565
X70.589 Y-32.188
X70.735 Y-32.813
X70.852 Y-33.445
X70.955 Y-34.079
X71.052 Y-34.714
X71.145 Y-35.349
X71.225 Y-35.986
X71.28 Y-36.626
X71.32 Y-37.267
X71.354 Y-37.908
X71.386 Y-38.55
X71.401 Y-39.192
X71.389 Y-39.834
X71.364 Y-40.475
X71.335 Y-41.117
X71.303 Y-41.758
X71.252 Y-42.398
X71.176 Y-43.036
X71.088 Y-43.672
X70.996 Y-44.308
X70.902 Y-44.943
X70.787 Y-45.575
X70.646 Y-46.201
X70.495 Y-46.825
X70.34 Y-47.449
X70.181 Y-48.071
X70.002 Y-48.688
X69.8 Y-49.297
X69.588 Y-49.903
X69.373 Y-50.509
X69.153 Y-51.112
X68.912 Y-51.707
X68.649 Y-52.293
X68.379 Y-52.876
X68.105 Y-53.457
X67.826 Y-54.035
X67.525 Y-54.602
X67.205 Y-55.159
X66.878 Y-55.712
X66.55 Y-56.263
X66.213 Y-56.811
X65.856 Y-57.344
X65.482 Y-57.866
X65.102 Y-58.384
X64.721 Y-58.901
X64.334 Y-59.413
X63.922 Y-59.906
X63.497 Y-60.388
X63.068 Y-60.866
X62.637 Y-61.342
X62.198 Y-61.81
X61.74 Y-62.26
X61.27 Y-62.698
X60.796 Y-63.131
X60.321 Y-63.563
X59.837 Y-63.985
X59.334 Y-64.385
X58.823 Y-64.774
X58.309 Y-65.159
X57.793 Y-65.541
X57.268 Y-65.91
X56.728 Y-66.258
X56.181 Y-66.595
X55.632 Y-66.927
X55.081 Y-67.258
X54.521 Y-67.572
X53.949 Y-67.863
X53.371 Y-68.143
X52.791 Y-68.42
X52.21 Y-68.694
X51.622 Y-68.951
X51.023 Y-69.182
X50.42 Y-69.403
X49.816 Y-69.621
X49.21 Y-69.836
X48.598 Y-70.03
X47.979 Y-70.2
X47.358 Y-70.361
X46.735 Y-70.519
X46.111 Y-70.671
X45.482 Y-70.802
X44.849 Y-70.91
X44.215 Y-71.009
X43.58 Y-71.104
X42.944 Y-71.193
X42.305 Y-71.259
X41.664 Y-71.303
X41.023 Y-71.339
X40.382 Y-71.372
X39.74 Y-71.398
X39.098 Y-71.397
X38.456 Y-71.376
X37.815 Y-71.349
X37.173 Y-71.318
X36.532 Y-71.28
X35.893 Y-71.214
X35.257 Y-71.129
X34.621 Y-71.038
X33.986 Y-70.944
X33.352 Y-70.842
X32.723 Y-70.71
X32.098 Y-70.562
X31.475 Y-70.409
X30.852 Y-70.253
X30.232 Y-70.084
X29.62 Y-69.891
X29.012 Y-69.683
X28.406 Y-69.469
X27.801 Y-69.254
X27.202 Y-69.023
X26.613 Y-68.768
X26.029 Y-68.5
X25.448 Y-68.228
X24.867 Y-67.953
X24.295 Y-67.662
X23.734 Y-67.349
X23.18 Y-67.025
X22.628 Y-66.696
X22.076 Y-66.367
X21.536 Y-66.02
X21.011 Y-65.651
X20.492 Y-65.273
X19.975 Y-64.891
X19.46 Y-64.507
X18.958 Y-64.107
X18.472 Y-63.687
X17.993 Y-63.26
X17.516 Y-62.83
X17.042 Y-62.396
X16.583 Y-61.947
X16.142 Y-61.48
X15.707 Y-61.008
X15.275 Y-60.533
X14.846 Y-60.055
X14.437 Y-59.56
X14.044 Y-59.052
X13.658 Y-58.539
X13.274 Y-58.024
X12.897 Y-57.504
X12.539 Y-56.971
X12.199 Y-56.426
X11.866 Y-55.877
X11.534 Y-55.327
X11.208 Y-54.774
X10.909 Y-54.206
X10.626 Y-53.629
X10.348 Y-53.05
X10.142 Y-52.615
X10.025 Y-52.359
X10.018 Y-52.32
X10.044 Y-52
X10.304 Y-51.413
X10.428 Y-51.058
X10.445 Y-50.983
X10.442 Y-50.906
X10.422 Y-50.832
X10.036 Y-49.899
X9.978 Y-49.753
X9.876 Y-49.461
X9.831 Y-49.316
X9.033 Y-46.544
X8.962 Y-46.252
X8.928 Y-46.106
X8.906 Y-45.997
X8.429 Y-43.188
X8.387 Y-42.897
X8.366 Y-42.751
X8.353 Y-42.605
X8.197 Y-39.833
X8.175 Y-39.395
Y-39.25
X8.197 Y-38.812
X8.353 Y-36.04
X8.366 Y-35.894
X8.407 Y-35.603
X8.429 Y-35.457
X8.906 Y-32.648
X8.928 Y-32.539
X8.997 Y-32.247
X9.033 Y-32.101
X9.831 Y-29.33
X9.876 Y-29.184
X9.978 Y-28.892
X10.036 Y-28.746
X11.184 Y-25.974
X11.24 Y-25.844
X11.403 Y-25.537
X11.532 Y-25.302
X12.853 Y-22.911
X12.944 Y-22.765
X13.041 Y-22.619
X13.138 Y-22.473
X14.795 Y-20.139
X14.887 Y-20.019
X15.179 Y-19.663
X15.272 Y-19.555
X17.097 Y-17.513
X17.221 Y-17.375
X17.375 Y-17.221
X17.864 Y-16.784
X19.555 Y-15.272
X19.663 Y-15.179
X20.019 Y-14.887
X20.139 Y-14.795
X22.476 Y-13.136
X22.695 Y-12.991
X22.765 Y-12.944
X22.911 Y-12.853
X25.391 Y-11.483
X25.57 Y-11.386
X25.844 Y-11.24
X25.974 Y-11.184
X28.746 Y-10.036
X28.892 Y-9.978
X29.184 Y-9.876
X29.33 Y-9.831
X32.101 Y-9.033
X32.393 Y-8.962
X32.539 Y-8.928
X32.648 Y-8.906
X35.457 Y-8.429
X35.748 Y-8.387
X35.894 Y-8.366
X36.04 Y-8.353
X38.812 Y-8.197
X39.25 Y-8.175
X39.395
X39.833 Y-8.197
X42.605 Y-8.353
X42.751 Y-8.366
X43.043 Y-8.407
X43.188 Y-8.429
X45.997 Y-8.906
X46.106 Y-8.928
X46.398 Y-8.997
X46.544 Y-9.033
X49.316 Y-9.831
X49.461 Y-9.876
X49.753 Y-9.978
X49.899 Y-10.036
X52.671 Y-11.184
X52.801 Y-11.24
X53.109 Y-11.403
X53.343 Y-11.532
X55.734 Y-12.853
X55.88 Y-12.944
X56.026 Y-13.041
X56.172 Y-13.138
X58.506 Y-14.795
X58.626 Y-14.887
X58.982 Y-15.179
X59.09 Y-15.272
X61.132 Y-17.097
X61.27 Y-17.221
X61.424 Y-17.375
X61.862 Y-17.864
X63.373 Y-19.555
X63.466 Y-19.663
X63.758 Y-20.019
X63.851 Y-20.139
X65.509 Y-22.476
X65.655 Y-22.695
X65.701 Y-22.765
X65.792 Y-22.911
X67.162 Y-25.391
X67.259 Y-25.57
X67.405 Y-25.844
X67.461 Y-25.974
X68.61 Y-28.746
X68.667 Y-28.892
X68.77 Y-29.184
X68.814 Y-29.33
X69.612 Y-32.101
X69.683 Y-32.393
X69.718 Y-32.539
X69.739 Y-32.648
X70.217 Y-35.457
X70.259 Y-35.748
X70.279 Y-35.894
X70.292 Y-36.04
X70.448 Y-38.812
X70.47 Y-39.25
Y-39.395
X70.448 Y-39.833
X70.292 Y-42.605
X70.279 Y-42.751
X70.238 Y-43.043
X70.217 Y-43.188
X69.739 Y-45.997
X69.718 Y-46.106
X69.648 Y-46.398
X69.612 Y-46.544
X68.814 Y-49.316
X68.77 Y-49.461
X68.667 Y-49.753
X68.61 Y-49.899
X67.461 Y-52.671
X67.405 Y-52.801
X67.242 Y-53.109
X67.113 Y-53.343
X65.792 Y-55.734
X65.701 Y-55.88
X65.605 Y-56.026
X65.507 Y-56.172
X63.851 Y-58.506
X63.758 Y-58.626
X63.466 Y-58.982
X63.373 Y-59.09
X61.548 Y-61.132
X61.424 Y-61.27
X61.27 Y-61.424
X60.781 Y-61.862
X59.09 Y-63.373
X58.982 Y-63.466
X58.626 Y-63.758
X58.506 Y-63.851
X56.169 Y-65.509
X55.95 Y-65.655
X55.88 Y-65.701
X55.734 Y-65.792
X53.254 Y-67.162
X53.075 Y-67.259
X52.801 Y-67.405
X52.671 Y-67.461
X49.899 Y-68.61
X49.753 Y-68.667
X49.461 Y-68.77
X49.316 Y-68.814
X46.544 Y-69.612
X46.252 Y-69.683
X46.106 Y-69.718
X45.997 Y-69.739
X43.188 Y-70.217
X42.897 Y-70.259
X42.751 Y-70.279
X42.605 Y-70.292
X39.833 Y-70.448
X39.395 Y-70.47
X39.25
X38.812 Y-70.448
X36.04 Y-70.292
X35.894 Y-70.279
X35.603 Y-70.238
X35.457 Y-70.217
X32.648 Y-69.739
X32.539 Y-69.718
X32.247 Y-69.648
X32.101 Y-69.612
X29.33 Y-68.814
X29.184 Y-68.77
X28.892 Y-68.667
X28.746 Y-68.61
X25.974 Y-67.461
X25.844 Y-67.405
X25.537 Y-67.242
X25.302 Y-67.113
X22.911 Y-65.792
X22.765 Y-65.701
X22.619 Y-65.605
X22.473 Y-65.507
X20.139 Y-63.851
X20.019 Y-63.758
X19.663 Y-63.466
X19.555 Y-63.373
X17.513 Y-61.548
X17.375 Y-61.424
X17.221 Y-61.27
X16.784 Y-60.781
X15.272 Y-59.09
X15.179 Y-58.982
X14.887 Y-58.626
X14.795 Y-58.506
X13.136 Y-56.169
X12.991 Y-55.95
X12.944 Y-55.88
X12.853 Y-55.734
X11.483 Y-53.254
X11.386 Y-53.075
X11.24 Y-52.801
X11.184 Y-52.671
X10.422 Y-50.832
G3 X9.825 Y-50.888 I-0.289 J-0.132
G1 X9.808 Y-50.956 Z-3.992
X9.792 Y-51.021 Z-3.969
X9.777 Y-51.08 Z-3.931
X9.765 Y-51.129 Z-3.88
X9.756 Y-51.166 Z-3.82
X9.751 Y-51.188 Z-3.753
X9.749 Y-51.196 Z-3.682
G0 Z15
G28 G91 Z0
G90
G28 G91 X0 Y0
G90
M5
M30
