(1001)
(T38  D=3.175 CR=0 - ZMIN=-7.5 - flat end mill)
G90 G94
G17
G21
G28 G91 Z0
G90

(2D Contour2)
T38
S18000 M3
G54
G0 X-2.54 Y-39.64
Z15
Z5
G1 Z1 F50
Z-7.183
G18 G2 X-2.223 Z-7.5 I0.317 K0 F150
G1 X-1.905
G17 G3 X-1.587 Y-39.322 I0 J0.318
G2 X80.233 Y-39.322 I40.91 J0
X-1.587 Y-39.322 I-40.91 J0
G3 X-1.905 Y-39.005 I-0.317 J0
G1 X-2.223
G18 G3 X-2.54 Z-7.183 I0 K0.318
G0 Z15
G17
G28 G91 Z0
G90
G28 G91 X0 Y0
G90
M5
M30
