(boreIndicator_02)
(T4  D=3.175 CR=0 - ZMIN=-15 - flat end mill)
G90 G94
G17
G21
G28 G91 Z0
G90

(2D Adaptive11)
T4
S18000 M3
G54
M8
G0 X11.415 Y-7.387
Z15
Z5
Z2.5
G3 X14.085 Y-8.792 Z2.335 I1.335 J-0.702 F333.3
X11.415 Y-7.387 Z2.169 I-1.335 J0.702
X14.085 Y-8.792 Z2.004 I1.335 J-0.702
X11.415 Y-7.387 Z1.838 I-1.335 J0.702
X14.085 Y-8.792 Z1.673 I1.335 J-0.702
X11.415 Y-7.387 Z1.507 I-1.335 J0.702
X14.085 Y-8.792 Z1.342 I1.335 J-0.702
X11.415 Y-7.387 Z1.176 I-1.335 J0.702
X14.085 Y-8.792 Z1.011 I1.335 J-0.702
X11.415 Y-7.387 Z0.845 I-1.335 J0.702
X14.085 Y-8.792 Z0.68 I1.335 J-0.702
X11.415 Y-7.387 Z0.515 I-1.335 J0.702
X14.085 Y-8.792 Z0.349 I1.335 J-0.702
X11.415 Y-7.387 Z0.184 I-1.335 J0.702
X14.085 Y-8.792 Z0.018 I1.335 J-0.702
X11.415 Y-7.387 Z-0.147 I-1.335 J0.702
X14.085 Y-8.792 Z-0.313 I1.335 J-0.702
X11.415 Y-7.387 Z-0.478 I-1.335 J0.702
X14.085 Y-8.792 Z-0.644 I1.335 J-0.702
X11.415 Y-7.387 Z-0.809 I-1.335 J0.702
X14.085 Y-8.792 Z-0.974 I1.335 J-0.702
X14.258 Y-8.09 Z-1 I-1.335 J0.702
X11.242 Y-8.09 I-1.508 J0
X14.258 Y-8.09 I1.508 J0
G1 X14.275 Y-7.448 F1000
X14.304 Y-7.373
X14.338 Y-7.227
X14.342 Y-7.077
X14.32 Y-6.928
X14.278 Y-6.784
X14.217 Y-6.647
X14.142 Y-6.518
X14.052 Y-6.397
X13.951 Y-6.286
X13.84 Y-6.185
X13.721 Y-6.095
X13.594 Y-6.015
X13.46 Y-5.946
X13.319 Y-5.887
X13.169 Y-5.838
X13.013 Y-5.801
X12.851 Y-5.775
X12.684 Y-5.763
X12.514 Y-5.764
X12.341 Y-5.779
X12.169 Y-5.807
X11.997 Y-5.851
X11.827 Y-5.908
X11.661 Y-5.98
X11.5 Y-6.065
X11.345 Y-6.164
X11.197 Y-6.276
X11.059 Y-6.4
X10.93 Y-6.535
X10.811 Y-6.681
X10.704 Y-6.837
X10.61 Y-7.001
X10.529 Y-7.173
X10.462 Y-7.351
X10.409 Y-7.534
X10.372 Y-7.722
X10.349 Y-7.912
X10.341 Y-8.103
X10.349 Y-8.295
X10.373 Y-8.486
X10.411 Y-8.675
X10.465 Y-8.86
X10.534 Y-9.041
X10.616 Y-9.215
X10.713 Y-9.382
X10.823 Y-9.541
X10.945 Y-9.691
X11.079 Y-9.831
X11.224 Y-9.959
X11.378 Y-10.076
X11.542 Y-10.179
X11.713 Y-10.27
X11.891 Y-10.346
X12.075 Y-10.408
X12.263 Y-10.454
X12.454 Y-10.486
X12.647 Y-10.502
X12.841
X13.034 Y-10.487
X13.226 Y-10.457
X13.414 Y-10.411
X13.598 Y-10.35
X13.777 Y-10.275
X13.949 Y-10.186
X14.113 Y-10.083
X14.269 Y-9.967
X14.415 Y-9.839
X14.55 Y-9.7
X14.673 Y-9.55
X14.784 Y-9.391
X14.889 Y-9.212
X15.028 Y-8.923
X15.182 Y-8.524
X15.27 Y-8.227
X15.325 Y-7.965
X15.357 Y-7.721
X15.367 Y-7.493
X15.36 Y-7.276
X15.336 Y-7.067
X15.296 Y-6.861
X15.239 Y-6.66
X15.167 Y-6.465
X15.079 Y-6.276
X14.976 Y-6.094
X14.858 Y-5.92
X14.726 Y-5.755
X14.578 Y-5.599
X14.417 Y-5.453
X14.242 Y-5.319
X14.055 Y-5.198
X13.855 Y-5.091
X13.644 Y-4.998
X13.423 Y-4.922
X13.194 Y-4.863
X12.958 Y-4.822
X12.716 Y-4.8
X12.47 Y-4.797
X12.223 Y-4.814
X11.975 Y-4.852
X11.729 Y-4.909
X11.486 Y-4.987
X11.249 Y-5.085
X11.019 Y-5.202
X10.821 Y-5.324
X10.78 Y-5.354
X10.71 Y-5.407
X10.378 Y-5.662
X10.358 Y-5.68
X10.337 Y-5.701
X10.273 Y-5.782
X9.834 Y-6.354
X9.81 Y-6.391
X9.792 Y-6.427
X9.489 Y-7.156
X9.475 Y-7.193
X9.465 Y-7.229
X9.426 Y-7.521
X9.368 Y-7.958
X9.355 Y-8.104
X9.372 Y-8.25
X9.449 Y-8.833
X9.474 Y-8.979
X9.545 Y-9.157
X9.773 Y-9.708
X9.798 Y-9.768
X9.815 Y-9.798
X9.836 Y-9.827
X10.304 Y-10.437
X10.361 Y-10.502
X10.419 Y-10.548
X11.002 Y-10.995
X11.038 Y-11.021
X11.147 Y-11.073
X11.73 Y-11.314
X11.876 Y-11.37
X12.021 Y-11.392
X12.604 Y-11.469
X12.75 Y-11.486
X12.896 Y-11.469
X13.479 Y-11.392
X13.624 Y-11.37
X13.775 Y-11.312
X14.353 Y-11.073
X14.462 Y-11.021
X14.498 Y-10.995
X15.081 Y-10.548
X15.139 Y-10.502
X15.196 Y-10.437
X15.664 Y-9.827
X15.685 Y-9.798
X15.702 Y-9.768
X15.848 Y-9.417
X15.968 Y-9.125
X16.026 Y-8.979
X16.051 Y-8.833
X16.128 Y-8.25
X16.145 Y-8.104
X16.132 Y-7.958
X16.055 Y-7.375
X16.035 Y-7.229
X16.025 Y-7.193
X16.011 Y-7.156
X15.708 Y-6.427
X15.69 Y-6.391
X15.664 Y-6.352
X15.218 Y-5.771
X15.163 Y-5.701
X15.142 Y-5.68
X15.122 Y-5.662
X14.498 Y-5.184
X14.462 Y-5.158
X14.426 Y-5.137
X14.353 Y-5.106
X13.77 Y-4.865
X13.624 Y-4.808
X13.479 Y-4.787
X12.896 Y-4.71
X12.75 Y-4.694
X12.604 Y-4.71
X12.021 Y-4.787
X11.876 Y-4.808
X11.73 Y-4.865
X11.147 Y-5.106
X11.074 Y-5.137
X11.038 Y-5.158
X10.996 Y-5.188
X10.78 Y-5.354
G3 X10.718 Y-5.776 I0.202 J-0.245
G1 X10.759 Y-5.813 Z-0.995
X10.798 Y-5.848 Z-0.981
X10.835 Y-5.881 Z-0.958
X10.887 Y-5.893 Z-0.919
X10.93 Y-5.904 Z-0.869
X10.962 Y-5.912 Z-0.811
X10.982 Y-5.917 Z-0.748
X10.988 Y-5.916 Z-0.683
G0 Z5
X11.415 Y-7.387
Z1.5
G3 X14.085 Y-8.792 Z1.335 I1.335 J-0.702 F333.3
X11.415 Y-7.387 Z1.169 I-1.335 J0.702
X14.085 Y-8.792 Z1.004 I1.335 J-0.702
X11.415 Y-7.387 Z0.838 I-1.335 J0.702
X14.085 Y-8.792 Z0.673 I1.335 J-0.702
X11.415 Y-7.387 Z0.507 I-1.335 J0.702
X14.085 Y-8.792 Z0.342 I1.335 J-0.702
X11.415 Y-7.387 Z0.176 I-1.335 J0.702
X14.085 Y-8.792 Z0.011 I1.335 J-0.702
X11.415 Y-7.387 Z-0.155 I-1.335 J0.702
X14.085 Y-8.792 Z-0.32 I1.335 J-0.702
X11.415 Y-7.387 Z-0.485 I-1.335 J0.702
X14.085 Y-8.792 Z-0.651 I1.335 J-0.702
X11.415 Y-7.387 Z-0.816 I-1.335 J0.702
X14.085 Y-8.792 Z-0.982 I1.335 J-0.702
X11.415 Y-7.387 Z-1.147 I-1.335 J0.702
X14.085 Y-8.792 Z-1.313 I1.335 J-0.702
X11.415 Y-7.387 Z-1.478 I-1.335 J0.702
X14.085 Y-8.792 Z-1.644 I1.335 J-0.702
X11.415 Y-7.387 Z-1.809 I-1.335 J0.702
X14.085 Y-8.792 Z-1.974 I1.335 J-0.702
X14.258 Y-8.09 Z-2 I-1.335 J0.702
X11.242 Y-8.09 I-1.508 J0
X14.258 Y-8.09 I1.508 J0
G1 X14.275 Y-7.448 F1000
X14.304 Y-7.373
X14.338 Y-7.227
X14.342 Y-7.077
X14.32 Y-6.928
X14.278 Y-6.784
X14.217 Y-6.647
X14.142 Y-6.518
X14.052 Y-6.397
X13.951 Y-6.286
X13.84 Y-6.185
X13.721 Y-6.095
X13.594 Y-6.015
X13.46 Y-5.946
X13.319 Y-5.887
X13.169 Y-5.838
X13.013 Y-5.801
X12.851 Y-5.775
X12.684 Y-5.763
X12.514 Y-5.764
X12.341 Y-5.779
X12.169 Y-5.807
X11.997 Y-5.851
X11.827 Y-5.908
X11.661 Y-5.98
X11.5 Y-6.065
X11.345 Y-6.164
X11.197 Y-6.276
X11.059 Y-6.4
X10.93 Y-6.535
X10.811 Y-6.681
X10.704 Y-6.837
X10.61 Y-7.001
X10.529 Y-7.173
X10.462 Y-7.351
X10.409 Y-7.534
X10.372 Y-7.722
X10.349 Y-7.912
X10.341 Y-8.103
X10.349 Y-8.295
X10.373 Y-8.486
X10.411 Y-8.675
X10.465 Y-8.86
X10.534 Y-9.041
X10.616 Y-9.215
X10.713 Y-9.382
X10.823 Y-9.541
X10.945 Y-9.691
X11.079 Y-9.831
X11.224 Y-9.959
X11.378 Y-10.076
X11.542 Y-10.179
X11.713 Y-10.27
X11.891 Y-10.346
X12.075 Y-10.408
X12.263 Y-10.454
X12.454 Y-10.486
X12.647 Y-10.502
X12.841
X13.034 Y-10.487
X13.226 Y-10.457
X13.414 Y-10.411
X13.598 Y-10.35
X13.777 Y-10.275
X13.949 Y-10.186
X14.113 Y-10.083
X14.269 Y-9.967
X14.415 Y-9.839
X14.55 Y-9.7
X14.673 Y-9.55
X14.784 Y-9.391
X14.889 Y-9.212
X15.028 Y-8.923
X15.182 Y-8.524
X15.27 Y-8.227
X15.325 Y-7.965
X15.357 Y-7.721
X15.367 Y-7.493
X15.36 Y-7.276
X15.336 Y-7.067
X15.296 Y-6.861
X15.239 Y-6.66
X15.167 Y-6.465
X15.079 Y-6.276
X14.976 Y-6.094
X14.858 Y-5.92
X14.726 Y-5.755
X14.578 Y-5.599
X14.417 Y-5.453
X14.242 Y-5.319
X14.055 Y-5.198
X13.855 Y-5.091
X13.644 Y-4.998
X13.423 Y-4.922
X13.194 Y-4.863
X12.958 Y-4.822
X12.716 Y-4.8
X12.47 Y-4.797
X12.223 Y-4.814
X11.975 Y-4.852
X11.729 Y-4.909
X11.486 Y-4.987
X11.249 Y-5.085
X11.019 Y-5.202
X10.821 Y-5.324
X10.78 Y-5.354
X10.71 Y-5.407
X10.378 Y-5.662
X10.358 Y-5.68
X10.337 Y-5.701
X10.273 Y-5.782
X9.834 Y-6.354
X9.81 Y-6.391
X9.792 Y-6.427
X9.489 Y-7.156
X9.475 Y-7.193
X9.465 Y-7.229
X9.426 Y-7.521
X9.368 Y-7.958
X9.355 Y-8.104
X9.372 Y-8.25
X9.449 Y-8.833
X9.474 Y-8.979
X9.545 Y-9.157
X9.773 Y-9.708
X9.798 Y-9.768
X9.815 Y-9.798
X9.836 Y-9.827
X10.304 Y-10.437
X10.361 Y-10.502
X10.419 Y-10.548
X11.002 Y-10.995
X11.038 Y-11.021
X11.147 Y-11.073
X11.73 Y-11.314
X11.876 Y-11.37
X12.021 Y-11.392
X12.604 Y-11.469
X12.75 Y-11.486
X12.896 Y-11.469
X13.479 Y-11.392
X13.624 Y-11.37
X13.775 Y-11.312
X14.353 Y-11.073
X14.462 Y-11.021
X14.498 Y-10.995
X15.081 Y-10.548
X15.139 Y-10.502
X15.196 Y-10.437
X15.664 Y-9.827
X15.685 Y-9.798
X15.702 Y-9.768
X15.848 Y-9.417
X15.968 Y-9.125
X16.026 Y-8.979
X16.051 Y-8.833
X16.128 Y-8.25
X16.145 Y-8.104
X16.132 Y-7.958
X16.055 Y-7.375
X16.035 Y-7.229
X16.025 Y-7.193
X16.011 Y-7.156
X15.708 Y-6.427
X15.69 Y-6.391
X15.664 Y-6.352
X15.218 Y-5.771
X15.163 Y-5.701
X15.142 Y-5.68
X15.122 Y-5.662
X14.498 Y-5.184
X14.462 Y-5.158
X14.426 Y-5.137
X14.353 Y-5.106
X13.77 Y-4.865
X13.624 Y-4.808
X13.479 Y-4.787
X12.896 Y-4.71
X12.75 Y-4.694
X12.604 Y-4.71
X12.021 Y-4.787
X11.876 Y-4.808
X11.73 Y-4.865
X11.147 Y-5.106
X11.074 Y-5.137
X11.038 Y-5.158
X10.996 Y-5.188
X10.78 Y-5.354
G3 X10.718 Y-5.776 I0.202 J-0.245
G1 X10.759 Y-5.813 Z-1.995
X10.798 Y-5.848 Z-1.981
X10.835 Y-5.881 Z-1.958
X10.887 Y-5.893 Z-1.919
X10.93 Y-5.904 Z-1.869
X10.962 Y-5.912 Z-1.811
X10.982 Y-5.917 Z-1.748
X10.988 Y-5.916 Z-1.683
G0 Z5
X11.415 Y-7.387
Z0.5
G3 X14.085 Y-8.792 Z0.335 I1.335 J-0.702 F333.3
X11.415 Y-7.387 Z0.169 I-1.335 J0.702
X14.085 Y-8.792 Z0.004 I1.335 J-0.702
X11.415 Y-7.387 Z-0.162 I-1.335 J0.702
X14.085 Y-8.792 Z-0.327 I1.335 J-0.702
X11.415 Y-7.387 Z-0.493 I-1.335 J0.702
X14.085 Y-8.792 Z-0.658 I1.335 J-0.702
X11.415 Y-7.387 Z-0.824 I-1.335 J0.702
X14.085 Y-8.792 Z-0.989 I1.335 J-0.702
X11.415 Y-7.387 Z-1.155 I-1.335 J0.702
X14.085 Y-8.792 Z-1.32 I1.335 J-0.702
X11.415 Y-7.387 Z-1.485 I-1.335 J0.702
X14.085 Y-8.792 Z-1.651 I1.335 J-0.702
X11.415 Y-7.387 Z-1.816 I-1.335 J0.702
X14.085 Y-8.792 Z-1.982 I1.335 J-0.702
X11.415 Y-7.387 Z-2.147 I-1.335 J0.702
X14.085 Y-8.792 Z-2.313 I1.335 J-0.702
X11.415 Y-7.387 Z-2.478 I-1.335 J0.702
X14.085 Y-8.792 Z-2.644 I1.335 J-0.702
X11.415 Y-7.387 Z-2.809 I-1.335 J0.702
X14.085 Y-8.792 Z-2.974 I1.335 J-0.702
X14.258 Y-8.09 Z-3 I-1.335 J0.702
X11.242 Y-8.09 I-1.508 J0
X14.258 Y-8.09 I1.508 J0
G1 X14.275 Y-7.448 F1000
X14.304 Y-7.373
X14.338 Y-7.227
X14.342 Y-7.077
X14.32 Y-6.928
X14.278 Y-6.784
X14.217 Y-6.647
X14.142 Y-6.518
X14.052 Y-6.397
X13.951 Y-6.286
X13.84 Y-6.185
X13.721 Y-6.095
X13.594 Y-6.015
X13.46 Y-5.946
X13.319 Y-5.887
X13.169 Y-5.838
X13.013 Y-5.801
X12.851 Y-5.775
X12.684 Y-5.763
X12.514 Y-5.764
X12.341 Y-5.779
X12.169 Y-5.807
X11.997 Y-5.851
X11.827 Y-5.908
X11.661 Y-5.98
X11.5 Y-6.065
X11.345 Y-6.164
X11.197 Y-6.276
X11.059 Y-6.4
X10.93 Y-6.535
X10.811 Y-6.681
X10.704 Y-6.837
X10.61 Y-7.001
X10.529 Y-7.173
X10.462 Y-7.351
X10.409 Y-7.534
X10.372 Y-7.722
X10.349 Y-7.912
X10.341 Y-8.103
X10.349 Y-8.295
X10.373 Y-8.486
X10.411 Y-8.675
X10.465 Y-8.86
X10.534 Y-9.041
X10.616 Y-9.215
X10.713 Y-9.382
X10.823 Y-9.541
X10.945 Y-9.691
X11.079 Y-9.831
X11.224 Y-9.959
X11.378 Y-10.076
X11.542 Y-10.179
X11.713 Y-10.27
X11.891 Y-10.346
X12.075 Y-10.408
X12.263 Y-10.454
X12.454 Y-10.486
X12.647 Y-10.502
X12.841
X13.034 Y-10.487
X13.226 Y-10.457
X13.414 Y-10.411
X13.598 Y-10.35
X13.777 Y-10.275
X13.949 Y-10.186
X14.113 Y-10.083
X14.269 Y-9.967
X14.415 Y-9.839
X14.55 Y-9.7
X14.673 Y-9.55
X14.784 Y-9.391
X14.889 Y-9.212
X15.028 Y-8.923
X15.182 Y-8.524
X15.27 Y-8.227
X15.325 Y-7.965
X15.357 Y-7.721
X15.367 Y-7.493
X15.36 Y-7.276
X15.336 Y-7.067
X15.296 Y-6.861
X15.239 Y-6.66
X15.167 Y-6.465
X15.079 Y-6.276
X14.976 Y-6.094
X14.858 Y-5.92
X14.726 Y-5.755
X14.578 Y-5.599
X14.417 Y-5.453
X14.242 Y-5.319
X14.055 Y-5.198
X13.855 Y-5.091
X13.644 Y-4.998
X13.423 Y-4.922
X13.194 Y-4.863
X12.958 Y-4.822
X12.716 Y-4.8
X12.47 Y-4.797
X12.223 Y-4.814
X11.975 Y-4.852
X11.729 Y-4.909
X11.486 Y-4.987
X11.249 Y-5.085
X11.019 Y-5.202
X10.821 Y-5.324
X10.78 Y-5.354
X10.71 Y-5.407
X10.378 Y-5.662
X10.358 Y-5.68
X10.337 Y-5.701
X10.273 Y-5.782
X9.834 Y-6.354
X9.81 Y-6.391
X9.792 Y-6.427
X9.489 Y-7.156
X9.475 Y-7.193
X9.465 Y-7.229
X9.426 Y-7.521
X9.368 Y-7.958
X9.355 Y-8.104
X9.372 Y-8.25
X9.449 Y-8.833
X9.474 Y-8.979
X9.545 Y-9.157
X9.773 Y-9.708
X9.798 Y-9.768
X9.815 Y-9.798
X9.836 Y-9.827
X10.304 Y-10.437
X10.361 Y-10.502
X10.419 Y-10.548
X11.002 Y-10.995
X11.038 Y-11.021
X11.147 Y-11.073
X11.73 Y-11.314
X11.876 Y-11.37
X12.021 Y-11.392
X12.604 Y-11.469
X12.75 Y-11.486
X12.896 Y-11.469
X13.479 Y-11.392
X13.624 Y-11.37
X13.775 Y-11.312
X14.353 Y-11.073
X14.462 Y-11.021
X14.498 Y-10.995
X15.081 Y-10.548
X15.139 Y-10.502
X15.196 Y-10.437
X15.664 Y-9.827
X15.685 Y-9.798
X15.702 Y-9.768
X15.848 Y-9.417
X15.968 Y-9.125
X16.026 Y-8.979
X16.051 Y-8.833
X16.128 Y-8.25
X16.145 Y-8.104
X16.132 Y-7.958
X16.055 Y-7.375
X16.035 Y-7.229
X16.025 Y-7.193
X16.011 Y-7.156
X15.708 Y-6.427
X15.69 Y-6.391
X15.664 Y-6.352
X15.218 Y-5.771
X15.163 Y-5.701
X15.142 Y-5.68
X15.122 Y-5.662
X14.498 Y-5.184
X14.462 Y-5.158
X14.426 Y-5.137
X14.353 Y-5.106
X13.77 Y-4.865
X13.624 Y-4.808
X13.479 Y-4.787
X12.896 Y-4.71
X12.75 Y-4.694
X12.604 Y-4.71
X12.021 Y-4.787
X11.876 Y-4.808
X11.73 Y-4.865
X11.147 Y-5.106
X11.074 Y-5.137
X11.038 Y-5.158
X10.996 Y-5.188
X10.78 Y-5.354
G3 X10.718 Y-5.776 I0.202 J-0.245
G1 X10.759 Y-5.813 Z-2.995
X10.798 Y-5.848 Z-2.981
X10.835 Y-5.881 Z-2.958
X10.887 Y-5.893 Z-2.919
X10.93 Y-5.904 Z-2.869
X10.962 Y-5.912 Z-2.811
X10.982 Y-5.917 Z-2.748
X10.988 Y-5.916 Z-2.683
G0 Z5
X11.415 Y-7.387
Z-0.5
G3 X14.085 Y-8.792 Z-0.665 I1.335 J-0.702 F333.3
X11.415 Y-7.387 Z-0.831 I-1.335 J0.702
X14.085 Y-8.792 Z-0.996 I1.335 J-0.702
X11.415 Y-7.387 Z-1.162 I-1.335 J0.702
X14.085 Y-8.792 Z-1.327 I1.335 J-0.702
X11.415 Y-7.387 Z-1.493 I-1.335 J0.702
X14.085 Y-8.792 Z-1.658 I1.335 J-0.702
X11.415 Y-7.387 Z-1.824 I-1.335 J0.702
X14.085 Y-8.792 Z-1.989 I1.335 J-0.702
X11.415 Y-7.387 Z-2.155 I-1.335 J0.702
X14.085 Y-8.792 Z-2.32 I1.335 J-0.702
X11.415 Y-7.387 Z-2.485 I-1.335 J0.702
X14.085 Y-8.792 Z-2.651 I1.335 J-0.702
X11.415 Y-7.387 Z-2.816 I-1.335 J0.702
X14.085 Y-8.792 Z-2.982 I1.335 J-0.702
X11.415 Y-7.387 Z-3.147 I-1.335 J0.702
X14.085 Y-8.792 Z-3.313 I1.335 J-0.702
X11.415 Y-7.387 Z-3.478 I-1.335 J0.702
X14.085 Y-8.792 Z-3.644 I1.335 J-0.702
X11.415 Y-7.387 Z-3.809 I-1.335 J0.702
X14.085 Y-8.792 Z-3.974 I1.335 J-0.702
X14.258 Y-8.09 Z-4 I-1.335 J0.702
X11.242 Y-8.09 I-1.508 J0
X14.258 Y-8.09 I1.508 J0
G1 X14.275 Y-7.448 F1000
X14.304 Y-7.373
X14.338 Y-7.227
X14.342 Y-7.077
X14.32 Y-6.928
X14.278 Y-6.784
X14.217 Y-6.647
X14.142 Y-6.518
X14.052 Y-6.397
X13.951 Y-6.286
X13.84 Y-6.185
X13.721 Y-6.095
X13.594 Y-6.015
X13.46 Y-5.946
X13.319 Y-5.887
X13.169 Y-5.838
X13.013 Y-5.801
X12.851 Y-5.775
X12.684 Y-5.763
X12.514 Y-5.764
X12.341 Y-5.779
X12.169 Y-5.807
X11.997 Y-5.851
X11.827 Y-5.908
X11.661 Y-5.98
X11.5 Y-6.065
X11.345 Y-6.164
X11.197 Y-6.276
X11.059 Y-6.4
X10.93 Y-6.535
X10.811 Y-6.681
X10.704 Y-6.837
X10.61 Y-7.001
X10.529 Y-7.173
X10.462 Y-7.351
X10.409 Y-7.534
X10.372 Y-7.722
X10.349 Y-7.912
X10.341 Y-8.103
X10.349 Y-8.295
X10.373 Y-8.486
X10.411 Y-8.675
X10.465 Y-8.86
X10.534 Y-9.041
X10.616 Y-9.215
X10.713 Y-9.382
X10.823 Y-9.541
X10.945 Y-9.691
X11.079 Y-9.831
X11.224 Y-9.959
X11.378 Y-10.076
X11.542 Y-10.179
X11.713 Y-10.27
X11.891 Y-10.346
X12.075 Y-10.408
X12.263 Y-10.454
X12.454 Y-10.486
X12.647 Y-10.502
X12.841
X13.034 Y-10.487
X13.226 Y-10.457
X13.414 Y-10.411
X13.598 Y-10.35
X13.777 Y-10.275
X13.949 Y-10.186
X14.113 Y-10.083
X14.269 Y-9.967
X14.415 Y-9.839
X14.55 Y-9.7
X14.673 Y-9.55
X14.784 Y-9.391
X14.889 Y-9.212
X15.028 Y-8.923
X15.182 Y-8.524
X15.27 Y-8.227
X15.325 Y-7.965
X15.357 Y-7.721
X15.367 Y-7.493
X15.36 Y-7.276
X15.336 Y-7.067
X15.296 Y-6.861
X15.239 Y-6.66
X15.167 Y-6.465
X15.079 Y-6.276
X14.976 Y-6.094
X14.858 Y-5.92
X14.726 Y-5.755
X14.578 Y-5.599
X14.417 Y-5.453
X14.242 Y-5.319
X14.055 Y-5.198
X13.855 Y-5.091
X13.644 Y-4.998
X13.423 Y-4.922
X13.194 Y-4.863
X12.958 Y-4.822
X12.716 Y-4.8
X12.47 Y-4.797
X12.223 Y-4.814
X11.975 Y-4.852
X11.729 Y-4.909
X11.486 Y-4.987
X11.249 Y-5.085
X11.019 Y-5.202
X10.821 Y-5.324
X10.78 Y-5.354
X10.71 Y-5.407
X10.378 Y-5.662
X10.358 Y-5.68
X10.337 Y-5.701
X10.273 Y-5.782
X9.834 Y-6.354
X9.81 Y-6.391
X9.792 Y-6.427
X9.489 Y-7.156
X9.475 Y-7.193
X9.465 Y-7.229
X9.426 Y-7.521
X9.368 Y-7.958
X9.355 Y-8.104
X9.372 Y-8.25
X9.449 Y-8.833
X9.474 Y-8.979
X9.545 Y-9.157
X9.773 Y-9.708
X9.798 Y-9.768
X9.815 Y-9.798
X9.836 Y-9.827
X10.304 Y-10.437
X10.361 Y-10.502
X10.419 Y-10.548
X11.002 Y-10.995
X11.038 Y-11.021
X11.147 Y-11.073
X11.73 Y-11.314
X11.876 Y-11.37
X12.021 Y-11.392
X12.604 Y-11.469
X12.75 Y-11.486
X12.896 Y-11.469
X13.479 Y-11.392
X13.624 Y-11.37
X13.775 Y-11.312
X14.353 Y-11.073
X14.462 Y-11.021
X14.498 Y-10.995
X15.081 Y-10.548
X15.139 Y-10.502
X15.196 Y-10.437
X15.664 Y-9.827
X15.685 Y-9.798
X15.702 Y-9.768
X15.848 Y-9.417
X15.968 Y-9.125
X16.026 Y-8.979
X16.051 Y-8.833
X16.128 Y-8.25
X16.145 Y-8.104
X16.132 Y-7.958
X16.055 Y-7.375
X16.035 Y-7.229
X16.025 Y-7.193
X16.011 Y-7.156
X15.708 Y-6.427
X15.69 Y-6.391
X15.664 Y-6.352
X15.218 Y-5.771
X15.163 Y-5.701
X15.142 Y-5.68
X15.122 Y-5.662
X14.498 Y-5.184
X14.462 Y-5.158
X14.426 Y-5.137
X14.353 Y-5.106
X13.77 Y-4.865
X13.624 Y-4.808
X13.479 Y-4.787
X12.896 Y-4.71
X12.75 Y-4.694
X12.604 Y-4.71
X12.021 Y-4.787
X11.876 Y-4.808
X11.73 Y-4.865
X11.147 Y-5.106
X11.074 Y-5.137
X11.038 Y-5.158
X10.996 Y-5.188
X10.78 Y-5.354
G3 X10.718 Y-5.776 I0.202 J-0.245
G1 X10.759 Y-5.813 Z-3.995
X10.798 Y-5.848 Z-3.981
X10.835 Y-5.881 Z-3.958
X10.887 Y-5.893 Z-3.919
X10.93 Y-5.904 Z-3.869
X10.962 Y-5.912 Z-3.811
X10.982 Y-5.917 Z-3.748
X10.988 Y-5.916 Z-3.683
G0 Z5
X11.415 Y-7.387
Z-1.5
G3 X14.085 Y-8.792 Z-1.665 I1.335 J-0.702 F333.3
X11.415 Y-7.387 Z-1.831 I-1.335 J0.702
X14.085 Y-8.792 Z-1.996 I1.335 J-0.702
X11.415 Y-7.387 Z-2.162 I-1.335 J0.702
X14.085 Y-8.792 Z-2.327 I1.335 J-0.702
X11.415 Y-7.387 Z-2.493 I-1.335 J0.702
X14.085 Y-8.792 Z-2.658 I1.335 J-0.702
X11.415 Y-7.387 Z-2.824 I-1.335 J0.702
X14.085 Y-8.792 Z-2.989 I1.335 J-0.702
X11.415 Y-7.387 Z-3.155 I-1.335 J0.702
X14.085 Y-8.792 Z-3.32 I1.335 J-0.702
X11.415 Y-7.387 Z-3.485 I-1.335 J0.702
X14.085 Y-8.792 Z-3.651 I1.335 J-0.702
X11.415 Y-7.387 Z-3.816 I-1.335 J0.702
X14.085 Y-8.792 Z-3.982 I1.335 J-0.702
X11.415 Y-7.387 Z-4.147 I-1.335 J0.702
X14.085 Y-8.792 Z-4.313 I1.335 J-0.702
X11.415 Y-7.387 Z-4.478 I-1.335 J0.702
X14.085 Y-8.792 Z-4.644 I1.335 J-0.702
X11.415 Y-7.387 Z-4.809 I-1.335 J0.702
X14.085 Y-8.792 Z-4.974 I1.335 J-0.702
X14.258 Y-8.09 Z-5 I-1.335 J0.702
X11.242 Y-8.09 I-1.508 J0
X14.258 Y-8.09 I1.508 J0
G1 X14.275 Y-7.448 F1000
X14.304 Y-7.373
X14.338 Y-7.227
X14.342 Y-7.077
X14.32 Y-6.928
X14.278 Y-6.784
X14.217 Y-6.647
X14.142 Y-6.518
X14.052 Y-6.397
X13.951 Y-6.286
X13.84 Y-6.185
X13.721 Y-6.095
X13.594 Y-6.015
X13.46 Y-5.946
X13.319 Y-5.887
X13.169 Y-5.838
X13.013 Y-5.801
X12.851 Y-5.775
X12.684 Y-5.763
X12.514 Y-5.764
X12.341 Y-5.779
X12.169 Y-5.807
X11.997 Y-5.851
X11.827 Y-5.908
X11.661 Y-5.98
X11.5 Y-6.065
X11.345 Y-6.164
X11.197 Y-6.276
X11.059 Y-6.4
X10.93 Y-6.535
X10.811 Y-6.681
X10.704 Y-6.837
X10.61 Y-7.001
X10.529 Y-7.173
X10.462 Y-7.351
X10.409 Y-7.534
X10.372 Y-7.722
X10.349 Y-7.912
X10.341 Y-8.103
X10.349 Y-8.295
X10.373 Y-8.486
X10.411 Y-8.675
X10.465 Y-8.86
X10.534 Y-9.041
X10.616 Y-9.215
X10.713 Y-9.382
X10.823 Y-9.541
X10.945 Y-9.691
X11.079 Y-9.831
X11.224 Y-9.959
X11.378 Y-10.076
X11.542 Y-10.179
X11.713 Y-10.27
X11.891 Y-10.346
X12.075 Y-10.408
X12.263 Y-10.454
X12.454 Y-10.486
X12.647 Y-10.502
X12.841
X13.034 Y-10.487
X13.226 Y-10.457
X13.414 Y-10.411
X13.598 Y-10.35
X13.777 Y-10.275
X13.949 Y-10.186
X14.113 Y-10.083
X14.269 Y-9.967
X14.415 Y-9.839
X14.55 Y-9.7
X14.673 Y-9.55
X14.784 Y-9.391
X14.889 Y-9.212
X15.028 Y-8.923
X15.182 Y-8.524
X15.27 Y-8.227
X15.325 Y-7.965
X15.357 Y-7.721
X15.367 Y-7.493
X15.36 Y-7.276
X15.336 Y-7.067
X15.296 Y-6.861
X15.239 Y-6.66
X15.167 Y-6.465
X15.079 Y-6.276
X14.976 Y-6.094
X14.858 Y-5.92
X14.726 Y-5.755
X14.578 Y-5.599
X14.417 Y-5.453
X14.242 Y-5.319
X14.055 Y-5.198
X13.855 Y-5.091
X13.644 Y-4.998
X13.423 Y-4.922
X13.194 Y-4.863
X12.958 Y-4.822
X12.716 Y-4.8
X12.47 Y-4.797
X12.223 Y-4.814
X11.975 Y-4.852
X11.729 Y-4.909
X11.486 Y-4.987
X11.249 Y-5.085
X11.019 Y-5.202
X10.821 Y-5.324
X10.78 Y-5.354
X10.71 Y-5.407
X10.378 Y-5.662
X10.358 Y-5.68
X10.337 Y-5.701
X10.273 Y-5.782
X9.834 Y-6.354
X9.81 Y-6.391
X9.792 Y-6.427
X9.489 Y-7.156
X9.475 Y-7.193
X9.465 Y-7.229
X9.426 Y-7.521
X9.368 Y-7.958
X9.355 Y-8.104
X9.372 Y-8.25
X9.449 Y-8.833
X9.474 Y-8.979
X9.545 Y-9.157
X9.773 Y-9.708
X9.798 Y-9.768
X9.815 Y-9.798
X9.836 Y-9.827
X10.304 Y-10.437
X10.361 Y-10.502
X10.419 Y-10.548
X11.002 Y-10.995
X11.038 Y-11.021
X11.147 Y-11.073
X11.73 Y-11.314
X11.876 Y-11.37
X12.021 Y-11.392
X12.604 Y-11.469
X12.75 Y-11.486
X12.896 Y-11.469
X13.479 Y-11.392
X13.624 Y-11.37
X13.775 Y-11.312
X14.353 Y-11.073
X14.462 Y-11.021
X14.498 Y-10.995
X15.081 Y-10.548
X15.139 Y-10.502
X15.196 Y-10.437
X15.664 Y-9.827
X15.685 Y-9.798
X15.702 Y-9.768
X15.848 Y-9.417
X15.968 Y-9.125
X16.026 Y-8.979
X16.051 Y-8.833
X16.128 Y-8.25
X16.145 Y-8.104
X16.132 Y-7.958
X16.055 Y-7.375
X16.035 Y-7.229
X16.025 Y-7.193
X16.011 Y-7.156
X15.708 Y-6.427
X15.69 Y-6.391
X15.664 Y-6.352
X15.218 Y-5.771
X15.163 Y-5.701
X15.142 Y-5.68
X15.122 Y-5.662
X14.498 Y-5.184
X14.462 Y-5.158
X14.426 Y-5.137
X14.353 Y-5.106
X13.77 Y-4.865
X13.624 Y-4.808
X13.479 Y-4.787
X12.896 Y-4.71
X12.75 Y-4.694
X12.604 Y-4.71
X12.021 Y-4.787
X11.876 Y-4.808
X11.73 Y-4.865
X11.147 Y-5.106
X11.074 Y-5.137
X11.038 Y-5.158
X10.996 Y-5.188
X10.78 Y-5.354
G3 X10.718 Y-5.776 I0.202 J-0.245
G1 X10.759 Y-5.813 Z-4.995
X10.798 Y-5.848 Z-4.981
X10.835 Y-5.881 Z-4.958
X10.887 Y-5.893 Z-4.919
X10.93 Y-5.904 Z-4.869
X10.962 Y-5.912 Z-4.811
X10.982 Y-5.917 Z-4.748
X10.988 Y-5.916 Z-4.683
G0 Z5
X11.415 Y-7.387
Z-2.5
G3 X14.085 Y-8.792 Z-2.665 I1.335 J-0.702 F333.3
X11.415 Y-7.387 Z-2.831 I-1.335 J0.702
X14.085 Y-8.792 Z-2.996 I1.335 J-0.702
X11.415 Y-7.387 Z-3.162 I-1.335 J0.702
X14.085 Y-8.792 Z-3.327 I1.335 J-0.702
X11.415 Y-7.387 Z-3.493 I-1.335 J0.702
X14.085 Y-8.792 Z-3.658 I1.335 J-0.702
X11.415 Y-7.387 Z-3.824 I-1.335 J0.702
X14.085 Y-8.792 Z-3.989 I1.335 J-0.702
X11.415 Y-7.387 Z-4.155 I-1.335 J0.702
X14.085 Y-8.792 Z-4.32 I1.335 J-0.702
X11.415 Y-7.387 Z-4.485 I-1.335 J0.702
X14.085 Y-8.792 Z-4.651 I1.335 J-0.702
X11.415 Y-7.387 Z-4.816 I-1.335 J0.702
X14.085 Y-8.792 Z-4.982 I1.335 J-0.702
X11.415 Y-7.387 Z-5.147 I-1.335 J0.702
X14.085 Y-8.792 Z-5.313 I1.335 J-0.702
X11.415 Y-7.387 Z-5.478 I-1.335 J0.702
X14.085 Y-8.792 Z-5.644 I1.335 J-0.702
X11.415 Y-7.387 Z-5.809 I-1.335 J0.702
X14.085 Y-8.792 Z-5.974 I1.335 J-0.702
X14.258 Y-8.09 Z-6 I-1.335 J0.702
X11.242 Y-8.09 I-1.508 J0
X14.258 Y-8.09 I1.508 J0
G1 X14.275 Y-7.448 F1000
X14.304 Y-7.373
X14.338 Y-7.227
X14.342 Y-7.077
X14.32 Y-6.928
X14.278 Y-6.784
X14.217 Y-6.647
X14.142 Y-6.518
X14.052 Y-6.397
X13.951 Y-6.286
X13.84 Y-6.185
X13.721 Y-6.095
X13.594 Y-6.015
X13.46 Y-5.946
X13.319 Y-5.887
X13.169 Y-5.838
X13.013 Y-5.801
X12.851 Y-5.775
X12.684 Y-5.763
X12.514 Y-5.764
X12.341 Y-5.779
X12.169 Y-5.807
X11.997 Y-5.851
X11.827 Y-5.908
X11.661 Y-5.98
X11.5 Y-6.065
X11.345 Y-6.164
X11.197 Y-6.276
X11.059 Y-6.4
X10.93 Y-6.535
X10.811 Y-6.681
X10.704 Y-6.837
X10.61 Y-7.001
X10.529 Y-7.173
X10.462 Y-7.351
X10.409 Y-7.534
X10.372 Y-7.722
X10.349 Y-7.912
X10.341 Y-8.103
X10.349 Y-8.295
X10.373 Y-8.486
X10.411 Y-8.675
X10.465 Y-8.86
X10.534 Y-9.041
X10.616 Y-9.215
X10.713 Y-9.382
X10.823 Y-9.541
X10.945 Y-9.691
X11.079 Y-9.831
X11.224 Y-9.959
X11.378 Y-10.076
X11.542 Y-10.179
X11.713 Y-10.27
X11.891 Y-10.346
X12.075 Y-10.408
X12.263 Y-10.454
X12.454 Y-10.486
X12.647 Y-10.502
X12.841
X13.034 Y-10.487
X13.226 Y-10.457
X13.414 Y-10.411
X13.598 Y-10.35
X13.777 Y-10.275
X13.949 Y-10.186
X14.113 Y-10.083
X14.269 Y-9.967
X14.415 Y-9.839
X14.55 Y-9.7
X14.673 Y-9.55
X14.784 Y-9.391
X14.889 Y-9.212
X15.028 Y-8.923
X15.182 Y-8.524
X15.27 Y-8.227
X15.325 Y-7.965
X15.357 Y-7.721
X15.367 Y-7.493
X15.36 Y-7.276
X15.336 Y-7.067
X15.296 Y-6.861
X15.239 Y-6.66
X15.167 Y-6.465
X15.079 Y-6.276
X14.976 Y-6.094
X14.858 Y-5.92
X14.726 Y-5.755
X14.578 Y-5.599
X14.417 Y-5.453
X14.242 Y-5.319
X14.055 Y-5.198
X13.855 Y-5.091
X13.644 Y-4.998
X13.423 Y-4.922
X13.194 Y-4.863
X12.958 Y-4.822
X12.716 Y-4.8
X12.47 Y-4.797
X12.223 Y-4.814
X11.975 Y-4.852
X11.729 Y-4.909
X11.486 Y-4.987
X11.249 Y-5.085
X11.019 Y-5.202
X10.821 Y-5.324
X10.78 Y-5.354
X10.71 Y-5.407
X10.378 Y-5.662
X10.358 Y-5.68
X10.337 Y-5.701
X10.273 Y-5.782
X9.834 Y-6.354
X9.81 Y-6.391
X9.792 Y-6.427
X9.489 Y-7.156
X9.475 Y-7.193
X9.465 Y-7.229
X9.426 Y-7.521
X9.368 Y-7.958
X9.355 Y-8.104
X9.372 Y-8.25
X9.449 Y-8.833
X9.474 Y-8.979
X9.545 Y-9.157
X9.773 Y-9.708
X9.798 Y-9.768
X9.815 Y-9.798
X9.836 Y-9.827
X10.304 Y-10.437
X10.361 Y-10.502
X10.419 Y-10.548
X11.002 Y-10.995
X11.038 Y-11.021
X11.147 Y-11.073
X11.73 Y-11.314
X11.876 Y-11.37
X12.021 Y-11.392
X12.604 Y-11.469
X12.75 Y-11.486
X12.896 Y-11.469
X13.479 Y-11.392
X13.624 Y-11.37
X13.775 Y-11.312
X14.353 Y-11.073
X14.462 Y-11.021
X14.498 Y-10.995
X15.081 Y-10.548
X15.139 Y-10.502
X15.196 Y-10.437
X15.664 Y-9.827
X15.685 Y-9.798
X15.702 Y-9.768
X15.848 Y-9.417
X15.968 Y-9.125
X16.026 Y-8.979
X16.051 Y-8.833
X16.128 Y-8.25
X16.145 Y-8.104
X16.132 Y-7.958
X16.055 Y-7.375
X16.035 Y-7.229
X16.025 Y-7.193
X16.011 Y-7.156
X15.708 Y-6.427
X15.69 Y-6.391
X15.664 Y-6.352
X15.218 Y-5.771
X15.163 Y-5.701
X15.142 Y-5.68
X15.122 Y-5.662
X14.498 Y-5.184
X14.462 Y-5.158
X14.426 Y-5.137
X14.353 Y-5.106
X13.77 Y-4.865
X13.624 Y-4.808
X13.479 Y-4.787
X12.896 Y-4.71
X12.75 Y-4.694
X12.604 Y-4.71
X12.021 Y-4.787
X11.876 Y-4.808
X11.73 Y-4.865
X11.147 Y-5.106
X11.074 Y-5.137
X11.038 Y-5.158
X10.996 Y-5.188
X10.78 Y-5.354
G3 X10.718 Y-5.776 I0.202 J-0.245
G1 X10.759 Y-5.813 Z-5.995
X10.798 Y-5.848 Z-5.981
X10.835 Y-5.881 Z-5.958
X10.887 Y-5.893 Z-5.919
X10.93 Y-5.904 Z-5.869
X10.962 Y-5.912 Z-5.811
X10.982 Y-5.917 Z-5.748
X10.988 Y-5.916 Z-5.683
G0 Z5
X11.415 Y-7.387
Z-3.5
G3 X14.085 Y-8.792 Z-3.665 I1.335 J-0.702 F333.3
X11.415 Y-7.387 Z-3.831 I-1.335 J0.702
X14.085 Y-8.792 Z-3.996 I1.335 J-0.702
X11.415 Y-7.387 Z-4.162 I-1.335 J0.702
X14.085 Y-8.792 Z-4.327 I1.335 J-0.702
X11.415 Y-7.387 Z-4.493 I-1.335 J0.702
X14.085 Y-8.792 Z-4.658 I1.335 J-0.702
X11.415 Y-7.387 Z-4.824 I-1.335 J0.702
X14.085 Y-8.792 Z-4.989 I1.335 J-0.702
X11.415 Y-7.387 Z-5.155 I-1.335 J0.702
X14.085 Y-8.792 Z-5.32 I1.335 J-0.702
X11.415 Y-7.387 Z-5.485 I-1.335 J0.702
X14.085 Y-8.792 Z-5.651 I1.335 J-0.702
X11.415 Y-7.387 Z-5.816 I-1.335 J0.702
X14.085 Y-8.792 Z-5.982 I1.335 J-0.702
X11.415 Y-7.387 Z-6.147 I-1.335 J0.702
X14.085 Y-8.792 Z-6.313 I1.335 J-0.702
X11.415 Y-7.387 Z-6.478 I-1.335 J0.702
X14.085 Y-8.792 Z-6.644 I1.335 J-0.702
X11.415 Y-7.387 Z-6.809 I-1.335 J0.702
X14.085 Y-8.792 Z-6.974 I1.335 J-0.702
X14.258 Y-8.09 Z-7 I-1.335 J0.702
X11.242 Y-8.09 I-1.508 J0
X14.258 Y-8.09 I1.508 J0
G1 X14.275 Y-7.448 F1000
X14.304 Y-7.373
X14.338 Y-7.227
X14.342 Y-7.077
X14.32 Y-6.928
X14.278 Y-6.784
X14.217 Y-6.647
X14.142 Y-6.518
X14.052 Y-6.397
X13.951 Y-6.286
X13.84 Y-6.185
X13.721 Y-6.095
X13.594 Y-6.015
X13.46 Y-5.946
X13.319 Y-5.887
X13.169 Y-5.838
X13.013 Y-5.801
X12.851 Y-5.775
X12.684 Y-5.763
X12.514 Y-5.764
X12.341 Y-5.779
X12.169 Y-5.807
X11.997 Y-5.851
X11.827 Y-5.908
X11.661 Y-5.98
X11.5 Y-6.065
X11.345 Y-6.164
X11.197 Y-6.276
X11.059 Y-6.4
X10.93 Y-6.535
X10.811 Y-6.681
X10.704 Y-6.837
X10.61 Y-7.001
X10.529 Y-7.173
X10.462 Y-7.351
X10.409 Y-7.534
X10.372 Y-7.722
X10.349 Y-7.912
X10.341 Y-8.103
X10.349 Y-8.295
X10.373 Y-8.486
X10.411 Y-8.675
X10.465 Y-8.86
X10.534 Y-9.041
X10.616 Y-9.215
X10.713 Y-9.382
X10.823 Y-9.541
X10.945 Y-9.691
X11.079 Y-9.831
X11.224 Y-9.959
X11.378 Y-10.076
X11.542 Y-10.179
X11.713 Y-10.27
X11.891 Y-10.346
X12.075 Y-10.408
X12.263 Y-10.454
X12.454 Y-10.486
X12.647 Y-10.502
X12.841
X13.034 Y-10.487
X13.226 Y-10.457
X13.414 Y-10.411
X13.598 Y-10.35
X13.777 Y-10.275
X13.949 Y-10.186
X14.113 Y-10.083
X14.269 Y-9.967
X14.415 Y-9.839
X14.55 Y-9.7
X14.673 Y-9.55
X14.784 Y-9.391
X14.889 Y-9.212
X15.028 Y-8.923
X15.182 Y-8.524
X15.27 Y-8.227
X15.325 Y-7.965
X15.357 Y-7.721
X15.367 Y-7.493
X15.36 Y-7.276
X15.336 Y-7.067
X15.296 Y-6.861
X15.239 Y-6.66
X15.167 Y-6.465
X15.079 Y-6.276
X14.976 Y-6.094
X14.858 Y-5.92
X14.726 Y-5.755
X14.578 Y-5.599
X14.417 Y-5.453
X14.242 Y-5.319
X14.055 Y-5.198
X13.855 Y-5.091
X13.644 Y-4.998
X13.423 Y-4.922
X13.194 Y-4.863
X12.958 Y-4.822
X12.716 Y-4.8
X12.47 Y-4.797
X12.223 Y-4.814
X11.975 Y-4.852
X11.729 Y-4.909
X11.486 Y-4.987
X11.249 Y-5.085
X11.019 Y-5.202
X10.821 Y-5.324
X10.78 Y-5.354
X10.71 Y-5.407
X10.378 Y-5.662
X10.358 Y-5.68
X10.337 Y-5.701
X10.273 Y-5.782
X9.834 Y-6.354
X9.81 Y-6.391
X9.792 Y-6.427
X9.489 Y-7.156
X9.475 Y-7.193
X9.465 Y-7.229
X9.426 Y-7.521
X9.368 Y-7.958
X9.355 Y-8.104
X9.372 Y-8.25
X9.449 Y-8.833
X9.474 Y-8.979
X9.545 Y-9.157
X9.773 Y-9.708
X9.798 Y-9.768
X9.815 Y-9.798
X9.836 Y-9.827
X10.304 Y-10.437
X10.361 Y-10.502
X10.419 Y-10.548
X11.002 Y-10.995
X11.038 Y-11.021
X11.147 Y-11.073
X11.73 Y-11.314
X11.876 Y-11.37
X12.021 Y-11.392
X12.604 Y-11.469
X12.75 Y-11.486
X12.896 Y-11.469
X13.479 Y-11.392
X13.624 Y-11.37
X13.775 Y-11.312
X14.353 Y-11.073
X14.462 Y-11.021
X14.498 Y-10.995
X15.081 Y-10.548
X15.139 Y-10.502
X15.196 Y-10.437
X15.664 Y-9.827
X15.685 Y-9.798
X15.702 Y-9.768
X15.848 Y-9.417
X15.968 Y-9.125
X16.026 Y-8.979
X16.051 Y-8.833
X16.128 Y-8.25
X16.145 Y-8.104
X16.132 Y-7.958
X16.055 Y-7.375
X16.035 Y-7.229
X16.025 Y-7.193
X16.011 Y-7.156
X15.708 Y-6.427
X15.69 Y-6.391
X15.664 Y-6.352
X15.218 Y-5.771
X15.163 Y-5.701
X15.142 Y-5.68
X15.122 Y-5.662
X14.498 Y-5.184
X14.462 Y-5.158
X14.426 Y-5.137
X14.353 Y-5.106
X13.77 Y-4.865
X13.624 Y-4.808
X13.479 Y-4.787
X12.896 Y-4.71
X12.75 Y-4.694
X12.604 Y-4.71
X12.021 Y-4.787
X11.876 Y-4.808
X11.73 Y-4.865
X11.147 Y-5.106
X11.074 Y-5.137
X11.038 Y-5.158
X10.996 Y-5.188
X10.78 Y-5.354
G3 X10.718 Y-5.776 I0.202 J-0.245
G1 X10.759 Y-5.813 Z-6.995
X10.798 Y-5.848 Z-6.981
X10.835 Y-5.881 Z-6.958
X10.887 Y-5.893 Z-6.919
X10.93 Y-5.904 Z-6.869
X10.962 Y-5.912 Z-6.811
X10.982 Y-5.917 Z-6.748
X10.988 Y-5.916 Z-6.683
G0 Z5
X11.415 Y-7.387
Z-4.5
G3 X14.085 Y-8.792 Z-4.665 I1.335 J-0.702 F333.3
X11.415 Y-7.387 Z-4.831 I-1.335 J0.702
X14.085 Y-8.792 Z-4.996 I1.335 J-0.702
X11.415 Y-7.387 Z-5.162 I-1.335 J0.702
X14.085 Y-8.792 Z-5.327 I1.335 J-0.702
X11.415 Y-7.387 Z-5.493 I-1.335 J0.702
X14.085 Y-8.792 Z-5.658 I1.335 J-0.702
X11.415 Y-7.387 Z-5.824 I-1.335 J0.702
X14.085 Y-8.792 Z-5.989 I1.335 J-0.702
X11.415 Y-7.387 Z-6.155 I-1.335 J0.702
X14.085 Y-8.792 Z-6.32 I1.335 J-0.702
X11.415 Y-7.387 Z-6.485 I-1.335 J0.702
X14.085 Y-8.792 Z-6.651 I1.335 J-0.702
X11.415 Y-7.387 Z-6.816 I-1.335 J0.702
X14.085 Y-8.792 Z-6.982 I1.335 J-0.702
X11.415 Y-7.387 Z-7.147 I-1.335 J0.702
X14.085 Y-8.792 Z-7.313 I1.335 J-0.702
X11.415 Y-7.387 Z-7.478 I-1.335 J0.702
X14.085 Y-8.792 Z-7.644 I1.335 J-0.702
X11.415 Y-7.387 Z-7.809 I-1.335 J0.702
X14.085 Y-8.792 Z-7.974 I1.335 J-0.702
X14.258 Y-8.09 Z-8 I-1.335 J0.702
X11.242 Y-8.09 I-1.508 J0
X14.258 Y-8.09 I1.508 J0
G1 X14.275 Y-7.448 F1000
X14.304 Y-7.373
X14.338 Y-7.227
X14.342 Y-7.077
X14.32 Y-6.928
X14.278 Y-6.784
X14.217 Y-6.647
X14.142 Y-6.518
X14.052 Y-6.397
X13.951 Y-6.286
X13.84 Y-6.185
X13.721 Y-6.095
X13.594 Y-6.015
X13.46 Y-5.946
X13.319 Y-5.887
X13.169 Y-5.838
X13.013 Y-5.801
X12.851 Y-5.775
X12.684 Y-5.763
X12.514 Y-5.764
X12.341 Y-5.779
X12.169 Y-5.807
X11.997 Y-5.851
X11.827 Y-5.908
X11.661 Y-5.98
X11.5 Y-6.065
X11.345 Y-6.164
X11.197 Y-6.276
X11.059 Y-6.4
X10.93 Y-6.535
X10.811 Y-6.681
X10.704 Y-6.837
X10.61 Y-7.001
X10.529 Y-7.173
X10.462 Y-7.351
X10.409 Y-7.534
X10.372 Y-7.722
X10.349 Y-7.912
X10.341 Y-8.103
X10.349 Y-8.295
X10.373 Y-8.486
X10.411 Y-8.675
X10.465 Y-8.86
X10.534 Y-9.041
X10.616 Y-9.215
X10.713 Y-9.382
X10.823 Y-9.541
X10.945 Y-9.691
X11.079 Y-9.831
X11.224 Y-9.959
X11.378 Y-10.076
X11.542 Y-10.179
X11.713 Y-10.27
X11.891 Y-10.346
X12.075 Y-10.408
X12.263 Y-10.454
X12.454 Y-10.486
X12.647 Y-10.502
X12.841
X13.034 Y-10.487
X13.226 Y-10.457
X13.414 Y-10.411
X13.598 Y-10.35
X13.777 Y-10.275
X13.949 Y-10.186
X14.113 Y-10.083
X14.269 Y-9.967
X14.415 Y-9.839
X14.55 Y-9.7
X14.673 Y-9.55
X14.784 Y-9.391
X14.889 Y-9.212
X15.028 Y-8.923
X15.182 Y-8.524
X15.27 Y-8.227
X15.325 Y-7.965
X15.357 Y-7.721
X15.367 Y-7.493
X15.36 Y-7.276
X15.336 Y-7.067
X15.296 Y-6.861
X15.239 Y-6.66
X15.167 Y-6.465
X15.079 Y-6.276
X14.976 Y-6.094
X14.858 Y-5.92
X14.726 Y-5.755
X14.578 Y-5.599
X14.417 Y-5.453
X14.242 Y-5.319
X14.055 Y-5.198
X13.855 Y-5.091
X13.644 Y-4.998
X13.423 Y-4.922
X13.194 Y-4.863
X12.958 Y-4.822
X12.716 Y-4.8
X12.47 Y-4.797
X12.223 Y-4.814
X11.975 Y-4.852
X11.729 Y-4.909
X11.486 Y-4.987
X11.249 Y-5.085
X11.019 Y-5.202
X10.821 Y-5.324
X10.78 Y-5.354
X10.71 Y-5.407
X10.378 Y-5.662
X10.358 Y-5.68
X10.337 Y-5.701
X10.273 Y-5.782
X9.834 Y-6.354
X9.81 Y-6.391
X9.792 Y-6.427
X9.489 Y-7.156
X9.475 Y-7.193
X9.465 Y-7.229
X9.426 Y-7.521
X9.368 Y-7.958
X9.355 Y-8.104
X9.372 Y-8.25
X9.449 Y-8.833
X9.474 Y-8.979
X9.545 Y-9.157
X9.773 Y-9.708
X9.798 Y-9.768
X9.815 Y-9.798
X9.836 Y-9.827
X10.304 Y-10.437
X10.361 Y-10.502
X10.419 Y-10.548
X11.002 Y-10.995
X11.038 Y-11.021
X11.147 Y-11.073
X11.73 Y-11.314
X11.876 Y-11.37
X12.021 Y-11.392
X12.604 Y-11.469
X12.75 Y-11.486
X12.896 Y-11.469
X13.479 Y-11.392
X13.624 Y-11.37
X13.775 Y-11.312
X14.353 Y-11.073
X14.462 Y-11.021
X14.498 Y-10.995
X15.081 Y-10.548
X15.139 Y-10.502
X15.196 Y-10.437
X15.664 Y-9.827
X15.685 Y-9.798
X15.702 Y-9.768
X15.848 Y-9.417
X15.968 Y-9.125
X16.026 Y-8.979
X16.051 Y-8.833
X16.128 Y-8.25
X16.145 Y-8.104
X16.132 Y-7.958
X16.055 Y-7.375
X16.035 Y-7.229
X16.025 Y-7.193
X16.011 Y-7.156
X15.708 Y-6.427
X15.69 Y-6.391
X15.664 Y-6.352
X15.218 Y-5.771
X15.163 Y-5.701
X15.142 Y-5.68
X15.122 Y-5.662
X14.498 Y-5.184
X14.462 Y-5.158
X14.426 Y-5.137
X14.353 Y-5.106
X13.77 Y-4.865
X13.624 Y-4.808
X13.479 Y-4.787
X12.896 Y-4.71
X12.75 Y-4.694
X12.604 Y-4.71
X12.021 Y-4.787
X11.876 Y-4.808
X11.73 Y-4.865
X11.147 Y-5.106
X11.074 Y-5.137
X11.038 Y-5.158
X10.996 Y-5.188
X10.78 Y-5.354
G3 X10.718 Y-5.776 I0.202 J-0.245
G1 X10.759 Y-5.813 Z-7.995
X10.798 Y-5.848 Z-7.981
X10.835 Y-5.881 Z-7.958
X10.887 Y-5.893 Z-7.919
X10.93 Y-5.904 Z-7.869
X10.962 Y-5.912 Z-7.811
X10.982 Y-5.917 Z-7.748
X10.988 Y-5.916 Z-7.683
G0 Z5
X11.415 Y-7.387
Z-5.5
G3 X14.085 Y-8.792 Z-5.665 I1.335 J-0.702 F333.3
X11.415 Y-7.387 Z-5.831 I-1.335 J0.702
X14.085 Y-8.792 Z-5.996 I1.335 J-0.702
X11.415 Y-7.387 Z-6.162 I-1.335 J0.702
X14.085 Y-8.792 Z-6.327 I1.335 J-0.702
X11.415 Y-7.387 Z-6.493 I-1.335 J0.702
X14.085 Y-8.792 Z-6.658 I1.335 J-0.702
X11.415 Y-7.387 Z-6.824 I-1.335 J0.702
X14.085 Y-8.792 Z-6.989 I1.335 J-0.702
X11.415 Y-7.387 Z-7.155 I-1.335 J0.702
X14.085 Y-8.792 Z-7.32 I1.335 J-0.702
X11.415 Y-7.387 Z-7.485 I-1.335 J0.702
X14.085 Y-8.792 Z-7.651 I1.335 J-0.702
X11.415 Y-7.387 Z-7.816 I-1.335 J0.702
X14.085 Y-8.792 Z-7.982 I1.335 J-0.702
X11.415 Y-7.387 Z-8.147 I-1.335 J0.702
X14.085 Y-8.792 Z-8.313 I1.335 J-0.702
X11.415 Y-7.387 Z-8.478 I-1.335 J0.702
X14.085 Y-8.792 Z-8.644 I1.335 J-0.702
X11.415 Y-7.387 Z-8.809 I-1.335 J0.702
X14.085 Y-8.792 Z-8.974 I1.335 J-0.702
X14.258 Y-8.09 Z-9 I-1.335 J0.702
X11.242 Y-8.09 I-1.508 J0
X14.258 Y-8.09 I1.508 J0
G1 X14.275 Y-7.448 F1000
X14.304 Y-7.373
X14.338 Y-7.227
X14.342 Y-7.077
X14.32 Y-6.928
X14.278 Y-6.784
X14.217 Y-6.647
X14.142 Y-6.518
X14.052 Y-6.397
X13.951 Y-6.286
X13.84 Y-6.185
X13.721 Y-6.095
X13.594 Y-6.015
X13.46 Y-5.946
X13.319 Y-5.887
X13.169 Y-5.838
X13.013 Y-5.801
X12.851 Y-5.775
X12.684 Y-5.763
X12.514 Y-5.764
X12.341 Y-5.779
X12.169 Y-5.807
X11.997 Y-5.851
X11.827 Y-5.908
X11.661 Y-5.98
X11.5 Y-6.065
X11.345 Y-6.164
X11.197 Y-6.276
X11.059 Y-6.4
X10.93 Y-6.535
X10.811 Y-6.681
X10.704 Y-6.837
X10.61 Y-7.001
X10.529 Y-7.173
X10.462 Y-7.351
X10.409 Y-7.534
X10.372 Y-7.722
X10.349 Y-7.912
X10.341 Y-8.103
X10.349 Y-8.295
X10.373 Y-8.486
X10.411 Y-8.675
X10.465 Y-8.86
X10.534 Y-9.041
X10.616 Y-9.215
X10.713 Y-9.382
X10.823 Y-9.541
X10.945 Y-9.691
X11.079 Y-9.831
X11.224 Y-9.959
X11.378 Y-10.076
X11.542 Y-10.179
X11.713 Y-10.27
X11.891 Y-10.346
X12.075 Y-10.408
X12.263 Y-10.454
X12.454 Y-10.486
X12.647 Y-10.502
X12.841
X13.034 Y-10.487
X13.226 Y-10.457
X13.414 Y-10.411
X13.598 Y-10.35
X13.777 Y-10.275
X13.949 Y-10.186
X14.113 Y-10.083
X14.269 Y-9.967
X14.415 Y-9.839
X14.55 Y-9.7
X14.673 Y-9.55
X14.784 Y-9.391
X14.889 Y-9.212
X15.028 Y-8.923
X15.182 Y-8.524
X15.27 Y-8.227
X15.325 Y-7.965
X15.357 Y-7.721
X15.367 Y-7.493
X15.36 Y-7.276
X15.336 Y-7.067
X15.296 Y-6.861
X15.239 Y-6.66
X15.167 Y-6.465
X15.079 Y-6.276
X14.976 Y-6.094
X14.858 Y-5.92
X14.726 Y-5.755
X14.578 Y-5.599
X14.417 Y-5.453
X14.242 Y-5.319
X14.055 Y-5.198
X13.855 Y-5.091
X13.644 Y-4.998
X13.423 Y-4.922
X13.194 Y-4.863
X12.958 Y-4.822
X12.716 Y-4.8
X12.47 Y-4.797
X12.223 Y-4.814
X11.975 Y-4.852
X11.729 Y-4.909
X11.486 Y-4.987
X11.249 Y-5.085
X11.019 Y-5.202
X10.821 Y-5.324
X10.78 Y-5.354
X10.71 Y-5.407
X10.378 Y-5.662
X10.358 Y-5.68
X10.337 Y-5.701
X10.273 Y-5.782
X9.834 Y-6.354
X9.81 Y-6.391
X9.792 Y-6.427
X9.489 Y-7.156
X9.475 Y-7.193
X9.465 Y-7.229
X9.426 Y-7.521
X9.368 Y-7.958
X9.355 Y-8.104
X9.372 Y-8.25
X9.449 Y-8.833
X9.474 Y-8.979
X9.545 Y-9.157
X9.773 Y-9.708
X9.798 Y-9.768
X9.815 Y-9.798
X9.836 Y-9.827
X10.304 Y-10.437
X10.361 Y-10.502
X10.419 Y-10.548
X11.002 Y-10.995
X11.038 Y-11.021
X11.147 Y-11.073
X11.73 Y-11.314
X11.876 Y-11.37
X12.021 Y-11.392
X12.604 Y-11.469
X12.75 Y-11.486
X12.896 Y-11.469
X13.479 Y-11.392
X13.624 Y-11.37
X13.775 Y-11.312
X14.353 Y-11.073
X14.462 Y-11.021
X14.498 Y-10.995
X15.081 Y-10.548
X15.139 Y-10.502
X15.196 Y-10.437
X15.664 Y-9.827
X15.685 Y-9.798
X15.702 Y-9.768
X15.848 Y-9.417
X15.968 Y-9.125
X16.026 Y-8.979
X16.051 Y-8.833
X16.128 Y-8.25
X16.145 Y-8.104
X16.132 Y-7.958
X16.055 Y-7.375
X16.035 Y-7.229
X16.025 Y-7.193
X16.011 Y-7.156
X15.708 Y-6.427
X15.69 Y-6.391
X15.664 Y-6.352
X15.218 Y-5.771
X15.163 Y-5.701
X15.142 Y-5.68
X15.122 Y-5.662
X14.498 Y-5.184
X14.462 Y-5.158
X14.426 Y-5.137
X14.353 Y-5.106
X13.77 Y-4.865
X13.624 Y-4.808
X13.479 Y-4.787
X12.896 Y-4.71
X12.75 Y-4.694
X12.604 Y-4.71
X12.021 Y-4.787
X11.876 Y-4.808
X11.73 Y-4.865
X11.147 Y-5.106
X11.074 Y-5.137
X11.038 Y-5.158
X10.996 Y-5.188
X10.78 Y-5.354
G3 X10.718 Y-5.776 I0.202 J-0.245
G1 X10.759 Y-5.813 Z-8.995
X10.798 Y-5.848 Z-8.981
X10.835 Y-5.881 Z-8.958
X10.887 Y-5.893 Z-8.919
X10.93 Y-5.904 Z-8.869
X10.962 Y-5.912 Z-8.811
X10.982 Y-5.917 Z-8.748
X10.988 Y-5.916 Z-8.683
G0 Z5
X11.415 Y-7.387
Z-6.5
G3 X14.085 Y-8.792 Z-6.665 I1.335 J-0.702 F333.3
X11.415 Y-7.387 Z-6.831 I-1.335 J0.702
X14.085 Y-8.792 Z-6.996 I1.335 J-0.702
X11.415 Y-7.387 Z-7.162 I-1.335 J0.702
X14.085 Y-8.792 Z-7.327 I1.335 J-0.702
X11.415 Y-7.387 Z-7.493 I-1.335 J0.702
X14.085 Y-8.792 Z-7.658 I1.335 J-0.702
X11.415 Y-7.387 Z-7.824 I-1.335 J0.702
X14.085 Y-8.792 Z-7.989 I1.335 J-0.702
X11.415 Y-7.387 Z-8.155 I-1.335 J0.702
X14.085 Y-8.792 Z-8.32 I1.335 J-0.702
X11.415 Y-7.387 Z-8.485 I-1.335 J0.702
X14.085 Y-8.792 Z-8.651 I1.335 J-0.702
X11.415 Y-7.387 Z-8.816 I-1.335 J0.702
X14.085 Y-8.792 Z-8.982 I1.335 J-0.702
X11.415 Y-7.387 Z-9.147 I-1.335 J0.702
X14.085 Y-8.792 Z-9.313 I1.335 J-0.702
X11.415 Y-7.387 Z-9.478 I-1.335 J0.702
X14.085 Y-8.792 Z-9.644 I1.335 J-0.702
X11.415 Y-7.387 Z-9.809 I-1.335 J0.702
X14.085 Y-8.792 Z-9.974 I1.335 J-0.702
X14.258 Y-8.09 Z-10 I-1.335 J0.702
X11.242 Y-8.09 I-1.508 J0
X14.258 Y-8.09 I1.508 J0
G1 X14.275 Y-7.448 F1000
X14.304 Y-7.373
X14.338 Y-7.227
X14.342 Y-7.077
X14.32 Y-6.928
X14.278 Y-6.784
X14.217 Y-6.647
X14.142 Y-6.518
X14.052 Y-6.397
X13.951 Y-6.286
X13.84 Y-6.185
X13.721 Y-6.095
X13.594 Y-6.015
X13.46 Y-5.946
X13.319 Y-5.887
X13.169 Y-5.838
X13.013 Y-5.801
X12.851 Y-5.775
X12.684 Y-5.763
X12.514 Y-5.764
X12.341 Y-5.779
X12.169 Y-5.807
X11.997 Y-5.851
X11.827 Y-5.908
X11.661 Y-5.98
X11.5 Y-6.065
X11.345 Y-6.164
X11.197 Y-6.276
X11.059 Y-6.4
X10.93 Y-6.535
X10.811 Y-6.681
X10.704 Y-6.837
X10.61 Y-7.001
X10.529 Y-7.173
X10.462 Y-7.351
X10.409 Y-7.534
X10.372 Y-7.722
X10.349 Y-7.912
X10.341 Y-8.103
X10.349 Y-8.295
X10.373 Y-8.486
X10.411 Y-8.675
X10.465 Y-8.86
X10.534 Y-9.041
X10.616 Y-9.215
X10.713 Y-9.382
X10.823 Y-9.541
X10.945 Y-9.691
X11.079 Y-9.831
X11.224 Y-9.959
X11.378 Y-10.076
X11.542 Y-10.179
X11.713 Y-10.27
X11.891 Y-10.346
X12.075 Y-10.408
X12.263 Y-10.454
X12.454 Y-10.486
X12.647 Y-10.502
X12.841
X13.034 Y-10.487
X13.226 Y-10.457
X13.414 Y-10.411
X13.598 Y-10.35
X13.777 Y-10.275
X13.949 Y-10.186
X14.113 Y-10.083
X14.269 Y-9.967
X14.415 Y-9.839
X14.55 Y-9.7
X14.673 Y-9.55
X14.784 Y-9.391
X14.889 Y-9.212
X15.028 Y-8.923
X15.182 Y-8.524
X15.27 Y-8.227
X15.325 Y-7.965
X15.357 Y-7.721
X15.367 Y-7.493
X15.36 Y-7.276
X15.336 Y-7.067
X15.296 Y-6.861
X15.239 Y-6.66
X15.167 Y-6.465
X15.079 Y-6.276
X14.976 Y-6.094
X14.858 Y-5.92
X14.726 Y-5.755
X14.578 Y-5.599
X14.417 Y-5.453
X14.242 Y-5.319
X14.055 Y-5.198
X13.855 Y-5.091
X13.644 Y-4.998
X13.423 Y-4.922
X13.194 Y-4.863
X12.958 Y-4.822
X12.716 Y-4.8
X12.47 Y-4.797
X12.223 Y-4.814
X11.975 Y-4.852
X11.729 Y-4.909
X11.486 Y-4.987
X11.249 Y-5.085
X11.019 Y-5.202
X10.821 Y-5.324
X10.78 Y-5.354
X10.71 Y-5.407
X10.378 Y-5.662
X10.358 Y-5.68
X10.337 Y-5.701
X10.273 Y-5.782
X9.834 Y-6.354
X9.81 Y-6.391
X9.792 Y-6.427
X9.489 Y-7.156
X9.475 Y-7.193
X9.465 Y-7.229
X9.426 Y-7.521
X9.368 Y-7.958
X9.355 Y-8.104
X9.372 Y-8.25
X9.449 Y-8.833
X9.474 Y-8.979
X9.545 Y-9.157
X9.773 Y-9.708
X9.798 Y-9.768
X9.815 Y-9.798
X9.836 Y-9.827
X10.304 Y-10.437
X10.361 Y-10.502
X10.419 Y-10.548
X11.002 Y-10.995
X11.038 Y-11.021
X11.147 Y-11.073
X11.73 Y-11.314
X11.876 Y-11.37
X12.021 Y-11.392
X12.604 Y-11.469
X12.75 Y-11.486
X12.896 Y-11.469
X13.479 Y-11.392
X13.624 Y-11.37
X13.775 Y-11.312
X14.353 Y-11.073
X14.462 Y-11.021
X14.498 Y-10.995
X15.081 Y-10.548
X15.139 Y-10.502
X15.196 Y-10.437
X15.664 Y-9.827
X15.685 Y-9.798
X15.702 Y-9.768
X15.848 Y-9.417
X15.968 Y-9.125
X16.026 Y-8.979
X16.051 Y-8.833
X16.128 Y-8.25
X16.145 Y-8.104
X16.132 Y-7.958
X16.055 Y-7.375
X16.035 Y-7.229
X16.025 Y-7.193
X16.011 Y-7.156
X15.708 Y-6.427
X15.69 Y-6.391
X15.664 Y-6.352
X15.218 Y-5.771
X15.163 Y-5.701
X15.142 Y-5.68
X15.122 Y-5.662
X14.498 Y-5.184
X14.462 Y-5.158
X14.426 Y-5.137
X14.353 Y-5.106
X13.77 Y-4.865
X13.624 Y-4.808
X13.479 Y-4.787
X12.896 Y-4.71
X12.75 Y-4.694
X12.604 Y-4.71
X12.021 Y-4.787
X11.876 Y-4.808
X11.73 Y-4.865
X11.147 Y-5.106
X11.074 Y-5.137
X11.038 Y-5.158
X10.996 Y-5.188
X10.78 Y-5.354
G3 X10.718 Y-5.776 I0.202 J-0.245
G1 X10.759 Y-5.813 Z-9.995
X10.798 Y-5.848 Z-9.981
X10.835 Y-5.881 Z-9.958
X10.887 Y-5.893 Z-9.919
X10.93 Y-5.904 Z-9.869
X10.962 Y-5.912 Z-9.811
X10.982 Y-5.917 Z-9.748
X10.988 Y-5.916 Z-9.683
G0 Z5
X11.415 Y-7.387
Z-7.5
G3 X14.085 Y-8.792 Z-7.665 I1.335 J-0.702 F333.3
X11.415 Y-7.387 Z-7.831 I-1.335 J0.702
X14.085 Y-8.792 Z-7.996 I1.335 J-0.702
X11.415 Y-7.387 Z-8.162 I-1.335 J0.702
X14.085 Y-8.792 Z-8.327 I1.335 J-0.702
X11.415 Y-7.387 Z-8.493 I-1.335 J0.702
X14.085 Y-8.792 Z-8.658 I1.335 J-0.702
X11.415 Y-7.387 Z-8.824 I-1.335 J0.702
X14.085 Y-8.792 Z-8.989 I1.335 J-0.702
X11.415 Y-7.387 Z-9.155 I-1.335 J0.702
X14.085 Y-8.792 Z-9.32 I1.335 J-0.702
X11.415 Y-7.387 Z-9.485 I-1.335 J0.702
X14.085 Y-8.792 Z-9.651 I1.335 J-0.702
X11.415 Y-7.387 Z-9.816 I-1.335 J0.702
X14.085 Y-8.792 Z-9.982 I1.335 J-0.702
X11.415 Y-7.387 Z-10.147 I-1.335 J0.702
X14.085 Y-8.792 Z-10.313 I1.335 J-0.702
X11.415 Y-7.387 Z-10.478 I-1.335 J0.702
X14.085 Y-8.792 Z-10.644 I1.335 J-0.702
X11.415 Y-7.387 Z-10.809 I-1.335 J0.702
X14.085 Y-8.792 Z-10.974 I1.335 J-0.702
X14.258 Y-8.09 Z-11 I-1.335 J0.702
X11.242 Y-8.09 I-1.508 J0
X14.258 Y-8.09 I1.508 J0
G1 X14.275 Y-7.448 F1000
X14.304 Y-7.373
X14.338 Y-7.227
X14.342 Y-7.077
X14.32 Y-6.928
X14.278 Y-6.784
X14.217 Y-6.647
X14.142 Y-6.518
X14.052 Y-6.397
X13.951 Y-6.286
X13.84 Y-6.185
X13.721 Y-6.095
X13.594 Y-6.015
X13.46 Y-5.946
X13.319 Y-5.887
X13.169 Y-5.838
X13.013 Y-5.801
X12.851 Y-5.775
X12.684 Y-5.763
X12.514 Y-5.764
X12.341 Y-5.779
X12.169 Y-5.807
X11.997 Y-5.851
X11.827 Y-5.908
X11.661 Y-5.98
X11.5 Y-6.065
X11.345 Y-6.164
X11.197 Y-6.276
X11.059 Y-6.4
X10.93 Y-6.535
X10.811 Y-6.681
X10.704 Y-6.837
X10.61 Y-7.001
X10.529 Y-7.173
X10.462 Y-7.351
X10.409 Y-7.534
X10.372 Y-7.722
X10.349 Y-7.912
X10.341 Y-8.103
X10.349 Y-8.295
X10.373 Y-8.486
X10.411 Y-8.675
X10.465 Y-8.86
X10.534 Y-9.041
X10.616 Y-9.215
X10.713 Y-9.382
X10.823 Y-9.541
X10.945 Y-9.691
X11.079 Y-9.831
X11.224 Y-9.959
X11.378 Y-10.076
X11.542 Y-10.179
X11.713 Y-10.27
X11.891 Y-10.346
X12.075 Y-10.408
X12.263 Y-10.454
X12.454 Y-10.486
X12.647 Y-10.502
X12.841
X13.034 Y-10.487
X13.226 Y-10.457
X13.414 Y-10.411
X13.598 Y-10.35
X13.777 Y-10.275
X13.949 Y-10.186
X14.113 Y-10.083
X14.269 Y-9.967
X14.415 Y-9.839
X14.55 Y-9.7
X14.673 Y-9.55
X14.784 Y-9.391
X14.889 Y-9.212
X15.028 Y-8.923
X15.182 Y-8.524
X15.27 Y-8.227
X15.325 Y-7.965
X15.357 Y-7.721
X15.367 Y-7.493
X15.36 Y-7.276
X15.336 Y-7.067
X15.296 Y-6.861
X15.239 Y-6.66
X15.167 Y-6.465
X15.079 Y-6.276
X14.976 Y-6.094
X14.858 Y-5.92
X14.726 Y-5.755
X14.578 Y-5.599
X14.417 Y-5.453
X14.242 Y-5.319
X14.055 Y-5.198
X13.855 Y-5.091
X13.644 Y-4.998
X13.423 Y-4.922
X13.194 Y-4.863
X12.958 Y-4.822
X12.716 Y-4.8
X12.47 Y-4.797
X12.223 Y-4.814
X11.975 Y-4.852
X11.729 Y-4.909
X11.486 Y-4.987
X11.249 Y-5.085
X11.019 Y-5.202
X10.821 Y-5.324
X10.78 Y-5.354
X10.71 Y-5.407
X10.378 Y-5.662
X10.358 Y-5.68
X10.337 Y-5.701
X10.273 Y-5.782
X9.834 Y-6.354
X9.81 Y-6.391
X9.792 Y-6.427
X9.489 Y-7.156
X9.475 Y-7.193
X9.465 Y-7.229
X9.426 Y-7.521
X9.368 Y-7.958
X9.355 Y-8.104
X9.372 Y-8.25
X9.449 Y-8.833
X9.474 Y-8.979
X9.545 Y-9.157
X9.773 Y-9.708
X9.798 Y-9.768
X9.815 Y-9.798
X9.836 Y-9.827
X10.304 Y-10.437
X10.361 Y-10.502
X10.419 Y-10.548
X11.002 Y-10.995
X11.038 Y-11.021
X11.147 Y-11.073
X11.73 Y-11.314
X11.876 Y-11.37
X12.021 Y-11.392
X12.604 Y-11.469
X12.75 Y-11.486
X12.896 Y-11.469
X13.479 Y-11.392
X13.624 Y-11.37
X13.775 Y-11.312
X14.353 Y-11.073
X14.462 Y-11.021
X14.498 Y-10.995
X15.081 Y-10.548
X15.139 Y-10.502
X15.196 Y-10.437
X15.664 Y-9.827
X15.685 Y-9.798
X15.702 Y-9.768
X15.848 Y-9.417
X15.968 Y-9.125
X16.026 Y-8.979
X16.051 Y-8.833
X16.128 Y-8.25
X16.145 Y-8.104
X16.132 Y-7.958
X16.055 Y-7.375
X16.035 Y-7.229
X16.025 Y-7.193
X16.011 Y-7.156
X15.708 Y-6.427
X15.69 Y-6.391
X15.664 Y-6.352
X15.218 Y-5.771
X15.163 Y-5.701
X15.142 Y-5.68
X15.122 Y-5.662
X14.498 Y-5.184
X14.462 Y-5.158
X14.426 Y-5.137
X14.353 Y-5.106
X13.77 Y-4.865
X13.624 Y-4.808
X13.479 Y-4.787
X12.896 Y-4.71
X12.75 Y-4.694
X12.604 Y-4.71
X12.021 Y-4.787
X11.876 Y-4.808
X11.73 Y-4.865
X11.147 Y-5.106
X11.074 Y-5.137
X11.038 Y-5.158
X10.996 Y-5.188
X10.78 Y-5.354
G3 X10.718 Y-5.776 I0.202 J-0.245
G1 X10.759 Y-5.813 Z-10.995
X10.798 Y-5.848 Z-10.981
X10.835 Y-5.881 Z-10.958
X10.887 Y-5.893 Z-10.919
X10.93 Y-5.904 Z-10.869
X10.962 Y-5.912 Z-10.811
X10.982 Y-5.917 Z-10.748
X10.988 Y-5.916 Z-10.683
G0 Z5
X11.415 Y-7.387
Z-8.5
G3 X14.085 Y-8.792 Z-8.665 I1.335 J-0.702 F333.3
X11.415 Y-7.387 Z-8.831 I-1.335 J0.702
X14.085 Y-8.792 Z-8.996 I1.335 J-0.702
X11.415 Y-7.387 Z-9.162 I-1.335 J0.702
X14.085 Y-8.792 Z-9.327 I1.335 J-0.702
X11.415 Y-7.387 Z-9.493 I-1.335 J0.702
X14.085 Y-8.792 Z-9.658 I1.335 J-0.702
X11.415 Y-7.387 Z-9.824 I-1.335 J0.702
X14.085 Y-8.792 Z-9.989 I1.335 J-0.702
X11.415 Y-7.387 Z-10.155 I-1.335 J0.702
X14.085 Y-8.792 Z-10.32 I1.335 J-0.702
X11.415 Y-7.387 Z-10.485 I-1.335 J0.702
X14.085 Y-8.792 Z-10.651 I1.335 J-0.702
X11.415 Y-7.387 Z-10.816 I-1.335 J0.702
X14.085 Y-8.792 Z-10.982 I1.335 J-0.702
X11.415 Y-7.387 Z-11.147 I-1.335 J0.702
X14.085 Y-8.792 Z-11.313 I1.335 J-0.702
X11.415 Y-7.387 Z-11.478 I-1.335 J0.702
X14.085 Y-8.792 Z-11.644 I1.335 J-0.702
X11.415 Y-7.387 Z-11.809 I-1.335 J0.702
X14.085 Y-8.792 Z-11.974 I1.335 J-0.702
X14.258 Y-8.09 Z-12 I-1.335 J0.702
X11.242 Y-8.09 I-1.508 J0
X14.258 Y-8.09 I1.508 J0
G1 X14.275 Y-7.448 F1000
X14.304 Y-7.373
X14.338 Y-7.227
X14.342 Y-7.077
X14.32 Y-6.928
X14.278 Y-6.784
X14.217 Y-6.647
X14.142 Y-6.518
X14.052 Y-6.397
X13.951 Y-6.286
X13.84 Y-6.185
X13.721 Y-6.095
X13.594 Y-6.015
X13.46 Y-5.946
X13.319 Y-5.887
X13.169 Y-5.838
X13.013 Y-5.801
X12.851 Y-5.775
X12.684 Y-5.763
X12.514 Y-5.764
X12.341 Y-5.779
X12.169 Y-5.807
X11.997 Y-5.851
X11.827 Y-5.908
X11.661 Y-5.98
X11.5 Y-6.065
X11.345 Y-6.164
X11.197 Y-6.276
X11.059 Y-6.4
X10.93 Y-6.535
X10.811 Y-6.681
X10.704 Y-6.837
X10.61 Y-7.001
X10.529 Y-7.173
X10.462 Y-7.351
X10.409 Y-7.534
X10.372 Y-7.722
X10.349 Y-7.912
X10.341 Y-8.103
X10.349 Y-8.295
X10.373 Y-8.486
X10.411 Y-8.675
X10.465 Y-8.86
X10.534 Y-9.041
X10.616 Y-9.215
X10.713 Y-9.382
X10.823 Y-9.541
X10.945 Y-9.691
X11.079 Y-9.831
X11.224 Y-9.959
X11.378 Y-10.076
X11.542 Y-10.179
X11.713 Y-10.27
X11.891 Y-10.346
X12.075 Y-10.408
X12.263 Y-10.454
X12.454 Y-10.486
X12.647 Y-10.502
X12.841
X13.034 Y-10.487
X13.226 Y-10.457
X13.414 Y-10.411
X13.598 Y-10.35
X13.777 Y-10.275
X13.949 Y-10.186
X14.113 Y-10.083
X14.269 Y-9.967
X14.415 Y-9.839
X14.55 Y-9.7
X14.673 Y-9.55
X14.784 Y-9.391
X14.889 Y-9.212
X15.028 Y-8.923
X15.182 Y-8.524
X15.27 Y-8.227
X15.325 Y-7.965
X15.357 Y-7.721
X15.367 Y-7.493
X15.36 Y-7.276
X15.336 Y-7.067
X15.296 Y-6.861
X15.239 Y-6.66
X15.167 Y-6.465
X15.079 Y-6.276
X14.976 Y-6.094
X14.858 Y-5.92
X14.726 Y-5.755
X14.578 Y-5.599
X14.417 Y-5.453
X14.242 Y-5.319
X14.055 Y-5.198
X13.855 Y-5.091
X13.644 Y-4.998
X13.423 Y-4.922
X13.194 Y-4.863
X12.958 Y-4.822
X12.716 Y-4.8
X12.47 Y-4.797
X12.223 Y-4.814
X11.975 Y-4.852
X11.729 Y-4.909
X11.486 Y-4.987
X11.249 Y-5.085
X11.019 Y-5.202
X10.821 Y-5.324
X10.78 Y-5.354
X10.71 Y-5.407
X10.378 Y-5.662
X10.358 Y-5.68
X10.337 Y-5.701
X10.273 Y-5.782
X9.834 Y-6.354
X9.81 Y-6.391
X9.792 Y-6.427
X9.489 Y-7.156
X9.475 Y-7.193
X9.465 Y-7.229
X9.426 Y-7.521
X9.368 Y-7.958
X9.355 Y-8.104
X9.372 Y-8.25
X9.449 Y-8.833
X9.474 Y-8.979
X9.545 Y-9.157
X9.773 Y-9.708
X9.798 Y-9.768
X9.815 Y-9.798
X9.836 Y-9.827
X10.304 Y-10.437
X10.361 Y-10.502
X10.419 Y-10.548
X11.002 Y-10.995
X11.038 Y-11.021
X11.147 Y-11.073
X11.73 Y-11.314
X11.876 Y-11.37
X12.021 Y-11.392
X12.604 Y-11.469
X12.75 Y-11.486
X12.896 Y-11.469
X13.479 Y-11.392
X13.624 Y-11.37
X13.775 Y-11.312
X14.353 Y-11.073
X14.462 Y-11.021
X14.498 Y-10.995
X15.081 Y-10.548
X15.139 Y-10.502
X15.196 Y-10.437
X15.664 Y-9.827
X15.685 Y-9.798
X15.702 Y-9.768
X15.848 Y-9.417
X15.968 Y-9.125
X16.026 Y-8.979
X16.051 Y-8.833
X16.128 Y-8.25
X16.145 Y-8.104
X16.132 Y-7.958
X16.055 Y-7.375
X16.035 Y-7.229
X16.025 Y-7.193
X16.011 Y-7.156
X15.708 Y-6.427
X15.69 Y-6.391
X15.664 Y-6.352
X15.218 Y-5.771
X15.163 Y-5.701
X15.142 Y-5.68
X15.122 Y-5.662
X14.498 Y-5.184
X14.462 Y-5.158
X14.426 Y-5.137
X14.353 Y-5.106
X13.77 Y-4.865
X13.624 Y-4.808
X13.479 Y-4.787
X12.896 Y-4.71
X12.75 Y-4.694
X12.604 Y-4.71
X12.021 Y-4.787
X11.876 Y-4.808
X11.73 Y-4.865
X11.147 Y-5.106
X11.074 Y-5.137
X11.038 Y-5.158
X10.996 Y-5.188
X10.78 Y-5.354
G3 X10.718 Y-5.776 I0.202 J-0.245
G1 X10.759 Y-5.813 Z-11.995
X10.798 Y-5.848 Z-11.981
X10.835 Y-5.881 Z-11.958
X10.887 Y-5.893 Z-11.919
X10.93 Y-5.904 Z-11.869
X10.962 Y-5.912 Z-11.811
X10.982 Y-5.917 Z-11.748
X10.988 Y-5.916 Z-11.683
G0 Z5
X11.415 Y-7.387
Z-9.5
G3 X14.085 Y-8.792 Z-9.665 I1.335 J-0.702 F333.3
X11.415 Y-7.387 Z-9.831 I-1.335 J0.702
X14.085 Y-8.792 Z-9.996 I1.335 J-0.702
X11.415 Y-7.387 Z-10.162 I-1.335 J0.702
X14.085 Y-8.792 Z-10.327 I1.335 J-0.702
X11.415 Y-7.387 Z-10.493 I-1.335 J0.702
X14.085 Y-8.792 Z-10.658 I1.335 J-0.702
X11.415 Y-7.387 Z-10.824 I-1.335 J0.702
X14.085 Y-8.792 Z-10.989 I1.335 J-0.702
X11.415 Y-7.387 Z-11.155 I-1.335 J0.702
X14.085 Y-8.792 Z-11.32 I1.335 J-0.702
X11.415 Y-7.387 Z-11.485 I-1.335 J0.702
X14.085 Y-8.792 Z-11.651 I1.335 J-0.702
X11.415 Y-7.387 Z-11.816 I-1.335 J0.702
X14.085 Y-8.792 Z-11.982 I1.335 J-0.702
X11.415 Y-7.387 Z-12.147 I-1.335 J0.702
X14.085 Y-8.792 Z-12.313 I1.335 J-0.702
X11.415 Y-7.387 Z-12.478 I-1.335 J0.702
X14.085 Y-8.792 Z-12.644 I1.335 J-0.702
X11.415 Y-7.387 Z-12.809 I-1.335 J0.702
X14.085 Y-8.792 Z-12.974 I1.335 J-0.702
X14.258 Y-8.09 Z-13 I-1.335 J0.702
X11.242 Y-8.09 I-1.508 J0
X14.258 Y-8.09 I1.508 J0
G1 X14.275 Y-7.448 F1000
X14.304 Y-7.373
X14.338 Y-7.227
X14.342 Y-7.077
X14.32 Y-6.928
X14.278 Y-6.784
X14.217 Y-6.647
X14.142 Y-6.518
X14.052 Y-6.397
X13.951 Y-6.286
X13.84 Y-6.185
X13.721 Y-6.095
X13.594 Y-6.015
X13.46 Y-5.946
X13.319 Y-5.887
X13.169 Y-5.838
X13.013 Y-5.801
X12.851 Y-5.775
X12.684 Y-5.763
X12.514 Y-5.764
X12.341 Y-5.779
X12.169 Y-5.807
X11.997 Y-5.851
X11.827 Y-5.908
X11.661 Y-5.98
X11.5 Y-6.065
X11.345 Y-6.164
X11.197 Y-6.276
X11.059 Y-6.4
X10.93 Y-6.535
X10.811 Y-6.681
X10.704 Y-6.837
X10.61 Y-7.001
X10.529 Y-7.173
X10.462 Y-7.351
X10.409 Y-7.534
X10.372 Y-7.722
X10.349 Y-7.912
X10.341 Y-8.103
X10.349 Y-8.295
X10.373 Y-8.486
X10.411 Y-8.675
X10.465 Y-8.86
X10.534 Y-9.041
X10.616 Y-9.215
X10.713 Y-9.382
X10.823 Y-9.541
X10.945 Y-9.691
X11.079 Y-9.831
X11.224 Y-9.959
X11.378 Y-10.076
X11.542 Y-10.179
X11.713 Y-10.27
X11.891 Y-10.346
X12.075 Y-10.408
X12.263 Y-10.454
X12.454 Y-10.486
X12.647 Y-10.502
X12.841
X13.034 Y-10.487
X13.226 Y-10.457
X13.414 Y-10.411
X13.598 Y-10.35
X13.777 Y-10.275
X13.949 Y-10.186
X14.113 Y-10.083
X14.269 Y-9.967
X14.415 Y-9.839
X14.55 Y-9.7
X14.673 Y-9.55
X14.784 Y-9.391
X14.889 Y-9.212
X15.028 Y-8.923
X15.182 Y-8.524
X15.27 Y-8.227
X15.325 Y-7.965
X15.357 Y-7.721
X15.367 Y-7.493
X15.36 Y-7.276
X15.336 Y-7.067
X15.296 Y-6.861
X15.239 Y-6.66
X15.167 Y-6.465
X15.079 Y-6.276
X14.976 Y-6.094
X14.858 Y-5.92
X14.726 Y-5.755
X14.578 Y-5.599
X14.417 Y-5.453
X14.242 Y-5.319
X14.055 Y-5.198
X13.855 Y-5.091
X13.644 Y-4.998
X13.423 Y-4.922
X13.194 Y-4.863
X12.958 Y-4.822
X12.716 Y-4.8
X12.47 Y-4.797
X12.223 Y-4.814
X11.975 Y-4.852
X11.729 Y-4.909
X11.486 Y-4.987
X11.249 Y-5.085
X11.019 Y-5.202
X10.821 Y-5.324
X10.78 Y-5.354
X10.71 Y-5.407
X10.378 Y-5.662
X10.358 Y-5.68
X10.337 Y-5.701
X10.273 Y-5.782
X9.834 Y-6.354
X9.81 Y-6.391
X9.792 Y-6.427
X9.489 Y-7.156
X9.475 Y-7.193
X9.465 Y-7.229
X9.426 Y-7.521
X9.368 Y-7.958
X9.355 Y-8.104
X9.372 Y-8.25
X9.449 Y-8.833
X9.474 Y-8.979
X9.545 Y-9.157
X9.773 Y-9.708
X9.798 Y-9.768
X9.815 Y-9.798
X9.836 Y-9.827
X10.304 Y-10.437
X10.361 Y-10.502
X10.419 Y-10.548
X11.002 Y-10.995
X11.038 Y-11.021
X11.147 Y-11.073
X11.73 Y-11.314
X11.876 Y-11.37
X12.021 Y-11.392
X12.604 Y-11.469
X12.75 Y-11.486
X12.896 Y-11.469
X13.479 Y-11.392
X13.624 Y-11.37
X13.775 Y-11.312
X14.353 Y-11.073
X14.462 Y-11.021
X14.498 Y-10.995
X15.081 Y-10.548
X15.139 Y-10.502
X15.196 Y-10.437
X15.664 Y-9.827
X15.685 Y-9.798
X15.702 Y-9.768
X15.848 Y-9.417
X15.968 Y-9.125
X16.026 Y-8.979
X16.051 Y-8.833
X16.128 Y-8.25
X16.145 Y-8.104
X16.132 Y-7.958
X16.055 Y-7.375
X16.035 Y-7.229
X16.025 Y-7.193
X16.011 Y-7.156
X15.708 Y-6.427
X15.69 Y-6.391
X15.664 Y-6.352
X15.218 Y-5.771
X15.163 Y-5.701
X15.142 Y-5.68
X15.122 Y-5.662
X14.498 Y-5.184
X14.462 Y-5.158
X14.426 Y-5.137
X14.353 Y-5.106
X13.77 Y-4.865
X13.624 Y-4.808
X13.479 Y-4.787
X12.896 Y-4.71
X12.75 Y-4.694
X12.604 Y-4.71
X12.021 Y-4.787
X11.876 Y-4.808
X11.73 Y-4.865
X11.147 Y-5.106
X11.074 Y-5.137
X11.038 Y-5.158
X10.996 Y-5.188
X10.78 Y-5.354
G3 X10.718 Y-5.776 I0.202 J-0.245
G1 X10.759 Y-5.813 Z-12.995
X10.798 Y-5.848 Z-12.981
X10.835 Y-5.881 Z-12.958
X10.887 Y-5.893 Z-12.919
X10.93 Y-5.904 Z-12.869
X10.962 Y-5.912 Z-12.811
X10.982 Y-5.917 Z-12.748
X10.988 Y-5.916 Z-12.683
G0 Z5
X11.415 Y-7.387
Z-10.5
G3 X14.085 Y-8.792 Z-10.665 I1.335 J-0.702 F333.3
X11.415 Y-7.387 Z-10.831 I-1.335 J0.702
X14.085 Y-8.792 Z-10.996 I1.335 J-0.702
X11.415 Y-7.387 Z-11.162 I-1.335 J0.702
X14.085 Y-8.792 Z-11.327 I1.335 J-0.702
X11.415 Y-7.387 Z-11.493 I-1.335 J0.702
X14.085 Y-8.792 Z-11.658 I1.335 J-0.702
X11.415 Y-7.387 Z-11.824 I-1.335 J0.702
X14.085 Y-8.792 Z-11.989 I1.335 J-0.702
X11.415 Y-7.387 Z-12.155 I-1.335 J0.702
X14.085 Y-8.792 Z-12.32 I1.335 J-0.702
X11.415 Y-7.387 Z-12.485 I-1.335 J0.702
X14.085 Y-8.792 Z-12.651 I1.335 J-0.702
X11.415 Y-7.387 Z-12.816 I-1.335 J0.702
X14.085 Y-8.792 Z-12.982 I1.335 J-0.702
X11.415 Y-7.387 Z-13.147 I-1.335 J0.702
X14.085 Y-8.792 Z-13.313 I1.335 J-0.702
X11.415 Y-7.387 Z-13.478 I-1.335 J0.702
X14.085 Y-8.792 Z-13.644 I1.335 J-0.702
X11.415 Y-7.387 Z-13.809 I-1.335 J0.702
X14.085 Y-8.792 Z-13.974 I1.335 J-0.702
X14.258 Y-8.09 Z-14 I-1.335 J0.702
X11.242 Y-8.09 I-1.508 J0
X14.258 Y-8.09 I1.508 J0
G1 X14.275 Y-7.448 F1000
X14.304 Y-7.373
X14.338 Y-7.227
X14.342 Y-7.077
X14.32 Y-6.928
X14.278 Y-6.784
X14.217 Y-6.647
X14.142 Y-6.518
X14.052 Y-6.397
X13.951 Y-6.286
X13.84 Y-6.185
X13.721 Y-6.095
X13.594 Y-6.015
X13.46 Y-5.946
X13.319 Y-5.887
X13.169 Y-5.838
X13.013 Y-5.801
X12.851 Y-5.775
X12.684 Y-5.763
X12.514 Y-5.764
X12.341 Y-5.779
X12.169 Y-5.807
X11.997 Y-5.851
X11.827 Y-5.908
X11.661 Y-5.98
X11.5 Y-6.065
X11.345 Y-6.164
X11.197 Y-6.276
X11.059 Y-6.4
X10.93 Y-6.535
X10.811 Y-6.681
X10.704 Y-6.837
X10.61 Y-7.001
X10.529 Y-7.173
X10.462 Y-7.351
X10.409 Y-7.534
X10.372 Y-7.722
X10.349 Y-7.912
X10.341 Y-8.103
X10.349 Y-8.295
X10.373 Y-8.486
X10.411 Y-8.675
X10.465 Y-8.86
X10.534 Y-9.041
X10.616 Y-9.215
X10.713 Y-9.382
X10.823 Y-9.541
X10.945 Y-9.691
X11.079 Y-9.831
X11.224 Y-9.959
X11.378 Y-10.076
X11.542 Y-10.179
X11.713 Y-10.27
X11.891 Y-10.346
X12.075 Y-10.408
X12.263 Y-10.454
X12.454 Y-10.486
X12.647 Y-10.502
X12.841
X13.034 Y-10.487
X13.226 Y-10.457
X13.414 Y-10.411
X13.598 Y-10.35
X13.777 Y-10.275
X13.949 Y-10.186
X14.113 Y-10.083
X14.269 Y-9.967
X14.415 Y-9.839
X14.55 Y-9.7
X14.673 Y-9.55
X14.784 Y-9.391
X14.889 Y-9.212
X15.028 Y-8.923
X15.182 Y-8.524
X15.27 Y-8.227
X15.325 Y-7.965
X15.357 Y-7.721
X15.367 Y-7.493
X15.36 Y-7.276
X15.336 Y-7.067
X15.296 Y-6.861
X15.239 Y-6.66
X15.167 Y-6.465
X15.079 Y-6.276
X14.976 Y-6.094
X14.858 Y-5.92
X14.726 Y-5.755
X14.578 Y-5.599
X14.417 Y-5.453
X14.242 Y-5.319
X14.055 Y-5.198
X13.855 Y-5.091
X13.644 Y-4.998
X13.423 Y-4.922
X13.194 Y-4.863
X12.958 Y-4.822
X12.716 Y-4.8
X12.47 Y-4.797
X12.223 Y-4.814
X11.975 Y-4.852
X11.729 Y-4.909
X11.486 Y-4.987
X11.249 Y-5.085
X11.019 Y-5.202
X10.821 Y-5.324
X10.78 Y-5.354
X10.71 Y-5.407
X10.378 Y-5.662
X10.358 Y-5.68
X10.337 Y-5.701
X10.273 Y-5.782
X9.834 Y-6.354
X9.81 Y-6.391
X9.792 Y-6.427
X9.489 Y-7.156
X9.475 Y-7.193
X9.465 Y-7.229
X9.426 Y-7.521
X9.368 Y-7.958
X9.355 Y-8.104
X9.372 Y-8.25
X9.449 Y-8.833
X9.474 Y-8.979
X9.545 Y-9.157
X9.773 Y-9.708
X9.798 Y-9.768
X9.815 Y-9.798
X9.836 Y-9.827
X10.304 Y-10.437
X10.361 Y-10.502
X10.419 Y-10.548
X11.002 Y-10.995
X11.038 Y-11.021
X11.147 Y-11.073
X11.73 Y-11.314
X11.876 Y-11.37
X12.021 Y-11.392
X12.604 Y-11.469
X12.75 Y-11.486
X12.896 Y-11.469
X13.479 Y-11.392
X13.624 Y-11.37
X13.775 Y-11.312
X14.353 Y-11.073
X14.462 Y-11.021
X14.498 Y-10.995
X15.081 Y-10.548
X15.139 Y-10.502
X15.196 Y-10.437
X15.664 Y-9.827
X15.685 Y-9.798
X15.702 Y-9.768
X15.848 Y-9.417
X15.968 Y-9.125
X16.026 Y-8.979
X16.051 Y-8.833
X16.128 Y-8.25
X16.145 Y-8.104
X16.132 Y-7.958
X16.055 Y-7.375
X16.035 Y-7.229
X16.025 Y-7.193
X16.011 Y-7.156
X15.708 Y-6.427
X15.69 Y-6.391
X15.664 Y-6.352
X15.218 Y-5.771
X15.163 Y-5.701
X15.142 Y-5.68
X15.122 Y-5.662
X14.498 Y-5.184
X14.462 Y-5.158
X14.426 Y-5.137
X14.353 Y-5.106
X13.77 Y-4.865
X13.624 Y-4.808
X13.479 Y-4.787
X12.896 Y-4.71
X12.75 Y-4.694
X12.604 Y-4.71
X12.021 Y-4.787
X11.876 Y-4.808
X11.73 Y-4.865
X11.147 Y-5.106
X11.074 Y-5.137
X11.038 Y-5.158
X10.996 Y-5.188
X10.78 Y-5.354
G3 X10.718 Y-5.776 I0.202 J-0.245
G1 X10.759 Y-5.813 Z-13.995
X10.798 Y-5.848 Z-13.981
X10.835 Y-5.881 Z-13.958
X10.887 Y-5.893 Z-13.919
X10.93 Y-5.904 Z-13.869
X10.962 Y-5.912 Z-13.811
X10.982 Y-5.917 Z-13.748
X10.988 Y-5.916 Z-13.683
G0 Z5
X11.415 Y-7.387
Z-11.5
G3 X14.085 Y-8.792 Z-11.665 I1.335 J-0.702 F333.3
X11.415 Y-7.387 Z-11.831 I-1.335 J0.702
X14.085 Y-8.792 Z-11.996 I1.335 J-0.702
X11.415 Y-7.387 Z-12.162 I-1.335 J0.702
X14.085 Y-8.792 Z-12.327 I1.335 J-0.702
X11.415 Y-7.387 Z-12.493 I-1.335 J0.702
X14.085 Y-8.792 Z-12.658 I1.335 J-0.702
X11.415 Y-7.387 Z-12.824 I-1.335 J0.702
X14.085 Y-8.792 Z-12.989 I1.335 J-0.702
X11.415 Y-7.387 Z-13.155 I-1.335 J0.702
X14.085 Y-8.792 Z-13.32 I1.335 J-0.702
X11.415 Y-7.387 Z-13.485 I-1.335 J0.702
X14.085 Y-8.792 Z-13.651 I1.335 J-0.702
X11.415 Y-7.387 Z-13.816 I-1.335 J0.702
X14.085 Y-8.792 Z-13.982 I1.335 J-0.702
X11.415 Y-7.387 Z-14.147 I-1.335 J0.702
X14.085 Y-8.792 Z-14.313 I1.335 J-0.702
X11.415 Y-7.387 Z-14.478 I-1.335 J0.702
X14.085 Y-8.792 Z-14.644 I1.335 J-0.702
X11.415 Y-7.387 Z-14.809 I-1.335 J0.702
X14.085 Y-8.792 Z-14.974 I1.335 J-0.702
X14.258 Y-8.09 Z-15 I-1.335 J0.702
X11.242 Y-8.09 I-1.508 J0
X14.258 Y-8.09 I1.508 J0
G1 X14.275 Y-7.448 F1000
X14.304 Y-7.373
X14.338 Y-7.227
X14.342 Y-7.077
X14.32 Y-6.928
X14.278 Y-6.784
X14.217 Y-6.647
X14.142 Y-6.518
X14.052 Y-6.397
X13.951 Y-6.286
X13.84 Y-6.185
X13.721 Y-6.095
X13.594 Y-6.015
X13.46 Y-5.946
X13.319 Y-5.887
X13.169 Y-5.838
X13.013 Y-5.801
X12.851 Y-5.775
X12.684 Y-5.763
X12.514 Y-5.764
X12.341 Y-5.779
X12.169 Y-5.807
X11.997 Y-5.851
X11.827 Y-5.908
X11.661 Y-5.98
X11.5 Y-6.065
X11.345 Y-6.164
X11.197 Y-6.276
X11.059 Y-6.4
X10.93 Y-6.535
X10.811 Y-6.681
X10.704 Y-6.837
X10.61 Y-7.001
X10.529 Y-7.173
X10.462 Y-7.351
X10.409 Y-7.534
X10.372 Y-7.722
X10.349 Y-7.912
X10.341 Y-8.103
X10.349 Y-8.295
X10.373 Y-8.486
X10.411 Y-8.675
X10.465 Y-8.86
X10.534 Y-9.041
X10.616 Y-9.215
X10.713 Y-9.382
X10.823 Y-9.541
X10.945 Y-9.691
X11.079 Y-9.831
X11.224 Y-9.959
X11.378 Y-10.076
X11.542 Y-10.179
X11.713 Y-10.27
X11.891 Y-10.346
X12.075 Y-10.408
X12.263 Y-10.454
X12.454 Y-10.486
X12.647 Y-10.502
X12.841
X13.034 Y-10.487
X13.226 Y-10.457
X13.414 Y-10.411
X13.598 Y-10.35
X13.777 Y-10.275
X13.949 Y-10.186
X14.113 Y-10.083
X14.269 Y-9.967
X14.415 Y-9.839
X14.55 Y-9.7
X14.673 Y-9.55
X14.784 Y-9.391
X14.889 Y-9.212
X15.028 Y-8.923
X15.182 Y-8.524
X15.27 Y-8.227
X15.325 Y-7.965
X15.357 Y-7.721
X15.367 Y-7.493
X15.36 Y-7.276
X15.336 Y-7.067
X15.296 Y-6.861
X15.239 Y-6.66
X15.167 Y-6.465
X15.079 Y-6.276
X14.976 Y-6.094
X14.858 Y-5.92
X14.726 Y-5.755
X14.578 Y-5.599
X14.417 Y-5.453
X14.242 Y-5.319
X14.055 Y-5.198
X13.855 Y-5.091
X13.644 Y-4.998
X13.423 Y-4.922
X13.194 Y-4.863
X12.958 Y-4.822
X12.716 Y-4.8
X12.47 Y-4.797
X12.223 Y-4.814
X11.975 Y-4.852
X11.729 Y-4.909
X11.486 Y-4.987
X11.249 Y-5.085
X11.019 Y-5.202
X10.821 Y-5.324
X10.78 Y-5.354
X10.71 Y-5.407
X10.378 Y-5.662
X10.358 Y-5.68
X10.337 Y-5.701
X10.273 Y-5.782
X9.834 Y-6.354
X9.81 Y-6.391
X9.792 Y-6.427
X9.489 Y-7.156
X9.475 Y-7.193
X9.465 Y-7.229
X9.426 Y-7.521
X9.368 Y-7.958
X9.355 Y-8.104
X9.372 Y-8.25
X9.449 Y-8.833
X9.474 Y-8.979
X9.545 Y-9.157
X9.773 Y-9.708
X9.798 Y-9.768
X9.815 Y-9.798
X9.836 Y-9.827
X10.304 Y-10.437
X10.361 Y-10.502
X10.419 Y-10.548
X11.002 Y-10.995
X11.038 Y-11.021
X11.147 Y-11.073
X11.73 Y-11.314
X11.876 Y-11.37
X12.021 Y-11.392
X12.604 Y-11.469
X12.75 Y-11.486
X12.896 Y-11.469
X13.479 Y-11.392
X13.624 Y-11.37
X13.775 Y-11.312
X14.353 Y-11.073
X14.462 Y-11.021
X14.498 Y-10.995
X15.081 Y-10.548
X15.139 Y-10.502
X15.196 Y-10.437
X15.664 Y-9.827
X15.685 Y-9.798
X15.702 Y-9.768
X15.848 Y-9.417
X15.968 Y-9.125
X16.026 Y-8.979
X16.051 Y-8.833
X16.128 Y-8.25
X16.145 Y-8.104
X16.132 Y-7.958
X16.055 Y-7.375
X16.035 Y-7.229
X16.025 Y-7.193
X16.011 Y-7.156
X15.708 Y-6.427
X15.69 Y-6.391
X15.664 Y-6.352
X15.218 Y-5.771
X15.163 Y-5.701
X15.142 Y-5.68
X15.122 Y-5.662
X14.498 Y-5.184
X14.462 Y-5.158
X14.426 Y-5.137
X14.353 Y-5.106
X13.77 Y-4.865
X13.624 Y-4.808
X13.479 Y-4.787
X12.896 Y-4.71
X12.75 Y-4.694
X12.604 Y-4.71
X12.021 Y-4.787
X11.876 Y-4.808
X11.73 Y-4.865
X11.147 Y-5.106
X11.074 Y-5.137
X11.038 Y-5.158
X10.996 Y-5.188
X10.78 Y-5.354
G3 X10.988 Y-5.916 I0.202 J-0.245
G1 X11.059 Y-5.915 Z-14.992
X11.126 Y-5.914 Z-14.969
X11.186 Y-5.912 Z-14.931
X11.237 Y-5.911 Z-14.88
X11.274 Y-5.91 Z-14.82
X11.298 Z-14.753
X11.306 Z-14.682
G0 Z15
M9
G28 G91 Z0
G90
G28 G91 X0 Y0
G90
M5
M30
