(1001)
(T38  D=3.175 CR=0 - ZMIN=-6.8 - flat end mill)
G90 G94
G17
G21
G28 G91 Z0
G90

(2D Contour2)
T38
S18000 M3
G54
G0 X-158.081 Y219.266
Z15
Z5
G1 Z1 F166.7
Z-6.483
X-158.086 Y219.273 Z-6.553 F500
X-158.1 Y219.291 Z-6.62
X-158.123 Y219.321 Z-6.68
X-158.154 Y219.361 Z-6.731
X-158.191 Y219.409 Z-6.769
X-158.232 Y219.462 Z-6.792
X-158.275 Y219.518 Z-6.8
X-158.468 Y219.769
G3 X-158.914 Y219.827 I-0.252 J-0.194
X-181.704 Y173.534 I35.621 J-46.294
X-64.88 Y173.534 I58.412 J0
X-158.914 Y219.827 I-58.412 J0
X-158.972 Y219.382 I0.194 J-0.252
G1 X-158.778 Y219.131
X-158.735 Y219.075 Z-6.792
X-158.694 Y219.021 Z-6.769
X-158.657 Y218.974 Z-6.731
X-158.627 Y218.934 Z-6.68
X-158.604 Y218.904 Z-6.62
X-158.589 Y218.885 Z-6.553
X-158.584 Y218.879 Z-6.483
Z1
Z5
G0 X-175.924 Y225.743
G1 Z1 F166.7
Z-6.483
X-175.917 Y225.74 Z-6.553 F500
X-175.894 Y225.733 Z-6.62
X-175.858 Y225.722 Z-6.68
X-175.81 Y225.707 Z-6.731
X-175.753 Y225.689 Z-6.769
X-175.689 Y225.669 Z-6.792
X-175.621 Y225.648 Z-6.8
X-175.318 Y225.554
G3 X-174.921 Y225.763 I0.094 J0.303
X-176.663 Y226.305 I-0.871 J0.271
X-174.921 Y225.763 I0.871 J-0.271
X-175.13 Y226.16 I-0.303 J0.094
G1 X-175.433 Y226.255
X-175.5 Y226.276 Z-6.792
X-175.564 Y226.296 Z-6.769
X-175.622 Y226.314 Z-6.731
X-175.67 Y226.328 Z-6.68
X-175.706 Y226.34 Z-6.62
X-175.728 Y226.347 Z-6.553
X-175.736 Y226.349 Z-6.483
Z1
Z5
G0 X-70.77 Y226.353
G1 Z1 F166.7
Z-6.483
X-70.778 Z-6.553 F500
X-70.802 Y226.351 Z-6.62
X-70.839 Y226.349 Z-6.68
X-70.89 Y226.347 Z-6.731
X-70.95 Y226.343 Z-6.769
X-71.017 Y226.34 Z-6.792
X-71.087 Y226.336 Z-6.8
X-71.404 Y226.318
G3 X-71.704 Y225.983 I0.018 J-0.317
X-69.881 Y226.085 I0.911 J0.051
X-71.704 Y225.983 I-0.911 J-0.051
X-71.369 Y225.684 I0.317 J0.018
G1 X-71.052 Y225.702
X-70.981 Y225.706 Z-6.792
X-70.914 Y225.709 Z-6.769
X-70.854 Y225.713 Z-6.731
X-70.804 Y225.715 Z-6.68
X-70.766 Y225.717 Z-6.62
X-70.743 Y225.719 Z-6.553
X-70.735 Z-6.483
Z1
Z5
G0 X-70.529 Y121.215
G1 Z1 F166.7
Z-6.483
X-70.534 Y121.221 Z-6.553 F500
X-70.55 Y121.239 Z-6.62
X-70.575 Y121.267 Z-6.68
X-70.608 Y121.305 Z-6.731
X-70.648 Y121.35 Z-6.769
X-70.693 Y121.4 Z-6.792
X-70.74 Y121.452 Z-6.8
X-70.951 Y121.69
G3 X-71.399 Y121.715 I-0.237 J-0.211
X-70.186 Y120.353 I0.607 J-0.681
X-71.399 Y121.715 I-0.607 J0.681
X-71.425 Y121.267 I0.211 J-0.237
G1 X-71.214 Y121.03
X-71.167 Y120.977 Z-6.792
X-71.123 Y120.927 Z-6.769
X-71.083 Y120.882 Z-6.731
X-71.049 Y120.845 Z-6.68
X-71.024 Y120.816 Z-6.62
X-71.008 Y120.799 Z-6.553
X-71.003 Y120.793 Z-6.483
Z1
Z5
G0 X-175.485 Y120.945
G1 Z1 F166.7
Z-6.483
X-175.483 Y120.952 Z-6.553 F500
X-175.48 Y120.976 Z-6.62
X-175.474 Y121.013 Z-6.68
X-175.466 Y121.063 Z-6.731
X-175.456 Y121.122 Z-6.769
X-175.446 Y121.188 Z-6.792
X-175.435 Y121.258 Z-6.8
X-175.385 Y121.572
G3 X-175.649 Y121.935 I-0.314 J0.05
X-175.935 Y120.133 I-0.143 J-0.901
X-175.649 Y121.935 I0.143 J0.901
X-176.012 Y121.671 I-0.05 J-0.314
G1 X-176.062 Y121.358
X-176.073 Y121.288 Z-6.792
X-176.084 Y121.222 Z-6.769
X-176.093 Y121.162 Z-6.731
X-176.101 Y121.113 Z-6.68
X-176.107 Y121.075 Z-6.62
X-176.111 Y121.052 Z-6.553
X-176.112 Y121.044 Z-6.483
Z1
Z5
G0 X66.633 Y183.364
G1 Z1 F166.7
Z-6.483
X66.625 Y183.365 Z-6.553 F500
X66.602 Y183.369 Z-6.62
X66.564 Y183.376 Z-6.68
X66.515 Y183.384 Z-6.731
X66.455 Y183.394 Z-6.769
X66.389 Y183.405 Z-6.792
X66.32 Y183.417 Z-6.8
X66.007 Y183.469
G3 X65.641 Y183.209 I-0.053 J-0.313
X64.834 Y173.534 I57.606 J-9.675
X181.66 Y173.534 I58.413 J0
X65.641 Y183.209 I-58.413 J0
X65.901 Y182.843 I0.313 J-0.053
G1 X66.214 Y182.791
X66.284 Y182.779 Z-6.792
X66.35 Y182.768 Z-6.769
X66.41 Y182.758 Z-6.731
X66.459 Y182.749 Z-6.68
X66.497 Y182.743 Z-6.62
X66.52 Y182.739 Z-6.553
X66.528 Y182.738 Z-6.483
Z1
Z5
G0 X70.78 Y226.352
G1 Z1 F166.7
Z-6.483
X70.772 Z-6.553 F500
X70.748 Z-6.62
X70.71 Y226.351 Z-6.68
X70.66 Y226.35 Z-6.731
X70.6 Y226.348 Z-6.769
X70.533 Y226.347 Z-6.792
X70.462 Y226.345 Z-6.8
X70.145 Y226.339
G3 X69.834 Y226.014 I0.007 J-0.317
X71.659 Y226.054 I0.912 J0.02
X69.834 Y226.014 I-0.912 J-0.02
X70.158 Y225.704 I0.317 J0.007
G1 X70.476 Y225.711
X70.547 Y225.712 Z-6.792
X70.614 Y225.714 Z-6.769
X70.674 Y225.715 Z-6.731
X70.724 Y225.716 Z-6.68
X70.762 Y225.717 Z-6.62
X70.785 Z-6.553
X70.793 Z-6.483
Z1
Z5
G0 X70.91 Y121.309
G1 Z1 F166.7
Z-6.483
X70.902 Y121.313 Z-6.553 F500
X70.881 Y121.322 Z-6.62
X70.846 Y121.337 Z-6.68
X70.8 Y121.357 Z-6.731
X70.745 Y121.381 Z-6.769
X70.683 Y121.408 Z-6.792
X70.618 Y121.436 Z-6.8
X70.327 Y121.562
G3 X69.909 Y121.397 I-0.126 J-0.291
X71.584 Y120.671 I0.837 J-0.363
X69.909 Y121.397 I-0.837 J0.363
X70.074 Y120.98 I0.291 J-0.126
G1 X70.366 Y120.853
X70.43 Y120.825 Z-6.792
X70.492 Y120.798 Z-6.769
X70.547 Y120.774 Z-6.731
X70.593 Y120.754 Z-6.68
X70.628 Y120.739 Z-6.62
X70.65 Y120.73 Z-6.553
X70.657 Y120.727 Z-6.483
Z1
Z5
G0 X175.876 Y121.327
G1 Z1 F166.7
Z-6.483
X175.868 Y121.329 Z-6.553 F500
X175.846 Y121.336 Z-6.62
X175.81 Y121.347 Z-6.68
X175.761 Y121.361 Z-6.731
X175.704 Y121.378 Z-6.769
X175.639 Y121.397 Z-6.792
X175.572 Y121.418 Z-6.8
X175.268 Y121.508
G3 X174.873 Y121.295 I-0.091 J-0.304
X176.621 Y120.773 I0.874 J-0.261
X174.873 Y121.295 I-0.874 J0.261
X175.086 Y120.9 I0.304 J-0.091
G1 X175.39 Y120.809
X175.458 Y120.789 Z-6.792
X175.522 Y120.77 Z-6.769
X175.58 Y120.752 Z-6.731
X175.628 Y120.738 Z-6.68
X175.664 Y120.727 Z-6.62
X175.687 Y120.721 Z-6.553
X175.695 Y120.718 Z-6.483
Z1
Z5
G0 X175.782 Y226.352
G1 Z1 F166.7
Z-6.483
X175.774 Z-6.553 F500
X175.751 Z-6.62
X175.713 Y226.351 Z-6.68
X175.663 Y226.35 Z-6.731
X175.603 Y226.349 Z-6.769
X175.535 Y226.348 Z-6.792
X175.465 Y226.347 Z-6.8
X175.147 Y226.343
G3 X174.835 Y226.021 I0.005 J-0.317
X176.659 Y226.047 I0.912 J0.013
X174.835 Y226.021 I-0.912 J-0.013
X175.157 Y225.708 I0.317 J0.005
G1 X175.474 Y225.712
X175.545 Y225.713 Z-6.792
X175.612 Y225.714 Z-6.769
X175.672 Y225.715 Z-6.731
X175.722 Y225.716 Z-6.68
X175.76 Y225.717 Z-6.62
X175.784 Z-6.553
X175.792 Z-6.483
Z5
G0 Z15
G28 G91 Z0
G90
G28 G91 X0 Y0
G90
M5
M30
