(1001)
(T38  D=3.175 CR=0 - ZMIN=-6.8 - flat end mill)
G90 G94
G17
G21
G28 G91 Z0
G90

(2D Contour2)
T38
S18000 M3
G54
G0 X60.593 Y-2.909
Z15
Z5
G1 Z1 F83.3
Z-6.483
Y-2.901 Z-6.553 F250
Y-2.877 Z-6.62
Y-2.84 Z-6.68
Y-2.789 Z-6.731
Y-2.729 Z-6.769
X60.594 Y-2.662 Z-6.792
Y-2.591 Z-6.8
X60.595 Y-2.274
G3 X60.279 Y-1.955 I-0.317 J0.001
X1.641 Y-60.367 I-0.225 J-58.412
X118.466 Y-60.367 I58.413 J0
X60.279 Y-1.955 I-58.413 J0
X59.96 Y-2.271 I-0.001 J-0.317
G1 X59.959 Y-2.589
Y-2.66 Z-6.792
X59.958 Y-2.727 Z-6.769
Y-2.787 Z-6.731
Y-2.837 Z-6.68
Y-2.875 Z-6.62
Y-2.898 Z-6.553
Y-2.906 Z-6.483
Z1
Z5
G0 X7.865 Y-7.939
G1 Z1 F83.3
Z-6.483
X7.866 Y-7.931 Z-6.553 F250
X7.869 Y-7.907 Z-6.62
X7.872 Y-7.87 Z-6.68
X7.877 Y-7.82 Z-6.731
X7.883 Y-7.76 Z-6.769
X7.89 Y-7.693 Z-6.792
X7.897 Y-7.623 Z-6.8
X7.929 Y-7.307
G3 X7.644 Y-6.959 I-0.316 J0.032
X6.641 Y-7.867 I-0.091 J-0.908
X8.466 Y-7.867 I0.912 J0
X7.644 Y-6.959 I-0.912 J0
X7.297 Y-7.244 I-0.032 J-0.316
G1 X7.265 Y-7.559
X7.258 Y-7.63 Z-6.792
X7.251 Y-7.697 Z-6.769
X7.245 Y-7.756 Z-6.731
X7.24 Y-7.806 Z-6.68
X7.237 Y-7.844 Z-6.62
X7.234 Y-7.867 Z-6.553
Y-7.875 Z-6.483
Z1
Z5
G0 X7.865 Y-112.938
G1 Z1 F83.3
Z-6.483
X7.866 Y-112.93 Z-6.553 F250
X7.869 Y-112.907 Z-6.62
X7.872 Y-112.869 Z-6.68
X7.877 Y-112.819 Z-6.731
X7.883 Y-112.76 Z-6.769
X7.89 Y-112.693 Z-6.792
X7.897 Y-112.622 Z-6.8
X7.929 Y-112.307
G3 X7.644 Y-111.959 I-0.316 J0.032
X6.641 Y-112.867 I-0.091 J-0.908
X8.466 Y-112.867 I0.912 J0
X7.644 Y-111.959 I-0.912 J0
X7.297 Y-112.243 I-0.032 J-0.316
G1 X7.265 Y-112.559
X7.258 Y-112.63 Z-6.792
X7.251 Y-112.696 Z-6.769
X7.245 Y-112.756 Z-6.731
X7.24 Y-112.806 Z-6.68
X7.237 Y-112.844 Z-6.62
X7.234 Y-112.867 Z-6.553
Y-112.875 Z-6.483
Z1
Z5
G0 X112.514 Y-113.185
G1 Z1 F83.3
Z-6.483
G18 G2 X112.831 Z-6.8 I0.317 K0 F250
G1 X113.149
G17 G3 X113.466 Y-112.867 I0 J0.318
X111.642 Y-112.867 I-0.912 J0
X113.466 Y-112.867 I0.912 J0
X113.149 Y-112.549 I-0.317 J0
G1 X112.831
G18 G3 X112.514 Z-6.483 I0 K0.318
G1 Z1
Z5
G0 Y-8.185
G1 Z1 F83.3
Z-6.483
G2 X112.831 Z-6.8 I0.317 K0 F250
G1 X113.149
G17 G3 X113.466 Y-7.867 I0 J0.318
X111.642 Y-7.867 I-0.912 J0
X113.466 Y-7.867 I0.912 J0
X113.149 Y-7.55 I-0.317 J0
G1 X112.831
G18 G3 X112.514 Z-6.483 I0 K0.318
G1 Z1
Z5
G0 X254.053 Y-8.185
G1 Z1 F83.3
Z-6.483
G2 X254.37 Z-6.8 I0.318 K0 F250
G1 X254.688
G17 G3 X255.005 Y-7.867 I0 J0.318
X253.181 Y-7.867 I-0.912 J0
X255.005 Y-7.867 I0.912 J0
X254.688 Y-7.55 I-0.317 J0
G1 X254.37
G18 G3 X254.053 Z-6.483 I0 K0.318
G1 Z1
Z5
G0 X364.053 Y-60.685
G1 Z1 F83.3
Z-6.483
G2 X364.371 Z-6.8 I0.318 K0 F250
G1 X364.688
G17 G3 X365.005 Y-60.367 I0 J0.318
X248.18 Y-60.367 I-58.413 J0
X365.005 Y-60.367 I58.413 J0
X364.688 Y-60.05 I-0.318 J0
G1 X364.371
G18 G3 X364.053 Z-6.483 I0 K0.318
G1 Z1
Z5
G0 X359.053 Y-8.185
G1 Z1 F83.3
Z-6.483
G2 X359.371 Z-6.8 I0.318 K0 F250
G1 X359.688
G17 G3 X360.005 Y-7.867 I0 J0.318
X358.18 Y-7.867 I-0.913 J0
X360.005 Y-7.867 I0.913 J0
X359.688 Y-7.55 I-0.318 J0
G1 X359.371
G18 G3 X359.053 Z-6.483 I0 K0.318
G1 Z1
Z5
G0 X359.17 Y-113.178
G1 Z1 F83.3
Z-6.483
X359.178 Y-113.175 Z-6.553 F250
X359.2 Y-113.166 Z-6.62
X359.235 Y-113.152 Z-6.68
X359.282 Y-113.134 Z-6.731
X359.338 Y-113.113 Z-6.769
X359.401 Y-113.088 Z-6.792
X359.466 Y-113.063 Z-6.8
X359.763 Y-112.948
G17 G3 X359.944 Y-112.537 I-0.115 J0.296
X358.242 Y-113.197 I-0.851 J-0.33
X359.944 Y-112.537 I0.851 J0.33
X359.533 Y-112.356 I-0.296 J-0.115
G1 X359.237 Y-112.471
X359.171 Y-112.496 Z-6.792
X359.109 Y-112.52 Z-6.769
X359.052 Y-112.542 Z-6.731
X359.006 Y-112.56 Z-6.68
X358.97 Y-112.574 Z-6.62
X358.948 Y-112.583 Z-6.553
X358.941 Y-112.585 Z-6.483
Z1
Z5
G0 X254.053 Y-113.185
G1 Z1 F83.3
Z-6.483
G18 G2 X254.37 Z-6.8 I0.318 K0 F250
G1 X254.688
G17 G3 X255.005 Y-112.867 I0 J0.318
X253.181 Y-112.867 I-0.912 J0
X255.005 Y-112.867 I0.912 J0
X254.688 Y-112.549 I-0.317 J0
G1 X254.37
G18 G3 X254.053 Z-6.483 I0 K0.318
G1 Z5
G0 Z15
G17
G28 G91 Z0
G90
G28 G91 X0 Y0
G90
M5
M30
