(1001)
(T38  D=3.175 CR=0 - ZMIN=-6.76 - flat end mill)
G90 G94
G17
G21
G28 G91 Z0
G90

(2D Contour1)
T38
S18000 M3
G54
G0 X-116.074 Y122.929
Z15
Z5
G1 Z1 F83.3
Z-6.443
G18 G2 X-115.757 Z-6.76 I0.317 K0 F250
G1 X-115.439
G17 G3 X-115.121 Y123.247 I0 J0.318
X-173.534 Y181.66 I-58.413 J0
X-173.534 Y64.834 I0 J-58.413
X-115.121 Y123.247 I0 J58.413
X-115.439 Y123.564 I-0.318 J0
G1 X-115.757
G18 G3 X-116.074 Z-6.443 I0 K0.318
G1 Z1
Z5
G0 X-121.074 Y175.43
G1 Z1 F83.3
Z-6.443
G2 X-120.757 Z-6.76 I0.317 K0 F250
G1 X-120.439
G17 G3 X-120.121 Y175.747 I0 J0.317
X-121.946 Y175.747 I-0.912 J0
X-120.121 Y175.747 I0.912 J0
X-120.439 Y176.064 I-0.318 J0
G1 X-120.757
G18 G3 X-121.074 Z-6.443 I0 K0.318
G1 Z1
Z5
G0 X-226.074 Y175.43
G1 Z1 F83.3
Z-6.443
G2 X-225.757 Z-6.76 I0.318 K0 F250
G1 X-225.439
G17 G3 X-225.122 Y175.747 I0 J0.317
X-226.946 Y175.747 I-0.912 J0
X-225.122 Y175.747 I0.912 J0
X-225.439 Y176.064 I-0.317 J0
G1 X-225.757
G18 G3 X-226.074 Z-6.443 I0 K0.318
G1 Z1
Z5
G0 Y70.429
G1 Z1 F83.3
Z-6.443
G2 X-225.757 Z-6.76 I0.318 K0 F250
G1 X-225.439
G17 G3 X-225.122 Y70.746 I0 J0.317
X-226.946 Y70.746 I-0.912 J0
X-225.122 Y70.746 I0.912 J0
X-225.439 Y71.064 I-0.317 J0
G1 X-225.757
G18 G3 X-226.074 Z-6.443 I0 K0.318
G1 Z1
Z5
G0 X-120.957 Y70.436
G1 Z1 F83.3
Z-6.443
X-120.949 Y70.439 Z-6.513 F250
X-120.927 Y70.447 Z-6.58
X-120.892 Y70.461 Z-6.64
X-120.845 Y70.479 Z-6.691
X-120.789 Y70.501 Z-6.729
X-120.726 Y70.525 Z-6.752
X-120.661 Y70.551 Z-6.76
X-120.364 Y70.665
G17 G3 X-120.183 Y71.076 I-0.115 J0.296
X-121.885 Y70.417 I-0.851 J-0.33
X-120.183 Y71.076 I0.851 J0.33
X-120.594 Y71.257 I-0.296 J-0.115
G1 X-120.89 Y71.143
X-120.956 Y71.117 Z-6.752
X-121.018 Y71.093 Z-6.729
X-121.075 Y71.071 Z-6.691
X-121.121 Y71.053 Z-6.64
X-121.157 Y71.039 Z-6.58
X-121.179 Y71.031 Z-6.513
X-121.186 Y71.028 Z-6.443
Z1
Z5
G0 X-121.074 Y-71.11
G1 Z1 F83.3
Z-6.443
G18 G2 X-120.757 Z-6.76 I0.317 K0 F250
G1 X-120.439
G17 G3 X-120.121 Y-70.793 I0 J0.317
X-121.946 Y-70.793 I-0.912 J0
X-120.121 Y-70.793 I0.912 J0
X-120.439 Y-70.475 I-0.318 J0
G1 X-120.757
G18 G3 X-121.074 Z-6.443 I0 K0.318
G1 Z1
Z5
G0 X-116.075 Y-123.61
G1 Z1 F83.3
Z-6.443
G2 X-115.757 Z-6.76 I0.318 K0 F250
G1 X-115.439
G17 G3 X-115.122 Y-123.292 I0 J0.317
X-173.534 Y-64.88 I-58.412 J0
X-173.534 Y-181.704 I0 J-58.412
X-115.122 Y-123.292 I0 J58.412
X-115.439 Y-122.975 I-0.317 J0
G1 X-115.757
G18 G3 X-116.075 Z-6.443 I0 K0.318
G1 Z1
Z5
G0 X-120.957 Y-176.103
G1 Z1 F83.3
Z-6.443
X-120.949 Y-176.1 Z-6.513 F250
X-120.927 Y-176.091 Z-6.58
X-120.892 Y-176.077 Z-6.64
X-120.845 Y-176.059 Z-6.691
X-120.789 Y-176.038 Z-6.729
X-120.726 Y-176.013 Z-6.752
X-120.661 Y-175.988 Z-6.76
X-120.364 Y-175.873
G17 G3 X-120.183 Y-175.462 I-0.115 J0.296
X-121.885 Y-176.122 I-0.851 J-0.33
X-120.183 Y-175.462 I0.851 J0.33
X-120.594 Y-175.281 I-0.296 J-0.115
G1 X-120.89 Y-175.396
X-120.956 Y-175.421 Z-6.752
X-121.018 Y-175.445 Z-6.729
X-121.075 Y-175.467 Z-6.691
X-121.121 Y-175.485 Z-6.64
X-121.157 Y-175.499 Z-6.58
X-121.179 Y-175.508 Z-6.513
X-121.186 Y-175.51 Z-6.443
Z1
Z5
G0 X-226.074 Y-176.109
G1 Z1 F83.3
Z-6.443
G18 G2 X-225.757 Z-6.76 I0.318 K0 F250
G1 X-225.439
G17 G3 X-225.122 Y-175.792 I0 J0.317
X-226.946 Y-175.792 I-0.912 J0
X-225.122 Y-175.792 I0.912 J0
X-225.439 Y-175.475 I-0.317 J0
G1 X-225.757
G18 G3 X-226.074 Z-6.443 I0 K0.318
G1 Z1
Z5
G0 Y-71.11
G1 Z1 F83.3
Z-6.443
G2 X-225.757 Z-6.76 I0.318 K0 F250
G1 X-225.439
G17 G3 X-225.122 Y-70.793 I0 J0.317
X-226.946 Y-70.793 I-0.912 J0
X-225.122 Y-70.793 I0.912 J0
X-225.439 Y-70.475 I-0.317 J0
G1 X-225.757
G18 G3 X-226.074 Z-6.443 I0 K0.318
G1 Z5
G0 Z15
G17
G28 G91 Z0
G90
G28 G91 X0 Y0
G90
M5
M30
