(chamfer)
(T2  D=6.35 CR=0 TAPER=45deg - ZMIN=-1.25 - chamfer mill)
G90 G94
G17
G21
G28 G91 Z0
G90

(2D Chamfer1)
T2
S5000 M3
G54
M8
G0 X21.615 Y-12.75
Z15
Z5
G1 Z2 F333.3
Z-1.25
X22.25 F1000
G3 X3.25 Y-12.75 I-9.5 J0
X22.25 Y-12.75 I9.5 J0
G1 X21.615
G0 Z15
M9
G28 G91 Z0
G90
G28 G91 X0 Y0
G90
M5
M30
