(chamferSq_01)
(T2  D=6.35 CR=0 TAPER=45deg - ZMIN=-1.5 - chamfer mill)
G90 G94
G17
G21
G28 G91 Z0
G90

(2D Chamfer3)
T2
S5000 M3
G54
G0 X27.135 Y-12.75
Z15
Z5
G1 Z2 F333.3
Z-1.5
X26.5 F1000
Y-25.5
G2 X25.5 Y-26.5 I-1 J0
G1 X0
G2 X-1 Y-25.5 I0 J1
G1 Y0
G2 X0 Y1 I1 J0
G1 X25.5
G2 X26.5 Y0 I0 J-1
G1 Y-12.75
X27.135
G0 Z15
G28 G91 Z0
G90
G28 G91 X0 Y0
G90
M5
M30
