(1001)
(T1  D=3.175 CR=0 - ZMIN=-6.76 - flat end mill)
G90 G94
G17
G21
G28 G91 Z0
G90

(2D Contour1)
T1
S18000 M3
G54
M8
G0 X42.54 Y-19.683
Z15
Z5
G1 Z1 F50
Z-6.443
G18 G3 X42.222 Z-6.76 I-0.318 K0 F150
G1 X41.905
G17 G3 X41.588 Y-20 I0 J-0.317
G2 X-1.588 Y-20 I-21.588 J0
X41.588 Y-20 I21.588 J0
G3 X41.905 Y-20.317 I0.317 J0
G1 X42.222
G18 G2 X42.54 Z-6.443 I0 K0.318
G0 Z15
G17
M9
G28 G91 Z0
G90
G28 G91 X0 Y0
G90
M5
M30
