(compressorFixture_v1)
(T7  D=6.35 CR=0 - ZMIN=-14.2 - flat end mill)
G90 G94
G17
G21
G28 G91 Z0
G90

(2D Contour1)
T7
S18000 M3
G54
G0 X45.635 Y-10.08
Z15
Z5
G1 Z1 F25
Z-13.565
G19 G3 Y-9.445 Z-14.2 J0.635 K0 F75
G1 Y-8.81
G17 G3 X45 Y-8.175 I-0.635 J0
G1 X30
G3 X28.175 Y-10 I0 J-1.825
G1 Y-19.25
G3 X30 Y-21.075 I1.825 J0
G1 X45
G3 X46.825 Y-19.25 I0 J1.825
G1 Y-10
G3 X45 Y-8.175 I-1.825 J0
X44.365 Y-8.81 I0 J-0.635
G1 Y-9.445
G19 G2 Y-10.08 Z-13.565 J0 K0.635
G1 Z1
Z5
G0 Y5.08
G1 Z1 F25
Z-13.565
G2 Y4.445 Z-14.2 J-0.635 K0 F75
G1 Y3.81
G17 G3 X45 Y3.175 I0.635 J0
G2 X57.006 Y-4.575 I0 J-13.175
G3 X60.492 Y-6.825 I3.486 J1.575
G1 X71
G2 X78.175 Y-14 I0 J-7.175
G1 Y-15.25
G2 X71 Y-22.425 I-7.175 J0
G1 X60.492
G3 X57.006 Y-24.675 I0 J-3.825
G2 X45 Y-32.425 I-12.006 J5.425
G1 X30
G2 X17.994 Y-24.675 I0 J13.175
G3 X14.508 Y-22.425 I-3.486 J-1.575
G1 X4
G2 X-3.175 Y-15.25 I0 J7.175
G1 Y-14
G2 X4 Y-6.825 I7.175 J0
G1 X14.508
G3 X17.994 Y-4.575 I0 J3.825
G2 X30 Y3.175 I12.006 J-5.425
G1 X45
G3 X45.635 Y3.81 I0 J0.635
G1 Y4.445
G19 G3 Y5.08 Z-13.565 J0 K0.635
G1 Z5
G0 Z15
G17
G28 G91 Z0
G90
G28 G91 X0 Y0
G90
M5
M30
