(1001)
(T1  D=3.175 CR=0 - ZMIN=-9.35 - flat end mill)
G90 G94
G17
G21
G28 G91 Z0
G90

(2D Contour3)
T1
S18000 M3
G54
G0 X60.731 Y-119.038
Z15
Z5
G1 Z1 F166.7
Z-9.033
G18 G2 X61.049 Z-9.35 I0.318 K0 F500
G1 X61.366
G17 G3 X61.684 Y-118.721 I0 J0.317
X59.859 Y-118.721 I-0.912 J0
X61.684 Y-118.721 I0.912 J0
X61.366 Y-118.404 I-0.318 J0
G1 X61.049
G18 G3 X60.731 Z-9.033 I0 K0.318
G1 Z1
Z5
G0 X118.706 Y-57.072
G1 Z1 F166.7
Z-9.033
G2 X119.023 Z-9.35 I0.317 K0 F500
G1 X119.341
G17 G3 X119.659 Y-56.755 I0 J0.317
X117.834 Y-56.755 I-0.912 J0
X119.659 Y-56.755 I0.912 J0
X119.341 Y-56.437 I-0.317 J0
G1 X119.023
G18 G3 X118.706 Z-9.033 I0 K0.318
G1 Z1
Z5
G0 X176.631 Y-119.038
G1 Z1 F166.7
Z-9.033
G2 X176.949 Z-9.35 I0.318 K0 F500
G1 X177.266
G17 G3 X177.583 Y-118.721 I0 J0.317
X175.759 Y-118.721 I-0.912 J0
X177.583 Y-118.721 I0.912 J0
X177.266 Y-118.404 I-0.317 J0
G1 X176.949
G18 G3 X176.631 Z-9.033 I0 K0.318
G1 Z1
Z5
G0 X118.706 Y-181.005
G1 Z1 F166.7
Z-9.033
G2 X119.023 Z-9.35 I0.317 K0 F500
G1 X119.341
G17 G3 X119.659 Y-180.687 I0 J0.318
X117.834 Y-180.687 I-0.912 J0
X119.659 Y-180.687 I0.912 J0
X119.341 Y-180.37 I-0.317 J0
G1 X119.023
G18 G3 X118.706 Z-9.033 I0 K0.318
G1 Z5
G0 Z15
G17

(2D Contour4)
G0 X-1.768 Y-50.969
Z15
Z5
G1 Z1 F166.7
Z-9.033
X-1.76 Y-50.967 Z-9.103 F500
X-1.737 Y-50.963 Z-9.17
X-1.7 Y-50.956 Z-9.23
X-1.651 Y-50.947 Z-9.281
X-1.591 Y-50.937 Z-9.319
X-1.525 Y-50.925 Z-9.342
X-1.456 Y-50.912 Z-9.35
X-1.143 Y-50.855
G3 X-0.888 Y-50.486 I-0.057 J0.312
G2 X11.179 Y-11.886 I42.888 J7.779
G1 X11.886 Y-11.179
G2 X73.528 Y-11.179 I30.821 J-30.821
G1 X91.435 Y-29.085
G3 X104.454 Y-34.478 I13.02 J13.019
G1 X132.988
G3 X146.007 Y-29.085 I0 J18.412
G1 X163.914 Y-11.179
G2 X225.557 Y-11.179 I30.821 J-30.821
G1 X226.264 Y-11.886
G2 X226.264 Y-73.528 I-30.822 J-30.821
G1 X208.357 Y-91.435
G3 X202.964 Y-104.454 I13.019 J-13.02
G1 Y-132.988
G3 X208.357 Y-146.007 I18.412 J0
G1 X226.264 Y-163.914
G2 X226.264 Y-225.557 I-30.822 J-30.821
G1 X225.557 Y-226.264
G2 X163.914 Y-226.264 I-30.821 J30.822
G1 X146.007 Y-208.357
G3 X132.988 Y-202.964 I-13.02 J-13.019
G1 X104.454
G3 X91.435 Y-208.357 I0 J-18.412
G1 X73.528 Y-226.264
G2 X11.886 Y-226.264 I-30.821 J30.822
G1 X11.179 Y-225.557
G2 X11.179 Y-163.914 I30.821 J30.821
G1 X29.085 Y-146.007
G3 X34.478 Y-132.988 I-13.019 J13.02
G1 Y-104.454
G3 X29.085 Y-91.435 I-18.412 J0
G1 X11.179 Y-73.528
G2 X-0.888 Y-50.486 I30.821 J30.821
G3 X-1.257 Y-50.231 I-0.312 J-0.057
G1 X-1.569 Y-50.287
X-1.639 Y-50.3 Z-9.342
X-1.705 Y-50.312 Z-9.319
X-1.764 Y-50.323 Z-9.281
X-1.813 Y-50.332 Z-9.23
X-1.851 Y-50.338 Z-9.17
X-1.874 Y-50.342 Z-9.103
X-1.882 Y-50.344 Z-9.033
Z5
G0 Z15
G28 G91 Z0
G90
G28 G91 X0 Y0
G90
M5
M30
