(1001)
(T1  D=3.175 CR=0 - ZMIN=-9.35 - flat end mill)
G90 G94
G17
G21
G28 G91 Z0
G90

(2D Contour3)
T1
S18000 M3
G54
G0 X20.567 Y-20.924
Z15
Z5
G1 Z1 F166.7
Z-9.033
G18 G2 X20.884 Z-9.35 I0.317 K0 F500
G1 X21.202
G17 G3 X21.519 Y-20.607 I0 J0.318
X19.694 Y-20.607 I-0.913 J0
X21.519 Y-20.607 I0.913 J0
X21.202 Y-20.289 I-0.318 J0
G1 X20.884
G18 G3 X20.567 Z-9.033 I0 K0.318
G1 Z1
Z5
G0 X199.47 Y-20.917
G1 Z1 F166.7
Z-9.033
X199.478 Y-20.914 Z-9.103 F500
X199.5 Y-20.906 Z-9.17
X199.535 Y-20.892 Z-9.23
X199.582 Y-20.874 Z-9.281
X199.638 Y-20.852 Z-9.319
X199.701 Y-20.828 Z-9.342
X199.766 Y-20.802 Z-9.35
X200.063 Y-20.688
G17 G3 X200.244 Y-20.277 I-0.115 J0.296
X198.542 Y-20.936 I-0.851 J-0.33
X200.244 Y-20.277 I0.851 J0.33
X199.833 Y-20.096 I-0.296 J-0.115
G1 X199.537 Y-20.21
X199.471 Y-20.236 Z-9.342
X199.409 Y-20.26 Z-9.319
X199.352 Y-20.282 Z-9.281
X199.306 Y-20.3 Z-9.23
X199.27 Y-20.314 Z-9.17
X199.248 Y-20.322 Z-9.103
X199.241 Y-20.325 Z-9.033
Z1
Z5
G0 X199.353 Y-229.71
G1 Z1 F166.7
Z-9.033
G18 G2 X199.671 Z-9.35 I0.318 K0 F500
G1 X199.988
G17 G3 X200.305 Y-229.393 I0 J0.317
X198.481 Y-229.393 I-0.912 J0
X200.305 Y-229.393 I0.912 J0
X199.988 Y-229.076 I-0.317 J0
G1 X199.671
G18 G3 X199.353 Z-9.033 I0 K0.318
G1 Z1
Z5
G0 X20.684 Y-229.704
G1 Z1 F166.7
Z-9.033
X20.691 Y-229.701 Z-9.103 F500
X20.713 Y-229.692 Z-9.17
X20.749 Y-229.678 Z-9.23
X20.795 Y-229.66 Z-9.281
X20.852 Y-229.639 Z-9.319
X20.914 Y-229.614 Z-9.342
X20.98 Y-229.589 Z-9.35
X21.276 Y-229.474
G17 G3 X21.457 Y-229.063 I-0.115 J0.296
X19.756 Y-229.723 I-0.851 J-0.33
X21.457 Y-229.063 I0.851 J0.33
X21.047 Y-228.882 I-0.296 J-0.115
G1 X20.751 Y-228.997
X20.685 Y-229.022 Z-9.342
X20.622 Y-229.046 Z-9.319
X20.566 Y-229.068 Z-9.281
X20.519 Y-229.086 Z-9.23
X20.484 Y-229.1 Z-9.17
X20.462 Y-229.109 Z-9.103
X20.455 Y-229.111 Z-9.033
Z5
G0 Z15

(2D Contour4)
X-2.54 Y-20.317
Z15
Z5
G1 Z1 F166.7
Z-9.033
G18 G2 X-2.223 Z-9.35 I0.317 K0 F500
G1 X-1.905
G17 G3 X-1.587 Y-20 I0 J0.317
G2 X20 Y1.587 I21.587 J0
G1 X57.1
G2 X70.244 Y-3.857 I0 J-18.587
G1 X74.413 Y-8.026
X145.586
X149.757 Y-3.857
G2 X162.899 Y1.587 I13.143 J-13.143
G1 X200
G2 X221.587 Y-20 I0 J-21.587
G1 Y-230
G2 X200 Y-251.587 I-21.587 J0
G1 X162.899
G2 X149.756 Y-246.144 I0.001 J18.587
G1 X145.586 Y-241.973
X74.413
X70.244 Y-246.143
G2 X57.1 Y-251.587 I-13.143 J13.144
G1 X20
G2 X-1.587 Y-230 I0 J21.587
G1 Y-20
G3 X-1.905 Y-19.683 I-0.317 J0
G1 X-2.223
G18 G3 X-2.54 Z-9.033 I0 K0.318
G1 Z5
G0 Z15
G17
G28 G91 Z0
G90
G28 G91 X0 Y0
G90
M5
M30
