(1001)
(T9  D=3.175 CR=0 - ZMIN=-6.26 - flat end mill)
G90 G94
G17
G21
G28 G91 Z0
G90

(2D Contour1)
T9
S18000 M3
G54
M8
G0 X54.067 Y-37.54
Z15
Z5
G1 Z1 F66.7
Z-5.943
G19 G3 Y-37.222 Z-6.26 J0.318 K0 F200
G1 Y-36.905
G17 G3 X53.749 Y-36.588 I-0.318 J0
G1 X40
G3 X36.588 Y-40 I0 J-3.412
G1 Y-100
G2 X35 Y-101.588 I-1.588 J0
G1 X0
G2 X-1.587 Y-100 I0 J1.588
G1 Y0
G2 X0 Y1.587 I1.587 J0
G1 X100
G2 X101.588 Y0 I0 J-1.587
G1 Y-35
G2 X100 Y-36.588 I-1.588 J0
G1 X53.749
G3 X53.431 Y-36.905 I0 J-0.317
G1 Y-37.222
G19 G2 Y-37.54 Z-5.943 J0 K0.318
G1 Z5
G0 Z15
G17
M9
G28 G91 Z0
G90
G28 G91 X0 Y0
G90
M5
M30
