(1001)
(T9  D=3.175 CR=0 - ZMIN=-6.26 - flat end mill)
G90 G94
G17
G21
G28 G91 Z0
G90

(2D Contour2)
T9
S18000 M3
G54
G0 X69.093 Y2.54
Z15
Z5
G1 Z1 F50
Z-5.943
G19 G2 Y2.223 Z-6.26 J-0.318 K0 F150
G1 Y1.905
G17 G3 X69.411 Y1.588 I0.317 J0
G2 X80.005 Y0.176 I0 J-40.473
G1 X105.532 Y-6.747
X105.983 Y-6.868
X106.419 Y-6.981
X106.843 Y-7.089
X107.255 Y-7.19
X107.656 Y-7.286
X108.045 Y-7.375
X108.422 Y-7.458
X108.789 Y-7.535
X109.146 Y-7.606
X109.492 Y-7.671
X109.828 Y-7.731
X110.149 Y-7.783
X110.778 Y-7.875
X111.365 Y-7.943
X111.919 Y-7.99
X112.44 Y-8.017
X112.932 Y-8.025
X113.398 Y-8.013
X113.84 Y-7.984
X114.264 Y-7.937
X114.674 Y-7.872
X115.075 Y-7.79
X115.466 Y-7.69
X115.852 Y-7.571
X116.235 Y-7.433
X116.618 Y-7.275
X117.002 Y-7.096
X117.392 Y-6.894
X117.792 Y-6.668
X118.205 Y-6.412
X118.635 Y-6.127
X119.082 Y-5.809
X119.547 Y-5.458
X120.035 Y-5.069
X120.282 Y-4.866
X120.538 Y-4.649
X120.8 Y-4.423
X121.067 Y-4.188
X121.34 Y-3.942
X121.62 Y-3.687
X121.905 Y-3.422
X122.202 Y-3.141
X122.256 Y-3.092
X122.476 Y-2.903
X122.595 Y-2.81
X122.831 Y-2.643
X122.96 Y-2.56
X123.211 Y-2.417
X123.349 Y-2.347
X123.614 Y-2.228
X123.756 Y-2.172
X124.031 Y-2.079
X124.179 Y-2.037
X124.461 Y-1.972
X124.611 Y-1.944
X124.897 Y-1.906
X125.05 Y-1.893
X125.34 Y-1.883
X125.493 Y-1.884
X125.783 Y-1.902
X125.936 Y-1.919
X126.222 Y-1.964
X126.372 Y-1.995
X126.652 Y-2.068
X126.799 Y-2.114
X127.071 Y-2.214
X127.211 Y-2.273
X127.473 Y-2.398
X127.61 Y-2.472
X127.857 Y-2.622
X127.983 Y-2.707
X128.215 Y-2.88
X128.332 Y-2.977
X128.547 Y-3.171
X128.603 Y-3.225
X135.702 Y-10.323
X135.756 Y-10.38
X135.951 Y-10.595
X136.048 Y-10.713
X136.221 Y-10.945
X136.306 Y-11.072
X136.456 Y-11.32
X136.531 Y-11.458
X136.656 Y-11.719
X136.714 Y-11.857
X136.814 Y-12.13
X136.859 Y-12.276
X136.932 Y-12.557
X136.964 Y-12.71
X137.009 Y-12.996
X137.026 Y-13.15
X137.043 Y-13.44
X137.044 Y-13.593
X137.033 Y-13.883
X137.021 Y-14.031
X136.983 Y-14.318
X136.955 Y-14.472
X136.889 Y-14.754
X136.847 Y-14.901
X136.754 Y-15.176
X136.696 Y-15.322
X136.576 Y-15.587
X136.508 Y-15.721
X136.364 Y-15.972
X136.28 Y-16.103
X136.112 Y-16.339
X136.018 Y-16.459
X135.828 Y-16.678
X135.781 Y-16.73
X135.487 Y-17.041
X135.208 Y-17.34
X134.94 Y-17.632
X134.683 Y-17.918
X134.436 Y-18.197
X134.201 Y-18.47
X133.976 Y-18.736
X133.761 Y-18.996
X133.555 Y-19.252
X133.363 Y-19.497
X132.997 Y-19.985
X132.67 Y-20.449
X132.377 Y-20.895
X132.117 Y-21.324
X131.887 Y-21.74
X131.685 Y-22.142
X131.51 Y-22.536
X131.356 Y-22.928
X131.223 Y-23.318
X131.111 Y-23.71
X131.018 Y-24.105
X130.943 Y-24.506
X130.887 Y-24.917
X130.848 Y-25.34
X130.825 Y-25.779
X130.82 Y-26.236
X130.833 Y-26.721
X130.864 Y-27.234
X130.915 Y-27.777
X130.986 Y-28.356
X131.078 Y-28.971
X131.131 Y-29.284
X131.191 Y-29.613
X131.256 Y-29.954
X131.326 Y-30.303
X131.401 Y-30.661
X131.483 Y-31.029
X131.571 Y-31.41
X131.665 Y-31.802
X131.764 Y-32.203
X131.869 Y-32.618
X131.98 Y-33.043
X132.098 Y-33.481
X138.998 Y-58.924
G2 X138.998 Y-80.112 I-39.061 J-10.594
G1 X132.098 Y-105.555
X131.977 Y-106.008
X131.862 Y-106.446
X131.754 Y-106.87
X131.653 Y-107.285
X131.557 Y-107.687
X131.468 Y-108.078
X131.384 Y-108.456
X131.308 Y-108.823
X131.237 Y-109.183
X131.171 Y-109.529
X131.112 Y-109.866
X131.058 Y-110.193
X131.01 Y-110.512
X130.968 Y-110.814
X130.9 Y-111.406
X130.853 Y-111.961
X130.827 Y-112.485
X130.82 Y-112.979
X130.832 Y-113.444
X130.862 Y-113.885
X130.911 Y-114.312
X130.977 Y-114.724
X131.061 Y-115.123
X131.163 Y-115.518
X131.283 Y-115.903
X131.424 Y-116.287
X131.585 Y-116.673
X131.766 Y-117.061
X131.97 Y-117.451
X132.201 Y-117.855
X132.46 Y-118.272
X132.749 Y-118.704
X133.072 Y-119.155
X133.429 Y-119.624
X133.823 Y-120.116
X134.031 Y-120.366
X134.25 Y-120.625
X134.479 Y-120.889
X134.717 Y-121.158
X134.967 Y-121.434
X135.225 Y-121.716
X135.497 Y-122.006
X135.782 Y-122.308
X135.827 Y-122.358
X136.017 Y-122.577
X136.111 Y-122.696
X136.279 Y-122.932
X136.364 Y-123.065
X136.508 Y-123.317
X136.577 Y-123.453
X136.696 Y-123.717
X136.751 Y-123.856
X136.845 Y-124.131
X136.889 Y-124.283
X136.955 Y-124.566
X136.983 Y-124.719
X137.021 Y-125.006
X137.033 Y-125.154
X137.044 Y-125.444
X137.043 Y-125.597
X137.026 Y-125.887
X137.009 Y-126.041
X136.964 Y-126.327
X136.932 Y-126.48
X136.859 Y-126.76
X136.814 Y-126.906
X136.714 Y-127.179
X136.656 Y-127.317
X136.531 Y-127.579
X136.456 Y-127.717
X136.306 Y-127.965
X136.223 Y-128.089
X136.05 Y-128.322
X135.951 Y-128.443
X135.756 Y-128.658
X135.702 Y-128.714
X128.603 Y-135.812
X128.548 Y-135.865
X128.333 Y-136.06
X128.215 Y-136.157
X127.983 Y-136.33
X127.858 Y-136.414
X127.611 Y-136.564
X127.542 Y-136.604
X127.471 Y-136.64
X127.209 Y-136.765
X127.073 Y-136.822
X126.801 Y-136.922
X126.653 Y-136.968
X126.373 Y-137.041
X126.22 Y-137.073
X125.934 Y-137.118
X125.786 Y-137.134
X125.497 Y-137.152
X125.338 Y-137.154
X125.048 Y-137.143
X124.9 Y-137.131
X124.613 Y-137.093
X124.459 Y-137.065
X124.177 Y-136.999
X124.035 Y-136.958
X123.76 Y-136.866
X123.685 Y-136.839
X123.612 Y-136.808
X123.348 Y-136.689
X123.212 Y-136.62
X122.96 Y-136.476
X122.831 Y-136.394
X122.595 Y-136.227
X122.478 Y-136.135
X122.258 Y-135.946
X122.201 Y-135.896
X121.894 Y-135.605
X121.6 Y-135.331
X121.312 Y-135.069
X121.027 Y-134.814
X120.752 Y-134.571
X120.482 Y-134.34
X120.216 Y-134.117
X119.958 Y-133.905
X119.706 Y-133.703
X119.463 Y-133.514
X118.979 Y-133.153
X118.519 Y-132.83
X118.077 Y-132.542
X117.651 Y-132.287
X117.237 Y-132.06
X116.838 Y-131.862
X116.446 Y-131.689
X116.055 Y-131.537
X115.666 Y-131.406
X115.278 Y-131.296
X114.884 Y-131.205
X114.482 Y-131.131
X114.074 Y-131.076
X113.65 Y-131.038
X113.214 Y-131.016
X112.757 Y-131.013
X112.272 Y-131.026
X111.76 Y-131.058
X111.218 Y-131.109
X110.642 Y-131.18
X110.028 Y-131.273
X109.713 Y-131.326
X109.385 Y-131.385
X109.049 Y-131.449
X108.701 Y-131.52
X108.341 Y-131.597
X107.973 Y-131.678
X107.595 Y-131.765
X107.206 Y-131.858
X106.805 Y-131.957
X106.394 Y-132.061
X105.971 Y-132.172
X105.532 Y-132.29
X80.005 Y-139.213
G2 X58.817 Y-139.213 I-10.594 J39.061
G1 X33.289 Y-132.29
X32.839 Y-132.169
X32.403 Y-132.055
X31.978 Y-131.947
X31.568 Y-131.846
X31.167 Y-131.751
X30.778 Y-131.662
X30.4 Y-131.579
X30.031 Y-131.502
X29.675 Y-131.43
X29.33 Y-131.366
X28.992 Y-131.306
X28.673 Y-131.253
X28.045 Y-131.162
X27.456 Y-131.094
X26.903 Y-131.046
X26.382 Y-131.019
X25.89 Y-131.012
X25.424 Y-131.023
X24.982 Y-131.053
X24.558 Y-131.1
X24.146 Y-131.165
X23.748 Y-131.246
X23.357 Y-131.347
X22.97 Y-131.466
X22.586 Y-131.604
X22.203 Y-131.763
X21.819 Y-131.941
X21.431 Y-132.142
X21.029 Y-132.37
X20.616 Y-132.624
X20.187 Y-132.91
X19.74 Y-133.228
X19.275 Y-133.579
X18.786 Y-133.968
X18.54 Y-134.171
X18.284 Y-134.388
X18.022 Y-134.614
X17.755 Y-134.849
X17.482 Y-135.094
X17.202 Y-135.351
X16.916 Y-135.616
X16.62 Y-135.895
X16.565 Y-135.945
X16.345 Y-136.134
X16.226 Y-136.227
X15.99 Y-136.394
X15.863 Y-136.475
X15.612 Y-136.619
X15.541 Y-136.657
X15.469 Y-136.692
X15.205 Y-136.81
X15.067 Y-136.864
X14.792 Y-136.957
X14.645 Y-136.999
X14.363 Y-137.065
X14.21 Y-137.093
X13.923 Y-137.131
X13.775 Y-137.143
X13.485 Y-137.154
X13.326 Y-137.152
X13.036 Y-137.134
X12.888 Y-137.118
X12.602 Y-137.073
X12.449 Y-137.041
X12.169 Y-136.968
X12.022 Y-136.922
X11.749 Y-136.822
X11.612 Y-136.764
X11.351 Y-136.639
X11.213 Y-136.565
X10.965 Y-136.415
X10.839 Y-136.33
X10.607 Y-136.157
X10.488 Y-136.059
X10.273 Y-135.864
X10.218 Y-135.812
X3.12 Y-128.714
X3.067 Y-128.658
X2.871 Y-128.443
X2.773 Y-128.323
X2.599 Y-128.09
X2.515 Y-127.964
X2.365 Y-127.716
X2.292 Y-127.581
X2.167 Y-127.319
X2.108 Y-127.179
X2.008 Y-126.907
X1.962 Y-126.758
X1.889 Y-126.477
X1.858 Y-126.328
X1.813 Y-126.042
X1.796 Y-125.889
X1.779 Y-125.599
X1.777 Y-125.445
X1.788 Y-125.155
X1.801 Y-125.002
X1.84 Y-124.715
X1.867 Y-124.565
X1.933 Y-124.283
X1.976 Y-124.135
X2.069 Y-123.86
X2.125 Y-123.718
X2.244 Y-123.453
X2.314 Y-123.317
X2.458 Y-123.065
X2.542 Y-122.933
X2.71 Y-122.697
X2.805 Y-122.576
X2.995 Y-122.357
X3.041 Y-122.306
X3.335 Y-121.996
X3.614 Y-121.696
X3.882 Y-121.405
X4.138 Y-121.119
X4.385 Y-120.839
X4.62 Y-120.568
X4.846 Y-120.3
X5.061 Y-120.04
X5.267 Y-119.784
X5.459 Y-119.539
X5.825 Y-119.052
X6.152 Y-118.588
X6.444 Y-118.143
X6.704 Y-117.712
X6.935 Y-117.297
X7.136 Y-116.895
X7.312 Y-116.5
X7.466 Y-116.108
X7.598 Y-115.718
X7.71 Y-115.328
X7.803 Y-114.932
X7.878 Y-114.53
X7.935 Y-114.12
X7.974 Y-113.696
X7.997 Y-113.258
X8.002 Y-112.8
X7.989 Y-112.315
X7.958 Y-111.802
X7.907 Y-111.259
X7.836 Y-110.683
X7.744 Y-110.066
X7.69 Y-109.752
X7.631 Y-109.422
X7.566 Y-109.083
X7.496 Y-108.735
X7.42 Y-108.376
X7.338 Y-108.007
X7.251 Y-107.626
X7.157 Y-107.235
X7.058 Y-106.833
X6.953 Y-106.419
X6.842 Y-105.994
X6.724 Y-105.555
X-0.176 Y-80.112
G2 X-0.176 Y-58.924 I39.061 J10.594
G1 X6.724 Y-33.481
X6.845 Y-33.029
X6.96 Y-32.591
X7.067 Y-32.166
X7.169 Y-31.752
X7.265 Y-31.35
X7.354 Y-30.96
X7.437 Y-30.58
X7.514 Y-30.212
X7.586 Y-29.854
X7.651 Y-29.507
X7.71 Y-29.17
X7.764 Y-28.843
X7.812 Y-28.526
X7.853 Y-28.223
X7.922 Y-27.629
X7.969 Y-27.075
X7.995 Y-26.553
X8.002 Y-26.059
X7.989 Y-25.593
X7.959 Y-25.15
X7.911 Y-24.725
X7.845 Y-24.313
X7.761 Y-23.913
X7.659 Y-23.52
X7.538 Y-23.133
X7.398 Y-22.748
X7.238 Y-22.364
X7.056 Y-21.977
X6.852 Y-21.585
X6.621 Y-21.182
X6.362 Y-20.765
X6.072 Y-20.332
X5.75 Y-19.882
X5.393 Y-19.413
X4.998 Y-18.92
X4.791 Y-18.671
X4.572 Y-18.413
X4.343 Y-18.149
X4.104 Y-17.878
X3.855 Y-17.602
X3.595 Y-17.32
X3.326 Y-17.031
X3.042 Y-16.731
X2.994 Y-16.679
X2.804 Y-16.459
X2.709 Y-16.338
X2.541 Y-16.102
X2.459 Y-15.973
X2.315 Y-15.722
X2.245 Y-15.585
X2.125 Y-15.32
X2.069 Y-15.177
X1.976 Y-14.902
X1.933 Y-14.755
X1.867 Y-14.472
X1.84 Y-14.322
X1.801 Y-14.035
X1.788 Y-13.882
X1.777 Y-13.591
X1.779 Y-13.438
X1.796 Y-13.148
X1.813 Y-12.995
X1.858 Y-12.709
X1.889 Y-12.559
X1.962 Y-12.278
X2.007 Y-12.132
X2.107 Y-11.859
X2.167 Y-11.717
X2.292 Y-11.455
X2.365 Y-11.32
X2.515 Y-11.072
X2.601 Y-10.945
X2.774 Y-10.713
X2.871 Y-10.594
X3.066 Y-10.379
X3.12 Y-10.323
X10.218 Y-3.225
X10.274 Y-3.172
X10.488 Y-2.977
X10.607 Y-2.88
X10.839 Y-2.707
X10.966 Y-2.621
X11.213 Y-2.471
X11.348 Y-2.399
X11.61 Y-2.273
X11.751 Y-2.214
X12.024 Y-2.114
X12.17 Y-2.068
X12.45 Y-1.996
X12.6 Y-1.964
X12.886 Y-1.919
X13.038 Y-1.902
X13.327 Y-1.884
X13.481 Y-1.883
X13.771 Y-1.893
X13.924 Y-1.906
X14.211 Y-1.944
X14.361 Y-1.972
X14.643 Y-2.037
X14.79 Y-2.079
X15.065 Y-2.172
X15.208 Y-2.228
X15.473 Y-2.347
X15.609 Y-2.416
X15.861 Y-2.56
X15.99 Y-2.642
X16.226 Y-2.809
X16.347 Y-2.904
X16.567 Y-3.093
X16.619 Y-3.14
X16.926 Y-3.431
X17.222 Y-3.705
X17.511 Y-3.969
X17.794 Y-4.222
X18.07 Y-4.465
X18.341 Y-4.697
X18.605 Y-4.919
X18.863 Y-5.132
X19.116 Y-5.334
X19.359 Y-5.523
X19.843 Y-5.884
X20.303 Y-6.206
X20.745 Y-6.494
X21.171 Y-6.75
X21.584 Y-6.976
X21.984 Y-7.175
X22.377 Y-7.349
X22.766 Y-7.5
X23.154 Y-7.63
X23.544 Y-7.74
X23.938 Y-7.832
X24.339 Y-7.905
X24.749 Y-7.961
X25.171 Y-7.999
X25.608 Y-8.02
X26.066 Y-8.024
X26.55 Y-8.011
X27.061 Y-7.979
X27.604 Y-7.928
X28.179 Y-7.857
X28.794 Y-7.764
X29.108 Y-7.711
X29.436 Y-7.652
X29.774 Y-7.587
X30.121 Y-7.516
X30.479 Y-7.441
X30.847 Y-7.359
X31.226 Y-7.272
X31.616 Y-7.179
X32.016 Y-7.08
X32.428 Y-6.975
X32.852 Y-6.864
X33.289 Y-6.747
X58.817 Y0.176
G2 X69.411 Y1.588 I10.594 J-39.061
G3 X69.728 Y1.905 I0 J0.317
G1 Y2.223
G19 G3 Y2.54 Z-5.943 J0 K0.318
G0 Z15
G17
G28 G91 Z0
G90
G28 G91 X0 Y0
G90
M5
M30
