(1001)
(T9  D=3.175 CR=0 - ZMIN=-6.26 - flat end mill)
G90 G94
G17
G21
G28 G91 Z0
G90

(2D Contour1)
T9
S18000 M3
G54
G0 X69.261 Y-103.099
Z15
Z5
G1 Z1 F50
Z-5.943
Y-103.107 Z-6.013 F150
Y-103.13 Z-6.08
Y-103.168 Z-6.14
X69.262 Y-103.218 Z-6.191
Y-103.278 Z-6.229
Y-103.345 Z-6.252
X69.263 Y-103.416 Z-6.26
X69.264 Y-103.734
G3 X69.583 Y-104.049 I0.317 J0.002
X103.942 Y-69.518 I-0.173 J34.531
X34.879 Y-69.518 I-34.532 J0
X69.583 Y-104.049 I34.532 J0
X69.899 Y-103.73 I-0.002 J0.317
G1 X69.898 Y-103.413
X69.897 Y-103.342 Z-6.252
Y-103.275 Z-6.229
Y-103.215 Z-6.191
X69.896 Y-103.165 Z-6.14
Y-103.127 Z-6.08
Y-103.103 Z-6.013
Y-103.095 Z-5.943
G0 Z5
X84.902 Y-124.851
G1 Z1 F50
Z-5.943
X84.904 Y-124.859 Z-6.013 F150
X84.91 Y-124.882 Z-6.08
X84.921 Y-124.918 Z-6.14
X84.935 Y-124.966 Z-6.191
X84.951 Y-125.024 Z-6.229
X84.97 Y-125.089 Z-6.252
X84.989 Y-125.157 Z-6.26
X85.076 Y-125.462
G3 X85.469 Y-125.68 I0.305 J0.087
X126.85 Y-80.139 I-16.058 J56.162
X123.494 Y-76.106 I-3.356 J0.62
G1 X115.302
G3 X111.968 Y-78.792 I0 J-3.412
G2 X78.684 Y-112.075 I-42.557 J9.274
G3 X75.998 Y-115.41 I0.727 J-3.335
G1 Y-123.602
G3 X80.031 Y-126.957 I3.412 J0
X85.469 Y-125.68 I-10.62 J57.439
X85.687 Y-125.287 I-0.087 J0.305
G1 X85.6 Y-124.982
X85.58 Y-124.914 Z-6.252
X85.562 Y-124.85 Z-6.229
X85.545 Y-124.792 Z-6.191
X85.531 Y-124.744 Z-6.14
X85.521 Y-124.707 Z-6.08
X85.515 Y-124.685 Z-6.013
X85.512 Y-124.677 Z-5.943
G0 Z5
X26.705 Y-82.059
G1 Z1 F50
Z-5.943
X26.713 Y-82.057 Z-6.013 F150
X26.735 Y-82.051 Z-6.08
X26.772 Y-82.04 Z-6.14
X26.82 Y-82.026 Z-6.191
X26.878 Y-82.01 Z-6.229
X26.942 Y-81.991 Z-6.252
X27.01 Y-81.972 Z-6.26
X27.315 Y-81.885
G3 X27.533 Y-81.492 I-0.087 J0.305
G2 X26.854 Y-78.792 I41.877 J11.974
G3 X23.52 Y-76.106 I-3.334 J-0.726
G1 X15.328
G3 X11.972 Y-80.139 I0 J-3.413
X58.79 Y-126.957 I57.439 J10.621
X62.823 Y-123.602 I0.621 J3.355
G1 Y-115.41
G3 X60.137 Y-112.075 I-3.413 J0
G2 X27.533 Y-81.492 I9.273 J42.557
G3 X27.141 Y-81.274 I-0.305 J-0.087
G1 X26.836 Y-81.361
X26.768 Y-81.381 Z-6.252
X26.703 Y-81.399 Z-6.229
X26.645 Y-81.416 Z-6.191
X26.597 Y-81.43 Z-6.14
X26.561 Y-81.44 Z-6.08
X26.538 Y-81.446 Z-6.013
X26.53 Y-81.449 Z-5.943
G0 Z5
Y-57.588
G1 Z1 F50
Z-5.943
X26.538 Y-57.59 Z-6.013 F150
X26.561 Y-57.597 Z-6.08
X26.597 Y-57.607 Z-6.14
X26.645 Y-57.621 Z-6.191
X26.703 Y-57.637 Z-6.229
X26.768 Y-57.656 Z-6.252
X26.836 Y-57.675 Z-6.26
X27.141 Y-57.762
G3 X27.533 Y-57.544 I0.087 J0.305
G2 X60.137 Y-26.961 I41.877 J-11.974
G3 X62.823 Y-23.627 I-0.727 J3.334
G1 Y-15.435
G3 X58.79 Y-12.079 I-3.412 J0
X11.972 Y-58.898 I10.62 J-57.439
X15.328 Y-62.931 I3.356 J-0.62
G1 X23.52
G3 X26.854 Y-60.245 I0 J3.412
G2 X27.533 Y-57.544 I42.557 J-9.273
G3 X27.315 Y-57.152 I-0.305 J0.087
G1 X27.01 Y-57.065
X26.942 Y-57.045 Z-6.252
X26.878 Y-57.027 Z-6.229
X26.82 Y-57.01 Z-6.191
X26.772 Y-56.996 Z-6.14
X26.735 Y-56.986 Z-6.08
X26.713 Y-56.98 Z-6.013
X26.705 Y-56.977 Z-5.943
G0 Z5
X16.871 Y-17.336
G1 Z1 F50
Z-5.943
G18 G2 X17.188 Z-6.26 I0.318 K0 F150
G1 X17.506
G17 G3 X17.823 Y-17.018 I0 J0.318
X15.998 Y-17.018 I-0.913 J0
X17.823 Y-17.018 I0.913 J0
X17.506 Y-16.701 I-0.318 J0
G1 X17.188
G18 G3 X16.871 Z-5.943 I0 K0.318
G0 Z5
X124.744 Y-54.027
G1 Z1 F50
Z-5.943
X124.752 Y-54.025 Z-6.013 F150
X124.775 Y-54.018 Z-6.08
X124.811 Y-54.008 Z-6.14
X124.859 Y-53.994 Z-6.191
X124.917 Y-53.977 Z-6.229
X124.982 Y-53.959 Z-6.252
X125.05 Y-53.94 Z-6.26
X125.355 Y-53.852
G17 G3 X125.573 Y-53.46 I-0.087 J0.305
X82.636 Y-12.623 I-56.162 J-16.059
X75.998 Y-17.895 I-1.225 J-5.272
G1 Y-22.043
G3 X80.085 Y-27.291 I5.413 J0
G2 X111.638 Y-58.845 I-10.674 J-42.227
G3 X116.886 Y-62.931 I5.248 J1.327
G1 X121.035
G3 X126.307 Y-56.293 I0 J5.412
X125.573 Y-53.46 I-56.896 J-13.226
X125.18 Y-53.242 I-0.305 J-0.087
G1 X124.875 Y-53.329
X124.807 Y-53.349 Z-6.252
X124.743 Y-53.367 Z-6.229
X124.685 Y-53.384 Z-6.191
X124.636 Y-53.397 Z-6.14
X124.6 Y-53.408 Z-6.08
X124.577 Y-53.414 Z-6.013
X124.57 Y-53.416 Z-5.943
G0 Z5
X121.871 Y-17.336
G1 Z1 F50
Z-5.943
G18 G2 X122.188 Z-6.26 I0.317 K0 F150
G1 X122.506
G17 G3 X122.824 Y-17.018 I0 J0.318
X120.999 Y-17.018 I-0.912 J0
X122.824 Y-17.018 I0.912 J0
X122.506 Y-16.701 I-0.318 J0
G1 X122.188
G18 G3 X121.871 Z-5.943 I0 K0.318
G0 Z5
X121.988 Y-122.329
G1 Z1 F50
Z-5.943
X121.996 Y-122.326 Z-6.013 F150
X122.018 Y-122.317 Z-6.08
X122.053 Y-122.303 Z-6.14
X122.1 Y-122.285 Z-6.191
X122.156 Y-122.264 Z-6.229
X122.219 Y-122.239 Z-6.252
X122.284 Y-122.214 Z-6.26
X122.581 Y-122.099
G17 G3 X122.762 Y-121.688 I-0.115 J0.296
X121.06 Y-122.348 I-0.851 J-0.33
X122.762 Y-121.688 I0.851 J0.33
X122.351 Y-121.507 I-0.296 J-0.115
G1 X122.055 Y-121.622
X121.989 Y-121.647 Z-6.252
X121.927 Y-121.671 Z-6.229
X121.87 Y-121.693 Z-6.191
X121.824 Y-121.711 Z-6.14
X121.788 Y-121.725 Z-6.08
X121.766 Y-121.734 Z-6.013
X121.759 Y-121.736 Z-5.943
G0 Z5
X16.871 Y-122.336
G1 Z1 F50
Z-5.943
G18 G2 X17.188 Z-6.26 I0.318 K0 F150
G1 X17.506
G17 G3 X17.823 Y-122.018 I0 J0.318
X15.998 Y-122.018 I-0.913 J0
X17.823 Y-122.018 I0.913 J0
X17.506 Y-121.701 I-0.318 J0
G1 X17.188
G18 G3 X16.871 Z-5.943 I0 K0.318
G0 Z15
G17
G28 G91 Z0
G90
G28 G91 X0 Y0
G90
M5
M30
