(1001)
(T9  D=3.175 CR=0 - ZMIN=-6.26 - flat end mill)
G90 G94
G17
G21
G28 G91 Z0
G90

(2D Contour2)
T9
S18000 M3
G54
G0 X69.093 Y2.54
Z15
Z5
G1 Z1 F50
Z-5.943
G19 G2 Y2.223 Z-6.26 J-0.318 K0 F150
G1 Y1.905
G17 G3 X69.411 Y1.588 I0.317 J0
G2 X80.005 Y0.176 I0 J-40.473
G1 X105.532 Y-6.747
X105.97 Y-6.864
X106.393 Y-6.975
X106.806 Y-7.08
X107.207 Y-7.179
X107.596 Y-7.272
X107.975 Y-7.359
X108.343 Y-7.441
X108.7 Y-7.517
X109.048 Y-7.587
X109.386 Y-7.652
X109.714 Y-7.711
X110.028 Y-7.764
X110.642 Y-7.857
X111.217 Y-7.928
X111.759 Y-7.979
X112.271 Y-8.011
X112.755 Y-8.024
X113.214 Y-8.02
X113.649 Y-7.999
X114.071 Y-7.961
X114.481 Y-7.905
X114.883 Y-7.831
X115.278 Y-7.74
X115.668 Y-7.629
X116.057 Y-7.499
X116.447 Y-7.348
X116.838 Y-7.175
X117.238 Y-6.976
X117.652 Y-6.75
X118.078 Y-6.494
X118.52 Y-6.206
X118.98 Y-5.884
X119.463 Y-5.524
X119.705 Y-5.335
X119.957 Y-5.132
X120.216 Y-4.92
X120.482 Y-4.697
X120.752 Y-4.465
X121.027 Y-4.223
X121.311 Y-3.969
X121.599 Y-3.706
X121.894 Y-3.431
X122.202 Y-3.141
X122.256 Y-3.092
X122.476 Y-2.903
X122.595 Y-2.81
X122.831 Y-2.643
X122.962 Y-2.559
X123.214 Y-2.416
X123.348 Y-2.347
X123.612 Y-2.229
X123.757 Y-2.172
X124.032 Y-2.079
X124.179 Y-2.037
X124.461 Y-1.971
X124.611 Y-1.944
X124.898 Y-1.906
X125.051 Y-1.893
X125.341 Y-1.883
X125.495 Y-1.884
X125.784 Y-1.902
X125.936 Y-1.919
X126.222 Y-1.964
X126.372 Y-1.996
X126.652 Y-2.068
X126.799 Y-2.114
X127.071 Y-2.214
X127.211 Y-2.273
X127.473 Y-2.398
X127.61 Y-2.472
X127.857 Y-2.622
X127.983 Y-2.707
X128.215 Y-2.88
X128.332 Y-2.976
X128.547 Y-3.171
X128.603 Y-3.225
X135.702 Y-10.323
X135.756 Y-10.38
X135.951 Y-10.595
X136.048 Y-10.713
X136.221 Y-10.945
X136.306 Y-11.072
X136.456 Y-11.32
X136.531 Y-11.458
X136.656 Y-11.72
X136.714 Y-11.857
X136.814 Y-12.13
X136.859 Y-12.276
X136.932 Y-12.557
X136.964 Y-12.71
X137.009 Y-12.996
X137.026 Y-13.15
X137.043 Y-13.44
X137.044 Y-13.593
X137.033 Y-13.883
X137.021 Y-14.031
X136.983 Y-14.318
X136.955 Y-14.472
X136.889 Y-14.754
X136.845 Y-14.906
X136.751 Y-15.181
X136.697 Y-15.318
X136.578 Y-15.583
X136.507 Y-15.721
X136.363 Y-15.973
X136.28 Y-16.103
X136.112 Y-16.339
X136.018 Y-16.459
X135.828 Y-16.678
X135.781 Y-16.73
X135.496 Y-17.031
X135.226 Y-17.32
X134.967 Y-17.602
X134.717 Y-17.879
X134.479 Y-18.149
X134.25 Y-18.412
X134.03 Y-18.671
X133.823 Y-18.92
X133.429 Y-19.412
X133.073 Y-19.881
X132.75 Y-20.332
X132.46 Y-20.765
X132.201 Y-21.181
X131.97 Y-21.585
X131.766 Y-21.976
X131.585 Y-22.362
X131.424 Y-22.747
X131.285 Y-23.131
X131.164 Y-23.521
X131.061 Y-23.914
X130.978 Y-24.315
X130.911 Y-24.728
X130.862 Y-25.151
X130.832 Y-25.593
X130.82 Y-26.061
X130.826 Y-26.554
X130.852 Y-27.075
X130.9 Y-27.63
X130.968 Y-28.226
X131.009 Y-28.527
X131.057 Y-28.843
X131.111 Y-29.169
X131.171 Y-29.508
X131.236 Y-29.854
X131.307 Y-30.212
X131.384 Y-30.58
X131.468 Y-30.959
X131.557 Y-31.351
X131.652 Y-31.752
X131.754 Y-32.164
X131.862 Y-32.59
X131.977 Y-33.029
X132.098 Y-33.482
X138.998 Y-58.924
G2 X138.998 Y-80.112 I-39.061 J-10.594
G1 X132.098 Y-105.556
X131.98 Y-105.993
X131.87 Y-106.419
X131.764 Y-106.834
X131.664 Y-107.237
X131.57 Y-107.627
X131.484 Y-108.006
X131.401 Y-108.376
X131.326 Y-108.734
X131.256 Y-109.082
X131.191 Y-109.424
X131.131 Y-109.752
X131.078 Y-110.065
X130.986 Y-110.682
X130.914 Y-111.258
X130.864 Y-111.8
X130.833 Y-112.315
X130.82 Y-112.8
X130.825 Y-113.257
X130.848 Y-113.695
X130.887 Y-114.118
X130.943 Y-114.528
X131.019 Y-114.932
X131.112 Y-115.328
X131.225 Y-115.72
X131.356 Y-116.111
X131.51 Y-116.501
X131.685 Y-116.895
X131.888 Y-117.298
X132.118 Y-117.714
X132.377 Y-118.143
X132.669 Y-118.587
X132.997 Y-119.052
X133.362 Y-119.539
X133.555 Y-119.784
X133.761 Y-120.04
X133.976 Y-120.301
X134.201 Y-120.567
X134.436 Y-120.839
X134.683 Y-121.119
X134.94 Y-121.405
X135.208 Y-121.696
X135.487 Y-121.996
X135.781 Y-122.307
X135.827 Y-122.358
X136.017 Y-122.577
X136.111 Y-122.696
X136.279 Y-122.932
X136.364 Y-123.065
X136.508 Y-123.317
X136.576 Y-123.45
X136.696 Y-123.715
X136.754 Y-123.861
X136.847 Y-124.136
X136.889 Y-124.283
X136.955 Y-124.565
X136.983 Y-124.719
X137.021 Y-125.006
X137.033 Y-125.154
X137.044 Y-125.444
X137.043 Y-125.597
X137.026 Y-125.887
X137.009 Y-126.041
X136.964 Y-126.327
X136.932 Y-126.479
X136.859 Y-126.76
X136.813 Y-126.909
X136.713 Y-127.181
X136.656 Y-127.317
X136.531 Y-127.579
X136.456 Y-127.717
X136.306 Y-127.965
X136.223 Y-128.089
X136.05 Y-128.322
X135.951 Y-128.443
X135.756 Y-128.658
X135.702 Y-128.714
X128.603 Y-135.812
X128.548 Y-135.865
X128.333 Y-136.06
X128.215 Y-136.157
X127.983 Y-136.33
X127.858 Y-136.414
X127.611 Y-136.564
X127.542 Y-136.604
X127.471 Y-136.64
X127.209 Y-136.765
X127.073 Y-136.822
X126.801 Y-136.922
X126.653 Y-136.968
X126.373 Y-137.041
X126.22 Y-137.073
X125.934 Y-137.118
X125.785 Y-137.134
X125.495 Y-137.152
X125.337 Y-137.154
X125.047 Y-137.143
X124.898 Y-137.131
X124.612 Y-137.093
X124.459 Y-137.065
X124.177 Y-136.999
X124.03 Y-136.957
X123.755 Y-136.864
X123.618 Y-136.81
X123.353 Y-136.692
X123.28 Y-136.657
X123.209 Y-136.619
X122.958 Y-136.475
X122.831 Y-136.394
X122.595 Y-136.227
X122.478 Y-136.135
X122.258 Y-135.946
X122.201 Y-135.895
X121.904 Y-135.614
X121.62 Y-135.35
X121.341 Y-135.096
X121.067 Y-134.849
X120.799 Y-134.613
X120.538 Y-134.387
X120.283 Y-134.172
X120.036 Y-133.968
X119.547 Y-133.578
X119.082 Y-133.227
X118.637 Y-132.91
X118.207 Y-132.625
X117.792 Y-132.369
X117.392 Y-132.142
X117.004 Y-131.942
X116.619 Y-131.763
X116.235 Y-131.604
X115.853 Y-131.466
X115.466 Y-131.348
X115.073 Y-131.247
X114.673 Y-131.164
X114.263 Y-131.1
X113.839 Y-131.053
X113.397 Y-131.023
X112.931 Y-131.012
X112.439 Y-131.019
X111.917 Y-131.046
X111.364 Y-131.094
X110.777 Y-131.162
X110.148 Y-131.253
X109.828 Y-131.306
X109.493 Y-131.366
X109.145 Y-131.431
X108.79 Y-131.501
X108.424 Y-131.579
X108.044 Y-131.662
X107.655 Y-131.751
X107.254 Y-131.846
X106.843 Y-131.947
X106.419 Y-132.055
X105.983 Y-132.169
X105.533 Y-132.29
X80.005 Y-139.213
G2 X58.817 Y-139.213 I-10.594 J39.061
G1 X33.29 Y-132.29
X32.851 Y-132.172
X32.428 Y-132.061
X32.016 Y-131.957
X31.615 Y-131.857
X31.226 Y-131.765
X30.847 Y-131.677
X30.48 Y-131.596
X30.122 Y-131.521
X29.772 Y-131.449
X29.437 Y-131.385
X29.109 Y-131.326
X28.794 Y-131.273
X28.179 Y-131.18
X27.606 Y-131.108
X27.064 Y-131.058
X26.551 Y-131.026
X26.065 Y-131.013
X25.608 Y-131.016
X25.172 Y-131.038
X24.751 Y-131.076
X24.34 Y-131.132
X23.938 Y-131.205
X23.544 Y-131.297
X23.153 Y-131.407
X22.765 Y-131.537
X22.376 Y-131.688
X21.984 Y-131.862
X21.583 Y-132.061
X21.171 Y-132.287
X20.744 Y-132.543
X20.302 Y-132.831
X19.842 Y-133.153
X19.359 Y-133.513
X19.116 Y-133.703
X18.863 Y-133.905
X18.605 Y-134.117
X18.34 Y-134.34
X18.07 Y-134.572
X17.795 Y-134.813
X17.512 Y-135.067
X17.222 Y-135.331
X16.927 Y-135.605
X16.62 Y-135.896
X16.565 Y-135.945
X16.345 Y-136.134
X16.226 Y-136.227
X15.99 Y-136.394
X15.863 Y-136.476
X15.611 Y-136.62
X15.473 Y-136.69
X15.209 Y-136.809
X15.061 Y-136.866
X14.787 Y-136.958
X14.645 Y-136.999
X14.363 Y-137.065
X14.209 Y-137.093
X13.923 Y-137.131
X13.774 Y-137.143
X13.484 Y-137.154
X13.326 Y-137.152
X13.036 Y-137.134
X12.888 Y-137.118
X12.602 Y-137.073
X12.449 Y-137.041
X12.168 Y-136.968
X12.022 Y-136.922
X11.749 Y-136.822
X11.612 Y-136.764
X11.35 Y-136.639
X11.212 Y-136.565
X10.965 Y-136.415
X10.838 Y-136.33
X10.606 Y-136.157
X10.488 Y-136.059
X10.273 Y-135.864
X10.218 Y-135.812
X3.12 Y-128.714
X3.067 Y-128.658
X2.871 Y-128.443
X2.773 Y-128.323
X2.599 Y-128.09
X2.515 Y-127.964
X2.365 Y-127.716
X2.292 Y-127.581
X2.167 Y-127.319
X2.107 Y-127.177
X2.007 Y-126.904
X1.962 Y-126.758
X1.889 Y-126.478
X1.858 Y-126.328
X1.813 Y-126.042
X1.796 Y-125.889
X1.779 Y-125.599
X1.777 Y-125.445
X1.788 Y-125.155
X1.801 Y-125.002
X1.84 Y-124.715
X1.867 Y-124.566
X1.933 Y-124.283
X1.976 Y-124.134
X2.069 Y-123.859
X2.126 Y-123.715
X2.245 Y-123.451
X2.314 Y-123.317
X2.458 Y-123.065
X2.542 Y-122.933
X2.71 Y-122.697
X2.805 Y-122.576
X2.995 Y-122.357
X3.04 Y-122.307
X3.325 Y-122.006
X3.596 Y-121.716
X3.855 Y-121.434
X4.103 Y-121.159
X4.342 Y-120.888
X4.572 Y-120.623
X4.792 Y-120.365
X4.999 Y-120.117
X5.393 Y-119.624
X5.75 Y-119.156
X6.072 Y-118.705
X6.361 Y-118.272
X6.621 Y-117.855
X6.852 Y-117.452
X7.055 Y-117.061
X7.237 Y-116.674
X7.397 Y-116.29
X7.537 Y-115.904
X7.658 Y-115.516
X7.761 Y-115.122
X7.845 Y-114.721
X7.911 Y-114.31
X7.959 Y-113.886
X7.989 Y-113.443
X8.002 Y-112.976
X7.995 Y-112.483
X7.969 Y-111.961
X7.922 Y-111.406
X7.854 Y-110.812
X7.812 Y-110.51
X7.764 Y-110.193
X7.71 Y-109.867
X7.651 Y-109.529
X7.586 Y-109.182
X7.515 Y-108.825
X7.437 Y-108.456
X7.354 Y-108.077
X7.265 Y-107.687
X7.169 Y-107.285
X7.068 Y-106.872
X6.96 Y-106.446
X6.845 Y-106.008
X6.724 Y-105.555
X-0.176 Y-80.112
G2 X-0.176 Y-58.924 I39.061 J10.594
G1 X6.724 Y-33.481
X6.842 Y-33.042
X6.953 Y-32.617
X7.058 Y-32.203
X7.157 Y-31.801
X7.251 Y-31.41
X7.338 Y-31.03
X7.42 Y-30.661
X7.496 Y-30.302
X7.567 Y-29.953
X7.631 Y-29.615
X7.691 Y-29.286
X7.744 Y-28.971
X7.836 Y-28.355
X7.907 Y-27.779
X7.958 Y-27.235
X7.989 Y-26.722
X8.002 Y-26.237
X7.997 Y-25.778
X7.974 Y-25.342
X7.935 Y-24.919
X7.878 Y-24.508
X7.803 Y-24.105
X7.71 Y-23.709
X7.597 Y-23.317
X7.465 Y-22.926
X7.312 Y-22.536
X7.136 Y-22.142
X6.934 Y-21.739
X6.704 Y-21.323
X6.444 Y-20.894
X6.152 Y-20.448
X5.825 Y-19.984
X5.459 Y-19.497
X5.267 Y-19.252
X5.061 Y-18.997
X4.846 Y-18.736
X4.621 Y-18.469
X4.385 Y-18.197
X4.139 Y-17.918
X3.882 Y-17.632
X3.614 Y-17.34
X3.336 Y-17.041
X3.041 Y-16.731
X2.994 Y-16.679
X2.804 Y-16.459
X2.709 Y-16.338
X2.541 Y-16.102
X2.459 Y-15.973
X2.314 Y-15.721
X2.245 Y-15.585
X2.125 Y-15.32
X2.069 Y-15.177
X1.976 Y-14.902
X1.933 Y-14.754
X1.867 Y-14.472
X1.84 Y-14.322
X1.801 Y-14.034
X1.788 Y-13.881
X1.777 Y-13.591
X1.779 Y-13.437
X1.796 Y-13.148
X1.813 Y-12.995
X1.858 Y-12.709
X1.889 Y-12.559
X1.962 Y-12.278
X2.008 Y-12.132
X2.107 Y-11.859
X2.167 Y-11.717
X2.292 Y-11.455
X2.365 Y-11.32
X2.515 Y-11.072
X2.601 Y-10.945
X2.774 Y-10.712
X2.871 Y-10.594
X3.066 Y-10.379
X3.12 Y-10.323
X10.218 Y-3.225
X10.274 Y-3.172
X10.488 Y-2.977
X10.607 Y-2.88
X10.839 Y-2.707
X10.966 Y-2.621
X11.214 Y-2.471
X11.348 Y-2.398
X11.61 Y-2.273
X11.752 Y-2.213
X12.024 Y-2.114
X12.17 Y-2.068
X12.45 Y-1.995
X12.6 Y-1.964
X12.886 Y-1.919
X13.038 Y-1.902
X13.328 Y-1.884
X13.481 Y-1.883
X13.771 Y-1.893
X13.924 Y-1.906
X14.211 Y-1.944
X14.361 Y-1.972
X14.643 Y-2.037
X14.791 Y-2.079
X15.066 Y-2.172
X15.209 Y-2.228
X15.473 Y-2.347
X15.61 Y-2.416
X15.861 Y-2.56
X15.99 Y-2.642
X16.226 Y-2.809
X16.347 Y-2.904
X16.567 Y-3.093
X16.619 Y-3.141
X16.916 Y-3.421
X17.202 Y-3.687
X17.482 Y-3.942
X17.755 Y-4.188
X18.022 Y-4.423
X18.284 Y-4.649
X18.54 Y-4.865
X18.786 Y-5.069
X19.275 Y-5.458
X19.74 Y-5.809
X20.186 Y-6.127
X20.615 Y-6.412
X21.029 Y-6.667
X21.43 Y-6.894
X21.818 Y-7.095
X22.202 Y-7.274
X22.586 Y-7.432
X22.97 Y-7.57
X23.357 Y-7.689
X23.749 Y-7.79
X24.149 Y-7.872
X24.559 Y-7.937
X24.982 Y-7.984
X25.425 Y-8.013
X25.891 Y-8.025
X26.383 Y-8.018
X26.905 Y-7.991
X27.458 Y-7.943
X28.045 Y-7.875
X28.673 Y-7.784
X28.994 Y-7.731
X29.33 Y-7.671
X29.676 Y-7.606
X30.032 Y-7.535
X30.399 Y-7.458
X30.777 Y-7.375
X31.166 Y-7.286
X31.567 Y-7.191
X31.979 Y-7.089
X32.403 Y-6.982
X32.839 Y-6.868
X33.289 Y-6.747
X58.817 Y0.176
G2 X69.411 Y1.588 I10.594 J-39.061
G3 X69.728 Y1.905 I0 J0.317
G1 Y2.223
G19 G3 Y2.54 Z-5.943 J0 K0.318
G0 Z15
G17
G28 G91 Z0
G90
G28 G91 X0 Y0
G90
M5
M30
