(1001)
(T1  D=3.175 CR=0 - ZMIN=-6.47 - flat end mill)
G90 G94
G17
G21
G28 G91 Z0
G90

(2D Contour1)
T1
S18000 M3
G54
M8
G0 X12.318 Y-9.04
Z15
Z5
G1 Z1 F50
Z-6.153
G19 G3 Y-8.722 Z-6.47 J0.318 K0 F150
G1 Y-8.405
G17 G3 X12 Y-8.087 I-0.318 J0
X10.587 Y-9.5 I0 J-1.413
G1 Y-10.5
G3 X12 Y-11.913 I1.413 J0
G1 X188
G3 X189.413 Y-10.5 I0 J1.413
G1 Y-9.5
G3 X188 Y-8.087 I-1.413 J0
G1 X12
G3 X11.682 Y-8.405 I0 J-0.318
G1 Y-8.722
G19 G2 Y-9.04 Z-6.153 J0 K0.317
G0 Z5
Y2.54
G1 Z1 F50
Z-6.153
G2 Y2.223 Z-6.47 J-0.317 K0 F150
G1 Y1.905
G17 G3 X12 Y1.587 I0.318 J0
G1 X196
G2 X201.587 Y-4 I0 J-5.587
G1 Y-16
G2 X196 Y-21.587 I-5.587 J0
G1 X4
G2 X-1.587 Y-16 I0 J5.587
G1 Y-4
G2 X4 Y1.587 I5.587 J0
G1 X12
G3 X12.318 Y1.905 I0 J0.317
G1 Y2.223
G19 G3 Y2.54 Z-6.153 J0 K0.317
G0 Z15
G17
M9
G28 G91 Z0
G90
G28 G91 X0 Y0
G90
M5
M30
