(1001)
(T1  D=3.175 CR=0 - ZMIN=-9.35 - flat end mill)
G90 G94
G17
G21
G28 G91 Z0
G90

(2D Contour10)
T1
S18000 M3
G54
G0 X103.006 Y-17.382
Z15
Z5
G1 Z1 F166.7
Z-9.033
X103.014 Y-17.379 Z-9.103 F500
X103.036 Y-17.37 Z-9.17
X103.071 Y-17.357 Z-9.23
X103.118 Y-17.338 Z-9.281
X103.174 Y-17.317 Z-9.319
X103.237 Y-17.292 Z-9.342
X103.302 Y-17.267 Z-9.35
X103.599 Y-17.152
G3 X103.78 Y-16.741 I-0.115 J0.296
X102.078 Y-17.401 I-0.851 J-0.33
X103.78 Y-16.741 I0.851 J0.33
X103.369 Y-16.56 I-0.296 J-0.115
G1 X103.073 Y-16.675
X103.007 Y-16.7 Z-9.342
X102.945 Y-16.725 Z-9.319
X102.888 Y-16.746 Z-9.281
X102.842 Y-16.764 Z-9.23
X102.806 Y-16.778 Z-9.17
X102.784 Y-16.787 Z-9.103
X102.777 Y-16.789 Z-9.033
Z1
Z5
G0 X20.656 Y-16.052
G1 Z1 F166.7
Z-9.033
X20.663 Y-16.049 Z-9.103 F500
X20.685 Y-16.04 Z-9.17
X20.72 Y-16.027 Z-9.23
X20.767 Y-16.009 Z-9.281
X20.824 Y-15.987 Z-9.319
X20.886 Y-15.963 Z-9.342
X20.952 Y-15.937 Z-9.35
X21.248 Y-15.822
G3 X21.429 Y-15.412 I-0.115 J0.296
X19.728 Y-16.071 I-0.851 J-0.33
X21.429 Y-15.412 I0.851 J0.33
X21.019 Y-15.23 I-0.296 J-0.115
G1 X20.723 Y-15.345
X20.657 Y-15.37 Z-9.342
X20.594 Y-15.395 Z-9.319
X20.538 Y-15.416 Z-9.281
X20.491 Y-15.435 Z-9.23
X20.456 Y-15.448 Z-9.17
X20.434 Y-15.457 Z-9.103
X20.427 Y-15.46 Z-9.033
Z1
Z5
G0 X17.031 Y-233.247
G1 Z1 F166.7
Z-9.033
G18 G2 X17.349 Z-9.35 I0.318 K0 F500
G1 X17.666
G17 G3 X17.984 Y-232.929 I0 J0.318
X16.159 Y-232.929 I-0.913 J0
X17.984 Y-232.929 I0.913 J0
X17.666 Y-232.611 I-0.318 J0
G1 X17.349
G18 G3 X17.031 Z-9.033 I0 K0.318
G1 Z1
Z5
G0 X99.104 Y-234.219
G1 Z1 F166.7
Z-9.033
Y-234.226 Z-9.103 F500
Y-234.25 Z-9.17
Y-234.288 Z-9.23
Y-234.338 Z-9.281
Y-234.398 Z-9.319
Y-234.465 Z-9.342
Y-234.536 Z-9.35
Y-234.854
G17 G3 X99.421 Y-235.171 I0.317 J0
X100.334 Y-234.259 I0 J0.912
X98.509 Y-234.259 I-0.912 J0
X99.421 Y-235.171 I0.912 J0
X99.739 Y-234.853 I0 J0.318
G1 Y-234.536
Y-234.465 Z-9.342
Y-234.398 Z-9.319
Y-234.338 Z-9.281
Y-234.288 Z-9.23
Y-234.25 Z-9.17
Y-234.226 Z-9.103
Y-234.218 Z-9.033
Z5
G0 Z15

(2D Contour11)
X-2.54 Y-250.318
Z15
Z5
G1 Z1 F166.7
Z-9.033
G18 G2 X-2.223 Z-9.35 I0.317 K0 F500
G1 X-1.905
G17 G3 X-1.587 Y-250 I0 J0.318
G1 Y0
G2 X0 Y1.587 I1.587 J0
G1 X120
G2 X121.588 Y0 I0 J-1.587
G1 Y-250
G2 X120 Y-251.587 I-1.588 J0
G1 X0
G2 X-1.587 Y-250 I0 J1.587
G3 X-1.905 Y-249.682 I-0.317 J0
G1 X-2.223
G18 G3 X-2.54 Z-9.033 I0 K0.318
G1 Z5
G0 Z15
G17
G28 G91 Z0
G90
G28 G91 X0 Y0
G90
M5
M30
