(1001)
(T1  D=3.175 CR=0 - ZMIN=-8.35 - flat end mill)
G90 G94
G17
G21
G28 G91 Z0
G90

(2D Contour10)
T1
S18000 M3
G54
G0 X27.031 Y-17.389
Z15
Z5
G1 Z1 F166.7
Z-8.033
G18 G2 X27.349 Z-8.35 I0.318 K0 F500
G1 X27.666
G17 G3 X27.984 Y-17.071 I0 J0.317
X26.159 Y-17.071 I-0.913 J0
X27.984 Y-17.071 I0.913 J0
X27.666 Y-16.754 I-0.318 J0
G1 X27.349
G18 G3 X27.031 Z-8.033 I0 K0.318
G1 Z1
Z5
G0 X103.006 Y-17.382
G1 Z1 F166.7
Z-8.033
X103.014 Y-17.379 Z-8.103 F500
X103.036 Y-17.37 Z-8.17
X103.071 Y-17.357 Z-8.23
X103.118 Y-17.338 Z-8.281
X103.174 Y-17.317 Z-8.319
X103.237 Y-17.292 Z-8.342
X103.302 Y-17.267 Z-8.35
X103.599 Y-17.152
G17 G3 X103.78 Y-16.741 I-0.115 J0.296
X102.078 Y-17.401 I-0.851 J-0.33
X103.78 Y-16.741 I0.851 J0.33
X103.369 Y-16.56 I-0.296 J-0.115
G1 X103.073 Y-16.675
X103.007 Y-16.7 Z-8.342
X102.945 Y-16.725 Z-8.319
X102.888 Y-16.746 Z-8.281
X102.842 Y-16.764 Z-8.23
X102.806 Y-16.778 Z-8.17
X102.784 Y-16.787 Z-8.103
X102.777 Y-16.789 Z-8.033
Z1
Z5
G0 X102.889 Y-233.247
G1 Z1 F166.7
Z-8.033
G18 G2 X103.206 Z-8.35 I0.317 K0 F500
G1 X103.524
G17 G3 X103.841 Y-232.929 I0 J0.318
X102.017 Y-232.929 I-0.912 J0
X103.841 Y-232.929 I0.912 J0
X103.524 Y-232.611 I-0.317 J0
G1 X103.206
G18 G3 X102.889 Z-8.033 I0 K0.318
G1 Z1
Z5
G0 X27.148 Y-233.24
G1 Z1 F166.7
Z-8.033
X27.156 Y-233.237 Z-8.103 F500
X27.178 Y-233.228 Z-8.17
X27.213 Y-233.214 Z-8.23
X27.26 Y-233.196 Z-8.281
X27.316 Y-233.175 Z-8.319
X27.379 Y-233.15 Z-8.342
X27.445 Y-233.125 Z-8.35
X27.741 Y-233.01
G17 G3 X27.922 Y-232.599 I-0.115 J0.296
X26.22 Y-233.259 I-0.851 J-0.33
X27.922 Y-232.599 I0.851 J0.33
X27.511 Y-232.418 I-0.296 J-0.115
G1 X27.215 Y-232.533
X27.149 Y-232.558 Z-8.342
X27.087 Y-232.582 Z-8.319
X27.031 Y-232.604 Z-8.281
X26.984 Y-232.622 Z-8.23
X26.948 Y-232.636 Z-8.17
X26.927 Y-232.645 Z-8.103
X26.919 Y-232.647 Z-8.033
Z5
G0 Z15

(2D Contour11)
X-2.54 Y-250.318
Z15
Z5
G1 Z1 F166.7
Z-8.033
G18 G2 X-2.223 Z-8.35 I0.317 K0 F500
G1 X-1.905
G17 G3 X-1.587 Y-250 I0 J0.318
G1 Y0
G2 X0 Y1.587 I1.587 J0
G1 X130
G2 X131.587 Y0 I0 J-1.587
G1 Y-250
G2 X130 Y-251.587 I-1.587 J0
G1 X0
G2 X-1.587 Y-250 I0 J1.587
G3 X-1.905 Y-249.682 I-0.317 J0
G1 X-2.223
G18 G3 X-2.54 Z-8.033 I0 K0.318
G1 Z5
G0 Z15
G17
G28 G91 Z0
G90
G28 G91 X0 Y0
G90
M5
M30
