(1001)
(T1  D=3.175 CR=0 - ZMIN=-8.35 - flat end mill)
G90 G94
G17
G21
G28 G91 Z0
G90

(2D Contour11)
T1
S18000 M3
G54
G0 X-2.54 Y-250.318
Z15
Z5
G1 Z1 F166.7
Z-8.033
G18 G2 X-2.223 Z-8.35 I0.317 K0 F500
G1 X-1.905
G17 G3 X-1.587 Y-250 I0 J0.318
G1 Y0
G2 X0 Y1.587 I1.587 J0
G1 X130
G2 X131.587 Y0 I0 J-1.587
G1 Y-250
G2 X130 Y-251.587 I-1.587 J0
G1 X0
G2 X-1.587 Y-250 I0 J1.587
G3 X-1.905 Y-249.682 I-0.317 J0
G1 X-2.223
G18 G3 X-2.54 Z-8.033 I0 K0.318
G1 Z5
G0 Z15
G17
G28 G91 Z0
G90
G28 G91 X0 Y0
G90
M5
M30
