(1001)
(T1  D=3.175 CR=0 - ZMIN=-8.35 - flat end mill)
G90 G94
G17
G21
G28 G91 Z0
G90

(2D Contour8)
T1
S18000 M3
G54
M8
G0 X22.002 Y-7.389
Z15
Z5
G1 Z1 F166.7
Z-8.033
G18 G2 X22.32 Z-8.35 I0.318 K0 F500
G1 X22.637
G17 G3 X22.955 Y-7.071 I0 J0.317
X21.13 Y-7.071 I-0.913 J0
X22.955 Y-7.071 I0.913 J0
X22.637 Y-6.754 I-0.318 J0
G1 X22.32
G18 G3 X22.002 Z-8.033 I0 K0.318
G1 Z1
Z5
G0 X98.217 Y-7.118
G1 Z1 F166.7
Z-8.033
Y-7.11 Z-8.103 F500
Y-7.086 Z-8.17
X98.218 Y-7.048 Z-8.23
X98.219 Y-6.998 Z-8.281
X98.22 Y-6.938 Z-8.319
X98.222 Y-6.871 Z-8.342
X98.223 Y-6.8 Z-8.35
X98.229 Y-6.483
G17 G3 X97.918 Y-6.159 I-0.317 J0.006
X96.988 Y-7.071 I-0.018 J-0.912
X98.813 Y-7.071 I0.912 J0
X97.918 Y-6.159 I-0.912 J0
X97.595 Y-6.47 I-0.006 J-0.317
G1 X97.588 Y-6.787
X97.587 Y-6.858 Z-8.342
X97.585 Y-6.925 Z-8.319
X97.584 Y-6.985 Z-8.281
X97.583 Y-7.036 Z-8.23
X97.582 Y-7.073 Z-8.17
Y-7.097 Z-8.103
Y-7.105 Z-8.033
Z1
Z5
G0 X98.217 Y-222.975
G1 Z1 F166.7
Z-8.033
Y-222.967 Z-8.103 F500
Y-222.944 Z-8.17
X98.218 Y-222.906 Z-8.23
X98.219 Y-222.856 Z-8.281
X98.22 Y-222.796 Z-8.319
X98.222 Y-222.729 Z-8.342
X98.223 Y-222.658 Z-8.35
X98.229 Y-222.341
G3 X97.918 Y-222.017 I-0.317 J0.006
X96.988 Y-222.929 I-0.018 J-0.912
X98.813 Y-222.929 I0.912 J0
X97.918 Y-222.017 I-0.912 J0
X97.595 Y-222.328 I-0.006 J-0.317
G1 X97.588 Y-222.645
X97.587 Y-222.716 Z-8.342
X97.585 Y-222.783 Z-8.319
X97.584 Y-222.843 Z-8.281
X97.583 Y-222.893 Z-8.23
X97.582 Y-222.931 Z-8.17
Y-222.955 Z-8.103
Y-222.963 Z-8.033
Z1
Z5
G0 X22.12 Y-223.24
G1 Z1 F166.7
Z-8.033
X22.127 Y-223.237 Z-8.103 F500
X22.149 Y-223.228 Z-8.17
X22.184 Y-223.214 Z-8.23
X22.231 Y-223.196 Z-8.281
X22.287 Y-223.175 Z-8.319
X22.35 Y-223.15 Z-8.342
X22.416 Y-223.125 Z-8.35
X22.712 Y-223.01
G3 X22.893 Y-222.599 I-0.115 J0.296
X21.191 Y-223.259 I-0.851 J-0.33
X22.893 Y-222.599 I0.851 J0.33
X22.482 Y-222.418 I-0.296 J-0.115
G1 X22.186 Y-222.533
X22.12 Y-222.558 Z-8.342
X22.058 Y-222.582 Z-8.319
X22.002 Y-222.604 Z-8.281
X21.955 Y-222.622 Z-8.23
X21.92 Y-222.636 Z-8.17
X21.898 Y-222.645 Z-8.103
X21.89 Y-222.647 Z-8.033
Z5
G0 Z15
M9
G28 G91 Z0
G90
G28 G91 X0 Y0
G90
M5
M30
