(1001)
(T9  D=3.175 CR=0 - ZMIN=-6.26 - flat end mill)
G90 G94
G17
G21
G28 G91 Z0
G90

(2D Contour3)
T9
S18000 M3
G54
G0 X10.684 Y-229.704
Z15
Z5
G1 Z1 F50
Z-5.943
X10.691 Y-229.701 Z-6.013 F150
X10.713 Y-229.692 Z-6.08
X10.749 Y-229.678 Z-6.14
X10.795 Y-229.66 Z-6.191
X10.852 Y-229.639 Z-6.229
X10.914 Y-229.614 Z-6.252
X10.98 Y-229.589 Z-6.26
X11.276 Y-229.474
G3 X11.457 Y-229.063 I-0.115 J0.296
X9.756 Y-229.723 I-0.851 J-0.33
X11.457 Y-229.063 I0.851 J0.33
X11.047 Y-228.882 I-0.296 J-0.115
G1 X10.751 Y-228.997
X10.685 Y-229.022 Z-6.252
X10.622 Y-229.046 Z-6.229
X10.566 Y-229.068 Z-6.191
X10.519 Y-229.086 Z-6.14
X10.484 Y-229.1 Z-6.08
X10.462 Y-229.109 Z-6.013
X10.455 Y-229.111 Z-5.943
G0 Z5
X109.296 Y-229.71
G1 Z1 F50
Z-5.943
G18 G2 X109.614 Z-6.26 I0.318 K0 F150
G1 X109.931
G17 G3 X110.248 Y-229.393 I0 J0.317
X108.424 Y-229.393 I-0.912 J0
X110.248 Y-229.393 I0.912 J0
X109.931 Y-229.076 I-0.317 J0
G1 X109.614
G18 G3 X109.296 Z-5.943 I0 K0.318
G0 Z5
X109.413 Y-10.929
G1 Z1 F50
Z-5.943
X109.421 Y-10.926 Z-6.013 F150
X109.443 Y-10.918 Z-6.08
X109.478 Y-10.904 Z-6.14
X109.525 Y-10.886 Z-6.191
X109.581 Y-10.864 Z-6.229
X109.644 Y-10.84 Z-6.252
X109.709 Y-10.814 Z-6.26
X110.006 Y-10.7
G17 G3 X110.187 Y-10.289 I-0.115 J0.296
X108.485 Y-10.948 I-0.851 J-0.33
X110.187 Y-10.289 I0.851 J0.33
X109.776 Y-10.108 I-0.296 J-0.115
G1 X109.48 Y-10.222
X109.414 Y-10.248 Z-6.252
X109.352 Y-10.272 Z-6.229
X109.295 Y-10.294 Z-6.191
X109.249 Y-10.312 Z-6.14
X109.213 Y-10.326 Z-6.08
X109.191 Y-10.334 Z-6.013
X109.184 Y-10.337 Z-5.943
G0 Z5
X10.567 Y-10.936
G1 Z1 F50
Z-5.943
G18 G2 X10.884 Z-6.26 I0.318 K0 F150
G1 X11.202
G17 G3 X11.519 Y-10.618 I0 J0.318
X9.694 Y-10.618 I-0.913 J0
X11.519 Y-10.618 I0.913 J0
X11.202 Y-10.301 I-0.318 J0
G1 X10.884
G18 G3 X10.567 Z-5.943 I0 K0.318
G0 Z15
G17
G28 G91 Z0
G90
G28 G91 X0 Y0
G90
M5
M30
