(1001)
(T1  D=3.175 CR=0 - ZMIN=-8.35 - flat end mill)
G90 G94
G17
G21
G28 G91 Z0
G90

(2D Contour9)
T1
S18000 M3
G54
G0 X-0.317 Y2.54
Z15
Z5
G1 Z1 F166.7
Z-8.033
G19 G2 Y2.223 Z-8.35 J-0.317 K0 F500
G1 Y1.905
G17 G3 X0 Y1.587 I0.317 J0
G1 X120
G2 X121.588 Y0 I0 J-1.587
G1 Y-234.994
G2 X120 Y-236.581 I-1.588 J0
G1 X0
G2 X-1.587 Y-234.994 I0 J1.587
G1 Y0
G2 X0 Y1.587 I1.587 J0
G3 X0.317 Y1.905 I0 J0.317
G1 Y2.223
G19 G3 Y2.54 Z-8.033 J0 K0.318
G1 Z5
G0 Z15
G17
G28 G91 Z0
G90
G28 G91 X0 Y0
G90
M5
M30
