(logo)
(T5  D=4.762 CR=0 - ZMIN=-0.295 - flat end mill)
G90 G94
G17
G21
G28 G91 Z0
G90

(Face4)
T5
S5000 M3
G54
G0 X103.096 Y-97.987
Z15
Z5
G1 Z0.381 F300
G18 G3 X102.619 Z-0.095 I-0.476 K0
G1 X100
X0 F1016
G17 G2 X0 Y-93.638 I0 J2.175
G1 X100
G3 X100 Y-89.289 I0 J2.175
G1 X0
G2 X0 Y-84.94 I0 J2.175
G1 X100
G3 X100 Y-80.591 I0 J2.175
G1 X0
G2 X0 Y-76.242 I0 J2.175
G1 X100
G3 X100 Y-71.893 I0 J2.175
G1 X0
G2 X0 Y-67.543 I0 J2.175
G1 X100
G3 X100 Y-63.194 I0 J2.175
G1 X0
G2 X0 Y-58.845 I0 J2.175
G1 X100
G3 X100 Y-54.496 I0 J2.175
G1 X0
G2 X0 Y-50.147 I0 J2.175
G1 X100
G3 X100 Y-45.798 I0 J2.175
G1 X0
G2 X0 Y-41.449 I0 J2.175
G1 X100
G3 X100 Y-37.1 I0 J2.175
G1 X0
G2 X0 Y-32.751 I0 J2.175
G1 X100
G3 X100 Y-28.402 I0 J2.175
G1 X0
G2 X0 Y-24.053 I0 J2.175
G1 X100
G3 X100 Y-19.704 I0 J2.175
G1 X0
G2 X0 Y-15.355 I0 J2.175
G1 X100
G3 X100 Y-11.006 I0 J2.175
G1 X0
G2 X0 Y-6.656 I0 J2.175
G1 X100
G3 X100 Y-2.307 I0 J2.175
G1 X0
G18 G3 X-0.476 Z0.381 I0 K0.476 F300
G0 Z5
X-3.096 Y-97.987
G1 Z0.281 F300
G2 X-2.619 Z-0.195 I0.476 K0
G1 X0
X100 F1016
G17 G3 X100 Y-93.638 I0 J2.175
G1 X0
G2 X0 Y-89.289 I0 J2.175
G1 X100
G3 X100 Y-84.94 I0 J2.175
G1 X0
G2 X0 Y-80.591 I0 J2.175
G1 X100
G3 X100 Y-76.242 I0 J2.175
G1 X0
G2 X0 Y-71.893 I0 J2.175
G1 X100
G3 X100 Y-67.543 I0 J2.175
G1 X0
G2 X0 Y-63.194 I0 J2.175
G1 X100
G3 X100 Y-58.845 I0 J2.175
G1 X0
G2 X0 Y-54.496 I0 J2.175
G1 X100
G3 X100 Y-50.147 I0 J2.175
G1 X0
G2 X0 Y-45.798 I0 J2.175
G1 X100
G3 X100 Y-41.449 I0 J2.175
G1 X0
G2 X0 Y-37.1 I0 J2.175
G1 X100
G3 X100 Y-32.751 I0 J2.175
G1 X0
G2 X0 Y-28.402 I0 J2.175
G1 X100
G3 X100 Y-24.053 I0 J2.175
G1 X0
G2 X0 Y-19.704 I0 J2.175
G1 X100
G3 X100 Y-15.355 I0 J2.175
G1 X0
G2 X0 Y-11.006 I0 J2.175
G1 X100
G3 X100 Y-6.656 I0 J2.175
G1 X0
G2 X0 Y-2.307 I0 J2.175
G1 X100
G18 G2 X100.476 Z0.281 I0 K0.476 F300
G0 Z5
X103.096 Y-97.987
G1 Z0.181 F300
G3 X102.619 Z-0.295 I-0.476 K0
G1 X100
X0 F1016
G17 G2 X0 Y-93.638 I0 J2.175
G1 X100
G3 X100 Y-89.289 I0 J2.175
G1 X0
G2 X0 Y-84.94 I0 J2.175
G1 X100
G3 X100 Y-80.591 I0 J2.175
G1 X0
G2 X0 Y-76.242 I0 J2.175
G1 X100
G3 X100 Y-71.893 I0 J2.175
G1 X0
G2 X0 Y-67.543 I0 J2.175
G1 X100
G3 X100 Y-63.194 I0 J2.175
G1 X0
G2 X0 Y-58.845 I0 J2.175
G1 X100
G3 X100 Y-54.496 I0 J2.175
G1 X0
G2 X0 Y-50.147 I0 J2.175
G1 X100
G3 X100 Y-45.798 I0 J2.175
G1 X0
G2 X0 Y-41.449 I0 J2.175
G1 X100
G3 X100 Y-37.1 I0 J2.175
G1 X0
G2 X0 Y-32.751 I0 J2.175
G1 X100
G3 X100 Y-28.402 I0 J2.175
G1 X0
G2 X0 Y-24.053 I0 J2.175
G1 X100
G3 X100 Y-19.704 I0 J2.175
G1 X0
G2 X0 Y-15.355 I0 J2.175
G1 X100
G3 X100 Y-11.006 I0 J2.175
G1 X0
G2 X0 Y-6.656 I0 J2.175
G1 X100
G3 X100 Y-2.307 I0 J2.175
G1 X0
G18 G3 X-0.476 Z0.181 I0 K0.476 F300
G0 Z15
G17
G28 G91 Z0
G90
G28 G91 X0 Y0
G90
M5
M30
