(1001)
(T4  D=6.35 CR=0 - ZMIN=-5.65 - flat end mill)
G90 G94
G17
G21
G28 G91 Z0
G90

(2D Contour2)
T4
S5000 M3
G54
M8
G0 X50.635 Y-95.08
Z15
Z5
G1 Z1.5 F300
Z0.135
G19 G3 Y-94.445 Z-0.5 J0.635 K0
G1 Y-93.81
G17 G3 X50 Y-93.175 I-0.635 J0
G1 X20 F1000
G2 X11.825 Y-85 I0 J8.175
G1 Y-15
G2 X20 Y-6.825 I8.175 J0
G1 X80
G2 X88.175 Y-15 I0 J-8.175
G1 Y-85
G2 X80 Y-93.175 I-8.175 J0
G1 X50
G3 X49.365 Y-93.81 I0 J-0.635
G1 Y-94.445
G19 G2 Y-95.08 Z0.135 J0 K0.635
G0 Z5
X50.635
G1 Z1 F300
Z-0.365
G3 Y-94.445 Z-1 J0.635 K0
G1 Y-93.81
G17 G3 X50 Y-93.175 I-0.635 J0
G1 X20 F1000
G2 X11.825 Y-85 I0 J8.175
G1 Y-15
G2 X20 Y-6.825 I8.175 J0
G1 X80
G2 X88.175 Y-15 I0 J-8.175
G1 Y-85
G2 X80 Y-93.175 I-8.175 J0
G1 X50
G3 X49.365 Y-93.81 I0 J-0.635
G1 Y-94.445
G19 G2 Y-95.08 Z-0.365 J0 K0.635
G0 Z5
X50.635
G1 Z0.5 F300
Z-0.865
G3 Y-94.445 Z-1.5 J0.635 K0
G1 Y-93.81
G17 G3 X50 Y-93.175 I-0.635 J0
G1 X20 F1000
G2 X11.825 Y-85 I0 J8.175
G1 Y-15
G2 X20 Y-6.825 I8.175 J0
G1 X80
G2 X88.175 Y-15 I0 J-8.175
G1 Y-85
G2 X80 Y-93.175 I-8.175 J0
G1 X50
G3 X49.365 Y-93.81 I0 J-0.635
G1 Y-94.445
G19 G2 Y-95.08 Z-0.865 J0 K0.635
G0 Z5
X50.635
G1 Z0 F300
Z-1.365
G3 Y-94.445 Z-2 J0.635 K0
G1 Y-93.81
G17 G3 X50 Y-93.175 I-0.635 J0
G1 X20 F1000
G2 X11.825 Y-85 I0 J8.175
G1 Y-15
G2 X20 Y-6.825 I8.175 J0
G1 X80
G2 X88.175 Y-15 I0 J-8.175
G1 Y-85
G2 X80 Y-93.175 I-8.175 J0
G1 X50
G3 X49.365 Y-93.81 I0 J-0.635
G1 Y-94.445
G19 G2 Y-95.08 Z-1.365 J0 K0.635
G0 Z5
X50.635
G1 Z-0.5 F300
Z-1.865
G3 Y-94.445 Z-2.5 J0.635 K0
G1 Y-93.81
G17 G3 X50 Y-93.175 I-0.635 J0
G1 X20 F1000
G2 X11.825 Y-85 I0 J8.175
G1 Y-15
G2 X20 Y-6.825 I8.175 J0
G1 X80
G2 X88.175 Y-15 I0 J-8.175
G1 Y-85
G2 X80 Y-93.175 I-8.175 J0
G1 X50
G3 X49.365 Y-93.81 I0 J-0.635
G1 Y-94.445
G19 G2 Y-95.08 Z-1.865 J0 K0.635
G0 Z5
X50.635
G1 Z-1 F300
Z-2.365
G3 Y-94.445 Z-3 J0.635 K0
G1 Y-93.81
G17 G3 X50 Y-93.175 I-0.635 J0
G1 X20 F1000
G2 X11.825 Y-85 I0 J8.175
G1 Y-15
G2 X20 Y-6.825 I8.175 J0
G1 X80
G2 X88.175 Y-15 I0 J-8.175
G1 Y-85
G2 X80 Y-93.175 I-8.175 J0
G1 X50
G3 X49.365 Y-93.81 I0 J-0.635
G1 Y-94.445
G19 G2 Y-95.08 Z-2.365 J0 K0.635
G0 Z5
X50.635
G1 Z-1.5 F300
Z-2.865
G3 Y-94.445 Z-3.5 J0.635 K0
G1 Y-93.81
G17 G3 X50 Y-93.175 I-0.635 J0
G1 X20 F1000
G2 X11.825 Y-85 I0 J8.175
G1 Y-15
G2 X20 Y-6.825 I8.175 J0
G1 X80
G2 X88.175 Y-15 I0 J-8.175
G1 Y-85
G2 X80 Y-93.175 I-8.175 J0
G1 X50
G3 X49.365 Y-93.81 I0 J-0.635
G1 Y-94.445
G19 G2 Y-95.08 Z-2.865 J0 K0.635
G0 Z5
X50.635
G1 Z-2 F300
Z-3.365
G3 Y-94.445 Z-4 J0.635 K0
G1 Y-93.81
G17 G3 X50 Y-93.175 I-0.635 J0
G1 X20 F1000
G2 X11.825 Y-85 I0 J8.175
G1 Y-15
G2 X20 Y-6.825 I8.175 J0
G1 X80
G2 X88.175 Y-15 I0 J-8.175
G1 Y-85
G2 X80 Y-93.175 I-8.175 J0
G1 X50
G3 X49.365 Y-93.81 I0 J-0.635
G1 Y-94.445
G19 G2 Y-95.08 Z-3.365 J0 K0.635
G0 Z5
X50.635
G1 Z-2.5 F300
Z-3.865
G3 Y-94.445 Z-4.5 J0.635 K0
G1 Y-93.81
G17 G3 X50 Y-93.175 I-0.635 J0
G1 X20 F1000
G2 X11.825 Y-85 I0 J8.175
G1 Y-15
G2 X20 Y-6.825 I8.175 J0
G1 X80
G2 X88.175 Y-15 I0 J-8.175
G1 Y-85
G2 X80 Y-93.175 I-8.175 J0
G1 X50
G3 X49.365 Y-93.81 I0 J-0.635
G1 Y-94.445
G19 G2 Y-95.08 Z-3.865 J0 K0.635
G0 Z5
X50.635
G1 Z-3 F300
Z-4.365
G3 Y-94.445 Z-5 J0.635 K0
G1 Y-93.81
G17 G3 X50 Y-93.175 I-0.635 J0
G1 X20 F1000
G2 X11.825 Y-85 I0 J8.175
G1 Y-15
G2 X20 Y-6.825 I8.175 J0
G1 X80
G2 X88.175 Y-15 I0 J-8.175
G1 Y-85
G2 X80 Y-93.175 I-8.175 J0
G1 X50
G3 X49.365 Y-93.81 I0 J-0.635
G1 Y-94.445
G19 G2 Y-95.08 Z-4.365 J0 K0.635
G0 Z5
X50.635
G1 Z-3.5 F300
Z-4.865
G3 Y-94.445 Z-5.5 J0.635 K0
G1 Y-93.81
G17 G3 X50 Y-93.175 I-0.635 J0
G1 X20 F1000
G2 X11.825 Y-85 I0 J8.175
G1 Y-15
G2 X20 Y-6.825 I8.175 J0
G1 X80
G2 X88.175 Y-15 I0 J-8.175
G1 Y-85
G2 X80 Y-93.175 I-8.175 J0
G1 X50
G3 X49.365 Y-93.81 I0 J-0.635
G1 Y-94.445
G19 G2 Y-95.08 Z-4.865 J0 K0.635
G0 Z5
X50.635
G1 Z-4 F300
Z-5.015
G3 Y-94.445 Z-5.65 J0.635 K0
G1 Y-93.81
G17 G3 X50 Y-93.175 I-0.635 J0
G1 X20 F1000
G2 X11.825 Y-85 I0 J8.175
G1 Y-15
G2 X20 Y-6.825 I8.175 J0
G1 X80
G2 X88.175 Y-15 I0 J-8.175
G1 Y-85
G2 X80 Y-93.175 I-8.175 J0
G1 X50
G3 X49.365 Y-93.81 I0 J-0.635
G1 Y-94.445
G19 G2 Y-95.08 Z-5.015 J0 K0.635
G0 Z15
G17
M9
G28 G91 Z0
G90
G28 G91 X0 Y0
G90
M5
M30
