(logo)
(T4  D=6.35 CR=0 - ZMIN=-0.795 - flat end mill)
G90 G94
G17
G21
G28 G91 Z0
G90

(Face1)
T4
S5000 M3
G54
G0 X104.128 Y-97.23
Z15
Z5
G1 Z-0.16 F200
G18 G3 X103.493 Z-0.795 I-0.635 K0
G1 X100
X0 F1016
G17 G2 X0 Y-91.345 I0 J2.942
G1 X100
G3 X100 Y-85.461 I0 J2.942
G1 X0
G2 X0 Y-79.576 I0 J2.942
G1 X100
G3 X100 Y-73.692 I0 J2.942
G1 X0
G2 X0 Y-67.807 I0 J2.942
G1 X100
G3 X100 Y-61.923 I0 J2.942
G1 X0
G2 X0 Y-56.038 I0 J2.942
G1 X100
G3 X100 Y-50.153 I0 J2.942
G1 X0
G2 X0 Y-44.269 I0 J2.942
G1 X100
G3 X100 Y-38.384 I0 J2.942
G1 X0
G2 X0 Y-32.5 I0 J2.942
G1 X100
G3 X100 Y-26.615 I0 J2.942
G1 X0
G2 X0 Y-20.73 I0 J2.942
G1 X100
G3 X100 Y-14.846 I0 J2.942
G1 X0
G2 X0 Y-8.961 I0 J2.942
G1 X100
G3 X100 Y-3.077 I0 J2.942
G1 X0
G18 G3 X-0.635 Z-0.16 I0 K0.635 F200
G0 Z15
G17
G28 G91 Z0
G90
G28 G91 X0 Y0
G90
M5
M30
