(v4)
(T4  D=6.35 CR=0 - ZMIN=-2 - flat end mill)
G90 G94
G17
G21
G28 G91 Z0
G90

(2D Adaptive3)
T4
S5000 M3
G54
G0 X68.753 Y-66.759
Z15
Z5
Z2.5
G3 X74.656 Y-68.003 Z2.169 I2.951 J-0.622 F508
X68.753 Y-66.759 Z1.838 I-2.951 J0.622
X74.656 Y-68.003 Z1.507 I2.951 J-0.622
X68.753 Y-66.759 Z1.176 I-2.951 J0.622
X74.656 Y-68.003 Z0.845 I2.951 J-0.622
X68.753 Y-66.759 Z0.515 I-2.951 J0.622
X74.656 Y-68.003 Z0.184 I2.951 J-0.622
X68.753 Y-66.759 Z-0.147 I-2.951 J0.622
X71.392 Y-70.381 Z-0.324 I2.951 J-0.622
X74.72 Y-67.381 Z-0.5 I0.313 J3
X68.688 Y-67.381 I-3.016 J0
X74.72 Y-67.381 I3.016 J0
G1 X74.724 Y-67.136 F1016
X74.903 Y-66.171
X74.947 Y-66.027
X74.977 Y-65.88
X74.992 Y-65.731
X74.994 Y-65.579
X74.984 Y-65.415
X74.958 Y-65.241
X74.916 Y-65.058
X74.856 Y-64.868
X74.777 Y-64.673
X74.677 Y-64.474
X74.555 Y-64.275
X74.412 Y-64.077
X74.246 Y-63.883
X74.057 Y-63.696
X73.847 Y-63.518
X73.616 Y-63.352
X73.364 Y-63.201
X73.093 Y-63.066
X72.804 Y-62.95
X72.5 Y-62.856
X72.183 Y-62.785
X71.854 Y-62.739
X71.517 Y-62.719
X71.174 Y-62.726
X71.111 Y-62.733
X70.841 Y-62.786
X70.585 Y-62.888
X70.352 Y-63.036
X70.151 Y-63.225
X69.912 Y-63.495
X69.741 Y-63.669
X69.685 Y-63.718
X69.518 Y-63.855
X69.072 Y-64.166
X68.849 Y-64.316
X68.726 Y-64.387
X68.543 Y-64.506
X68.341 Y-64.662
X68.144 Y-64.841
X67.955 Y-65.042
X67.778 Y-65.265
X67.613 Y-65.509
X67.465 Y-65.773
X67.335 Y-66.056
X67.225 Y-66.355
X67.138 Y-66.668
X67.075 Y-66.994
X67.038 Y-67.33
X67.028 Y-67.673
X67.045 Y-68.02
X67.091 Y-68.37
X67.166 Y-68.719
X67.269 Y-69.063
X67.32 Y-69.193
X67.461 Y-69.466
X67.654 Y-69.704
X67.893 Y-69.898
X68.167 Y-70.037
X68.179 Y-70.042
X68.402 Y-70.17
X68.849 Y-70.438
X69.072 Y-70.591
X69.518 Y-70.909
X69.714 Y-71.079
X69.923 Y-71.253
X70.131 Y-71.398
X70.358 Y-71.532
X70.604 Y-71.651
X70.868 Y-71.754
X71.148 Y-71.837
X71.443 Y-71.9
X71.749 Y-71.94
X72.066 Y-71.956
X72.389 Y-71.946
X72.718 Y-71.909
X73.048 Y-71.845
X73.378 Y-71.753
X73.703 Y-71.634
X74.023 Y-71.486
X74.333 Y-71.312
X74.631 Y-71.111
X74.914 Y-70.884
X75.181 Y-70.634
X75.428 Y-70.361
X75.539 Y-70.217
X75.707 Y-69.941
X75.811 Y-69.635
X75.846 Y-69.314
Y-64.61
X75.836 Y-64.4
X75.806 Y-64.171
X75.756 Y-63.939
X75.684 Y-63.697
X75.586 Y-63.445
X75.462 Y-63.19
X75.314 Y-62.938
X75.135 Y-62.684
X74.925 Y-62.431
X74.687 Y-62.187
X74.423 Y-61.956
X74.13 Y-61.739
X73.806 Y-61.538
X73.453 Y-61.356
X73.115 Y-61.215
X72.764 Y-61.1
X72.679 Y-61.08
X72.389 Y-61.04
X72.097 Y-61.058
X71.815 Y-61.133
X71.552 Y-61.262
X71.32 Y-61.44
X71.128 Y-61.66
X70.982 Y-61.914
X70.871 Y-62.157
X70.856 Y-62.183
X70.732 Y-62.38
X70.41 Y-62.868
X70.287 Y-63.049
X70.187 Y-63.184
X70.151 Y-63.225
G3 X70.511 Y-64.25 I0.49 J-0.404
G1 X75.081 Y-65.21
G3 X75.399 Y-65.195 I0.13 J0.621
X75.846 Y-64.61 I-0.187 J0.607 F508
G1 Y-62.603 F1016
X75.836 Y-62.386
X75.812 Y-62.203
X75.769 Y-62.006
X75.707 Y-61.798
X75.619 Y-61.572
X75.51 Y-61.346
X75.369 Y-61.107
X75.199 Y-60.866
X75.007 Y-60.634
X74.804 Y-60.426
X74.575 Y-60.226
X74.354 Y-60.063
X74.105 Y-59.908
X73.868 Y-59.785
X73.609 Y-59.677
X73.357 Y-59.595
X73.1 Y-59.533
X73.023 Y-59.521
X72.699 Y-59.506
X72.38 Y-59.562
X72.081 Y-59.687
X71.815 Y-59.873
X71.597 Y-60.112
X71.436 Y-60.393
X71.34 Y-60.703
X71.302 Y-60.895
X71.267 Y-61.041
X71.149 Y-61.488
X71.079 Y-61.697
X70.982 Y-61.914
G3 X71.496 Y-62.784 I0.588 J-0.24
G1 X75.138 Y-63.211
G3 X75.399 Y-63.188 I0.074 J0.631
X75.846 Y-62.603 I-0.187 J0.607 F508
G1 Y-60.696 F1016
X75.839 Y-60.546
X75.816 Y-60.38
X75.778 Y-60.204
X75.72 Y-60.015
X75.645 Y-59.824
X75.548 Y-59.627
X75.427 Y-59.423
X75.284 Y-59.222
X75.122 Y-59.029
X74.952 Y-58.857
X74.751 Y-58.683
X74.552 Y-58.537
X74.344 Y-58.409
X74.113 Y-58.291
X73.894 Y-58.201
X73.653 Y-58.124
X73.412 Y-58.067
X73.182 Y-58.032
X72.922 Y-58.014
X72.599 Y-58.054
X72.292 Y-58.164
X72.017 Y-58.34
X71.788 Y-58.571
X71.615 Y-58.848
X71.508 Y-59.156
X71.472 Y-59.48
X71.464 Y-59.703
X71.432 Y-60.149
X71.404 Y-60.372
X71.34 Y-60.703
G3 X71.992 Y-61.436 I0.627 J-0.099
G1 X75.237 Y-61.308
X75.319 Y-61.299
X75.399 Y-61.28
G3 X75.846 Y-60.696 I-0.187 J0.607 F508
G1 Y-59.034 F1016
X75.839 Y-58.884
X75.817 Y-58.735
X75.781 Y-58.572
X75.729 Y-58.407
X75.658 Y-58.233
X75.568 Y-58.052
X75.459 Y-57.874
X75.329 Y-57.694
X75.177 Y-57.514
X75.002 Y-57.34
X74.818 Y-57.183
X74.627 Y-57.046
X74.408 Y-56.913
X74.199 Y-56.809
X73.975 Y-56.718
X73.738 Y-56.644
X73.515 Y-56.594
X73.269 Y-56.559
X73.029 Y-56.544
X72.926 Y-56.546
X72.601 Y-56.588
X72.293 Y-56.701
X72.018 Y-56.879
X71.788 Y-57.113
X71.615 Y-57.392
X71.508 Y-57.702
X71.472 Y-58.027
Y-59.48
G3 X72.197 Y-60.086 I0.635 J0.022
G1 X75.302 Y-59.64
X75.399 Y-59.619
G3 X75.846 Y-59.034 I-0.187 J0.607 F508
G1 Y-57.473 F1016
X75.839 Y-57.323
X75.815 Y-57.175
X75.777 Y-57.018
X75.722 Y-56.855
X75.651 Y-56.69
X75.56 Y-56.516
X75.449 Y-56.34
X75.321 Y-56.169
X75.17 Y-55.998
X74.996 Y-55.831
X74.81 Y-55.679
X74.613 Y-55.542
X74.39 Y-55.414
X74.179 Y-55.313
X73.947 Y-55.225
X73.709 Y-55.155
X73.484 Y-55.108
X73.233 Y-55.077
X72.993 Y-55.067
X72.898 Y-55.071
X72.578 Y-55.118
X72.275 Y-55.234
X72.005 Y-55.413
X71.781 Y-55.646
X71.612 Y-55.923
X71.507 Y-56.229
X71.472 Y-56.551
Y-58.027
G3 X72.218 Y-58.63 I0.635 J0.022
G1 X75.324 Y-58.075
X75.399 Y-58.057
G3 X75.846 Y-57.473 I-0.187 J0.607 F508
G1 Y-56.011 F1016
X75.839 Y-55.862
X75.818 Y-55.713
X75.783 Y-55.56
X75.733 Y-55.405
X75.666 Y-55.238
X75.579 Y-55.067
X75.475 Y-54.897
X75.351 Y-54.725
X75.203 Y-54.552
X75.036 Y-54.386
X74.851 Y-54.23
X74.66 Y-54.093
X74.439 Y-53.961
X74.221 Y-53.853
X74.003 Y-53.765
X73.758 Y-53.689
X73.529 Y-53.638
X73.289 Y-53.605
X73.041 Y-53.59
X72.812 Y-53.595
X72.803 Y-53.596
X72.5 Y-53.659
X72.216 Y-53.785
X71.964 Y-53.967
X71.756 Y-54.197
X71.601 Y-54.466
X71.504 Y-54.761
X71.472 Y-55.07
Y-56.551
G3 X72.215 Y-57.155 I0.635 J0.022
G1 X75.321 Y-56.615
X75.399 Y-56.596
G3 X75.846 Y-56.011 I-0.187 J0.607 F508
G1 Y-54.573 F1016
X75.838 Y-54.399
X75.818 Y-54.251
X75.785 Y-54.098
X75.737 Y-53.942
X75.673 Y-53.78
X75.588 Y-53.608
X75.486 Y-53.437
X75.365 Y-53.267
X75.22 Y-53.095
X75.054 Y-52.927
X74.87 Y-52.768
X74.669 Y-52.621
X74.469 Y-52.499
X74.24 Y-52.383
X74.02 Y-52.292
X73.789 Y-52.218
X73.547 Y-52.162
X73.319 Y-52.128
X73.068 Y-52.111
X72.83 Y-52.113
X72.817 Y-52.115
X72.511 Y-52.176
X72.224 Y-52.3
X71.97 Y-52.482
X71.76 Y-52.713
X71.602 Y-52.983
X71.505 Y-53.279
X71.472 Y-53.59
Y-55.07
G3 X72.207 Y-55.674 I0.635 J0.022
G1 X75.312 Y-55.178
X75.399 Y-55.157
G3 X75.846 Y-54.573 I-0.187 J0.607 F508
G1 Y-53.011 F1016
X75.839 Y-52.861
X75.814 Y-52.714
X75.775 Y-52.561
X75.719 Y-52.398
X75.647 Y-52.232
X75.556 Y-52.062
X75.443 Y-51.887
X75.312 Y-51.714
X75.161 Y-51.547
X74.987 Y-51.382
X74.79 Y-51.224
X74.593 Y-51.09
X74.378 Y-50.967
X74.152 Y-50.861
X73.934 Y-50.78
X73.689 Y-50.711
X73.455 Y-50.664
X73.219 Y-50.637
X72.969 Y-50.628
X72.887 Y-50.632
X72.568 Y-50.681
X72.268 Y-50.799
X72 Y-50.978
X71.777 Y-51.211
X71.61 Y-51.487
X71.507 Y-51.792
X71.472 Y-52.113
Y-53.59
G3 X72.223 Y-54.192 I0.635 J0.022
G1 X75.328 Y-53.613
X75.399 Y-53.596
G3 X75.846 Y-53.011 I-0.187 J0.607 F508
G1 Y-51.55 F1016
X75.839 Y-51.4
X75.816 Y-51.252
X75.778 Y-51.098
X75.726 Y-50.941
X75.656 Y-50.774
X75.567 Y-50.602
X75.46 Y-50.432
X75.332 Y-50.26
X75.181 Y-50.088
X75.01 Y-49.923
X74.823 Y-49.768
X74.63 Y-49.633
X74.407 Y-49.503
X74.189 Y-49.398
X73.968 Y-49.313
X73.723 Y-49.24
X73.495 Y-49.192
X73.251 Y-49.161
X73.005 Y-49.15
X72.776 Y-49.157
X72.561 Y-49.182
X72.253 Y-49.255
X71.97 Y-49.398
X71.728 Y-49.603
X71.541 Y-49.859
X71.419 Y-50.152
X71.37 Y-50.465
X71.394 Y-50.781
X71.421 Y-51.004
X71.466 Y-51.45
X71.472 Y-51.673
Y-52.113
G3 X72.22 Y-52.715 I0.635 J0.022
G1 X75.325 Y-52.153
X75.399 Y-52.135
G3 X75.846 Y-51.55 I-0.187 J0.607 F508
G1 Y-50.112 F1016
X75.839 Y-49.961
X75.819 Y-49.812
X75.786 Y-49.661
X75.739 Y-49.507
X75.674 Y-49.342
X75.591 Y-49.172
X75.49 Y-49.002
X75.367 Y-48.83
X75.223 Y-48.657
X75.059 Y-48.491
X74.875 Y-48.332
X74.67 Y-48.182
X74.444 Y-48.043
X74.213 Y-47.925
X73.957 Y-47.819
X73.719 Y-47.743
X73.467 Y-47.684
X73.211 Y-47.645
X72.975 Y-47.628
X72.718 Y-47.631
X72.473 Y-47.653
X72.246 Y-47.693
X72.001 Y-47.756
X71.71 Y-47.894
X71.458 Y-48.094
X71.255 Y-48.345
X71.114 Y-48.634
X71.041 Y-48.948
X71.039 Y-49.27
X71.109 Y-49.585
X71.136 Y-49.665
X71.205 Y-49.888
X71.26 Y-50.112
X71.306 Y-50.335
X71.394 Y-50.781
G3 X72.119 Y-51.261 I0.618 J0.145
G1 X75.319 Y-50.715
X75.399 Y-50.696
G3 X75.846 Y-50.112 I-0.187 J0.607 F508
G1 Y-48.65 F1016
X75.838 Y-48.479
X75.818 Y-48.33
X75.784 Y-48.175
X75.736 Y-48.016
X75.669 Y-47.848
X75.582 Y-47.671
X75.478 Y-47.496
X75.352 Y-47.319
X75.202 Y-47.141
X75.032 Y-46.968
X74.842 Y-46.805
X74.63 Y-46.65
X74.395 Y-46.505
X74.141 Y-46.376
X73.87 Y-46.264
X73.601 Y-46.178
X73.332 Y-46.116
X73.05 Y-46.073
X72.793 Y-46.055
X72.515 Y-46.059
X72.253 Y-46.083
X72.006 Y-46.126
X71.744 Y-46.193
X71.511 Y-46.274
X71.278 Y-46.376
X71.052 Y-46.498
X70.958 Y-46.558
X70.709 Y-46.763
X70.511 Y-47.019
X70.377 Y-47.312
X70.311 Y-47.628
X70.319 Y-47.951
X70.398 Y-48.263
X70.546 Y-48.55
X70.696 Y-48.773
X70.834 Y-48.996
X70.856 Y-49.034
X70.949 Y-49.219
X71.079 Y-49.499
X71.109 Y-49.585
G3 X71.831 Y-49.979 I0.593 J0.227
G1 X75.341 Y-49.25
X75.399 Y-49.235
G3 X75.846 Y-48.65 I-0.187 J0.607 F508
G1 Y-47.089 F1016
X75.839 Y-46.939
X75.817 Y-46.791
X75.779 Y-46.629
X75.725 Y-46.464
X75.652 Y-46.288
X75.558 Y-46.104
X75.446 Y-45.922
X75.309 Y-45.736
X75.147 Y-45.548
X74.965 Y-45.369
X74.761 Y-45.198
X74.53 Y-45.035
X74.276 Y-44.884
X74.004 Y-44.751
X73.715 Y-44.637
X73.409 Y-44.545
X73.089 Y-44.475
X72.755 Y-44.43
X72.411 Y-44.411
X72.084 Y-44.42
X71.75 Y-44.456
X71.442 Y-44.514
X71.156 Y-44.593
X70.866 Y-44.698
X70.616 Y-44.812
X70.359 Y-44.955
X70.131 Y-45.108
X69.924 Y-45.272
X69.718 Y-45.463
X69.692 Y-45.492
X69.501 Y-45.753
X69.371 Y-46.05
X69.309 Y-46.367
X69.317 Y-46.691
X69.396 Y-47.005
X69.54 Y-47.295
X69.744 Y-47.546
X69.964 Y-47.763
G3 X70.424 Y-47.93 I0.43 J0.467
G1 X70.707 Y-47.916
X75.242 Y-47.701
X75.321 Y-47.692
X75.399 Y-47.674
G3 X75.846 Y-47.089 I-0.187 J0.607 F508
G1 Y-45.528 F1016
X75.839 Y-45.378
X75.815 Y-45.222
X75.775 Y-45.059
X75.719 Y-44.886
X75.641 Y-44.701
X75.545 Y-44.515
X75.423 Y-44.319
X75.277 Y-44.122
X75.108 Y-43.929
X74.908 Y-43.733
X74.68 Y-43.544
X74.429 Y-43.368
X74.149 Y-43.204
X73.839 Y-43.054
X73.507 Y-42.925
X73.158 Y-42.82
X72.794 Y-42.742
X72.414 Y-42.693
X72.026 Y-42.674
X71.63 Y-42.686
X71.233 Y-42.73
X70.838 Y-42.807
X70.449 Y-42.916
X70.11 Y-43.04
X69.771 Y-43.197
X69.488 Y-43.356
X69.205 Y-43.546
X68.965 Y-43.739
X68.74 Y-43.949
X68.537 Y-44.173
X68.367 Y-44.395
X68.204 Y-44.646
X68.076 Y-44.883
X68.063 Y-44.911
X67.97 Y-45.201
X67.937 Y-45.505
X67.968 Y-45.809
X68.06 Y-46.1
X68.21 Y-46.366
X68.412 Y-46.595
X68.656 Y-46.778
X68.849 Y-46.894
X69.518 Y-47.359
X69.619 Y-47.435
X69.744 Y-47.546
G3 X70.364 Y-47.685 I0.43 J0.467
G1 X70.479 Y-47.649
X75.399 Y-46.112
X75.401 F508
G3 X75.846 Y-45.528 I-0.189 J0.606
G1 Y-43.966 F1016
X75.839 Y-43.814
X75.819 Y-43.66
X75.783 Y-43.492
X75.728 Y-43.31
X75.656 Y-43.123
X75.557 Y-42.92
X75.439 Y-42.719
X75.291 Y-42.508
X75.114 Y-42.295
X74.913 Y-42.089
X74.792 Y-41.984
X74.578 Y-41.828
X74.338 Y-41.713
X74.083 Y-41.643
X73.818 Y-41.619
G3 X73.347 Y-42.654 I0.022 J-0.635
G1 X74.719 Y-44.344
G3 X75.399 Y-44.551 I0.493 J0.4
X75.846 Y-43.966 I-0.187 J0.607 F508
G1 Y-42.304 F1016
X75.842 Y-42.193
X75.834 Y-42.137
X75.819 Y-42.081
X75.796 Y-42.016
X75.763 Y-41.951
X75.734 Y-41.905
X75.699 Y-41.858
X75.663 Y-41.818
X75.62 Y-41.779
X75.54 Y-41.721
X75.49 Y-41.692
X75.439 Y-41.668
X75.338 Y-41.635
X75.317 Y-41.631
X75.262 Y-41.623
X75.206 Y-41.619
X70.41
X69.967 Y-41.641
X69.664 Y-41.681
X69.356 Y-41.747
X69.041 Y-41.841
X68.724 Y-41.964
X68.406 Y-42.119
X68.095 Y-42.302
X67.823 Y-42.493
X67.56 Y-42.712
X67.337 Y-42.929
X67.131 Y-43.166
X66.952 Y-43.407
X66.8 Y-43.652
X66.664 Y-43.914
X66.56 Y-44.163
X66.47 Y-44.438
X66.408 Y-44.698
X66.394 Y-45.002
X66.446 Y-45.302
X66.561 Y-45.584
X66.735 Y-45.835
X66.958 Y-46.042
X67.22 Y-46.197
X67.51 Y-46.291
G3 X68.13 Y-46.067 I0.126 J0.622
G1 X68.188 Y-45.995
X70.882 Y-42.652
G3 X70.995 Y-42.067 I-0.494 J0.398
X70.41 Y-41.619 I-0.607 J-0.187 F508
G1 X67.834 F1016
X67.652 Y-41.628
X67.461 Y-41.653
X67.263 Y-41.696
X67.056 Y-41.757
X66.837 Y-41.843
X66.616 Y-41.95
X66.397 Y-42.079
X66.173 Y-42.236
X65.953 Y-42.419
X65.761 Y-42.606
X65.581 Y-42.813
X65.42 Y-43.031
X65.287 Y-43.245
X65.162 Y-43.487
X65.065 Y-43.717
X64.986 Y-43.959
X64.926 Y-44.209
X64.89 Y-44.444
X64.887 Y-44.485
X64.898 Y-44.808
X64.979 Y-45.12
X65.125 Y-45.408
X65.331 Y-45.657
X65.585 Y-45.856
X65.877 Y-45.995
X66.192 Y-46.067
X66.395 Y-46.091
X66.841 Y-46.156
X67.064 Y-46.198
X67.51 Y-46.291
G3 X68.252 Y-45.701 I0.108 J0.626
G1 X68.445 Y-42.29
Y-42.214
X68.436 Y-42.14
X68.418 Y-42.067
G3 X67.834 Y-41.619 I-0.607 J-0.187 F508
G1 X66.049 F1016
X65.86 Y-41.628
X65.699 Y-41.65
X65.534 Y-41.685
X65.356 Y-41.738
X65.17 Y-41.81
X64.985 Y-41.901
X64.794 Y-42.013
X64.601 Y-42.149
X64.413 Y-42.305
X64.236 Y-42.477
X64.081 Y-42.655
X63.926 Y-42.864
X63.799 Y-43.068
X63.689 Y-43.283
X63.591 Y-43.516
X63.519 Y-43.737
X63.461 Y-43.98
X63.423 Y-44.221
X63.406 Y-44.45
X63.407 Y-44.704
X63.467 Y-45.011
X63.59 Y-45.3
X63.772 Y-45.555
X64.003 Y-45.767
X64.273 Y-45.926
X64.571 Y-46.024
X64.882 Y-46.057
X65.503
X66.172 Y-46.065
X66.192 Y-46.067
G3 X66.877 Y-45.391 I0.052 J0.633
G1 X66.661 Y-42.21
X66.651 Y-42.138
X66.634 Y-42.067
G3 X66.049 Y-41.619 I-0.607 J-0.187 F508
G1 X64.387 F1016
X64.238 Y-41.626
X64.089 Y-41.648
X63.93 Y-41.685
X63.765 Y-41.738
X63.597 Y-41.807
X63.42 Y-41.896
X63.242 Y-42.005
X63.067 Y-42.133
X62.892 Y-42.284
X62.72 Y-42.457
X62.558 Y-42.65
X62.413 Y-42.853
X62.288 Y-43.061
X62.174 Y-43.293
X62.086 Y-43.513
X62.012 Y-43.755
X61.958 Y-43.996
X61.926 Y-44.228
X61.912 Y-44.483
X61.917 Y-44.718
X61.918 Y-44.728
X61.982 Y-45.032
X62.108 Y-45.315
X62.29 Y-45.566
X62.521 Y-45.774
X62.789 Y-45.929
X63.084 Y-46.025
X63.392 Y-46.057
X64.882
G3 X65.488 Y-45.324 I-0.022 J0.635
G1 X64.993 Y-42.156
X64.972 Y-42.067
G3 X64.387 Y-41.619 I-0.607 J-0.187 F508
G1 X62.926 F1016
X62.748 Y-41.628
X62.599 Y-41.647
X62.445 Y-41.681
X62.287 Y-41.729
X62.12 Y-41.795
X61.946 Y-41.88
X61.774 Y-41.982
X61.599 Y-42.107
X61.424 Y-42.253
X61.255 Y-42.419
X61.094 Y-42.605
X60.942 Y-42.813
X60.816 Y-43.016
X60.698 Y-43.248
X60.604 Y-43.474
X60.53 Y-43.705
X60.472 Y-43.953
X60.437 Y-44.184
X60.419 Y-44.437
X60.421 Y-44.679
X60.424 Y-44.709
X60.485 Y-45.016
X60.609 Y-45.303
X60.79 Y-45.558
X61.021 Y-45.769
X61.291 Y-45.926
X61.588 Y-46.024
X61.899 Y-46.057
X63.392
G3 X63.998 Y-45.33 I-0.022 J0.635
G1 X63.532 Y-42.161
X63.511 Y-42.067
G3 X62.926 Y-41.619 I-0.607 J-0.187 F508
G1 X61.365 F1016
X61.215 Y-41.626
X61.067 Y-41.649
X60.912 Y-41.686
X60.748 Y-41.74
X60.582 Y-41.809
X60.41 Y-41.899
X60.232 Y-42.009
X60.059 Y-42.137
X59.888 Y-42.287
X59.718 Y-42.461
X59.557 Y-42.655
X59.414 Y-42.858
X59.29 Y-43.069
X59.177 Y-43.303
X59.091 Y-43.525
X59.018 Y-43.769
X58.966 Y-44.01
X58.936 Y-44.244
X58.923 Y-44.5
X58.931 Y-44.74
X58.997 Y-45.041
X59.123 Y-45.322
X59.306 Y-45.571
X59.536 Y-45.776
X59.803 Y-45.93
X60.096 Y-46.025
X60.403 Y-46.057
X61.899
G3 X62.503 Y-45.317 I-0.022 J0.635
G1 X61.969 Y-42.148
X61.95 Y-42.067
G3 X61.365 Y-41.619 I-0.607 J-0.187 F508
G1 X59.926 F1016
X59.754 Y-41.628
X59.606 Y-41.647
X59.453 Y-41.68
X59.296 Y-41.728
X59.128 Y-41.794
X58.957 Y-41.878
X58.785 Y-41.98
X58.609 Y-42.105
X58.435 Y-42.251
X58.267 Y-42.416
X58.106 Y-42.602
X57.953 Y-42.811
X57.827 Y-43.015
X57.709 Y-43.245
X57.615 Y-43.473
X57.541 Y-43.702
X57.482 Y-43.952
X57.447 Y-44.184
X57.429 Y-44.435
X57.432 Y-44.679
X57.434 Y-44.709
X57.495 Y-45.015
X57.619 Y-45.303
X57.801 Y-45.558
X58.032 Y-45.769
X58.302 Y-45.926
X58.599 Y-46.024
X58.91 Y-46.057
X60.403
G3 X61.009 Y-45.328 I-0.022 J0.635
G1 X60.532 Y-42.159
X60.511 Y-42.067
G3 X59.926 Y-41.619 I-0.607 J-0.187 F508
G1 X58.365 F1016
X58.215 Y-41.626
X58.067 Y-41.65
X57.912 Y-41.688
X57.747 Y-41.743
X57.581 Y-41.814
X57.409 Y-41.904
X57.231 Y-42.016
X57.057 Y-42.146
X56.887 Y-42.296
X56.718 Y-42.471
X56.557 Y-42.668
X56.416 Y-42.871
X56.292 Y-43.084
X56.181 Y-43.318
X56.096 Y-43.539
X56.024 Y-43.785
X55.974 Y-44.025
X55.944 Y-44.261
X55.933 Y-44.516
X55.937 Y-44.629
X55.984 Y-44.95
X56.1 Y-45.252
X56.279 Y-45.523
X56.512 Y-45.748
X56.789 Y-45.917
X57.096 Y-46.022
X57.418 Y-46.057
X58.91
G3 X59.514 Y-45.315 I-0.022 J0.635
G1 X58.968 Y-42.146
X58.949 Y-42.067
G3 X58.365 Y-41.619 I-0.607 J-0.187 F508
G1 X56.904 F1016
X56.754 Y-41.626
X56.605 Y-41.647
X56.453 Y-41.681
X56.295 Y-41.73
X56.126 Y-41.798
X55.955 Y-41.883
X55.783 Y-41.987
X55.607 Y-42.113
X55.432 Y-42.261
X55.265 Y-42.427
X55.104 Y-42.615
X54.963 Y-42.811
X54.828 Y-43.032
X54.714 Y-43.258
X54.625 Y-43.477
X54.547 Y-43.726
X54.493 Y-43.961
X54.458 Y-44.2
X54.442 Y-44.454
X54.445 Y-44.686
X54.448 Y-44.717
X54.51 Y-45.023
X54.635 Y-45.308
X54.817 Y-45.561
X55.048 Y-45.771
X55.317 Y-45.927
X55.613 Y-46.024
X55.923 Y-46.057
X57.418
G3 X58.023 Y-45.321 I-0.022 J0.635
G1 X57.508 Y-42.152
X57.488 Y-42.067
G3 X56.904 Y-41.619 I-0.607 J-0.187 F508
G1 X55.465 F1016
X55.269 Y-41.629
X55.121 Y-41.648
X54.967 Y-41.682
X54.809 Y-41.73
X54.644 Y-41.795
X54.471 Y-41.881
X54.297 Y-41.984
X54.125 Y-42.107
X53.951 Y-42.253
X53.781 Y-42.421
X53.62 Y-42.608
X53.47 Y-42.812
X53.344 Y-43.016
X53.226 Y-43.25
X53.133 Y-43.474
X53.058 Y-43.708
X53.001 Y-43.955
X52.966 Y-44.186
X52.948 Y-44.44
X52.951 Y-44.682
X52.954 Y-44.711
X53.015 Y-45.017
X53.139 Y-45.304
X53.321 Y-45.559
X53.552 Y-45.769
X53.822 Y-45.927
X54.118 Y-46.024
X54.429 Y-46.057
X55.923
G3 X56.529 Y-45.332 I-0.022 J0.635
G1 X56.071 Y-42.163
X56.05 Y-42.067
G3 X55.465 Y-41.619 I-0.607 J-0.187 F508
G1 X53.904 F1016
X53.754 Y-41.626
X53.605 Y-41.648
X53.45 Y-41.685
X53.288 Y-41.737
X53.123 Y-41.805
X52.95 Y-41.893
X52.774 Y-42.001
X52.601 Y-42.128
X52.429 Y-42.276
X52.259 Y-42.449
X52.098 Y-42.641
X51.953 Y-42.845
X51.829 Y-43.053
X51.713 Y-43.288
X51.626 Y-43.51
X51.552 Y-43.752
X51.499 Y-43.995
X51.467 Y-44.227
X51.453 Y-44.483
X51.459 Y-44.72
X51.46 Y-44.731
X51.525 Y-45.034
X51.651 Y-45.317
X51.833 Y-45.567
X52.063 Y-45.774
X52.331 Y-45.929
X52.626 Y-46.025
X52.933 Y-46.057
X54.429
G3 X55.033 Y-45.318 I-0.022 J0.635
G1 X54.508 Y-42.15
X54.488 Y-42.067
G3 X53.904 Y-41.619 I-0.607 J-0.187 F508
G1 X52.443 F1016
X52.284 Y-41.627
X52.135 Y-41.646
X51.982 Y-41.68
X51.824 Y-41.728
X51.658 Y-41.794
X51.485 Y-41.879
X51.313 Y-41.981
X51.138 Y-42.105
X50.963 Y-42.251
X50.795 Y-42.417
X50.634 Y-42.603
X50.482 Y-42.811
X50.356 Y-43.015
X50.238 Y-43.247
X50.144 Y-43.474
X50.07 Y-43.704
X50.012 Y-43.953
X49.977 Y-44.185
X49.959 Y-44.437
X49.962 Y-44.68
X49.964 Y-44.71
X50.025 Y-45.016
X50.15 Y-45.303
X50.331 Y-45.558
X50.562 Y-45.769
X50.832 Y-45.926
X51.129 Y-46.024
X51.44 Y-46.057
X52.933
G3 X53.539 Y-45.325 I-0.022 J0.635
G1 X53.048 Y-42.156
X53.027 Y-42.067
G3 X52.443 Y-41.619 I-0.607 J-0.187 F508
G1 X50.881 F1016
X50.731 Y-41.626
X50.583 Y-41.651
X50.429 Y-41.691
X50.263 Y-41.747
X50.096 Y-41.819
X49.924 Y-41.911
X49.746 Y-42.025
X49.572 Y-42.158
X49.402 Y-42.309
X49.234 Y-42.486
X49.073 Y-42.685
X48.935 Y-42.888
X48.811 Y-43.104
X48.702 Y-43.337
X48.619 Y-43.559
X48.548 Y-43.807
X48.5 Y-44.045
X48.472 Y-44.283
X48.463 Y-44.537
X48.467 Y-44.639
X48.516 Y-44.958
X48.633 Y-45.259
X48.812 Y-45.528
X49.045 Y-45.751
X49.321 Y-45.918
X49.627 Y-46.022
X49.947 Y-46.057
X51.44
G3 X52.043 Y-45.312 I-0.022 J0.635
G1 X51.484 Y-42.143
X51.466 Y-42.067
G3 X50.881 Y-41.619 I-0.607 J-0.187 F508
G1 X49.442 F1016
X49.293 Y-41.626
X49.144 Y-41.646
X48.994 Y-41.679
X48.836 Y-41.727
X48.667 Y-41.793
X48.498 Y-41.876
X48.325 Y-41.979
X48.148 Y-42.105
X47.975 Y-42.249
X47.808 Y-42.413
X47.645 Y-42.601
X47.501 Y-42.798
X47.368 Y-43.014
X47.251 Y-43.242
X47.161 Y-43.461
X47.081 Y-43.707
X47.026 Y-43.945
X46.99 Y-44.18
X46.972 Y-44.436
X46.974 Y-44.67
X46.977 Y-44.709
X47.038 Y-45.015
X47.162 Y-45.303
X47.344 Y-45.557
X47.575 Y-45.769
X47.845 Y-45.926
X48.142 Y-46.024
X48.453 Y-46.057
X49.947
G3 X50.552 Y-45.322 I-0.022 J0.635
G1 X50.047 Y-42.154
X50.027 Y-42.067
G3 X49.442 Y-41.619 I-0.607 J-0.187 F508
G1 X47.981 F1016
X47.799 Y-41.628
X47.65 Y-41.648
X47.496 Y-41.682
X47.337 Y-41.73
X47.174 Y-41.795
X47 Y-41.881
X46.826 Y-41.985
X46.653 Y-42.107
X46.48 Y-42.253
X46.309 Y-42.421
X46.148 Y-42.609
X45.999 Y-42.812
X45.874 Y-43.017
X45.755 Y-43.25
X45.663 Y-43.474
X45.588 Y-43.71
X45.53 Y-43.956
X45.496 Y-44.187
X45.478 Y-44.442
X45.481 Y-44.682
X45.484 Y-44.712
X45.545 Y-45.018
X45.669 Y-45.305
X45.851 Y-45.559
X46.082 Y-45.769
X46.351 Y-45.927
X46.648 Y-46.024
X46.959 Y-46.057
X48.453
G3 X49.059 Y-45.329 I-0.022 J0.635
G1 X48.587 Y-42.16
X48.566 Y-42.067
G3 X47.981 Y-41.619 I-0.607 J-0.187 F508
G1 X46.42 F1016
X46.27 Y-41.626
X46.122 Y-41.649
X45.967 Y-41.687
X45.803 Y-41.741
X45.638 Y-41.81
X45.465 Y-41.9
X45.288 Y-42.011
X45.115 Y-42.139
X44.944 Y-42.289
X44.774 Y-42.464
X44.613 Y-42.658
X44.471 Y-42.862
X44.347 Y-43.073
X44.234 Y-43.307
X44.148 Y-43.529
X44.076 Y-43.774
X44.025 Y-44.015
X43.994 Y-44.249
X43.982 Y-44.505
X43.99 Y-44.742
X44.056 Y-45.043
X44.183 Y-45.324
X44.366 Y-45.572
X44.595 Y-45.777
X44.863 Y-45.93
X45.156 Y-46.025
X45.462 Y-46.057
X46.959
G3 X47.563 Y-45.316 I-0.022 J0.635
G1 X47.024 Y-42.147
X47.005 Y-42.067
G3 X46.42 Y-41.619 I-0.607 J-0.187 F508
G1 X44.981 F1016
X44.813 Y-41.627
X44.665 Y-41.647
X44.513 Y-41.68
X44.356 Y-41.728
X44.188 Y-41.794
X44.016 Y-41.878
X43.845 Y-41.98
X43.669 Y-42.104
X43.494 Y-42.25
X43.327 Y-42.415
X43.165 Y-42.601
X43.012 Y-42.81
X42.886 Y-43.015
X42.768 Y-43.245
X42.674 Y-43.473
X42.6 Y-43.701
X42.541 Y-43.951
X42.506 Y-44.183
X42.488 Y-44.434
X42.491 Y-44.678
X42.493 Y-44.708
X42.554 Y-45.015
X42.678 Y-45.303
X42.86 Y-45.557
X43.091 Y-45.768
X43.361 Y-45.926
X43.658 Y-46.024
X43.969 Y-46.057
X45.462
G3 X46.068 Y-45.327 I-0.022 J0.635
G1 X45.587 Y-42.158
X45.566 Y-42.067
G3 X44.981 Y-41.619 I-0.607 J-0.187 F508
G1 X43.42 F1016
X43.27 Y-41.626
X43.122 Y-41.65
X42.967 Y-41.689
X42.802 Y-41.744
X42.636 Y-41.815
X42.463 Y-41.906
X42.286 Y-42.018
X42.112 Y-42.149
X41.942 Y-42.3
X41.773 Y-42.476
X41.612 Y-42.673
X41.472 Y-42.876
X41.348 Y-43.09
X41.237 Y-43.324
X41.153 Y-43.545
X41.081 Y-43.792
X41.032 Y-44.031
X41.003 Y-44.267
X40.992 Y-44.522
X40.996 Y-44.632
X41.044 Y-44.952
X41.16 Y-45.254
X41.339 Y-45.524
X41.572 Y-45.749
X41.848 Y-45.917
X42.155 Y-46.022
X42.477 Y-46.057
X43.969
G3 X44.573 Y-45.314 I-0.022 J0.635
G1 X44.023 Y-42.145
X44.004 Y-42.067
G3 X43.42 Y-41.619 I-0.607 J-0.187 F508
G1 X41.959 F1016
X41.809 Y-41.626
X41.66 Y-41.647
X41.508 Y-41.682
X41.35 Y-41.731
X41.181 Y-41.799
X41.009 Y-41.885
X40.837 Y-41.989
X40.661 Y-42.116
X40.487 Y-42.264
X40.32 Y-42.431
X40.159 Y-42.62
X40.018 Y-42.816
X39.884 Y-43.038
X39.771 Y-43.263
X39.682 Y-43.483
X39.604 Y-43.732
X39.551 Y-43.967
X39.516 Y-44.206
X39.5 Y-44.46
X39.504 Y-44.692
X39.507 Y-44.72
X39.57 Y-45.025
X39.695 Y-45.31
X39.877 Y-45.563
X40.107 Y-45.772
X40.376 Y-45.928
X40.672 Y-46.024
X40.982 Y-46.057
X42.477
G3 X43.081 Y-45.32 I-0.022 J0.635
G1 X42.563 Y-42.151
X42.543 Y-42.067
G3 X41.959 Y-41.619 I-0.607 J-0.187 F508
G1 X40.52 F1016
X40.329 Y-41.629
X40.18 Y-41.648
X40.026 Y-41.682
X39.868 Y-41.73
X39.703 Y-41.795
X39.53 Y-41.881
X39.357 Y-41.984
X39.184 Y-42.107
X39.009 Y-42.253
X38.84 Y-42.42
X38.679 Y-42.607
X38.529 Y-42.812
X38.403 Y-43.016
X38.285 Y-43.249
X38.192 Y-43.474
X38.117 Y-43.707
X38.059 Y-43.955
X38.025 Y-44.186
X38.007 Y-44.44
X38.01 Y-44.681
X38.012 Y-44.711
X38.074 Y-45.017
X38.198 Y-45.304
X38.379 Y-45.558
X38.61 Y-45.769
X38.88 Y-45.927
X39.177 Y-46.024
X39.488 Y-46.057
X40.982
G3 X41.588 Y-45.331 I-0.022 J0.635
G1 X41.126 Y-42.162
X41.105 Y-42.067
G3 X40.52 Y-41.619 I-0.607 J-0.187 F508
G1 X38.959 F1016
X38.809 Y-41.626
X38.66 Y-41.649
X38.505 Y-41.685
X38.343 Y-41.738
X38.178 Y-41.806
X38.004 Y-41.895
X37.828 Y-42.004
X37.655 Y-42.131
X37.483 Y-42.28
X37.313 Y-42.453
X37.152 Y-42.646
X37.008 Y-42.85
X36.884 Y-43.059
X36.77 Y-43.293
X36.682 Y-43.515
X36.609 Y-43.758
X36.556 Y-44
X36.525 Y-44.233
X36.511 Y-44.489
X36.518 Y-44.726
X36.519 Y-44.734
X36.584 Y-45.037
X36.71 Y-45.319
X36.892 Y-45.569
X37.122 Y-45.775
X37.39 Y-45.929
X37.684 Y-46.025
X37.992 Y-46.057
X39.488
G3 X40.092 Y-45.318 I-0.022 J0.635
G1 X39.563 Y-42.149
X39.543 Y-42.067
G3 X38.959 Y-41.619 I-0.607 J-0.187 F508
G1 X37.498 F1016
X37.343 Y-41.627
X37.194 Y-41.646
X37.041 Y-41.68
X36.884 Y-41.728
X36.716 Y-41.794
X36.544 Y-41.878
X36.372 Y-41.98
X36.197 Y-42.105
X36.022 Y-42.251
X35.854 Y-42.416
X35.693 Y-42.603
X35.541 Y-42.811
X35.415 Y-43.015
X35.297 Y-43.246
X35.203 Y-43.473
X35.129 Y-43.703
X35.07 Y-43.953
X35.035 Y-44.184
X35.018 Y-44.436
X35.02 Y-44.679
X35.023 Y-44.709
X35.084 Y-45.016
X35.208 Y-45.303
X35.389 Y-45.558
X35.62 Y-45.769
X35.89 Y-45.926
X36.187 Y-46.024
X36.498 Y-46.057
X37.992
G3 X38.597 Y-45.325 I-0.022 J0.635
G1 X38.103 Y-42.156
X38.082 Y-42.067
G3 X37.498 Y-41.619 I-0.607 J-0.187 F508
G1 X35.936 F1016
X35.786 Y-41.626
X35.638 Y-41.652
X35.484 Y-41.691
X35.318 Y-41.748
X35.15 Y-41.821
X34.979 Y-41.913
X34.801 Y-42.027
X34.626 Y-42.16
X34.456 Y-42.313
X34.289 Y-42.49
X34.128 Y-42.689
X33.99 Y-42.892
X33.866 Y-43.109
X33.758 Y-43.342
X33.675 Y-43.564
X33.605 Y-43.812
X33.558 Y-44.05
X33.53 Y-44.289
X33.521 Y-44.543
X33.525 Y-44.642
X33.575 Y-44.961
X33.692 Y-45.261
X33.871 Y-45.529
X34.104 Y-45.751
X34.38 Y-45.918
X34.685 Y-46.022
X35.006 Y-46.057
X36.498
G3 X37.101 Y-45.311 I-0.022 J0.635
G1 X36.539 Y-42.143
X36.521 Y-42.067
G3 X35.936 Y-41.619 I-0.607 J-0.187 F508
G1 X34.497 F1016
X34.347
X34.199 Y-41.639
X34.048 Y-41.673
X33.889 Y-41.722
X33.719 Y-41.79
X33.55 Y-41.873
X33.376 Y-41.978
X33.198 Y-42.105
X33.025 Y-42.251
X32.858 Y-42.416
X32.696 Y-42.606
X32.552 Y-42.803
X32.419 Y-43.021
X32.303 Y-43.249
X32.214 Y-43.469
X32.135 Y-43.716
X32.08 Y-43.954
X32.045 Y-44.19
X32.028 Y-44.446
X32.031 Y-44.68
X32.034 Y-44.715
X32.096 Y-45.02
X32.221 Y-45.306
X32.402 Y-45.56
X32.633 Y-45.77
X32.903 Y-45.927
X33.199 Y-46.024
X33.509 Y-46.057
X35.006
G3 X35.609 Y-45.314 I-0.022 J0.635
G1 X35.059 Y-42.142
X35.051 Y-42.104
G3 X34.497 Y-41.619 I-0.618 J-0.147 F508
G1 X33.828 Y-41.574 F1016
X33.605 Y-41.533
X33.382 Y-41.49
X33.234 Y-41.469
X33.084 Y-41.463
X32.934 Y-41.471
X32.779 Y-41.492
X32.616 Y-41.529
X32.448 Y-41.581
X32.269 Y-41.652
X32.088 Y-41.742
X31.906 Y-41.852
X31.722 Y-41.984
X31.539 Y-42.138
X31.364 Y-42.313
X31.196 Y-42.508
X31.038 Y-42.726
X30.908 Y-42.94
X30.786 Y-43.182
X30.689 Y-43.419
X30.614 Y-43.658
X30.555 Y-43.915
X30.52 Y-44.153
X30.503 Y-44.413
X30.507 Y-44.661
X30.512 Y-44.717
X30.574 Y-45.022
X30.699 Y-45.308
X30.88 Y-45.561
X31.111 Y-45.771
X31.38 Y-45.927
X31.677 Y-46.024
X31.987 Y-46.057
X33.509
G3 X34.121 Y-45.375 I-0.022 J0.635
G1 X33.873 Y-42.061
X33.871 Y-42.04
G3 X33.382 Y-41.49 I-0.631 J-0.069 F508
G1 X33.159 Y-41.447 F1016
X33.02 Y-41.412
X32.49 Y-41.273
X32.369 Y-41.227
X32.227 Y-41.18
X32.081 Y-41.145
X31.932 Y-41.126
X31.782 Y-41.12
X31.624 Y-41.126
X31.456 Y-41.147
X31.273 Y-41.184
X31.086 Y-41.239
X30.892 Y-41.313
X30.689 Y-41.409
X30.487 Y-41.526
X30.287 Y-41.663
X30.088 Y-41.826
X29.893 Y-42.013
X29.708 Y-42.222
X29.535 Y-42.452
X29.379 Y-42.698
X29.25 Y-42.942
X29.133 Y-43.214
X29.049 Y-43.467
X28.981 Y-43.74
X28.937 Y-44.005
X28.915 Y-44.263
Y-44.537
X28.934 Y-44.785
X28.938 Y-44.808
X29.014 Y-45.097
X29.147 Y-45.364
X29.331 Y-45.6
X29.558 Y-45.794
X29.819 Y-45.938
X30.104 Y-46.027
X30.401 Y-46.057
X31.987
G3 X32.599 Y-45.45 I-0.022 J0.635
G1 X32.755 Y-41.854
Y-41.839 F508
G3 X32.369 Y-41.227 I-0.634 J0.027
G1 X32.267 Y-41.188 F1016
X32.044 Y-41.084
X31.821 Y-40.965
X31.481 Y-40.743
X31.351 Y-40.667
X31.213 Y-40.61
X31.07 Y-40.566
X30.92 Y-40.534
X30.759 Y-40.514
X30.586 Y-40.506
X30.393 Y-40.512
X30.194 Y-40.535
X29.982 Y-40.577
X29.757 Y-40.641
X29.529 Y-40.725
X29.298 Y-40.833
X29.059 Y-40.968
X28.823 Y-41.128
X28.594 Y-41.312
X28.372 Y-41.522
X28.159 Y-41.758
X27.96 Y-42.018
X27.777 Y-42.302
X27.614 Y-42.605
X27.486 Y-42.9
X27.379 Y-43.209
X27.303 Y-43.505
X27.252 Y-43.803
X27.225 Y-44.098
X27.222 Y-44.378
X27.242 Y-44.669
X27.262 Y-44.797
X27.336 Y-45.088
X27.468 Y-45.358
X27.652 Y-45.595
X27.879 Y-45.791
X28.142 Y-45.937
X28.428 Y-46.027
X28.727 Y-46.057
X30.401
G3 X31.004 Y-45.533 I-0.022 J0.635
G1 X31.729 Y-41.438
X31.74 Y-41.373 F508
G3 X31.481 Y-40.743 I-0.625 J0.111
G1 X31.142 Y-40.52 F1016
X30.835 Y-40.297
X30.705 Y-40.185
X30.638 Y-40.124
X30.522 Y-40.029
X30.396 Y-39.948
X30.262 Y-39.881
X30.119 Y-39.824
X29.963 Y-39.776
X29.79 Y-39.738
X29.597 Y-39.711
X29.395 Y-39.7
X29.172 Y-39.705
X28.936 Y-39.73
X28.692 Y-39.775
X28.431 Y-39.846
X28.161 Y-39.943
X27.891 Y-40.066
X27.613 Y-40.22
X27.333 Y-40.406
X27.06 Y-40.621
X26.799 Y-40.863
X26.55 Y-41.134
X26.317 Y-41.432
X26.103 Y-41.756
X25.914 Y-42.101
X25.75 Y-42.466
X25.623 Y-42.822
X25.524 Y-43.191
X25.464 Y-43.523
X25.429 Y-43.868
X25.422 Y-44.18
X25.442 Y-44.5
X25.483 Y-44.796
X25.507 Y-44.9
X25.616 Y-45.214
X25.792 Y-45.496
X26.026 Y-45.732
X26.308 Y-45.909
X26.622 Y-46.02
X26.952 Y-46.057
X28.727
G3 X29.311 Y-45.609 I-0.022 J0.635
G1 X30.775 Y-40.85
X30.802 Y-40.765 F508
G3 X30.638 Y-40.124 I-0.607 J0.187
G1 X30.482 Y-39.982 F1016
X30.467 Y-39.965
X30.036 Y-39.407
X29.934 Y-39.288
X29.828 Y-39.182
X29.712 Y-39.087
X29.588 Y-39.002
X29.443 Y-38.921
X29.284 Y-38.846
X29.106 Y-38.781
X28.903 Y-38.724
X28.69 Y-38.682
X28.45 Y-38.654
X28.193 Y-38.646
X27.925 Y-38.659
X27.634 Y-38.696
X27.33 Y-38.76
X27.021 Y-38.852
X26.698 Y-38.977
X26.364 Y-39.137
X26.035 Y-39.33
X25.71 Y-39.557
X25.386 Y-39.824
X25.072 Y-40.129
X24.774 Y-40.468
X24.757 Y-40.492
X24.597 Y-40.763
X24.498 Y-41.063
X24.464 Y-41.376
Y-44.981
X24.475 Y-45.196
X24.533 Y-45.426
X24.645 Y-45.635
X24.803 Y-45.811
X24.999 Y-45.945
X25.221 Y-46.029
X25.456 Y-46.057
G3 X25.93 Y-45.026 I-0.022 J0.635
G1 X25.595 Y-44.607
G3 X24.912 Y-44.396 I-0.496 J-0.396
X24.464 Y-44.981 I0.187 J-0.607 F508
G1 Y-45.427 F1016
X24.469 Y-45.483
X24.479 Y-45.539
X24.493 Y-45.595
X24.514 Y-45.65
X24.541 Y-45.706
X24.575 Y-45.762
X24.618 Y-45.818
X24.668 Y-45.873
X24.683 Y-45.888
X24.738 Y-45.934
X24.794 Y-45.97
X24.85 Y-45.999
X24.906 Y-46.022
X24.962 Y-46.038
X25.017 Y-46.05
X25.129 Y-46.057
X26.952
G3 X27.507 Y-45.687 I-0.022 J0.635
G1 X27.542 Y-45.612
X30.048 Y-40.148
X30.097 Y-40.041 F508
G3 X30.036 Y-39.407 I-0.577 J0.265
G1 X29.872 Y-39.182 F1016
X29.813 Y-39.092
X29.588 Y-38.735
X29.459 Y-38.512
X29.443 Y-38.481
X29.371 Y-38.35
X29.281 Y-38.23
X29.181 Y-38.118
X29.065 Y-38.01
X28.933 Y-37.905
X28.779 Y-37.803
X28.602 Y-37.704
X28.41 Y-37.616
X28.187 Y-37.535
X27.948 Y-37.47
X27.686 Y-37.42
X27.394 Y-37.388
X27.092 Y-37.38
X26.766 Y-37.398
X26.414 Y-37.445
X26.056 Y-37.523
X25.682 Y-37.636
X25.403 Y-37.746
X25.141 Y-37.88
X24.911 Y-38.064
X24.721 Y-38.29
X24.58 Y-38.549
X24.493 Y-38.831
X24.464 Y-39.125
Y-41.376
G3 X25.461 Y-41.876 I0.635 J0.022
G1 X29.226 Y-39.261
X29.298 Y-39.203
G3 X29.443 Y-38.481 I-0.434 J0.463 F508
G1 X29.35 Y-38.289 F1016
X29.265 Y-38.066
X29.191 Y-37.843
X29.144 Y-37.65
X29.137 Y-37.62
X29.099 Y-37.475
X29.043 Y-37.336
X28.974 Y-37.203
X28.892 Y-37.075
X28.794 Y-36.946
X28.676 Y-36.815
X28.534 Y-36.68
X28.376 Y-36.552
X28.186 Y-36.423
X27.977 Y-36.304
X27.742 Y-36.194
X27.474 Y-36.094
X27.191 Y-36.013
X26.891 Y-35.953
X26.574 Y-35.916
X26.284 Y-35.906
X25.985 Y-35.919
X25.703 Y-35.954
X25.644 Y-35.967
X25.325 Y-36.072
X25.037 Y-36.247
X24.796 Y-36.482
X24.615 Y-36.766
X24.502 Y-37.083
X24.464 Y-37.417
Y-39.125
G3 X25.335 Y-39.692 I0.635 J0.022
G1 X28.749 Y-38.321
X28.823 Y-38.286
G3 X29.137 Y-37.62 I-0.31 J0.554 F508
G1 X29.09 Y-37.397 F1016
X29.046 Y-37.174
X28.963 Y-36.728
X28.937 Y-36.505
X28.92 Y-36.356
X28.883 Y-36.211
X28.832 Y-36.069
X28.766 Y-35.924
X28.682 Y-35.773
X28.58 Y-35.62
X28.452 Y-35.459
X28.306 Y-35.302
X28.136 Y-35.147
X27.94 Y-34.994
X27.724 Y-34.853
X27.49 Y-34.725
X27.259 Y-34.622
X26.999 Y-34.53
X26.748 Y-34.464
X26.504 Y-34.42
X26.235 Y-34.394
X25.989 Y-34.389
X25.734 Y-34.406
X25.442 Y-34.479
X25.17 Y-34.61
X24.93 Y-34.793
X24.733 Y-35.021
X24.586 Y-35.284
X24.495 Y-35.572
X24.464 Y-35.872
Y-37.417
G3 X25.267 Y-38.007 I0.635 J0.022
G1 X28.471 Y-37.124
X28.518 Y-37.11
G3 X28.937 Y-36.505 I-0.215 J0.597 F508
G1 X28.917 Y-36.059 F1016
X28.911 Y-35.836
Y-35.267
X28.903 Y-35.117
X28.879 Y-34.969
X28.84 Y-34.819
X28.788 Y-34.666
X28.716 Y-34.502
X28.625 Y-34.332
X28.517 Y-34.164
X28.386 Y-33.993
X28.232 Y-33.822
X28.059 Y-33.659
X27.866 Y-33.503
X27.648 Y-33.355
X27.436 Y-33.235
X27.199 Y-33.124
X26.966 Y-33.038
X26.73 Y-32.971
X26.478 Y-32.921
X26.244 Y-32.894
X25.987 Y-32.885
X25.878 Y-32.89
X25.559 Y-32.94
X25.259 Y-33.057
X24.992 Y-33.237
X24.769 Y-33.47
X24.602 Y-33.745
X24.499 Y-34.05
X24.464 Y-34.371
Y-35.872
G3 X25.217 Y-36.474 I0.635 J0.022
G1 X28.395 Y-35.869
X28.463 Y-35.852
G3 X28.911 Y-35.267 I-0.187 J0.607 F508
G1 Y-33.828 F1016
X28.903 Y-33.678
X28.881 Y-33.53
X28.844 Y-33.376
X28.793 Y-33.218
X28.722 Y-33.049
X28.634 Y-32.877
X28.527 Y-32.706
X28.397 Y-32.53
X28.246 Y-32.356
X28.076 Y-32.19
X27.885 Y-32.031
X27.686 Y-31.891
X27.461 Y-31.758
X27.235 Y-31.648
X27.012 Y-31.561
X26.762 Y-31.485
X26.527 Y-31.435
X26.284 Y-31.403
X26.031 Y-31.39
X25.799 Y-31.396
X25.784 Y-31.398
X25.482 Y-31.464
X25.2 Y-31.59
X24.951 Y-31.772
X24.745 Y-32.002
X24.591 Y-32.27
X24.496 Y-32.564
X24.464 Y-32.871
Y-34.371
G3 X25.205 Y-34.974 I0.635 J0.022
G1 X28.383 Y-34.432
X28.463 Y-34.413
G3 X28.911 Y-33.828 I-0.187 J0.607 F508
G1 Y-32.367 F1016
X28.903 Y-32.217
X28.883 Y-32.069
X28.849 Y-31.915
X28.801 Y-31.758
X28.735 Y-31.591
X28.65 Y-31.418
X28.547 Y-31.246
X28.422 Y-31.071
X28.275 Y-30.896
X28.108 Y-30.728
X27.921 Y-30.567
X27.712 Y-30.415
X27.507 Y-30.289
X27.275 Y-30.171
X27.046 Y-30.077
X26.816 Y-30.004
X26.566 Y-29.946
X26.334 Y-29.911
X26.081 Y-29.894
X25.837 Y-29.897
X25.808 Y-29.899
X25.502 Y-29.961
X25.216 Y-30.085
X24.962 Y-30.267
X24.751 Y-30.498
X24.594 Y-30.767
X24.497 Y-31.064
X24.464 Y-31.375
Y-32.871
G3 X25.198 Y-33.476 I0.635 J0.022
G1 X28.376 Y-32.972
X28.463 Y-32.952
G3 X28.911 Y-32.367 I-0.187 J0.607 F508
G1 Y-30.928 F1016
X28.901 Y-30.724
X28.881 Y-30.576
X28.847 Y-30.421
X28.798 Y-30.262
X28.733 Y-30.097
X28.648 Y-29.924
X28.544 Y-29.75
X28.421 Y-29.577
X28.274 Y-29.402
X28.106 Y-29.232
X27.919 Y-29.07
X27.714 Y-28.921
X27.509 Y-28.795
X27.275 Y-28.676
X27.05 Y-28.583
X26.815 Y-28.508
X26.568 Y-28.45
X26.337 Y-28.416
X26.082 Y-28.398
X25.841 Y-28.401
X25.81 Y-28.404
X25.503 Y-28.465
X25.217 Y-28.589
X24.962 Y-28.771
X24.752 Y-29.002
X24.594 Y-29.272
X24.497 Y-29.569
X24.464 Y-29.879
Y-31.375
G3 X25.187 Y-31.981 I0.635 J0.022
G1 X28.365 Y-31.535
X28.414 Y-31.526
X28.463 Y-31.513
G3 X28.911 Y-30.928 I-0.187 J0.607 F508
G1 Y-29.367 F1016
X28.903 Y-29.217
X28.883 Y-29.069
X28.847 Y-28.913
X28.796 Y-28.752
X28.73 Y-28.587
X28.642 Y-28.413
X28.536 Y-28.238
X28.411 Y-28.065
X28.263 Y-27.892
X28.092 Y-27.721
X27.901 Y-27.559
X27.697 Y-27.412
X27.49 Y-27.287
X27.255 Y-27.17
X27.031 Y-27.08
X26.792 Y-27.005
X26.547 Y-26.95
X26.315 Y-26.917
X26.059 Y-26.901
X25.82 Y-26.906
X25.798 Y-26.908
X25.494 Y-26.971
X25.209 Y-27.097
X24.957 Y-27.278
X24.749 Y-27.509
X24.593 Y-27.778
X24.497 Y-28.073
X24.464 Y-28.382
Y-29.879
G3 X25.2 Y-30.484 I0.635 J0.022
G1 X28.377 Y-29.972
X28.463 Y-29.952
G3 X28.911 Y-29.367 I-0.187 J0.607 F508
G1 Y-28.698 F1016
X28.912 Y-28.475
X28.916 Y-28.029
X28.919 Y-27.926
X28.915 Y-27.776
X28.899 Y-27.627
X28.869 Y-27.477
X28.825 Y-27.32
X28.762 Y-27.153
X28.683 Y-26.982
X28.585 Y-26.81
X28.465 Y-26.632
X28.324 Y-26.457
X28.164 Y-26.288
X27.981 Y-26.123
X27.776 Y-25.966
X27.571 Y-25.834
X27.345 Y-25.712
X27.114 Y-25.612
X26.888 Y-25.534
X26.637 Y-25.469
X26.402 Y-25.429
X26.155 Y-25.406
X25.906 Y-25.404
X25.842 Y-25.408
X25.53 Y-25.464
X25.237 Y-25.585
X24.976 Y-25.766
X24.76 Y-25.998
X24.598 Y-26.27
X24.498 Y-26.571
X24.464 Y-26.886
Y-28.382
G3 X25.192 Y-28.988 I0.635 J0.022
G1 X28.378 Y-28.517
X28.457 Y-28.5
G3 X28.919 Y-27.926 I-0.172 J0.611 F508
G1 X28.921 Y-27.842 F1016
X28.99 Y-27.359
X29.025 Y-27.136
X29.096 Y-26.791
X29.119 Y-26.642
X29.124 Y-26.492
X29.115 Y-26.343
X29.092 Y-26.186
X29.054 Y-26.016
X29 Y-25.843
X28.927 Y-25.662
X28.833 Y-25.474
X28.721 Y-25.288
X28.587 Y-25.102
X28.429 Y-24.916
X28.249 Y-24.736
X28.049 Y-24.565
X27.831 Y-24.408
X27.612 Y-24.275
X27.363 Y-24.15
X27.127 Y-24.055
X26.878 Y-23.977
X26.622 Y-23.918
X26.381 Y-23.883
X26.116 Y-23.867
X25.92 Y-23.87
X25.595 Y-23.912
X25.286 Y-24.025
X25.011 Y-24.202
X24.78 Y-24.436
X24.608 Y-24.715
X24.5 Y-25.025
X24.464 Y-25.351
Y-26.886
G3 X25.14 Y-27.498 I0.635 J0.022
G1 X28.521 Y-27.274
X28.54 Y-27.273
G3 X29.096 Y-26.791 I-0.061 J0.632 F508
G1 X29.144 Y-26.56 F1016
X29.165 Y-26.467
X29.381 Y-25.86
X29.388 Y-25.848
X29.456 Y-25.714
X29.494 Y-25.569
X29.517 Y-25.421
X29.526 Y-25.271
X29.524 Y-25.111
X29.507 Y-24.935
X29.474 Y-24.753
X29.423 Y-24.561
X29.352 Y-24.357
X29.261 Y-24.153
X29.149 Y-23.946
X29.011 Y-23.735
X28.85 Y-23.527
X28.667 Y-23.327
X28.462 Y-23.135
X28.231 Y-22.952
X27.983 Y-22.786
X27.722 Y-22.64
X27.448 Y-22.515
X27.191 Y-22.421
X26.906 Y-22.342
X26.64 Y-22.292
X26.371 Y-22.262
X26.093 Y-22.255
X25.841 Y-22.268
X25.75 Y-22.28
X25.454 Y-22.351
X25.179 Y-22.481
X24.937 Y-22.664
X24.737 Y-22.892
X24.587 Y-23.157
X24.495 Y-23.447
X24.464 Y-23.749
Y-25.351
G3 X25.068 Y-25.964 I0.635 J0.022
G1 X28.707 Y-26.14
X28.818 Y-26.146 F508
G3 X29.388 Y-25.848 I0.031 J0.634
G1 X29.674 Y-25.352 F1016
X29.813 Y-25.122
X29.896 Y-25.003
X29.975 Y-24.876
X30.04 Y-24.74
X30.09 Y-24.599
X30.128 Y-24.453
X30.156 Y-24.298
X30.172 Y-24.122
X30.175 Y-23.935
X30.161 Y-23.738
X30.129 Y-23.521
X30.078 Y-23.299
X30.005 Y-23.069
X29.906 Y-22.827
X29.782 Y-22.582
X29.634 Y-22.341
X29.46 Y-22.101
X29.255 Y-21.863
X29.025 Y-21.635
X28.772 Y-21.421
X28.496 Y-21.224
X28.198 Y-21.045
X27.883 Y-20.89
X27.577 Y-20.768
X27.252 Y-20.668
X26.956 Y-20.602
X26.639 Y-20.558
X26.351 Y-20.541
X26.051 Y-20.548
X25.77 Y-20.577
X25.676 Y-20.594
X25.394 Y-20.676
X25.134 Y-20.812
X24.906 Y-20.996
X24.718 Y-21.221
X24.579 Y-21.479
X24.493 Y-21.759
X24.464 Y-22.051
Y-23.749
G3 X24.969 Y-24.348 I0.635 J0.022
G1 X29.194 Y-25.231
X29.257 Y-25.244 F508
G3 X29.896 Y-25.003 I0.13 J0.622
G1 X30.118 Y-24.683 F1016
X30.259 Y-24.486
X30.482 Y-24.234
X30.519 Y-24.201
X30.627 Y-24.096
X30.715 Y-23.975
X30.792 Y-23.846
X30.856 Y-23.709
X30.912 Y-23.562
X30.96 Y-23.393
X30.998 Y-23.208
X31.021 Y-23.01
X31.03 Y-22.788
X31.02 Y-22.558
X30.99 Y-22.312
X30.936 Y-22.048
X30.859 Y-21.78
X30.754 Y-21.503
X30.617 Y-21.215
X30.45 Y-20.925
X30.254 Y-20.642
X30.027 Y-20.363
X29.766 Y-20.091
X29.476 Y-19.834
X29.159 Y-19.594
X28.818 Y-19.378
X28.457 Y-19.188
X28.078 Y-19.026
X27.703 Y-18.9
X27.329 Y-18.806
X26.981 Y-18.749
X26.632 Y-18.72
X26.309 Y-18.719
X25.989 Y-18.744
X25.687 Y-18.792
X25.596 Y-18.813
X25.288 Y-18.926
X25.011 Y-19.103
X24.781 Y-19.337
X24.608 Y-19.617
X24.5 Y-19.927
X24.464 Y-20.253
Y-22.051
G3 X24.897 Y-22.631 I0.635 J0.022
G1 X24.911 Y-22.636
X29.779 Y-24.268
X29.913 Y-24.313 F508
G3 X30.519 Y-24.201 I0.202 J0.602
G1 X30.731 Y-24.014 F1016
X30.928 Y-23.846
X31.151 Y-23.689
X31.253 Y-23.622
X31.378 Y-23.531
X31.491 Y-23.433
X31.594 Y-23.324
X31.687 Y-23.206
X31.775 Y-23.072
X31.858 Y-22.919
X31.933 Y-22.752
X32.002 Y-22.557
X32.057 Y-22.35
X32.099 Y-22.119
X32.124 Y-21.866
X32.129 Y-21.603
X32.111 Y-21.315
X32.068 Y-21.01
X31.997 Y-20.699
X31.895 Y-20.371
X31.757 Y-20.029
X31.587 Y-19.689
X31.382 Y-19.349
X31.135 Y-19.007
X30.848 Y-18.669
X30.782 Y-18.602
X30.557 Y-18.418
X30.301 Y-18.281
X30.023 Y-18.196
X29.733 Y-18.168
X25.229
X25.129
X25.017 Y-18.175
X24.962 Y-18.187
X24.906 Y-18.203
X24.877 Y-18.214
X24.78 Y-18.263
X24.731 Y-18.297
X24.683 Y-18.337
X24.634 Y-18.387
X24.592 Y-18.437
X24.555 Y-18.493
X24.525 Y-18.549
X24.502 Y-18.604
X24.484 Y-18.66
X24.473 Y-18.716
X24.466 Y-18.772
X24.464 Y-18.883
Y-20.253
G3 X24.82 Y-20.802 I0.635 J0.022
G1 X24.909 Y-20.845
X30.51 Y-23.584
X30.645 Y-23.65 F508
G3 X31.253 Y-23.622 I0.279 J0.57
G1 X31.821 Y-23.25 F1016
X32.044 Y-23.138
X32.183 Y-23.075
X32.319 Y-23.005
X32.447 Y-22.926
X32.566 Y-22.835
X32.678 Y-22.732
X32.789 Y-22.612
X32.898 Y-22.473
X33.007 Y-22.309
X33.106 Y-22.13
X33.2 Y-21.921
X33.282 Y-21.694
X33.35 Y-21.444
X33.402 Y-21.163
X33.432 Y-20.87
X33.44 Y-20.55
X33.42 Y-20.203
X33.371 Y-19.848
X33.288 Y-19.473
X33.183 Y-19.132
X33.171 Y-19.102
X33.036 Y-18.841
X32.852 Y-18.612
X32.626 Y-18.424
X32.368 Y-18.283
X32.087 Y-18.197
X31.794 Y-18.168
X29.733
G3 X29.209 Y-19.127 I0.022 J-0.635
G1 X31.396 Y-22.811
X31.429 Y-22.861
X31.466 Y-22.907
G3 X32.183 Y-23.075 I0.476 J0.42 F508
G1 X32.267 Y-23.037 F1016
X32.49 Y-22.941
X32.936 Y-22.825
X33.159 Y-22.768
X33.304 Y-22.731
X33.444 Y-22.677
X33.578 Y-22.609
X33.709 Y-22.528
X33.842 Y-22.43
X33.983 Y-22.308
X34.119 Y-22.17
X34.259 Y-22.001
X34.391 Y-21.815
X34.518 Y-21.601
X34.638 Y-21.355
X34.74 Y-21.093
X34.829 Y-20.802
X34.889 Y-20.525
X34.928 Y-20.228
X34.943 Y-19.955
X34.935 Y-19.67
X34.906 Y-19.401
X34.9 Y-19.372
X34.818 Y-19.092
X34.681 Y-18.833
X34.497 Y-18.607
X34.272 Y-18.42
X34.015 Y-18.282
X33.735 Y-18.197
X33.445 Y-18.168
X31.794
G3 X31.222 Y-19.024 I0.022 J-0.635
G1 X32.465 Y-22.362
X32.5 Y-22.44
G3 X33.159 Y-22.768 I0.56 J0.299 F508
G1 X33.64 Y-22.675 F1016
X33.828 Y-22.641
X34.274 Y-22.611
X34.423 Y-22.593
X34.569 Y-22.559
X34.712 Y-22.512
X34.863 Y-22.447
X35.015 Y-22.367
X35.174 Y-22.267
X35.338 Y-22.143
X35.497 Y-22.002
X35.656 Y-21.836
X35.812 Y-21.646
X35.956 Y-21.437
X36.088 Y-21.208
X36.195 Y-20.983
X36.291 Y-20.732
X36.359 Y-20.495
X36.412 Y-20.24
X36.442 Y-19.991
X36.453 Y-19.745
X36.443 Y-19.489
X36.441 Y-19.474
X36.373 Y-19.175
X36.246 Y-18.896
X36.063 Y-18.649
X35.834 Y-18.446
X35.567 Y-18.294
X35.275 Y-18.2
X34.97 Y-18.168
X33.445
G3 X32.851 Y-18.956 I0.022 J-0.635
G1 X33.638 Y-22.129
X33.661 Y-22.202
G3 X34.274 Y-22.611 I0.593 J0.227 F508
G1 X34.497 Y-22.596 F1016
X35.512
X35.662 Y-22.588
X35.811 Y-22.569
X35.959 Y-22.535
X36.111 Y-22.488
X36.274 Y-22.423
X36.443 Y-22.339
X36.61 Y-22.238
X36.783 Y-22.115
X36.955 Y-21.969
X37.121 Y-21.805
X37.279 Y-21.619
X37.431 Y-21.41
X37.557 Y-21.204
X37.673 Y-20.973
X37.767 Y-20.743
X37.839 Y-20.513
X37.897 Y-20.262
X37.931 Y-20.029
X37.948 Y-19.777
X37.944 Y-19.533
X37.942 Y-19.508
X37.879 Y-19.203
X37.755 Y-18.917
X37.573 Y-18.664
X37.342 Y-18.454
X37.073 Y-18.298
X36.777 Y-18.201
X36.467 Y-18.168
X34.97
G3 X34.366 Y-18.91 I0.022 J-0.635
G1 X34.909 Y-22.069
X34.928 Y-22.148
G3 X35.512 Y-22.596 I0.607 J0.187 F508
G1 X36.951 F1016
X37.127 Y-22.587
X37.276 Y-22.567
X37.429 Y-22.534
X37.587 Y-22.485
X37.751 Y-22.42
X37.923 Y-22.335
X38.096 Y-22.232
X38.268 Y-22.109
X38.441 Y-21.963
X38.611 Y-21.796
X38.772 Y-21.609
X38.921 Y-21.405
X39.046 Y-21.201
X39.164 Y-20.968
X39.256 Y-20.744
X39.331 Y-20.51
X39.388 Y-20.264
X39.422 Y-20.033
X39.44 Y-19.779
X39.437 Y-19.539
X39.434 Y-19.512
X39.373 Y-19.206
X39.248 Y-18.92
X39.067 Y-18.666
X38.836 Y-18.455
X38.566 Y-18.298
X38.269 Y-18.201
X37.959 Y-18.168
X36.467
G3 X35.861 Y-18.899 I0.022 J-0.635
G1 X36.346 Y-22.057
X36.366 Y-22.148
G3 X36.951 Y-22.596 I0.607 J0.187 F508
G1 X38.512 F1016
X38.662 Y-22.588
X38.81 Y-22.564
X38.965 Y-22.526
X39.129 Y-22.471
X39.295 Y-22.4
X39.467 Y-22.309
X39.644 Y-22.197
X39.818 Y-22.066
X39.987 Y-21.916
X40.156 Y-21.74
X40.316 Y-21.544
X40.456 Y-21.341
X40.579 Y-21.128
X40.69 Y-20.895
X40.774 Y-20.674
X40.845 Y-20.428
X40.894 Y-20.189
X40.923 Y-19.953
X40.934 Y-19.699
X40.93 Y-19.592
X40.882 Y-19.272
X40.766 Y-18.97
X40.587 Y-18.7
X40.353 Y-18.476
X40.077 Y-18.308
X39.771 Y-18.203
X39.449 Y-18.168
X37.959
G3 X37.356 Y-18.912 I0.022 J-0.635
G1 X37.909 Y-22.071
X37.928 Y-22.148
G3 X38.512 Y-22.596 I0.607 J0.187 F508
G1 X39.973 F1016
X40.123 Y-22.588
X40.272 Y-22.567
X40.425 Y-22.532
X40.583 Y-22.482
X40.751 Y-22.414
X40.923 Y-22.328
X41.094 Y-22.223
X41.27 Y-22.096
X41.444 Y-21.948
X41.61 Y-21.78
X41.77 Y-21.592
X41.91 Y-21.397
X42.044 Y-21.175
X42.156 Y-20.951
X42.244 Y-20.73
X42.322 Y-20.482
X42.374 Y-20.249
X42.408 Y-20.008
X42.423 Y-19.756
X42.419 Y-19.524
X42.417 Y-19.501
X42.353 Y-19.197
X42.228 Y-18.913
X42.046 Y-18.661
X41.815 Y-18.453
X41.547 Y-18.297
X41.251 Y-18.2
X40.942 Y-18.168
X39.449
G3 X38.845 Y-18.907 I0.022 J-0.635
G1 X39.369 Y-22.065
X39.389 Y-22.148
G3 X39.973 Y-22.596 I0.607 J0.187 F508
G1 X41.412 F1016
X41.598 Y-22.587
X41.746 Y-22.567
X41.9 Y-22.533
X42.057 Y-22.485
X42.222 Y-22.42
X42.395 Y-22.335
X42.567 Y-22.232
X42.74 Y-22.109
X42.915 Y-21.963
X43.084 Y-21.796
X43.244 Y-21.611
X43.394 Y-21.406
X43.519 Y-21.202
X43.637 Y-20.97
X43.73 Y-20.745
X43.804 Y-20.513
X43.862 Y-20.266
X43.897 Y-20.036
X43.914 Y-19.782
X43.912 Y-19.541
X43.909 Y-19.514
X43.848 Y-19.208
X43.724 Y-18.921
X43.542 Y-18.667
X43.312 Y-18.456
X43.042 Y-18.298
X42.745 Y-18.201
X42.434 Y-18.168
X40.942
G3 X40.336 Y-18.896 I0.022 J-0.635
G1 X40.806 Y-22.055
X40.828 Y-22.148
G3 X41.412 Y-22.596 I0.607 J0.187 F508
G1 X42.974 F1016
X43.123 Y-22.588
X43.272 Y-22.566
X43.426 Y-22.528
X43.59 Y-22.475
X43.755 Y-22.405
X43.927 Y-22.316
X44.104 Y-22.206
X44.277 Y-22.078
X44.447 Y-21.928
X44.616 Y-21.755
X44.777 Y-21.56
X44.919 Y-21.358
X45.043 Y-21.147
X45.156 Y-20.914
X45.241 Y-20.693
X45.314 Y-20.449
X45.365 Y-20.209
X45.396 Y-19.975
X45.408 Y-19.72
X45.401 Y-19.484
X45.334 Y-19.183
X45.207 Y-18.902
X45.025 Y-18.654
X44.795 Y-18.448
X44.528 Y-18.295
X44.235 Y-18.2
X43.928 Y-18.168
X42.434
G3 X41.83 Y-18.909 I0.022 J-0.635
G1 X42.37 Y-22.068
X42.389 Y-22.148
G3 X42.974 Y-22.596 I0.607 J0.187 F508
G1 X44.435 F1016
X44.584 Y-22.588
X44.733 Y-22.568
X44.886 Y-22.534
X45.043 Y-22.486
X45.21 Y-22.42
X45.382 Y-22.335
X45.554 Y-22.232
X45.729 Y-22.107
X45.903 Y-21.961
X46.071 Y-21.795
X46.231 Y-21.608
X46.383 Y-21.4
X46.508 Y-21.196
X46.625 Y-20.965
X46.718 Y-20.738
X46.791 Y-20.509
X46.849 Y-20.26
X46.883 Y-20.029
X46.9 Y-19.777
X46.897 Y-19.535
X46.895 Y-19.512
X46.833 Y-19.206
X46.709 Y-18.919
X46.527 Y-18.665
X46.296 Y-18.455
X46.027 Y-18.298
X45.73 Y-18.201
X45.42 Y-18.168
X43.928
G3 X43.323 Y-18.903 I0.022 J-0.635
G1 X43.83 Y-22.062
X43.85 Y-22.148
G3 X44.435 Y-22.596 I0.607 J0.187 F508
G1 X45.873 F1016
X46.074 Y-22.586
X46.223 Y-22.566
X46.377 Y-22.532
X46.536 Y-22.484
X46.7 Y-22.419
X46.873 Y-22.333
X47.047 Y-22.23
X47.219 Y-22.107
X47.393 Y-21.961
X47.563 Y-21.793
X47.724 Y-21.606
X47.872 Y-21.403
X47.997 Y-21.199
X48.116 Y-20.967
X48.207 Y-20.744
X48.282 Y-20.509
X48.339 Y-20.264
X48.374 Y-20.033
X48.391 Y-19.779
X48.389 Y-19.539
X48.386 Y-19.513
X48.325 Y-19.207
X48.201 Y-18.92
X48.019 Y-18.666
X47.788 Y-18.456
X47.518 Y-18.298
X47.221 Y-18.201
X46.911 Y-18.168
X45.42
G3 X44.813 Y-18.893 I0.022 J-0.635
G1 X45.267 Y-22.051
X45.289 Y-22.148
G3 X45.873 Y-22.596 I0.607 J0.187 F508
G1 X47.435 F1016
X47.585 Y-22.588
X47.733 Y-22.567
X47.888 Y-22.531
X48.049 Y-22.48
X48.214 Y-22.412
X48.387 Y-22.324
X48.563 Y-22.217
X48.735 Y-22.091
X48.907 Y-21.944
X49.077 Y-21.772
X49.238 Y-21.581
X49.383 Y-21.378
X49.507 Y-21.17
X49.622 Y-20.937
X49.71 Y-20.715
X49.784 Y-20.475
X49.838 Y-20.232
X49.87 Y-20.001
X49.884 Y-19.745
X49.879 Y-19.508
X49.878 Y-19.496
X49.814 Y-19.193
X49.688 Y-18.91
X49.506 Y-18.659
X49.275 Y-18.451
X49.007 Y-18.296
X48.712 Y-18.2
X48.404 Y-18.168
X46.911
G3 X46.307 Y-18.906 I0.022 J-0.635
G1 X46.831 Y-22.065
X46.85 Y-22.148
G3 X47.435 Y-22.596 I0.607 J0.187 F508
G1 X48.896 F1016
X49.057 Y-22.588
X49.205 Y-22.568
X49.359 Y-22.535
X49.516 Y-22.487
X49.682 Y-22.421
X49.855 Y-22.336
X50.027 Y-22.234
X50.201 Y-22.11
X50.375 Y-21.964
X50.544 Y-21.798
X50.704 Y-21.612
X50.855 Y-21.405
X50.98 Y-21.202
X51.098 Y-20.97
X51.191 Y-20.745
X51.265 Y-20.514
X51.323 Y-20.266
X51.358 Y-20.036
X51.376 Y-19.783
X51.373 Y-19.541
X51.371 Y-19.515
X51.31 Y-19.208
X51.185 Y-18.921
X51.004 Y-18.667
X50.773 Y-18.456
X50.503 Y-18.298
X50.206 Y-18.201
X49.895 Y-18.168
X48.404
G3 X47.799 Y-18.9 I0.022 J-0.635
G1 X48.291 Y-22.059
X48.311 Y-22.148
G3 X48.896 Y-22.596 I0.607 J0.187 F508
G1 X50.457 F1016
X50.607 Y-22.588
X50.755 Y-22.563
X50.909 Y-22.524
X51.075 Y-22.468
X51.242 Y-22.395
X51.413 Y-22.304
X51.591 Y-22.19
X51.765 Y-22.058
X51.934 Y-21.906
X52.101 Y-21.73
X52.262 Y-21.532
X52.4 Y-21.329
X52.523 Y-21.113
X52.632 Y-20.881
X52.715 Y-20.66
X52.785 Y-20.413
X52.833 Y-20.175
X52.861 Y-19.938
X52.87 Y-19.684
X52.866 Y-19.585
X52.817 Y-19.266
X52.7 Y-18.965
X52.521 Y-18.697
X52.288 Y-18.474
X52.012 Y-18.307
X51.706 Y-18.203
X51.386 Y-18.168
X49.895
G3 X49.292 Y-18.914 I0.022 J-0.635
G1 X49.854 Y-22.072
X49.873 Y-22.148
G3 X50.457 Y-22.596 I0.607 J0.187 F508
G1 X51.896 F1016
X52.046 Y-22.588
X52.194 Y-22.568
X52.344 Y-22.536
X52.503 Y-22.487
X52.671 Y-22.421
X52.84 Y-22.337
X53.012 Y-22.234
X53.189 Y-22.109
X53.362 Y-21.964
X53.528 Y-21.8
X53.69 Y-21.612
X53.833 Y-21.416
X53.967 Y-21.199
X54.082 Y-20.973
X54.172 Y-20.755
X54.251 Y-20.508
X54.306 Y-20.272
X54.341 Y-20.036
X54.359 Y-19.781
X54.356 Y-19.548
X54.353 Y-19.514
X54.292 Y-19.208
X54.168 Y-18.921
X53.986 Y-18.666
X53.755 Y-18.456
X53.485 Y-18.298
X53.189 Y-18.201
X52.878 Y-18.168
X51.386
G3 X50.781 Y-18.904 I0.022 J-0.635
G1 X51.291 Y-22.062
X51.311 Y-22.148
G3 X51.896 Y-22.596 I0.607 J0.187 F508
G1 X53.357 F1016
X53.534 Y-22.587
X53.683 Y-22.567
X53.837 Y-22.534
X53.996 Y-22.485
X54.159 Y-22.42
X54.332 Y-22.335
X54.506 Y-22.231
X54.678 Y-22.109
X54.851 Y-21.963
X55.021 Y-21.795
X55.183 Y-21.608
X55.331 Y-21.405
X55.456 Y-21.201
X55.574 Y-20.968
X55.666 Y-20.745
X55.741 Y-20.51
X55.798 Y-20.265
X55.833 Y-20.035
X55.85 Y-19.78
X55.848 Y-19.54
X55.845 Y-19.513
X55.784 Y-19.207
X55.659 Y-18.92
X55.478 Y-18.666
X55.247 Y-18.456
X54.977 Y-18.298
X54.68 Y-18.201
X54.37 Y-18.168
X52.878
G3 X52.272 Y-18.898 I0.022 J-0.635
G1 X52.751 Y-22.056
X52.772 Y-22.148
G3 X53.357 Y-22.596 I0.607 J0.187 F508
G1 X54.918 F1016
X55.068 Y-22.588
X55.216 Y-22.565
X55.371 Y-22.527
X55.535 Y-22.472
X55.701 Y-22.402
X55.873 Y-22.311
X56.05 Y-22.2
X56.223 Y-22.07
X56.393 Y-21.92
X56.562 Y-21.745
X56.722 Y-21.549
X56.863 Y-21.347
X56.986 Y-21.134
X57.098 Y-20.901
X57.182 Y-20.68
X57.254 Y-20.435
X57.304 Y-20.195
X57.333 Y-19.961
X57.344 Y-19.706
X57.336 Y-19.472
X57.269 Y-19.173
X57.142 Y-18.895
X56.96 Y-18.649
X56.731 Y-18.445
X56.466 Y-18.293
X56.174 Y-18.2
X55.87 Y-18.168
X54.37
G3 X53.766 Y-18.911 I0.022 J-0.635
G1 X54.315 Y-22.07
X54.334 Y-22.148
G3 X54.918 Y-22.596 I0.607 J0.187 F508
G1 X56.357 F1016
X56.516 Y-22.588
X56.665 Y-22.568
X56.815 Y-22.536
X56.973 Y-22.488
X57.14 Y-22.422
X57.311 Y-22.338
X57.482 Y-22.237
X57.658 Y-22.112
X57.832 Y-21.967
X57.999 Y-21.803
X58.16 Y-21.616
X58.314 Y-21.407
X58.44 Y-21.203
X58.557 Y-20.974
X58.652 Y-20.745
X58.725 Y-20.518
X58.784 Y-20.268
X58.819 Y-20.036
X58.837 Y-19.787
X58.835 Y-19.543
X58.832 Y-19.517
X58.772 Y-19.21
X58.648 Y-18.923
X58.466 Y-18.668
X58.235 Y-18.457
X57.965 Y-18.299
X57.668 Y-18.201
X57.357 Y-18.168
X55.87
G3 X55.265 Y-18.899 I0.022 J-0.635
G1 X55.752 Y-22.058
X55.773 Y-22.148
G3 X56.357 Y-22.596 I0.607 J0.187 F508
G1 X57.919 F1016
X58.068 Y-22.588
X58.216 Y-22.563
X58.37 Y-22.524
X58.536 Y-22.467
X58.704 Y-22.395
X58.875 Y-22.303
X59.053 Y-22.189
X59.227 Y-22.056
X59.397 Y-21.904
X59.564 Y-21.729
X59.724 Y-21.53
X59.862 Y-21.328
X59.986 Y-21.111
X60.094 Y-20.88
X60.176 Y-20.659
X60.247 Y-20.411
X60.294 Y-20.173
X60.322 Y-19.935
X60.331 Y-19.682
X60.327 Y-19.584
X60.278 Y-19.265
X60.161 Y-18.965
X59.982 Y-18.697
X59.748 Y-18.474
X59.473 Y-18.307
X59.167 Y-18.203
X58.847 Y-18.168
X57.357
G3 X56.754 Y-18.914 I0.022 J-0.635
G1 X57.316 Y-22.072
X57.334 Y-22.148
G3 X57.919 Y-22.596 I0.607 J0.187 F508
G1 X59.38 F1016
X59.529 Y-22.588
X59.678 Y-22.566
X59.831 Y-22.531
X59.989 Y-22.48
X60.158 Y-22.41
X60.33 Y-22.323
X60.502 Y-22.217
X60.678 Y-22.089
X60.851 Y-21.939
X61.017 Y-21.771
X61.177 Y-21.581
X61.316 Y-21.385
X61.449 Y-21.162
X61.56 Y-20.938
X61.647 Y-20.717
X61.723 Y-20.469
X61.774 Y-20.235
X61.807 Y-19.994
X61.822 Y-19.742
X61.816 Y-19.511
X61.814 Y-19.494
X61.75 Y-19.191
X61.624 Y-18.909
X61.442 Y-18.658
X61.211 Y-18.451
X60.943 Y-18.296
X60.649 Y-18.2
X60.341 Y-18.168
X58.847
G3 X58.243 Y-18.908 I0.022 J-0.635
G1 X58.776 Y-22.067
X58.795 Y-22.148
G3 X59.38 Y-22.596 I0.607 J0.187 F508
G1 X60.818 F1016
X60.995 Y-22.587
X61.144 Y-22.567
X61.297 Y-22.534
X61.453 Y-22.486
X61.619 Y-22.421
X61.792 Y-22.336
X61.963 Y-22.234
X62.137 Y-22.111
X62.312 Y-21.964
X62.48 Y-21.798
X62.64 Y-21.613
X62.792 Y-21.406
X62.917 Y-21.203
X63.035 Y-20.972
X63.128 Y-20.746
X63.202 Y-20.516
X63.26 Y-20.268
X63.295 Y-20.037
X63.313 Y-19.784
X63.31 Y-19.542
X63.308 Y-19.515
X63.247 Y-19.208
X63.122 Y-18.921
X62.941 Y-18.667
X62.71 Y-18.456
X62.44 Y-18.298
X62.143 Y-18.201
X61.832 Y-18.168
X60.341
G3 X59.735 Y-18.897 I0.022 J-0.635
G1 X60.213 Y-22.056
X60.234 Y-22.148
G3 X60.818 Y-22.596 I0.607 J0.187 F508
G1 X62.38 F1016
X62.53 Y-22.588
X62.678 Y-22.565
X62.832 Y-22.527
X62.997 Y-22.472
X63.162 Y-22.402
X63.334 Y-22.312
X63.511 Y-22.2
X63.685 Y-22.07
X63.855 Y-21.921
X64.023 Y-21.746
X64.184 Y-21.55
X64.324 Y-21.348
X64.448 Y-21.135
X64.559 Y-20.902
X64.644 Y-20.682
X64.716 Y-20.436
X64.766 Y-20.196
X64.795 Y-19.962
X64.807 Y-19.707
X64.803 Y-19.596
X64.756 Y-19.276
X64.64 Y-18.973
X64.461 Y-18.702
X64.228 Y-18.477
X63.951 Y-18.308
X63.644 Y-18.203
X63.322 Y-18.168
X61.832
G3 X61.229 Y-18.911 I0.022 J-0.635
G1 X61.776 Y-22.07
X61.795 Y-22.148
G3 X62.38 Y-22.596 I0.607 J0.187 F508
G1 X63.841 F1016
X63.991 Y-22.588
X64.139 Y-22.568
X64.292 Y-22.533
X64.45 Y-22.484
X64.618 Y-22.416
X64.789 Y-22.331
X64.961 Y-22.227
X65.136 Y-22.101
X65.31 Y-21.953
X65.477 Y-21.786
X65.637 Y-21.599
X65.778 Y-21.404
X65.913 Y-21.182
X66.025 Y-20.958
X66.114 Y-20.739
X66.192 Y-20.491
X66.245 Y-20.257
X66.28 Y-20.017
X66.296 Y-19.764
X66.292 Y-19.533
X66.289 Y-19.506
X66.227 Y-19.201
X66.102 Y-18.916
X65.92 Y-18.663
X65.689 Y-18.454
X65.42 Y-18.297
X65.124 Y-18.201
X64.815 Y-18.168
X63.322
G3 X62.717 Y-18.905 I0.022 J-0.635
G1 X63.236 Y-22.064
X63.256 Y-22.148
G3 X63.841 Y-22.596 I0.607 J0.187 F508
G1 X65.28 F1016
X65.471 Y-22.586
X65.62 Y-22.567
X65.773 Y-22.533
X65.931 Y-22.485
X66.095 Y-22.42
X66.269 Y-22.334
X66.441 Y-22.231
X66.614 Y-22.109
X66.788 Y-21.963
X66.957 Y-21.795
X67.118 Y-21.609
X67.267 Y-21.405
X67.392 Y-21.202
X67.51 Y-20.969
X67.602 Y-20.745
X67.677 Y-20.512
X67.735 Y-20.266
X67.769 Y-20.035
X67.787 Y-19.781
X67.784 Y-19.541
X67.782 Y-19.514
X67.72 Y-19.207
X67.596 Y-18.921
X67.415 Y-18.666
X67.184 Y-18.456
X66.914 Y-18.298
X66.617 Y-18.201
X66.306 Y-18.168
X64.815
G3 X64.209 Y-18.895 I0.022 J-0.635
G1 X64.674 Y-22.054
X64.695 Y-22.148
G3 X65.28 Y-22.596 I0.607 J0.187 F508
G1 X66.841 F1016
X66.991 Y-22.588
X67.139 Y-22.566
X67.294 Y-22.529
X67.457 Y-22.476
X67.621 Y-22.408
X67.794 Y-22.319
X67.97 Y-22.21
X68.143 Y-22.082
X68.314 Y-21.934
X68.483 Y-21.76
X68.644 Y-21.567
X68.787 Y-21.364
X68.911 Y-21.155
X69.025 Y-20.922
X69.111 Y-20.701
X69.184 Y-20.458
X69.236 Y-20.216
X69.267 Y-19.984
X69.28 Y-19.728
X69.273 Y-19.488
X69.208 Y-19.186
X69.081 Y-18.905
X68.899 Y-18.655
X68.669 Y-18.449
X68.401 Y-18.295
X68.107 Y-18.2
X67.8 Y-18.168
X66.306
G3 X65.702 Y-18.909 I0.022 J-0.635
G1 X66.237 Y-22.067
X66.256 Y-22.148
G3 X66.841 Y-22.596 I0.607 J0.187 F508
G1 X68.302 F1016
X68.452 Y-22.588
X68.601 Y-22.569
X68.753 Y-22.535
X68.91 Y-22.488
X69.077 Y-22.422
X69.249 Y-22.337
X69.42 Y-22.236
X69.596 Y-22.111
X69.77 Y-21.965
X69.938 Y-21.8
X70.098 Y-21.614
X70.251 Y-21.406
X70.376 Y-21.203
X70.494 Y-20.973
X70.587 Y-20.746
X70.661 Y-20.517
X70.719 Y-20.268
X70.754 Y-20.037
X70.772 Y-19.786
X70.77 Y-19.543
X70.767 Y-19.516
X70.706 Y-19.209
X70.582 Y-18.922
X70.401 Y-18.667
X70.17 Y-18.456
X69.9 Y-18.298
X69.602 Y-18.201
X69.291 Y-18.168
X67.8
G3 X67.195 Y-18.902 I0.022 J-0.635
G1 X67.697 Y-22.061
X67.717 Y-22.148
G3 X68.302 Y-22.596 I0.607 J0.187 F508
G1 X69.741 F1016
X69.947 Y-22.585
X70.096 Y-22.566
X70.249 Y-22.532
X70.409 Y-22.483
X70.573 Y-22.418
X70.745 Y-22.333
X70.919 Y-22.229
X71.092 Y-22.107
X71.265 Y-21.961
X71.435 Y-21.793
X71.596 Y-21.606
X71.744 Y-21.403
X71.869 Y-21.199
X71.988 Y-20.966
X72.079 Y-20.744
X72.154 Y-20.508
X72.211 Y-20.264
X72.246 Y-20.033
X72.263 Y-19.779
X72.26 Y-19.539
X72.258 Y-19.513
X72.197 Y-19.207
X72.072 Y-18.92
X71.891 Y-18.666
X71.66 Y-18.456
X71.39 Y-18.298
X71.093 Y-18.201
X70.783 Y-18.168
X69.291
G3 X68.685 Y-18.892 I0.022 J-0.635
G1 X69.134 Y-22.051
X69.156 Y-22.148
G3 X69.741 Y-22.596 I0.607 J0.187 F508
G1 X71.302 F1016
X71.452 Y-22.588
X71.601 Y-22.567
X71.755 Y-22.532
X71.916 Y-22.481
X72.081 Y-22.414
X72.254 Y-22.327
X72.429 Y-22.22
X72.601 Y-22.095
X72.773 Y-21.948
X72.944 Y-21.777
X73.105 Y-21.587
X73.25 Y-21.384
X73.375 Y-21.177
X73.491 Y-20.944
X73.579 Y-20.722
X73.654 Y-20.483
X73.708 Y-20.239
X73.741 Y-20.008
X73.756 Y-19.753
X73.751 Y-19.515
X73.75 Y-19.5
X73.686 Y-19.196
X73.561 Y-18.912
X73.379 Y-18.66
X73.148 Y-18.452
X72.88 Y-18.297
X72.584 Y-18.2
X72.275 Y-18.168
X70.783
G3 X70.178 Y-18.906 I0.022 J-0.635
G1 X70.698 Y-22.064
X70.718 Y-22.148
G3 X71.302 Y-22.596 I0.607 J0.187 F508
G1 X72.763 F1016
X72.929 Y-22.588
X73.078 Y-22.568
X73.232 Y-22.534
X73.389 Y-22.486
X73.554 Y-22.421
X73.728 Y-22.335
X73.9 Y-22.233
X74.073 Y-22.109
X74.247 Y-21.963
X74.416 Y-21.797
X74.577 Y-21.611
X74.728 Y-21.405
X74.853 Y-21.201
X74.971 Y-20.969
X75.063 Y-20.745
X75.137 Y-20.512
X75.195 Y-20.266
X75.23 Y-20.035
X75.247 Y-19.782
X75.245 Y-19.541
X75.242 Y-19.514
X75.181 Y-19.208
X75.057 Y-18.921
X74.875 Y-18.666
X74.645 Y-18.456
X74.375 Y-18.298
X74.078 Y-18.201
X73.767 Y-18.168
X72.275
G3 X71.67 Y-18.899 I0.022 J-0.635
G1 X72.158 Y-22.058
X72.179 Y-22.148
G3 X72.763 Y-22.596 I0.607 J0.187 F508
G1 X74.325 F1016
X74.474 Y-22.588
X74.622 Y-22.564
X74.777 Y-22.525
X74.942 Y-22.469
X74.951 Y-22.465
X75.203 Y-22.326
X75.422 Y-22.142
X75.603 Y-21.919
X75.736 Y-21.665
X75.819 Y-21.39
X75.846 Y-21.104
G3 X74.771 Y-20.67 I-0.635 J-0.022
G1 X73.906 Y-21.504
G3 X73.74 Y-22.148 I0.441 J-0.457
X74.325 Y-22.596 I0.607 J0.187 F508
G1 X75.206 F1016
X75.262 Y-22.592
X75.317 Y-22.584
X75.373 Y-22.57
X75.429 Y-22.551
X75.485 Y-22.526
X75.54 Y-22.494
X75.597 Y-22.452
X75.646 Y-22.408
X75.696 Y-22.356
X75.733 Y-22.307
X75.763 Y-22.259
X75.779 Y-22.229
X75.804 Y-22.173
X75.823 Y-22.118
X75.836 Y-22.062
X75.844 Y-22.006
X75.846 Y-21.783
Y-18.883
X75.845 Y-18.772
X75.838 Y-18.716
X75.826 Y-18.66
X75.801 Y-18.583
X75.763 Y-18.506
X75.718 Y-18.437
X75.629 Y-18.34
X75.585 Y-18.302
X75.54 Y-18.27
X75.486 Y-18.239
X75.432 Y-18.214
X75.375 Y-18.194
X75.317 Y-18.18
X75.262 Y-18.171
X75.206 Y-18.168
X73.767
G3 X73.182 Y-18.615 I0.022 J-0.635
G1 X73.153 Y-18.71 Z-0.492
X73.124 Y-18.803 Z-0.469
X73.097 Y-18.891 Z-0.431
X73.072 Y-18.972 Z-0.379
X73.05 Y-19.045 Z-0.314
X73.031 Y-19.106 Z-0.238
X73.016 Y-19.156 Z-0.153
X73.004 Y-19.193 Z-0.061
X72.997 Y-19.215 Z0.036
X72.995 Y-19.222 Z0.135
G0 Z5
X70.123 Y-64.206
Z0.77
G1 Z0.135 F508
X70.115 Z0.036
X70.092 Z-0.061
X70.054 Y-64.205 Z-0.153
X70.002 Z-0.238
X69.937 Y-64.204 Z-0.314
X69.862 Z-0.379
X69.777 Y-64.203 Z-0.431
X69.685 Y-64.202 Z-0.469
X69.588 Y-64.201 Z-0.492
X69.488 Y-64.2 Z-0.5
G3 X68.726 Y-64.387 I-0.015 J-1.583
G1 X68.342 Y-64.61 F1016
X68.179 Y-64.7
X67.956 Y-64.79
X67.831 Y-64.833
X67.733 Y-64.863
X67.51 Y-64.924
X67.443 Y-64.938
X67.297 Y-64.975
X67.158 Y-65.029
X67.013 Y-65.099
X66.858 Y-65.19
X66.704 Y-65.298
X66.54 Y-65.434
X66.382 Y-65.588
X66.223 Y-65.77
X66.067 Y-65.98
X65.923 Y-66.21
X65.788 Y-66.471
X65.666 Y-66.762
X65.565 Y-67.07
X65.485 Y-67.403
X65.434 Y-67.726
X65.408 Y-68.066
X65.409 Y-68.177
X65.44 Y-68.473
X65.53 Y-68.756
X65.675 Y-69.017
X65.868 Y-69.243
X66.103 Y-69.425
X66.37 Y-69.557
X66.658 Y-69.633
X66.841 Y-69.662
X67.064 Y-69.707
X67.51 Y-69.802
X67.733 Y-69.87
X68.167 Y-70.037
G3 X68.996 Y-69.305 I0.208 J0.6
G1 X68.17 Y-65.432
X68.144 Y-65.343
X68.105 Y-65.259
G3 X67.443 Y-64.938 I-0.557 J-0.305 F508
G1 X67.064 Y-65.016 F1016
X66.841 Y-65.058
X66.395 Y-65.123
X66.172 Y-65.149
X66.023 Y-65.167
X65.877 Y-65.202
X65.731 Y-65.249
X65.57 Y-65.317
X65.408 Y-65.401
X65.233 Y-65.511
X65.059 Y-65.64
X64.884 Y-65.793
X64.706 Y-65.977
X64.542 Y-66.175
X64.397 Y-66.383
X64.26 Y-66.616
X64.153 Y-66.838
X64.058 Y-67.085
X63.986 Y-67.324
X63.935 Y-67.568
X63.902 Y-67.823
X63.89 Y-68.061
X63.892 Y-68.116
X63.938 Y-68.438
X64.053 Y-68.742
X64.232 Y-69.013
X64.466 Y-69.239
X64.743 Y-69.409
X65.05 Y-69.514
X65.373 Y-69.55
X65.503
X66.172 Y-69.562
X66.395 Y-69.591
X66.658 Y-69.633
G3 X67.361 Y-68.891 I0.078 J0.63
G1 X66.782 Y-65.672
X66.762 Y-65.59
G3 X66.172 Y-65.149 I-0.605 J-0.194 F508
G1 X65.503 Y-65.157 F1016
X64.833
X64.684 Y-65.164
X64.536 Y-65.188
X64.379 Y-65.227
X64.218 Y-65.28
X64.05 Y-65.352
X63.874 Y-65.444
X63.699 Y-65.554
X63.525 Y-65.684
X63.349 Y-65.84
X63.18 Y-66.015
X63.025 Y-66.204
X62.89 Y-66.398
X62.76 Y-66.622
X62.657 Y-66.837
X62.57 Y-67.064
X62.499 Y-67.306
X62.452 Y-67.532
X62.421 Y-67.78
X62.411 Y-68.023
X62.414 Y-68.122
X62.461 Y-68.442
X62.577 Y-68.745
X62.756 Y-69.016
X62.989 Y-69.241
X63.266 Y-69.41
X63.573 Y-69.514
X63.895 Y-69.55
X65.373
G3 X65.977 Y-68.807 I-0.022 J0.635
G1 X65.437 Y-65.683
X65.418 Y-65.604
G3 X64.833 Y-65.157 I-0.607 J-0.187 F508
G1 X63.372 F1016
X63.223 Y-65.164
X63.074 Y-65.185
X62.922 Y-65.219
X62.766 Y-65.267
X62.598 Y-65.334
X62.427 Y-65.419
X62.257 Y-65.522
X62.083 Y-65.646
X61.91 Y-65.793
X61.743 Y-65.958
X61.584 Y-66.144
X61.446 Y-66.335
X61.312 Y-66.555
X61.201 Y-66.775
X61.112 Y-66.993
X61.035 Y-67.238
X60.981 Y-67.469
X60.946 Y-67.708
X60.93 Y-67.958
X60.933 Y-68.188
X60.935 Y-68.209
X60.998 Y-68.515
X61.122 Y-68.8
X61.304 Y-69.054
X61.535 Y-69.263
X61.804 Y-69.42
X62.1 Y-69.517
X62.41 Y-69.55
X63.895
G3 X64.499 Y-68.81 I-0.022 J0.635
G1 X63.977 Y-65.687
X63.957 Y-65.604
G3 X63.372 Y-65.157 I-0.607 J-0.187 F508
G1 X61.934 F1016
X61.744 Y-65.166
X61.596 Y-65.186
X61.443 Y-65.22
X61.285 Y-65.268
X61.123 Y-65.332
X60.951 Y-65.417
X60.778 Y-65.52
X60.608 Y-65.642
X60.436 Y-65.786
X60.267 Y-65.953
X60.107 Y-66.139
X59.961 Y-66.339
X59.837 Y-66.541
X59.72 Y-66.771
X59.629 Y-66.992
X59.555 Y-67.225
X59.498 Y-67.468
X59.464 Y-67.697
X59.447 Y-67.949
X59.45 Y-68.187
X59.451 Y-68.205
X59.513 Y-68.511
X59.637 Y-68.798
X59.819 Y-69.052
X60.049 Y-69.262
X60.319 Y-69.419
X60.616 Y-69.517
X60.927 Y-69.55
X62.41
G3 X63.016 Y-68.819 I-0.022 J0.635
G1 X62.539 Y-65.696
X62.518 Y-65.604
G3 X61.934 Y-65.157 I-0.607 J-0.187 F508
G1 X60.372 F1016
X60.222 Y-65.164
X60.074 Y-65.188
X59.921 Y-65.225
X59.758 Y-65.279
X59.594 Y-65.349
X59.423 Y-65.438
X59.247 Y-65.548
X59.075 Y-65.677
X58.906 Y-65.825
X58.739 Y-65.998
X58.579 Y-66.192
X58.44 Y-66.392
X58.318 Y-66.602
X58.207 Y-66.832
X58.123 Y-67.05
X58.052 Y-67.293
X58.002 Y-67.531
X57.972 Y-67.764
X57.961 Y-68.017
X57.964 Y-68.119
X58.011 Y-68.44
X58.127 Y-68.744
X58.305 Y-69.015
X58.539 Y-69.24
X58.816 Y-69.409
X59.123 Y-69.514
X59.445 Y-69.55
X60.927
G3 X61.53 Y-68.804 I-0.022 J0.635
G1 X60.975 Y-65.681
X60.957 Y-65.604
G3 X60.372 Y-65.157 I-0.607 J-0.187 F508
G1 X58.911 F1016
X58.761 Y-65.164
X58.613 Y-65.185
X58.459 Y-65.221
X58.303 Y-65.27
X58.137 Y-65.338
X57.965 Y-65.424
X57.794 Y-65.528
X57.621 Y-65.654
X57.448 Y-65.802
X57.282 Y-65.969
X57.124 Y-66.155
X56.986 Y-66.347
X56.853 Y-66.569
X56.744 Y-66.788
X56.656 Y-67.008
X56.58 Y-67.253
X56.528 Y-67.483
X56.494 Y-67.725
X56.479 Y-67.974
X56.484 Y-68.203
X56.485 Y-68.217
X56.549 Y-68.521
X56.674 Y-68.805
X56.856 Y-69.057
X57.087 Y-69.265
X57.355 Y-69.421
X57.651 Y-69.517
X57.96 Y-69.55
X59.445
G3 X60.049 Y-68.808 I-0.022 J0.635
G1 X59.515 Y-65.685
X59.496 Y-65.604
G3 X58.911 Y-65.157 I-0.607 J-0.187 F508
G1 X57.473 F1016
X57.294 Y-65.166
X57.146 Y-65.185
X56.993 Y-65.219
X56.836 Y-65.267
X56.673 Y-65.331
X56.501 Y-65.416
X56.33 Y-65.519
X56.158 Y-65.64
X55.986 Y-65.786
X55.817 Y-65.952
X55.658 Y-66.137
X55.51 Y-66.339
X55.387 Y-66.54
X55.27 Y-66.77
X55.179 Y-66.991
X55.105 Y-67.223
X55.048 Y-67.467
X55.013 Y-67.696
X54.996 Y-67.948
X54.999 Y-68.186
X55 Y-68.204
X55.062 Y-68.511
X55.186 Y-68.797
X55.368 Y-69.051
X55.598 Y-69.262
X55.868 Y-69.419
X56.165 Y-69.517
X56.476 Y-69.55
X57.96
G3 X58.565 Y-68.817 I-0.022 J0.635
G1 X58.078 Y-65.694
X58.057 Y-65.604
G3 X57.473 Y-65.157 I-0.607 J-0.187 F508
G1 X55.911 F1016
X55.761 Y-65.164
X55.613 Y-65.189
X55.46 Y-65.227
X55.296 Y-65.282
X55.131 Y-65.353
X54.961 Y-65.443
X54.785 Y-65.555
X54.612 Y-65.686
X54.444 Y-65.835
X54.277 Y-66.009
X54.118 Y-66.205
X53.981 Y-66.404
X53.858 Y-66.618
X53.75 Y-66.847
X53.667 Y-67.065
X53.596 Y-67.31
X53.548 Y-67.546
X53.52 Y-67.781
X53.51 Y-68.033
X53.514 Y-68.128
X53.562 Y-68.447
X53.678 Y-68.749
X53.857 Y-69.018
X54.09 Y-69.242
X54.367 Y-69.41
X54.673 Y-69.514
X54.994 Y-69.55
X56.476
G3 X57.079 Y-68.802 I-0.022 J0.635
G1 X56.514 Y-65.679
X56.496 Y-65.604
G3 X55.911 Y-65.157 I-0.607 J-0.187 F508
G1 X54.45 F1016
X54.3 Y-65.164
X54.152 Y-65.186
X53.998 Y-65.223
X53.841 Y-65.273
X53.674 Y-65.342
X53.502 Y-65.43
X53.331 Y-65.535
X53.158 Y-65.662
X52.986 Y-65.811
X52.82 Y-65.98
X52.663 Y-66.168
X52.526 Y-66.36
X52.394 Y-66.583
X52.286 Y-66.803
X52.199 Y-67.023
X52.124 Y-67.269
X52.074 Y-67.499
X52.041 Y-67.741
X52.028 Y-67.99
X52.034 Y-68.225
X52.099 Y-68.528
X52.225 Y-68.81
X52.407 Y-69.061
X52.638 Y-69.267
X52.906 Y-69.422
X53.2 Y-69.517
X53.508 Y-69.55
X54.994
G3 X55.597 Y-68.806 I-0.022 J0.635
G1 X55.053 Y-65.683
X55.035 Y-65.604
G3 X54.45 Y-65.157 I-0.607 J-0.187 F508
G1 X53.011 F1016
X52.844 Y-65.165
X52.695 Y-65.185
X52.542 Y-65.218
X52.387 Y-65.266
X52.223 Y-65.331
X52.051 Y-65.415
X51.88 Y-65.517
X51.708 Y-65.639
X51.535 Y-65.784
X51.367 Y-65.95
X51.208 Y-66.134
X51.059 Y-66.338
X50.936 Y-66.539
X50.819 Y-66.768
X50.727 Y-66.991
X50.653 Y-67.22
X50.596 Y-67.465
X50.562 Y-67.694
X50.544 Y-67.945
X50.547 Y-68.185
X50.548 Y-68.203
X50.61 Y-68.51
X50.734 Y-68.797
X50.915 Y-69.051
X51.146 Y-69.262
X51.416 Y-69.419
X51.713 Y-69.517
X52.024 Y-69.55
X53.508
G3 X54.113 Y-68.815 I-0.022 J0.635
G1 X53.616 Y-65.692
X53.596 Y-65.604
G3 X53.011 Y-65.157 I-0.607 J-0.187 F508
G1 X51.45 F1016
X51.3 Y-65.164
X51.152 Y-65.189
X50.999 Y-65.229
X50.835 Y-65.285
X50.668 Y-65.358
X50.499 Y-65.448
X50.322 Y-65.562
X50.149 Y-65.694
X49.981 Y-65.845
X49.816 Y-66.019
X49.657 Y-66.217
X49.521 Y-66.416
X49.398 Y-66.632
X49.292 Y-66.86
X49.21 Y-67.079
X49.141 Y-67.325
X49.094 Y-67.56
X49.067 Y-67.797
X49.058 Y-68.048
X49.062 Y-68.135
X49.111 Y-68.453
X49.228 Y-68.754
X49.408 Y-69.021
X49.641 Y-69.244
X49.916 Y-69.411
X50.221 Y-69.515
X50.542 Y-69.55
X52.024
G3 X52.626 Y-68.8 I-0.022 J0.635
G1 X52.052 Y-65.677
X52.035 Y-65.604
G3 X51.45 Y-65.157 I-0.607 J-0.187 F508
G1 X49.989 F1016
X49.839 Y-65.164
X49.691 Y-65.187
X49.537 Y-65.224
X49.379 Y-65.276
X49.212 Y-65.346
X49.04 Y-65.435
X48.869 Y-65.541
X48.696 Y-65.67
X48.523 Y-65.82
X48.358 Y-65.99
X48.201 Y-66.179
X48.065 Y-66.373
X47.934 Y-66.596
X47.828 Y-66.816
X47.742 Y-67.037
X47.668 Y-67.283
X47.619 Y-67.513
X47.587 Y-67.756
X47.575 Y-68.004
X47.582 Y-68.234
X47.648 Y-68.535
X47.775 Y-68.815
X47.957 Y-69.064
X48.187 Y-69.269
X48.454 Y-69.423
X48.747 Y-69.518
X49.054 Y-69.55
X50.542
G3 X51.145 Y-68.804 I-0.022 J0.635
G1 X50.592 Y-65.681
X50.574 Y-65.604
G3 X49.989 Y-65.157 I-0.607 J-0.187 F508
G1 X48.55 F1016
X48.392 Y-65.165
X48.243 Y-65.184
X48.091 Y-65.218
X47.936 Y-65.265
X47.771 Y-65.33
X47.6 Y-65.414
X47.43 Y-65.515
X47.257 Y-65.638
X47.083 Y-65.783
X46.917 Y-65.948
X46.757 Y-66.132
X46.607 Y-66.337
X46.483 Y-66.538
X46.367 Y-66.767
X46.274 Y-66.99
X46.201 Y-67.218
X46.143 Y-67.464
X46.109 Y-67.693
X46.091 Y-67.944
X46.094 Y-68.184
X46.095 Y-68.202
X46.156 Y-68.509
X46.28 Y-68.796
X46.462 Y-69.051
X46.693 Y-69.262
X46.963 Y-69.419
X47.26 Y-69.517
X47.571 Y-69.55
X49.054
G3 X49.658 Y-68.814 I-0.022 J0.635
G1 X49.155 Y-65.69
X49.135 Y-65.604
G3 X48.55 Y-65.157 I-0.607 J-0.187 F508
G1 X47.089 F1016
X46.906 Y-65.166
X46.758 Y-65.186
X46.605 Y-65.219
X46.446 Y-65.268
X46.283 Y-65.333
X46.112 Y-65.417
X45.939 Y-65.521
X45.767 Y-65.643
X45.596 Y-65.787
X45.427 Y-65.954
X45.267 Y-66.141
X45.121 Y-66.34
X44.997 Y-66.543
X44.88 Y-66.773
X44.79 Y-66.992
X44.715 Y-67.227
X44.659 Y-67.469
X44.625 Y-67.698
X44.607 Y-67.951
X44.61 Y-68.188
X44.612 Y-68.205
X44.674 Y-68.511
X44.798 Y-68.798
X44.98 Y-69.052
X45.21 Y-69.262
X45.48 Y-69.42
X45.777 Y-69.517
X46.087 Y-69.55
X47.571
G3 X48.176 Y-68.818 I-0.022 J0.635
G1 X47.694 Y-65.695
X47.674 Y-65.604
G3 X47.089 Y-65.157 I-0.607 J-0.187 F508
G1 X45.528 F1016
X45.378 Y-65.164
X45.23 Y-65.188
X45.076 Y-65.226
X44.913 Y-65.281
X44.748 Y-65.351
X44.577 Y-65.441
X44.402 Y-65.552
X44.229 Y-65.682
X44.061 Y-65.831
X43.894 Y-66.004
X43.734 Y-66.199
X43.596 Y-66.399
X43.474 Y-66.611
X43.364 Y-66.84
X43.281 Y-67.058
X43.21 Y-67.302
X43.161 Y-67.539
X43.132 Y-67.773
X43.121 Y-68.026
X43.125 Y-68.124
X43.173 Y-68.444
X43.289 Y-68.747
X43.467 Y-69.017
X43.701 Y-69.241
X43.977 Y-69.41
X44.284 Y-69.514
X44.606 Y-69.55
X46.087
G3 X46.69 Y-68.803 I-0.022 J0.635
G1 X46.131 Y-65.68
X46.112 Y-65.604
G3 X45.528 Y-65.157 I-0.607 J-0.187 F508
G1 X44.089 F1016
X43.939 Y-65.164
X43.79 Y-65.184
X43.64 Y-65.217
X43.484 Y-65.264
X43.317 Y-65.33
X43.148 Y-65.413
X42.978 Y-65.514
X42.803 Y-65.638
X42.63 Y-65.783
X42.465 Y-65.946
X42.305 Y-66.131
X42.164 Y-66.322
X42.03 Y-66.54
X41.917 Y-66.761
X41.828 Y-66.978
X41.749 Y-67.223
X41.694 Y-67.455
X41.659 Y-67.691
X41.641 Y-67.943
X41.643 Y-68.174
X41.646 Y-68.202
X41.707 Y-68.509
X41.831 Y-68.796
X42.012 Y-69.05
X42.243 Y-69.261
X42.513 Y-69.419
X42.81 Y-69.517
X43.121 Y-69.55
X44.606
G3 X45.21 Y-68.811 I-0.022 J0.635
G1 X44.693 Y-65.688
X44.674 Y-65.604
G3 X44.089 Y-65.157 I-0.607 J-0.187 F508
G1 X42.628 F1016
X42.455 Y-65.166
X42.306 Y-65.185
X42.154 Y-65.219
X41.995 Y-65.267
X41.833 Y-65.332
X41.661 Y-65.416
X41.488 Y-65.52
X41.318 Y-65.641
X41.146 Y-65.785
X40.977 Y-65.953
X40.817 Y-66.139
X40.671 Y-66.338
X40.547 Y-66.541
X40.43 Y-66.771
X40.34 Y-66.991
X40.265 Y-67.226
X40.209 Y-67.468
X40.175 Y-67.696
X40.157 Y-67.95
X40.16 Y-68.187
X40.162 Y-68.205
X40.224 Y-68.511
X40.348 Y-68.798
X40.529 Y-69.052
X40.76 Y-69.262
X41.03 Y-69.42
X41.327 Y-69.517
X41.637 Y-69.55
X43.121
G3 X43.727 Y-68.816 I-0.022 J0.635
G1 X43.233 Y-65.692
X43.213 Y-65.604
G3 X42.628 Y-65.157 I-0.607 J-0.187 F508
G1 X41.066 F1016
X40.917 Y-65.164
X40.769 Y-65.189
X40.616 Y-65.228
X40.452 Y-65.284
X40.286 Y-65.356
X40.116 Y-65.446
X39.94 Y-65.559
X39.767 Y-65.691
X39.599 Y-65.841
X39.433 Y-66.015
X39.274 Y-66.212
X39.137 Y-66.411
X39.015 Y-66.626
X38.908 Y-66.855
X38.826 Y-67.073
X38.755 Y-67.319
X38.708 Y-67.555
X38.68 Y-67.791
X38.671 Y-68.042
X38.675 Y-68.132
X38.724 Y-68.451
X38.841 Y-68.752
X39.02 Y-69.02
X39.253 Y-69.243
X39.529 Y-69.411
X39.834 Y-69.515
X40.155 Y-69.55
X41.637
G3 X42.24 Y-68.801 I-0.022 J0.635
G1 X41.669 Y-65.677
X41.651 Y-65.604
G3 X41.066 Y-65.157 I-0.607 J-0.187 F508
G1 X39.628 F1016
X39.478 Y-65.164
X39.329 Y-65.185
X39.179 Y-65.219
X39.022 Y-65.267
X38.855 Y-65.335
X38.685 Y-65.419
X38.515 Y-65.522
X38.34 Y-65.647
X38.168 Y-65.793
X38.003 Y-65.958
X37.843 Y-66.144
X37.704 Y-66.337
X37.571 Y-66.555
X37.459 Y-66.777
X37.371 Y-66.994
X37.294 Y-67.239
X37.241 Y-67.472
X37.206 Y-67.709
X37.19 Y-67.96
X37.193 Y-68.191
X37.195 Y-68.21
X37.258 Y-68.516
X37.383 Y-68.801
X37.564 Y-69.054
X37.795 Y-69.264
X38.064 Y-69.42
X38.36 Y-69.517
X38.67 Y-69.55
X40.155
G3 X40.759 Y-68.809 I-0.022 J0.635
G1 X40.232 Y-65.686
X40.212 Y-65.604
G3 X39.628 Y-65.157 I-0.607 J-0.187 F508
G1 X38.167 F1016
X38.004 Y-65.165
X37.856 Y-65.185
X37.703 Y-65.218
X37.545 Y-65.266
X37.383 Y-65.331
X37.211 Y-65.416
X37.039 Y-65.519
X36.868 Y-65.64
X36.696 Y-65.785
X36.527 Y-65.952
X36.367 Y-66.138
X36.22 Y-66.339
X36.096 Y-66.54
X35.979 Y-66.771
X35.889 Y-66.991
X35.814 Y-67.224
X35.758 Y-67.467
X35.724 Y-67.696
X35.706 Y-67.949
X35.709 Y-68.187
X35.711 Y-68.205
X35.772 Y-68.511
X35.897 Y-68.798
X36.078 Y-69.052
X36.309 Y-69.262
X36.579 Y-69.419
X36.876 Y-69.517
X37.186 Y-69.55
X38.67
G3 X39.275 Y-68.814 I-0.022 J0.635
G1 X38.771 Y-65.69
X38.751 Y-65.604
G3 X38.167 Y-65.157 I-0.607 J-0.187 F508
G1 X36.66 F1016
X36.511 Y-65.164
X36.362 Y-65.185
X36.209 Y-65.22
X36.049 Y-65.27
X35.886 Y-65.336
X35.714 Y-65.422
X35.541 Y-65.527
X35.369 Y-65.651
X35.199 Y-65.796
X35.03 Y-65.965
X34.87 Y-66.154
X34.726 Y-66.354
X34.602 Y-66.558
X34.487 Y-66.789
X34.399 Y-67.008
X34.324 Y-67.245
X34.27 Y-67.486
X34.237 Y-67.715
X34.222 Y-67.969
X34.226 Y-68.205
X34.227 Y-68.214
X34.29 Y-68.519
X34.415 Y-68.804
X34.597 Y-69.056
X34.827 Y-69.265
X35.096 Y-69.421
X35.392 Y-69.517
X35.701 Y-69.55
X37.186
G3 X37.79 Y-68.81 I-0.022 J0.635
G1 X37.265 Y-65.686
X37.245 Y-65.604
G3 X36.66 Y-65.157 I-0.607 J-0.187 F508
G1 X35.167 F1016
X35.017 Y-65.164
X34.868 Y-65.186
X34.714 Y-65.222
X34.554 Y-65.273
X34.391 Y-65.34
X34.218 Y-65.428
X34.045 Y-65.534
X33.874 Y-65.659
X33.703 Y-65.806
X33.534 Y-65.977
X33.375 Y-66.167
X33.231 Y-66.368
X33.109 Y-66.573
X32.995 Y-66.804
X32.908 Y-67.023
X32.835 Y-67.261
X32.782 Y-67.502
X32.751 Y-67.732
X32.736 Y-67.986
X32.742 Y-68.221
X32.744 Y-68.238
X32.813 Y-68.554
X32.948 Y-68.848
X33.145 Y-69.105
X33.392 Y-69.314
X33.679 Y-69.464
X33.992 Y-69.548
X34.315 Y-69.562
X34.497 Y-69.55
X35.701
G3 X36.305 Y-68.808 I-0.022 J0.635
G1 X35.77 Y-65.684
X35.751 Y-65.604
G3 X35.167 Y-65.157 I-0.607 J-0.187 F508
G1 X33.705 F1016
X33.554 Y-65.164
X33.405 Y-65.184
X33.252 Y-65.218
X33.096 Y-65.265
X32.931 Y-65.331
X32.759 Y-65.415
X32.588 Y-65.517
X32.416 Y-65.64
X32.243 Y-65.785
X32.075 Y-65.951
X31.916 Y-66.135
X31.766 Y-66.34
X31.642 Y-66.542
X31.525 Y-66.772
X31.432 Y-66.999
X31.36 Y-67.225
X31.301 Y-67.475
X31.266 Y-67.707
X31.25 Y-67.952
X31.252 Y-68.2
X31.273 Y-68.429
X31.317 Y-68.679
X31.432 Y-68.982
X31.611 Y-69.252
X31.844 Y-69.476
X32.121 Y-69.644
X32.429 Y-69.746
X32.751 Y-69.779
X33.072 Y-69.741
X33.159 Y-69.722
X33.605 Y-69.636
X33.828 Y-69.595
X34.315 Y-69.562
G3 X34.876 Y-68.817 I-0.064 J0.632
G1 X34.308 Y-65.678
X34.29 Y-65.604
G3 X33.705 Y-65.157 I-0.607 J-0.187 F508
G1 X32.267 F1016
X32.067 Y-65.167
X31.918 Y-65.186
X31.765 Y-65.22
X31.607 Y-65.269
X31.444 Y-65.334
X31.272 Y-65.418
X31.099 Y-65.522
X30.927 Y-65.644
X30.755 Y-65.789
X30.585 Y-65.957
X30.425 Y-66.143
X30.274 Y-66.349
X30.135 Y-66.577
X30.009 Y-66.826
X29.911 Y-67.065
X29.828 Y-67.324
X29.768 Y-67.582
X29.731 Y-67.828
X29.713 Y-68.098
X29.716 Y-68.347
X29.739 Y-68.597
X29.784 Y-68.853
X29.844 Y-69.083
X29.928 Y-69.326
X30.028 Y-69.553
X30.208 Y-69.813
X30.441 Y-70.027
X30.716 Y-70.184
X31.019 Y-70.277
X31.334 Y-70.3
X31.647 Y-70.253
X31.942 Y-70.138
X32.044 Y-70.085
X32.267 Y-69.981
X32.49 Y-69.892
X32.713 Y-69.825
X33.072 Y-69.741
G3 X33.529 Y-69.004 I-0.166 J0.613
G1 X32.867 Y-65.668
X32.851 Y-65.604
G3 X32.267 Y-65.157 I-0.607 J-0.187 F508
G1 X30.705 F1016
X30.556 Y-65.164
X30.407 Y-65.186
X30.249 Y-65.223
X30.085 Y-65.276
X29.916 Y-65.346
X29.737 Y-65.437
X29.558 Y-65.547
X29.379 Y-65.678
X29.2 Y-65.833
X29.025 Y-66.011
X28.86 Y-66.208
X28.704 Y-66.427
X28.56 Y-66.669
X28.43 Y-66.933
X28.32 Y-67.213
X28.23 Y-67.508
X28.162 Y-67.816
X28.119 Y-68.131
X28.103 Y-68.423
X28.111 Y-68.732
X28.14 Y-69.006
X28.194 Y-69.291
X28.267 Y-69.558
X28.356 Y-69.804
X28.472 Y-70.059
X28.595 Y-70.281
X28.742 Y-70.501
X28.904 Y-70.706
X28.939 Y-70.744
X29.167 Y-70.942
X29.433 Y-71.085
X29.724 Y-71.168
X30.026 Y-71.186
X30.324 Y-71.137
X30.605 Y-71.026
X30.855 Y-70.856
X31.151 Y-70.643
X31.375 Y-70.494
X31.821 Y-70.203
X31.849 Y-70.187
X31.942 Y-70.138
G3 X32.244 Y-69.433 I-0.315 J0.552
G1 X31.299 Y-65.638
X31.29 Y-65.604
G3 X30.705 Y-65.157 I-0.607 J-0.187 F508
G1 X29.244 F1016
X29.061 Y-65.166
X28.912 Y-65.186
X28.757 Y-65.219
X28.591 Y-65.269
X28.413 Y-65.338
X28.234 Y-65.425
X28.044 Y-65.537
X27.853 Y-65.671
X27.665 Y-65.827
X27.473 Y-66.014
X27.29 Y-66.224
X27.118 Y-66.456
X26.957 Y-66.715
X26.811 Y-66.998
X26.683 Y-67.304
X26.578 Y-67.626
X26.497 Y-67.963
X26.443 Y-68.311
X26.416 Y-68.672
X26.418 Y-69.038
X26.45 Y-69.409
X26.513 Y-69.78
X26.596 Y-70.11
X26.709 Y-70.444
X26.832 Y-70.728
X26.983 Y-71.013
X27.142 Y-71.262
X27.319 Y-71.495
X27.512 Y-71.712
X27.705 Y-71.896
X27.928 Y-72.076
X28.008 Y-72.131
X28.296 Y-72.284
X28.612 Y-72.369
X28.938 Y-72.382
X29.259 Y-72.321
X29.559 Y-72.191
X29.822 Y-71.996
X30.034 Y-71.748
X30.122 Y-71.624
G3 X30.226 Y-71.232 I-0.53 J0.349
G1 X30.201 Y-70.861
X29.856 Y-65.749
X29.847 Y-65.676
X29.829 Y-65.604
G3 X29.244 Y-65.157 I-0.607 J-0.187 F508
G1 X27.582 F1016
X27.433 Y-65.164
X27.276 Y-65.19
X27.104 Y-65.233
X26.928 Y-65.291
X26.735 Y-65.374
X26.542 Y-65.475
X26.341 Y-65.602
X26.134 Y-65.758
X25.934 Y-65.935
X25.733 Y-66.144
X25.535 Y-66.386
X25.352 Y-66.65
X25.181 Y-66.945
X25.024 Y-67.274
X24.888 Y-67.631
X24.778 Y-68.008
X24.697 Y-68.401
X24.646 Y-68.815
X24.627 Y-69.239
X24.644 Y-69.67
X24.695 Y-70.101
X24.78 Y-70.528
X24.9 Y-70.947
X25.053 Y-71.353
X25.237 Y-71.746
X25.431 Y-72.086
X25.657 Y-72.415
X25.872 Y-72.682
X26.118 Y-72.94
X26.356 Y-73.153
X26.609 Y-73.345
X26.871 Y-73.512
X27.122 Y-73.646
X27.402 Y-73.767
X27.475 Y-73.792
X27.788 Y-73.862
X28.109 Y-73.863
X28.423 Y-73.795
X28.714 Y-73.66
X28.97 Y-73.466
X29.178 Y-73.222
X29.329 Y-72.938
X29.367 Y-72.842
X29.468 Y-72.641
X29.593 Y-72.418
X29.813 Y-72.076
X29.883 Y-71.971
X30.034 Y-71.748
G3 X30.097 Y-71.203 I-0.537 J0.338
G1 X30.026 Y-70.997
X28.167 Y-65.604
X28.161 Y-65.585 F508
G3 X27.582 Y-65.157 I-0.6 J-0.207
G1 X26.021 F1016
X25.843 Y-65.166
X25.688 Y-65.186
X25.636 Y-65.197
X25.319 Y-65.304
X25.033 Y-65.479
X24.794 Y-65.714
X24.614 Y-65.997
X24.503 Y-66.313
X24.465 Y-66.646
G3 X25.531 Y-67.09 I0.635 J0.022
G1 X26.43 Y-66.258
G3 X26.606 Y-65.604 I-0.431 J0.466
X26.021 Y-65.157 I-0.607 J-0.187 F508
G1 X25.129 F1016
X25.017 Y-65.164
X24.962 Y-65.176
X24.906 Y-65.192
X24.823 Y-65.228
X24.74 Y-65.28
X24.683 Y-65.327
X24.6 Y-65.415
X24.542 Y-65.503
X24.515 Y-65.558
X24.495 Y-65.614
X24.48 Y-65.67
X24.47 Y-65.726
X24.465 Y-65.949
Y-72.194
X24.473 Y-72.36
X24.502 Y-72.579
X24.553 Y-72.817
X24.625 Y-73.06
X24.722 Y-73.308
X24.846 Y-73.564
X24.998 Y-73.822
X25.167 Y-74.063
X25.351 Y-74.285
X25.561 Y-74.499
X25.764 Y-74.677
X25.997 Y-74.849
X26.226 Y-74.992
X26.462 Y-75.113
X26.717 Y-75.22
X26.956 Y-75.298
X27.22 Y-75.361
X27.334 Y-75.379
X27.656 Y-75.394
X27.974 Y-75.338
X28.271 Y-75.214
X28.535 Y-75.028
X28.752 Y-74.79
X28.911 Y-74.51
X29.006 Y-74.202
X29.092 Y-73.756
X29.144 Y-73.517
X29.197 Y-73.31
X29.269 Y-73.087
X29.329 Y-72.938
G3 X28.819 Y-72.095 I-0.598 J0.214
G1 X25.187 Y-71.588
G3 X24.912 Y-71.61 I-0.088 J-0.629
X24.465 Y-72.194 I0.187 J-0.607 F508
G1 Y-74.202 F1016
X24.472 Y-74.352
X24.496 Y-74.521
X24.536 Y-74.698
X24.596 Y-74.89
X24.674 Y-75.083
X24.773 Y-75.281
X24.895 Y-75.485
X25.041 Y-75.687
X25.205 Y-75.88
X25.38 Y-76.055
X25.585 Y-76.231
X25.789 Y-76.378
X26.001 Y-76.507
X26.235 Y-76.624
X26.457 Y-76.714
X26.701 Y-76.79
X26.944 Y-76.846
X27.176 Y-76.88
X27.433 Y-76.896
X27.454
X27.78 Y-76.854
X28.088 Y-76.741
X28.364 Y-76.564
X28.594 Y-76.33
X28.767 Y-76.051
X28.874 Y-75.74
X28.911 Y-75.414
Y-75.317
X28.915 Y-75.094
X28.942 Y-74.648
X28.963 Y-74.425
X29.006 Y-74.202
G3 X28.355 Y-73.47 I-0.628 J0.097
G1 X25.076 Y-73.59
X24.993 Y-73.598
X24.912 Y-73.617
G3 X24.465 Y-74.202 I0.187 J-0.607 F508
G1 Y-75.886 F1016
X24.472 Y-76.036
X24.496 Y-76.189
X24.536 Y-76.354
X24.592 Y-76.522
X24.666 Y-76.699
X24.761 Y-76.881
X24.874 Y-77.062
X25.009 Y-77.244
X25.167 Y-77.424
X25.347 Y-77.599
X25.538 Y-77.756
X25.735 Y-77.894
X25.96 Y-78.026
X26.175 Y-78.13
X26.405 Y-78.218
X26.646 Y-78.29
X26.873 Y-78.338
X27.124 Y-78.371
X27.367 Y-78.382
X27.477 Y-78.379
X27.799 Y-78.332
X28.103 Y-78.217
X28.374 Y-78.039
X28.6 Y-77.805
X28.77 Y-77.528
X28.875 Y-77.221
X28.911 Y-76.898
Y-75.414
G3 X28.183 Y-74.808 I-0.635 J-0.022
G1 X25.006 Y-75.28
X24.912 Y-75.301
G3 X24.465 Y-75.886 I0.187 J-0.607 F508
G1 Y-77.448 F1016
X24.472 Y-77.597
X24.497 Y-77.745
X24.538 Y-77.905
X24.593 Y-78.068
X24.666 Y-78.237
X24.761 Y-78.415
X24.873 Y-78.59
X25.005 Y-78.764
X25.161 Y-78.938
X25.339 Y-79.107
X25.531 Y-79.263
X25.731 Y-79.399
X25.96 Y-79.53
X26.181 Y-79.634
X26.412 Y-79.721
X26.659 Y-79.791
X26.889 Y-79.837
X27.141 Y-79.867
X27.387 Y-79.876
X27.493 Y-79.872
X27.812 Y-79.823
X28.113 Y-79.706
X28.381 Y-79.527
X28.604 Y-79.294
X28.772 Y-79.018
X28.876 Y-78.712
X28.911 Y-78.391
Y-76.898
G3 X28.168 Y-76.294 I-0.635 J-0.022
G1 X24.991 Y-76.844
X24.912 Y-76.863
G3 X24.465 Y-77.448 I0.187 J-0.607 F508
G1 Y-78.886 F1016
X24.472 Y-79.041
X24.492 Y-79.19
X24.524 Y-79.339
X24.572 Y-79.498
X24.638 Y-79.667
X24.721 Y-79.836
X24.824 Y-80.01
X24.949 Y-80.187
X25.093 Y-80.36
X25.258 Y-80.528
X25.446 Y-80.691
X25.643 Y-80.836
X25.859 Y-80.97
X26.088 Y-81.087
X26.306 Y-81.178
X26.45 Y-81.224
X26.599 Y-81.264
X26.752 Y-81.288
X26.906 Y-81.296
G3 X27.329 Y-80.208 I-0.022 J0.635
G1 X25.544 Y-78.455
G3 X24.912 Y-78.302 I-0.445 J-0.453
X24.465 Y-78.886 I0.187 J-0.607 F508
G1 Y-80.448 F1016
X24.473 Y-80.597
X24.544 Y-80.821
X24.674 Y-81.016
X24.853 Y-81.167
X25.067 Y-81.263
X25.299 Y-81.296
G3 X25.853 Y-81.058 I-0.029 J0.83
X24.837 Y-79.791 I-0.572 J0.582
X24.465 Y-80.448 I0.443 J-0.686 F508
G1 Y-80.671 F1016
X24.479 Y-80.782
X24.494 Y-80.838
X24.514 Y-80.894
X24.54 Y-80.95
X24.574 Y-81.005
X24.616 Y-81.061
X24.67 Y-81.117
X24.683 Y-81.129
X24.738 Y-81.172
X24.794 Y-81.209
X24.85 Y-81.238
X24.906 Y-81.261
X24.962 Y-81.277
X25.017 Y-81.288
X25.129 Y-81.296
X27.359
X27.717 Y-81.278
X27.992 Y-81.213
X28.247 Y-81.093
X28.472 Y-80.924
X28.658 Y-80.712
X28.796 Y-80.467
X28.882 Y-80.198
X28.911 Y-79.918
G3 X27.878 Y-79.446 I-0.635 J-0.022
G1 X26.983 Y-80.167
G3 X26.775 Y-80.849 I0.399 J-0.494
X27.359 Y-81.296 I0.607 J0.187 F508
G1 X28.252 F1016
X28.363 Y-81.288
X28.419 Y-81.276
X28.475 Y-81.259
X28.53 Y-81.236
X28.586 Y-81.207
X28.642 Y-81.169
X28.698 Y-81.125
X28.707 Y-81.117
X28.76 Y-81.061
X28.802 Y-81.005
X28.836 Y-80.95
X28.862 Y-80.894
X28.882 Y-80.838
X28.897 Y-80.782
X28.906 Y-80.726
X28.91 Y-80.671
X28.911 Y-78.391
G3 X28.463 Y-77.807 I-0.635 J-0.022
G1 X28.368 Y-77.778 Z-0.492
X28.276 Y-77.749 Z-0.469
X28.188 Y-77.722 Z-0.431
X28.107 Y-77.697 Z-0.379
X28.034 Y-77.675 Z-0.314
X27.972 Y-77.655 Z-0.238
X27.923 Y-77.64 Z-0.153
X27.886 Y-77.629 Z-0.061
X27.864 Y-77.622 Z0.036
X27.856 Y-77.62 Z0.135
G0 Z5
X69.126 Y-69.799
Z0.77
G1 Z0.135 F508
X69.128 Y-69.806 Z0.036
X69.135 Y-69.828 Z-0.061
X69.146 Y-69.865 Z-0.153
X69.161 Y-69.915 Z-0.238
X69.179 Y-69.977 Z-0.314
X69.201 Y-70.049 Z-0.379
X69.225 Y-70.131 Z-0.431
X69.252 Y-70.219 Z-0.469
X69.28 Y-70.312 Z-0.492
X69.308 Y-70.407 Z-0.5
G3 X69.714 Y-71.079 I1.516 J0.456
G1 X69.741 Y-71.104 F1016
X69.92 Y-71.302
X70.187 Y-71.618
X70.278 Y-71.748
X70.425 Y-71.971
X70.571 Y-72.194
X70.685 Y-72.352
X70.79 Y-72.474
X70.91 Y-72.593
X71.057 Y-72.718
X71.219 Y-72.834
X71.41 Y-72.948
X71.623 Y-73.054
X71.854 Y-73.147
X72.117 Y-73.228
X72.398 Y-73.291
X72.696 Y-73.332
X73.02 Y-73.351
X73.364 Y-73.344
X73.716 Y-73.308
X74.08 Y-73.241
X74.457 Y-73.14
X74.842 Y-73.002
X74.973 Y-72.943
X75.219 Y-72.803
X75.434 Y-72.619
X75.609 Y-72.397
X75.739 Y-72.145
X75.819 Y-71.874
X75.846 Y-71.592
Y-69.314
G3 X74.878 Y-68.795 I-0.635 J-0.022
G1 X70.781 Y-71.326
X70.724 Y-71.365
X70.673 Y-71.41
X70.626 Y-71.46
G3 X70.571 Y-72.194 I0.488 J-0.406 F508
G1 X70.716 Y-72.418 F1016
X70.846 Y-72.641
X70.856 Y-72.659
X70.946 Y-72.864
X71.039 Y-73.087
X71.079 Y-73.216
X71.123 Y-73.359
X71.19 Y-73.494
X71.268 Y-73.622
X71.366 Y-73.755
X71.479 Y-73.886
X71.62 Y-74.025
X71.777 Y-74.157
X71.963 Y-74.289
X72.175 Y-74.415
X72.407 Y-74.529
X72.675 Y-74.635
X72.961 Y-74.723
X73.275 Y-74.791
X73.584 Y-74.834
X73.908 Y-74.852
X74.201 Y-74.844
X74.507 Y-74.812
X74.639 Y-74.787
X74.92 Y-74.705
X75.179 Y-74.569
X75.406 Y-74.385
X75.593 Y-74.16
X75.732 Y-73.902
X75.818 Y-73.622
X75.846 Y-73.331
Y-71.592
G3 X74.967 Y-71.029 I-0.635 J-0.022
G1 X71.455 Y-72.495
X71.369 Y-72.539
G3 X71.079 Y-73.216 I0.331 J-0.542 F508
G1 X71.217 Y-73.756 F1016
X71.262 Y-73.979
X71.347 Y-74.425
X71.375 Y-74.572
X71.428 Y-74.713
X71.494 Y-74.853
X71.581 Y-75.006
X71.687 Y-75.16
X71.813 Y-75.317
X71.966 Y-75.478
X72.138 Y-75.631
X72.335 Y-75.781
X72.559 Y-75.925
X72.795 Y-76.051
X73.04 Y-76.156
X73.303 Y-76.246
X73.551 Y-76.309
X73.821 Y-76.355
X74.073 Y-76.377
X74.336 Y-76.379
X74.473 Y-76.369
X74.784 Y-76.312
X75.077 Y-76.191
X75.336 Y-76.01
X75.552 Y-75.778
X75.713 Y-75.506
X75.813 Y-75.206
X75.846 Y-74.891
Y-73.331
G3 X75.018 Y-72.748 I-0.635 J-0.022
G1 X71.788 Y-73.782
X71.738 Y-73.801
G3 X71.347 Y-74.425 I0.244 J-0.586 F508
G1 X71.369 Y-74.648 F1016
X71.396 Y-75.094
X71.4 Y-75.317
Y-75.54
X71.407 Y-75.69
X71.433 Y-75.838
X71.474 Y-75.987
X71.528 Y-76.139
X71.602 Y-76.301
X71.694 Y-76.469
X71.805 Y-76.635
X71.938 Y-76.805
X72.095 Y-76.975
X72.27 Y-77.136
X72.466 Y-77.29
X72.673 Y-77.426
X72.904 Y-77.554
X73.136 Y-77.658
X73.365 Y-77.74
X73.619 Y-77.808
X73.856 Y-77.852
X74.106 Y-77.877
X74.357 Y-77.883
X74.452 Y-77.877
X74.767 Y-77.824
X75.063 Y-77.705
X75.327 Y-77.525
X75.546 Y-77.292
X75.71 Y-77.018
X75.812 Y-76.716
X75.846 Y-76.398
Y-74.891
G3 X75.085 Y-74.291 I-0.635 J-0.022
G1 X71.907 Y-74.94
X71.847 Y-74.956
G3 X71.4 Y-75.54 I0.187 J-0.607 F508
G1 Y-76.879 F1016
X71.409 Y-77.064
X71.429 Y-77.213
X71.461 Y-77.359
X71.509 Y-77.519
X71.574 Y-77.684
X71.656 Y-77.851
X71.76 Y-78.026
X71.884 Y-78.201
X72.027 Y-78.371
X72.192 Y-78.539
X72.382 Y-78.703
X72.581 Y-78.849
X72.792 Y-78.979
X73.025 Y-79.098
X73.245 Y-79.188
X73.49 Y-79.267
X73.732 Y-79.324
X73.965 Y-79.359
X74.222 Y-79.377
X74.46 Y-79.375
X74.499 Y-79.371
X74.806 Y-79.31
X75.093 Y-79.186
X75.347 Y-79.005
X75.558 Y-78.774
X75.716 Y-78.504
X75.813 Y-78.207
X75.846 Y-77.896
Y-76.398
G3 X75.117 Y-75.792 I-0.635 J-0.022
G1 X71.939 Y-76.273
X71.847 Y-76.294
G3 X71.4 Y-76.879 I0.187 J-0.607 F508
G1 Y-78.44 F1016
X71.407 Y-78.59
X71.431 Y-78.738
X71.468 Y-78.893
X71.523 Y-79.057
X71.593 Y-79.222
X71.683 Y-79.395
X71.795 Y-79.572
X71.924 Y-79.746
X72.074 Y-79.917
X72.249 Y-80.086
X72.445 Y-80.247
X72.649 Y-80.389
X72.862 Y-80.513
X73.097 Y-80.626
X73.319 Y-80.711
X73.565 Y-80.784
X73.807 Y-80.834
X74.042 Y-80.864
X74.298 Y-80.876
X74.535 Y-80.867
X74.835 Y-80.8
X75.115 Y-80.673
X75.363 Y-80.49
X75.567 Y-80.261
X75.72 Y-79.994
X75.815 Y-79.701
X75.846 Y-79.395
Y-77.896
G3 X75.105 Y-77.292 I-0.635 J-0.022
G1 X71.927 Y-77.836
X71.847 Y-77.855
G3 X71.4 Y-78.44 I0.187 J-0.607 F508
G1 Y-79.901 F1016
X71.407 Y-80.051
X71.477 Y-80.337
X71.603 Y-80.604
X71.781 Y-80.838
X72.004 Y-81.032
X72.26 Y-81.177
X72.541 Y-81.266
X72.835 Y-81.296
G3 X74.086 Y-79.565 I-0.047 J1.352
X71.644 Y-79.166 I-1.316 J-0.384
X71.4 Y-79.901 I1.126 J-0.783 F508
G1 Y-80.671 F1016
X71.404 Y-80.726
X71.414 Y-80.782
X71.428 Y-80.838
X71.448 Y-80.894
X71.481 Y-80.962
X71.525 Y-81.029
X71.561 Y-81.073
X71.604 Y-81.117
X71.676 Y-81.174
X71.748 Y-81.218
X71.804 Y-81.245
X71.86 Y-81.266
X71.916 Y-81.281
X71.971 Y-81.291
X72.194 Y-81.296
X75.206
X75.262 Y-81.293
X75.317 Y-81.284
X75.373 Y-81.271
X75.429 Y-81.251
X75.485 Y-81.226
X75.54 Y-81.194
X75.642 Y-81.117
X75.712 Y-81.04
X75.763 Y-80.963
X75.797 Y-80.894
X75.817 Y-80.838
X75.832 Y-80.782
X75.846 Y-80.671
Y-80.002
Y-79.395
X75.839 Y-79.32
X75.824 Y-79.247
X75.791 Y-79.179 Z-0.495
X75.758 Y-79.111 Z-0.482
X75.727 Y-79.046 Z-0.459
X75.669 Y-78.989 Z-0.421
X75.615 Y-78.937 Z-0.373
X75.566 Y-78.891 Z-0.314
X75.508 Y-78.863 Z-0.238
X75.461 Y-78.84 Z-0.153
X75.427 Y-78.824 Z-0.061
X75.406 Y-78.814 Z0.035
X75.399 Y-78.811 Z0.135
G0 Z5
X68.753 Y-66.759
Z2
G3 X74.656 Y-68.003 Z1.669 I2.951 J-0.622 F508
X68.753 Y-66.759 Z1.338 I-2.951 J0.622
X74.656 Y-68.003 Z1.007 I2.951 J-0.622
X68.753 Y-66.759 Z0.676 I-2.951 J0.622
X74.656 Y-68.003 Z0.345 I2.951 J-0.622
X68.753 Y-66.759 Z0.015 I-2.951 J0.622
X74.656 Y-68.003 Z-0.316 I2.951 J-0.622
X68.753 Y-66.759 Z-0.647 I-2.951 J0.622
X71.392 Y-70.381 Z-0.824 I2.951 J-0.622
X74.72 Y-67.381 Z-1 I0.313 J3
X68.688 Y-67.381 I-3.016 J0
X74.72 Y-67.381 I3.016 J0
G1 X74.724 Y-67.136 F1016
X74.903 Y-66.171
X74.947 Y-66.027
X74.977 Y-65.88
X74.992 Y-65.731
X74.994 Y-65.579
X74.984 Y-65.415
X74.958 Y-65.241
X74.916 Y-65.058
X74.856 Y-64.868
X74.777 Y-64.673
X74.677 Y-64.474
X74.555 Y-64.275
X74.412 Y-64.077
X74.246 Y-63.883
X74.057 Y-63.696
X73.847 Y-63.518
X73.616 Y-63.352
X73.364 Y-63.201
X73.093 Y-63.066
X72.804 Y-62.95
X72.5 Y-62.856
X72.183 Y-62.785
X71.854 Y-62.739
X71.517 Y-62.719
X71.174 Y-62.726
X71.111 Y-62.733
X70.841 Y-62.786
X70.585 Y-62.888
X70.352 Y-63.036
X70.151 Y-63.225
X69.912 Y-63.495
X69.741 Y-63.669
X69.685 Y-63.718
X69.518 Y-63.855
X69.072 Y-64.166
X68.849 Y-64.316
X68.726 Y-64.387
X68.543 Y-64.506
X68.341 Y-64.662
X68.144 Y-64.841
X67.955 Y-65.042
X67.778 Y-65.265
X67.613 Y-65.509
X67.465 Y-65.773
X67.335 Y-66.056
X67.225 Y-66.355
X67.138 Y-66.668
X67.075 Y-66.994
X67.038 Y-67.33
X67.028 Y-67.673
X67.045 Y-68.02
X67.091 Y-68.37
X67.166 Y-68.719
X67.269 Y-69.063
X67.32 Y-69.193
X67.461 Y-69.466
X67.654 Y-69.704
X67.893 Y-69.898
X68.167 Y-70.037
X68.179 Y-70.042
X68.402 Y-70.17
X68.849 Y-70.438
X69.072 Y-70.591
X69.518 Y-70.909
X69.714 Y-71.079
X69.923 Y-71.253
X70.131 Y-71.398
X70.358 Y-71.532
X70.604 Y-71.651
X70.868 Y-71.754
X71.148 Y-71.837
X71.443 Y-71.9
X71.749 Y-71.94
X72.066 Y-71.956
X72.389 Y-71.946
X72.718 Y-71.909
X73.048 Y-71.845
X73.378 Y-71.753
X73.703 Y-71.634
X74.023 Y-71.486
X74.333 Y-71.312
X74.631 Y-71.111
X74.914 Y-70.884
X75.181 Y-70.634
X75.428 Y-70.361
X75.539 Y-70.217
X75.707 Y-69.941
X75.811 Y-69.635
X75.846 Y-69.314
Y-64.61
X75.836 Y-64.4
X75.806 Y-64.171
X75.756 Y-63.939
X75.684 Y-63.697
X75.586 Y-63.445
X75.462 Y-63.19
X75.314 Y-62.938
X75.135 Y-62.684
X74.925 Y-62.431
X74.687 Y-62.187
X74.423 Y-61.956
X74.13 Y-61.739
X73.806 Y-61.538
X73.453 Y-61.356
X73.115 Y-61.215
X72.764 Y-61.1
X72.679 Y-61.08
X72.389 Y-61.04
X72.097 Y-61.058
X71.815 Y-61.133
X71.552 Y-61.262
X71.32 Y-61.44
X71.128 Y-61.66
X70.982 Y-61.914
X70.871 Y-62.157
X70.856 Y-62.183
X70.732 Y-62.38
X70.41 Y-62.868
X70.287 Y-63.049
X70.187 Y-63.184
X70.151 Y-63.225
G3 X70.511 Y-64.25 I0.49 J-0.404
G1 X75.081 Y-65.21
G3 X75.399 Y-65.195 I0.13 J0.621
X75.846 Y-64.61 I-0.187 J0.607 F508
G1 Y-62.603 F1016
X75.836 Y-62.386
X75.812 Y-62.203
X75.769 Y-62.006
X75.707 Y-61.798
X75.619 Y-61.572
X75.51 Y-61.346
X75.369 Y-61.107
X75.199 Y-60.866
X75.007 Y-60.634
X74.804 Y-60.426
X74.575 Y-60.226
X74.354 Y-60.063
X74.105 Y-59.908
X73.868 Y-59.785
X73.609 Y-59.677
X73.357 Y-59.595
X73.1 Y-59.533
X73.023 Y-59.521
X72.699 Y-59.506
X72.38 Y-59.562
X72.081 Y-59.687
X71.815 Y-59.873
X71.597 Y-60.112
X71.436 Y-60.393
X71.34 Y-60.703
X71.302 Y-60.895
X71.267 Y-61.041
X71.149 Y-61.488
X71.079 Y-61.697
X70.982 Y-61.914
G3 X71.496 Y-62.784 I0.588 J-0.24
G1 X75.138 Y-63.211
G3 X75.399 Y-63.188 I0.074 J0.631
X75.846 Y-62.603 I-0.187 J0.607 F508
G1 Y-60.696 F1016
X75.839 Y-60.546
X75.816 Y-60.38
X75.778 Y-60.204
X75.72 Y-60.015
X75.645 Y-59.824
X75.548 Y-59.627
X75.427 Y-59.423
X75.284 Y-59.222
X75.122 Y-59.029
X74.952 Y-58.857
X74.751 Y-58.683
X74.552 Y-58.537
X74.344 Y-58.409
X74.113 Y-58.291
X73.894 Y-58.201
X73.653 Y-58.124
X73.412 Y-58.067
X73.182 Y-58.032
X72.922 Y-58.014
X72.599 Y-58.054
X72.292 Y-58.164
X72.017 Y-58.34
X71.788 Y-58.571
X71.615 Y-58.848
X71.508 Y-59.156
X71.472 Y-59.48
X71.464 Y-59.703
X71.432 Y-60.149
X71.404 Y-60.372
X71.34 Y-60.703
G3 X71.992 Y-61.436 I0.627 J-0.099
G1 X75.237 Y-61.308
X75.319 Y-61.299
X75.399 Y-61.28
G3 X75.846 Y-60.696 I-0.187 J0.607 F508
G1 Y-59.034 F1016
X75.839 Y-58.884
X75.817 Y-58.735
X75.781 Y-58.572
X75.729 Y-58.407
X75.658 Y-58.233
X75.568 Y-58.052
X75.459 Y-57.874
X75.329 Y-57.694
X75.177 Y-57.514
X75.002 Y-57.34
X74.818 Y-57.183
X74.627 Y-57.046
X74.408 Y-56.913
X74.199 Y-56.809
X73.975 Y-56.718
X73.738 Y-56.644
X73.515 Y-56.594
X73.269 Y-56.559
X73.029 Y-56.544
X72.926 Y-56.546
X72.601 Y-56.588
X72.293 Y-56.701
X72.018 Y-56.879
X71.788 Y-57.113
X71.615 Y-57.392
X71.508 Y-57.702
X71.472 Y-58.027
Y-59.48
G3 X72.197 Y-60.086 I0.635 J0.022
G1 X75.302 Y-59.64
X75.399 Y-59.619
G3 X75.846 Y-59.034 I-0.187 J0.607 F508
G1 Y-57.473 F1016
X75.839 Y-57.323
X75.815 Y-57.175
X75.777 Y-57.018
X75.722 Y-56.855
X75.651 Y-56.69
X75.56 Y-56.516
X75.449 Y-56.34
X75.321 Y-56.169
X75.17 Y-55.998
X74.996 Y-55.831
X74.81 Y-55.679
X74.613 Y-55.542
X74.39 Y-55.414
X74.179 Y-55.313
X73.947 Y-55.225
X73.709 Y-55.155
X73.484 Y-55.108
X73.233 Y-55.077
X72.993 Y-55.067
X72.898 Y-55.071
X72.578 Y-55.118
X72.275 Y-55.234
X72.005 Y-55.413
X71.781 Y-55.646
X71.612 Y-55.923
X71.507 Y-56.229
X71.472 Y-56.551
Y-58.027
G3 X72.218 Y-58.63 I0.635 J0.022
G1 X75.324 Y-58.075
X75.399 Y-58.057
G3 X75.846 Y-57.473 I-0.187 J0.607 F508
G1 Y-56.011 F1016
X75.839 Y-55.862
X75.818 Y-55.713
X75.783 Y-55.56
X75.733 Y-55.405
X75.666 Y-55.238
X75.579 Y-55.067
X75.475 Y-54.897
X75.351 Y-54.725
X75.203 Y-54.552
X75.036 Y-54.386
X74.851 Y-54.23
X74.66 Y-54.093
X74.439 Y-53.961
X74.221 Y-53.853
X74.003 Y-53.765
X73.758 Y-53.689
X73.529 Y-53.638
X73.289 Y-53.605
X73.041 Y-53.59
X72.812 Y-53.595
X72.803 Y-53.596
X72.5 Y-53.659
X72.216 Y-53.785
X71.964 Y-53.967
X71.756 Y-54.197
X71.601 Y-54.466
X71.504 Y-54.761
X71.472 Y-55.07
Y-56.551
G3 X72.215 Y-57.155 I0.635 J0.022
G1 X75.321 Y-56.615
X75.399 Y-56.596
G3 X75.846 Y-56.011 I-0.187 J0.607 F508
G1 Y-54.573 F1016
X75.838 Y-54.399
X75.818 Y-54.251
X75.785 Y-54.098
X75.737 Y-53.942
X75.673 Y-53.78
X75.588 Y-53.608
X75.486 Y-53.437
X75.365 Y-53.267
X75.22 Y-53.095
X75.054 Y-52.927
X74.87 Y-52.768
X74.669 Y-52.621
X74.469 Y-52.499
X74.24 Y-52.383
X74.02 Y-52.292
X73.789 Y-52.218
X73.547 Y-52.162
X73.319 Y-52.128
X73.068 Y-52.111
X72.83 Y-52.113
X72.817 Y-52.115
X72.511 Y-52.176
X72.224 Y-52.3
X71.97 Y-52.482
X71.76 Y-52.713
X71.602 Y-52.983
X71.505 Y-53.279
X71.472 Y-53.59
Y-55.07
G3 X72.207 Y-55.674 I0.635 J0.022
G1 X75.312 Y-55.178
X75.399 Y-55.157
G3 X75.846 Y-54.573 I-0.187 J0.607 F508
G1 Y-53.011 F1016
X75.839 Y-52.861
X75.814 Y-52.714
X75.775 Y-52.561
X75.719 Y-52.398
X75.647 Y-52.232
X75.556 Y-52.062
X75.443 Y-51.887
X75.312 Y-51.714
X75.161 Y-51.547
X74.987 Y-51.382
X74.79 Y-51.224
X74.593 Y-51.09
X74.378 Y-50.967
X74.152 Y-50.861
X73.934 Y-50.78
X73.689 Y-50.711
X73.455 Y-50.664
X73.219 Y-50.637
X72.969 Y-50.628
X72.887 Y-50.632
X72.568 Y-50.681
X72.268 Y-50.799
X72 Y-50.978
X71.777 Y-51.211
X71.61 Y-51.487
X71.507 Y-51.792
X71.472 Y-52.113
Y-53.59
G3 X72.223 Y-54.192 I0.635 J0.022
G1 X75.328 Y-53.613
X75.399 Y-53.596
G3 X75.846 Y-53.011 I-0.187 J0.607 F508
G1 Y-51.55 F1016
X75.839 Y-51.4
X75.816 Y-51.252
X75.778 Y-51.098
X75.726 Y-50.941
X75.656 Y-50.774
X75.567 Y-50.602
X75.46 Y-50.432
X75.332 Y-50.26
X75.181 Y-50.088
X75.01 Y-49.923
X74.823 Y-49.768
X74.63 Y-49.633
X74.407 Y-49.503
X74.189 Y-49.398
X73.968 Y-49.313
X73.723 Y-49.24
X73.495 Y-49.192
X73.251 Y-49.161
X73.005 Y-49.15
X72.776 Y-49.157
X72.561 Y-49.182
X72.253 Y-49.255
X71.97 Y-49.398
X71.728 Y-49.603
X71.541 Y-49.859
X71.419 Y-50.152
X71.37 Y-50.465
X71.394 Y-50.781
X71.421 Y-51.004
X71.466 Y-51.45
X71.472 Y-51.673
Y-52.113
G3 X72.22 Y-52.715 I0.635 J0.022
G1 X75.325 Y-52.153
X75.399 Y-52.135
G3 X75.846 Y-51.55 I-0.187 J0.607 F508
G1 Y-50.112 F1016
X75.839 Y-49.961
X75.819 Y-49.812
X75.786 Y-49.661
X75.739 Y-49.507
X75.674 Y-49.342
X75.591 Y-49.172
X75.49 Y-49.002
X75.367 Y-48.83
X75.223 Y-48.657
X75.059 Y-48.491
X74.875 Y-48.332
X74.67 Y-48.182
X74.444 Y-48.043
X74.213 Y-47.925
X73.957 Y-47.819
X73.719 Y-47.743
X73.467 Y-47.684
X73.211 Y-47.645
X72.975 Y-47.628
X72.718 Y-47.631
X72.473 Y-47.653
X72.246 Y-47.693
X72.001 Y-47.756
X71.71 Y-47.894
X71.458 Y-48.094
X71.255 Y-48.345
X71.114 Y-48.634
X71.041 Y-48.948
X71.039 Y-49.27
X71.109 Y-49.585
X71.136 Y-49.665
X71.205 Y-49.888
X71.26 Y-50.112
X71.306 Y-50.335
X71.394 Y-50.781
G3 X72.119 Y-51.261 I0.618 J0.145
G1 X75.319 Y-50.715
X75.399 Y-50.696
G3 X75.846 Y-50.112 I-0.187 J0.607 F508
G1 Y-48.65 F1016
X75.838 Y-48.479
X75.818 Y-48.33
X75.784 Y-48.175
X75.736 Y-48.016
X75.669 Y-47.848
X75.582 Y-47.671
X75.478 Y-47.496
X75.352 Y-47.319
X75.202 Y-47.141
X75.032 Y-46.968
X74.842 Y-46.805
X74.63 Y-46.65
X74.395 Y-46.505
X74.141 Y-46.376
X73.87 Y-46.264
X73.601 Y-46.178
X73.332 Y-46.116
X73.05 Y-46.073
X72.793 Y-46.055
X72.515 Y-46.059
X72.253 Y-46.083
X72.006 Y-46.126
X71.744 Y-46.193
X71.511 Y-46.274
X71.278 Y-46.376
X71.052 Y-46.498
X70.958 Y-46.558
X70.709 Y-46.763
X70.511 Y-47.019
X70.377 Y-47.312
X70.311 Y-47.628
X70.319 Y-47.951
X70.398 Y-48.263
X70.546 Y-48.55
X70.696 Y-48.773
X70.834 Y-48.996
X70.856 Y-49.034
X70.949 Y-49.219
X71.079 Y-49.499
X71.109 Y-49.585
G3 X71.831 Y-49.979 I0.593 J0.227
G1 X75.341 Y-49.25
X75.399 Y-49.235
G3 X75.846 Y-48.65 I-0.187 J0.607 F508
G1 Y-47.089 F1016
X75.839 Y-46.939
X75.817 Y-46.791
X75.779 Y-46.629
X75.725 Y-46.464
X75.652 Y-46.288
X75.558 Y-46.104
X75.446 Y-45.922
X75.309 Y-45.736
X75.147 Y-45.548
X74.965 Y-45.369
X74.761 Y-45.198
X74.53 Y-45.035
X74.276 Y-44.884
X74.004 Y-44.751
X73.715 Y-44.637
X73.409 Y-44.545
X73.089 Y-44.475
X72.755 Y-44.43
X72.411 Y-44.411
X72.084 Y-44.42
X71.75 Y-44.456
X71.442 Y-44.514
X71.156 Y-44.593
X70.866 Y-44.698
X70.616 Y-44.812
X70.359 Y-44.955
X70.131 Y-45.108
X69.924 Y-45.272
X69.718 Y-45.463
X69.692 Y-45.492
X69.501 Y-45.753
X69.371 Y-46.05
X69.309 Y-46.367
X69.317 Y-46.691
X69.396 Y-47.005
X69.54 Y-47.295
X69.744 Y-47.546
X69.964 Y-47.763
G3 X70.424 Y-47.93 I0.43 J0.467
G1 X70.707 Y-47.916
X75.242 Y-47.701
X75.321 Y-47.692
X75.399 Y-47.674
G3 X75.846 Y-47.089 I-0.187 J0.607 F508
G1 Y-45.528 F1016
X75.839 Y-45.378
X75.815 Y-45.222
X75.775 Y-45.059
X75.719 Y-44.886
X75.641 Y-44.701
X75.545 Y-44.515
X75.423 Y-44.319
X75.277 Y-44.122
X75.108 Y-43.929
X74.908 Y-43.733
X74.68 Y-43.544
X74.429 Y-43.368
X74.149 Y-43.204
X73.839 Y-43.054
X73.507 Y-42.925
X73.158 Y-42.82
X72.794 Y-42.742
X72.414 Y-42.693
X72.026 Y-42.674
X71.63 Y-42.686
X71.233 Y-42.73
X70.838 Y-42.807
X70.449 Y-42.916
X70.11 Y-43.04
X69.771 Y-43.197
X69.488 Y-43.356
X69.205 Y-43.546
X68.965 Y-43.739
X68.74 Y-43.949
X68.537 Y-44.173
X68.367 Y-44.395
X68.204 Y-44.646
X68.076 Y-44.883
X68.063 Y-44.911
X67.97 Y-45.201
X67.937 Y-45.505
X67.968 Y-45.809
X68.06 Y-46.1
X68.21 Y-46.366
X68.412 Y-46.595
X68.656 Y-46.778
X68.849 Y-46.894
X69.518 Y-47.359
X69.619 Y-47.435
X69.744 Y-47.546
G3 X70.364 Y-47.685 I0.43 J0.467
G1 X70.479 Y-47.649
X75.399 Y-46.112
X75.401 F508
G3 X75.846 Y-45.528 I-0.189 J0.606
G1 Y-43.966 F1016
X75.839 Y-43.814
X75.819 Y-43.66
X75.783 Y-43.492
X75.728 Y-43.31
X75.656 Y-43.123
X75.557 Y-42.92
X75.439 Y-42.719
X75.291 Y-42.508
X75.114 Y-42.295
X74.913 Y-42.089
X74.792 Y-41.984
X74.578 Y-41.828
X74.338 Y-41.713
X74.083 Y-41.643
X73.818 Y-41.619
G3 X73.347 Y-42.654 I0.022 J-0.635
G1 X74.719 Y-44.344
G3 X75.399 Y-44.551 I0.493 J0.4
X75.846 Y-43.966 I-0.187 J0.607 F508
G1 Y-42.304 F1016
X75.842 Y-42.193
X75.834 Y-42.137
X75.819 Y-42.081
X75.796 Y-42.016
X75.763 Y-41.951
X75.734 Y-41.905
X75.699 Y-41.858
X75.663 Y-41.818
X75.62 Y-41.779
X75.54 Y-41.721
X75.49 Y-41.692
X75.439 Y-41.668
X75.338 Y-41.635
X75.317 Y-41.631
X75.262 Y-41.623
X75.206 Y-41.619
X70.41
X69.967 Y-41.641
X69.664 Y-41.681
X69.356 Y-41.747
X69.041 Y-41.841
X68.724 Y-41.964
X68.406 Y-42.119
X68.095 Y-42.302
X67.823 Y-42.493
X67.56 Y-42.712
X67.337 Y-42.929
X67.131 Y-43.166
X66.952 Y-43.407
X66.8 Y-43.652
X66.664 Y-43.914
X66.56 Y-44.163
X66.47 Y-44.438
X66.408 Y-44.698
X66.394 Y-45.002
X66.446 Y-45.302
X66.561 Y-45.584
X66.735 Y-45.835
X66.958 Y-46.042
X67.22 Y-46.197
X67.51 Y-46.291
G3 X68.13 Y-46.067 I0.126 J0.622
G1 X68.188 Y-45.995
X70.882 Y-42.652
G3 X70.995 Y-42.067 I-0.494 J0.398
X70.41 Y-41.619 I-0.607 J-0.187 F508
G1 X67.834 F1016
X67.652 Y-41.628
X67.461 Y-41.653
X67.263 Y-41.696
X67.056 Y-41.757
X66.837 Y-41.843
X66.616 Y-41.95
X66.397 Y-42.079
X66.173 Y-42.236
X65.953 Y-42.419
X65.761 Y-42.606
X65.581 Y-42.813
X65.42 Y-43.031
X65.287 Y-43.245
X65.162 Y-43.487
X65.065 Y-43.717
X64.986 Y-43.959
X64.926 Y-44.209
X64.89 Y-44.444
X64.887 Y-44.485
X64.898 Y-44.808
X64.979 Y-45.12
X65.125 Y-45.408
X65.331 Y-45.657
X65.585 Y-45.856
X65.877 Y-45.995
X66.192 Y-46.067
X66.395 Y-46.091
X66.841 Y-46.156
X67.064 Y-46.198
X67.51 Y-46.291
G3 X68.252 Y-45.701 I0.108 J0.626
G1 X68.445 Y-42.29
Y-42.214
X68.436 Y-42.14
X68.418 Y-42.067
G3 X67.834 Y-41.619 I-0.607 J-0.187 F508
G1 X66.049 F1016
X65.86 Y-41.628
X65.699 Y-41.65
X65.534 Y-41.685
X65.356 Y-41.738
X65.17 Y-41.81
X64.985 Y-41.901
X64.794 Y-42.013
X64.601 Y-42.149
X64.413 Y-42.305
X64.236 Y-42.477
X64.081 Y-42.655
X63.926 Y-42.864
X63.799 Y-43.068
X63.689 Y-43.283
X63.591 Y-43.516
X63.519 Y-43.737
X63.461 Y-43.98
X63.423 Y-44.221
X63.406 Y-44.45
X63.407 Y-44.704
X63.467 Y-45.011
X63.59 Y-45.3
X63.772 Y-45.555
X64.003 Y-45.767
