(plunge)
(T9  D=1.587 CR=0 - ZMIN=-2.5 - bullnose end mill)
G90 G94
G17
G21
G28 G91 Z0
G90

(2D Pocket1)
T9
S30000 M3
G54
M8
G0 X72.555 Y-45.273
Z15
Z5
G1 Z2.5 F300
Z-2.341 F2300
X72.572 Y-45.26 Z-2.421
X72.593 Y-45.24 Z-2.45
X72.609 Y-45.216 Z-2.479
X72.623 Y-45.179 Z-2.489
X72.628 Y-45.14 Z-2.5
Y-45.072 F5080
G3 X72.393 Y-44.837 I-0.235 J0
G1 X71.924
G3 X71.829 Y-45.085 I0 J-0.143
G2 X72.379 Y-45.63 I-6.206 J-6.827
G3 X72.628 Y-45.532 I0.106 J0.097
G1 Y-45.14
G2 X72.981 Y-44.761 I0.38 J0
G3 X73.101 Y-44.257 I-0.02 J0.271
G1 X73.05 Y-44.233
X72.996 Y-44.218
X72.94 Y-44.213
X69.891
X69.853 Y-44.219
X69.819 Y-44.238
X69.793 Y-44.266
X69.777 Y-44.302
X69.774 Y-44.34
X69.783 Y-44.378
X69.804 Y-44.41
X69.835 Y-44.434
G2 X73.03 Y-47.576 I-3.884 J-7.145
G1 X73.054 Y-47.607
X73.087 Y-47.628
X73.125 Y-47.637
X73.164 Y-47.633
X73.199 Y-47.617
X73.228 Y-47.591
X73.246 Y-47.556
X73.253 Y-47.518
Y-44.526
G3 X73.101 Y-44.257 I-0.313 J0
G1 X73.065 Y-44.239 Z-2.489 F300
X73.028 Y-44.226 Z-2.479
X72.971 Y-44.214 Z-2.421
X72.95 Y-44.213 Z-2.341
G0 Z5
X71.535 Y-66.913
G1 Z2.5 F2300
Z-2.341
X71.515 Y-66.907 Z-2.421
X71.486 Y-66.903 Z-2.45
X71.457 Y-66.904 Z-2.479
X71.419 Y-66.915 Z-2.489
X71.385 Y-66.934 Z-2.5
G2 X70.997 Y-67.206 I-5.289 J7.124 F5080
G3 X70.996 Y-67.548 I0.114 J-0.171
G2 X72.031 Y-68.367 I-5.002 J-7.39
G3 X72.288 Y-68.254 I0.103 J0.113
G1 Y-66.521
G3 X72.03 Y-66.406 I-0.154 J0
G2 X71.385 Y-66.934 I-5.934 J6.596
X70.478 Y-66.965 I-0.475 J0.64
G3 X69.573 Y-66.914 I-0.497 J-0.774
G2 X68.825 Y-67.238 I-3.577 J7.232
G3 X68.823 Y-67.496 I0.048 J-0.129
G2 X73.033 Y-71.208 I-2.892 J-7.522
G1 X73.056 Y-71.238
X73.089 Y-71.26
X73.126 Y-71.269
X73.165 Y-71.266
X73.2 Y-71.25
X73.229 Y-71.224
X73.247 Y-71.19
X73.254 Y-71.152
Y-63.692
X73.247 Y-63.653
X73.229 Y-63.619
X73.2 Y-63.592
X73.165 Y-63.577
X73.126 Y-63.573
X73.088 Y-63.582
X73.055 Y-63.603
X73.031 Y-63.633
G2 X69.573 Y-66.914 I-7.034 J3.952
G1 X69.54 Y-66.936 Z-2.489 F300
X69.514 Y-66.965 Z-2.479
X69.499 Y-66.99 Z-2.45
X69.49 Y-67.017 Z-2.421
X69.486 Y-67.038 Z-2.341
Z1
X69.928 Y-67.427 F5080
Z-2.341 F300
X69.92 Y-67.428 Z-2.39
X69.898 Z-2.435
X69.863 Y-67.429 Z-2.47
X69.818 Y-67.431 Z-2.492
X69.769 Y-67.432 Z-2.5
X28.619 Y-68.597 F5080
X28.588 Y-68.592
X28.562 Y-68.575
X28.544 Y-68.55
X28.537 Y-68.52
X28.529 Y-68.476
X28.509 Y-68.437
X28.477 Y-68.406
X28.437 Y-68.387
X28.394 Y-68.38
X27.992
X27.923
G3 X27.688 Y-68.615 I0 J-0.235
G1 Y-69.094
G3 X27.936 Y-69.19 I0.143 J0
G2 X28.491 Y-68.629 I6.813 J-6.193
G1 X28.517 Y-68.597
X28.533 Y-68.56
X28.537 Y-68.52
G2 X28.729 Y-68.149 I0.432 J0.011
G3 X28.608 Y-67.75 I-0.121 J0.181
G1 X27.37
G3 X27.058 Y-68.063 I0 J-0.313
G1 Y-71.15
X27.064 Y-71.189
X27.082 Y-71.223
X27.111 Y-71.249
X27.146 Y-71.264
X27.185 Y-71.268
X27.223 Y-71.258
X27.255 Y-71.237
X27.279 Y-71.206
G2 X30.467 Y-67.972 I7.137 J-3.848
G1 X30.498 Y-67.948
X30.519 Y-67.915
X30.528 Y-67.878
X30.524 Y-67.839
X30.509 Y-67.803
X30.482 Y-67.775
X30.448 Y-67.756
X30.409 Y-67.75
X28.608
X28.568 Y-67.755 Z-2.489 F300
X28.531 Y-67.769 Z-2.479
X28.507 Y-67.785 Z-2.45
X28.487 Y-67.806 Z-2.421
X28.474 Y-67.823 Z-2.341
G0 Z5
X28.263 Y-42.438
G1 Z2.5 F2300
Z-2.341
X28.266 Y-42.417 Z-2.421
X28.265 Y-42.388 Z-2.45
X28.26 Y-42.36 Z-2.479
X28.244 Y-42.323 Z-2.489
X28.22 Y-42.292 Z-2.5
G2 X27.944 Y-42.002 I5.938 J5.92 F5080
G3 X27.696 Y-42.098 I-0.106 J-0.096
G1 Y-42.59
G3 X27.931 Y-42.825 I0.235 J0
G1 X28.421
G3 X28.518 Y-42.576 I0 J0.143
G2 X28.22 Y-42.292 I5.64 J6.204
X28.111 Y-41.708 I0.373 J0.372
G3 X28.037 Y-41.118 I-0.529 J0.233
G2 X27.278 Y-39.961 I6.391 J5.016
G1 X27.254 Y-39.93
X27.222 Y-39.909
X27.184 Y-39.899
X27.146 Y-39.903
X27.11 Y-39.918
X27.082 Y-39.944
X27.063 Y-39.978
X27.057 Y-40.017
Y-43.151
G3 X27.37 Y-43.464 I0.313 J0
G1 X30.496
X30.534 Y-43.458
X30.568 Y-43.439
X30.595 Y-43.411
X30.61 Y-43.375
X30.613 Y-43.337
X30.604 Y-43.299
X30.583 Y-43.267
X30.552 Y-43.243
G2 X28.037 Y-41.118 I3.875 J7.141
G1 X28.008 Y-41.09 Z-2.489 F300
X27.974 Y-41.07 Z-2.479
X27.947 Y-41.061 Z-2.45
X27.918 Y-41.058 Z-2.421
X27.897 Z-2.341
G0 Z5
X27.767 Y-21.573
G1 Z2.5 F2300
Z-2.341
X27.75 Y-21.586 Z-2.421
X27.73 Y-21.606 Z-2.45
X27.713 Y-21.63 Z-2.479
X27.699 Y-21.667 Z-2.489
X27.694 Y-21.707 Z-2.5
Y-22.122 F5080
G3 X27.942 Y-22.218 I0.143 J0
G2 X28.511 Y-21.647 I6.501 J-5.91
G3 X28.415 Y-21.398 I-0.096 J0.106
G1 X28.007
X27.929
G3 X27.694 Y-21.633 I0 J-0.235
G1 Y-21.707
G2 X27.375 Y-22.184 I-0.518 J0
G3 X27.057 Y-22.662 I0.199 J-0.478
G1 Y-24.198
X27.063 Y-24.236
X27.082 Y-24.271
X27.11 Y-24.297
X27.146 Y-24.312
X27.184 Y-24.315
X27.222 Y-24.306
X27.254 Y-24.285
X27.278 Y-24.254
G2 X30.533 Y-20.982 I7.136 J-3.845
G1 X30.564 Y-20.958
X30.585 Y-20.926
X30.594 Y-20.888
X30.591 Y-20.85
X30.575 Y-20.814
X30.549 Y-20.785
X30.515 Y-20.767
X30.476 Y-20.761
X27.37
G3 X27.057 Y-21.074 I0 J-0.313
G1 Y-22.662
G2 X26.636 Y-23.294 I-0.684 J0
G3 X26.215 Y-23.925 I0.263 J-0.631
G1 Y-43.987
G3 X26.534 Y-44.306 I0.319 J0
G1 X66.018 Y-44.261
G2 X73.268 Y-51.532 I0 J-7.25
G1 Y-59.703
G2 X71.098 Y-64.849 I-7.186 J0
X65.925 Y-66.953 I-5.173 J5.307
G1 X26.535 Y-66.908
G3 X26.216 Y-67.227 I0 J-0.319
G1 Y-79.226
G3 X26.535 Y-79.545 I0.319 J0
G1 X26.84
G3 X27.16 Y-79.226 I0 J0.319
G1 X27.115 Y-75.003
G2 X34.386 Y-67.754 I7.25 J0
G1 X65.946
G2 X73.196 Y-75.025 I0 J-7.25
G1 X73.151 Y-79.226
G3 X73.47 Y-79.545 I0.319 J0
G1 X73.776
G3 X74.095 Y-79.226 I0 J0.319
G1 Y-43.689
G3 X73.776 Y-43.37 I-0.319 J0
G1 X34.386 Y-43.415
G2 X27.115 Y-36.144 I0 J7.271
G1 Y-28.049
G2 X34.386 Y-20.8 I7.25 J0
G1 X73.776 Y-20.845
G3 X74.095 Y-20.525 I0 J0.319
G1 Y-20.238
G3 X73.776 Y-19.919 I-0.319 J0
G1 X26.534
G3 X26.215 Y-20.238 I0 J-0.319
G1 Y-23.925
G2 X25.767 Y-24.597 I-0.728 J0
G3 X25.319 Y-25.269 I0.28 J-0.672
G1 Y-44.882
G3 X25.639 Y-45.202 I0.319 J0
G1 X66.018 Y-45.157
G2 X72.372 Y-51.532 I0 J-6.354
G1 Y-59.703
G2 X70.464 Y-64.216 I-6.29 J0
X65.925 Y-66.057 I-4.54 J4.674
G1 X25.639 Y-66.012
G3 X25.32 Y-66.331 I0 J-0.319
G1 Y-80.122
G3 X25.639 Y-80.441 I0.319 J0
G1 X27.736
G3 X28.056 Y-80.122 I0 J0.319
G1 X28.011 Y-75.003
G2 X34.386 Y-68.649 I6.354 J0
G1 X65.946
G2 X72.3 Y-75.025 I0 J-6.354
G1 X72.255 Y-80.122
G3 X72.574 Y-80.441 I0.319 J0
G1 X74.672
G3 X74.991 Y-80.122 I0 J0.319
G1 Y-42.794
G3 X74.672 Y-42.474 I-0.319 J0
G1 X34.386 Y-42.519
G2 X28.011 Y-36.144 I0 J6.375
G1 Y-28.049
G2 X34.386 Y-21.696 I6.354 J0
G1 X74.672 Y-21.741
G3 X74.991 Y-21.421 I0 J0.319
G1 Y-19.342
G3 X74.672 Y-19.023 I-0.319 J0
G1 X25.639
G3 X25.319 Y-19.342 I0 J-0.319
G1 Y-25.269
G2 X24.724 Y-26.159 I-0.964 J0
G3 X24.129 Y-27.049 I0.371 J-0.892
G1 X24.098 Y-46.104
G3 X24.417 Y-46.423 I0.319 J0
G1 X66.018 Y-46.378
G2 X71.151 Y-51.532 I0 J-5.133
G1 Y-59.703
G2 X69.601 Y-63.352 I-5.069 J0
X65.925 Y-64.836 I-3.676 J3.811
G1 X24.418 Y-64.791
G3 X24.099 Y-65.11 I0 J-0.319
G1 X24.144 Y-80.984
G3 X24.777 Y-81.617 I0.633 J0
G2 X26.867 Y-81.64 I0 J-97.12
G3 X28.957 Y-81.662 I2.09 J97.098
X29.277 Y-81.343 I0 J0.319
X29.254 Y-78.173 I-223.277 J0
G2 X29.232 Y-75.003 I223.255 J3.17
X34.386 Y-69.871 I5.133 J0
G1 X65.946
G2 X71.079 Y-75.025 I0 J-5.133
G1 X71.034 Y-81.343
G3 X71.353 Y-81.662 I0.319 J0
G1 X75.535 Y-81.617
G3 X76.167 Y-80.984 I0 J0.633
G1 X76.212 Y-41.572
G3 X75.893 Y-41.253 I-0.319 J0
G1 X34.386 Y-41.298
G2 X29.232 Y-36.144 I0 J5.154
G1 Y-28.049
G2 X34.386 Y-22.917 I5.133 J0
G1 X75.893 Y-22.962
G3 X76.212 Y-22.642 I0 J0.319
G1 X76.167 Y-18.48
G3 X75.535 Y-17.847 I-0.633 J0
G1 X24.776
G3 X24.143 Y-18.48 I0 J-0.633
G1 X24.129 Y-27.049
G2 X23.517 Y-27.964 I-0.992 J0.002
G3 X22.906 Y-28.878 I0.38 J-0.916
G1 X22.877 Y-47.325
G3 X23.196 Y-47.644 I0.319 J0
G1 X66.018 Y-47.599
G2 X68.789 Y-48.755 I0 J-3.897
X69.93 Y-51.532 I-2.807 J-2.777
G1 Y-59.703
G2 X68.737 Y-62.489 I-3.849 J0
X65.925 Y-63.615 I-2.813 J2.949
G1 X23.197 Y-63.57
G3 X22.878 Y-63.889 I0 J-0.319
G1 X22.923 Y-80.984
G3 X24.777 Y-82.838 I1.854 J0
G1 X30.179 Y-82.883
G3 X30.498 Y-82.564 I0 J0.319
G1 X30.453 Y-75.003
G2 X31.609 Y-72.233 I3.897 J0
X34.386 Y-71.092 I2.777 J-2.807
G1 X65.946
G2 X68.717 Y-72.248 I0 J-3.897
X69.858 Y-75.025 I-2.807 J-2.777
G1 X69.813 Y-82.564
G3 X70.132 Y-82.883 I0.319 J0
G1 X75.535 Y-82.838
G3 X77.389 Y-80.984 I0 J1.854
G1 X77.434 Y-40.351
G3 X77.114 Y-40.032 I-0.319 J0
G1 X34.386 Y-40.077
G2 X30.453 Y-36.144 I0 J3.933
G1 Y-28.049
G2 X31.609 Y-25.279 I3.897 J0
X34.386 Y-24.138 I2.777 J-2.807
G1 X77.114 Y-24.183
G3 X77.434 Y-23.864 I0 J0.319
G1 X77.389 Y-18.48
G3 X75.535 Y-16.626 I-1.854 J0
G1 X24.776
G3 X22.922 Y-18.48 I0 J-1.854
G1 X22.906 Y-28.878
G2 X22.244 Y-29.869 I-1.076 J0.002
G3 X21.583 Y-30.861 I0.412 J-0.991
G1 Y-47.932
G3 X22.589 Y-48.938 I1.006 J0
G1 X65.997
G2 X68.591 Y-51.532 I0 J-2.594
G1 Y-59.682
G2 X65.997 Y-62.276 I-2.594 J0
G1 X65.946
X22.59
G3 X21.583 Y-63.282 I0 J-1.006
G1 Y-80.984
G3 X24.777 Y-84.177 I3.193 J0
G1 X30.786
G3 X31.792 Y-83.171 I0 J1.006
G1 Y-75.025
G2 X34.386 Y-72.431 I2.594 J0
G1 X65.925
G2 X68.519 Y-75.025 I0 J-2.594
G1 Y-83.171
G3 X69.525 Y-84.177 I1.006 J0
G1 X75.535
G3 X78.728 Y-80.984 I0 J3.193
G1 Y-39.744
G3 X77.721 Y-38.738 I-1.006 J0
G1 X34.386
G2 X31.792 Y-36.144 I0 J2.594
G1 Y-28.071
G2 X34.386 Y-25.477 I2.594 J0
G1 X77.721
G3 X78.728 Y-24.471 I0 J1.006
G1 Y-18.48
G3 X75.535 Y-15.287 I-3.193 J0
G1 X24.776
G3 X21.583 Y-18.48 I0 J-3.193
G1 Y-30.861
X21.588 Y-30.9 Z-2.489 F300
X21.602 Y-30.937 Z-2.479
X21.618 Y-30.961 Z-2.45
X21.639 Y-30.982 Z-2.421
X21.656 Y-30.994 Z-2.341
G0 Z15
M9
G28 G91 Z0
G90
G28 G91 X0 Y0
G90
M5
M30
