(M6_02)
(T1  D=1.587 CR=0 - ZMIN=-4 - flat end mill)
G90 G94
G17
G21
G28 G91 Z0
G90

(2D Pocket6)
T1
S18000 M3
G54
M8
G0 X6.308 Y-12.353
Z15
Z5
G1 Z2.659 F1000
X6.325 Y-12.343 Z2.581 F333.3
X6.371 Y-12.311 Z2.523
X6.43 Y-12.262 Z2.5
G3 X5.414 Y-11.148 Z2.417 I-0.508 J0.557
X6.43 Y-12.262 Z2.335 I0.508 J-0.557
X5.414 Y-11.148 Z2.252 I-0.508 J0.557
X6.43 Y-12.262 Z2.169 I0.508 J-0.557
X5.414 Y-11.148 Z2.086 I-0.508 J0.557
X6.43 Y-12.262 Z2.004 I0.508 J-0.557
X5.414 Y-11.148 Z1.921 I-0.508 J0.557
X6.43 Y-12.262 Z1.838 I0.508 J-0.557
X5.414 Y-11.148 Z1.755 I-0.508 J0.557
X6.43 Y-12.262 Z1.673 I0.508 J-0.557
X5.414 Y-11.148 Z1.59 I-0.508 J0.557
X6.43 Y-12.262 Z1.507 I0.508 J-0.557
X5.414 Y-11.148 Z1.425 I-0.508 J0.557
X6.43 Y-12.262 Z1.342 I0.508 J-0.557
X5.414 Y-11.148 Z1.259 I-0.508 J0.557
X6.43 Y-12.262 Z1.176 I0.508 J-0.557
X5.414 Y-11.148 Z1.094 I-0.508 J0.557
X6.43 Y-12.262 Z1.011 I0.508 J-0.557
X5.414 Y-11.148 Z0.928 I-0.508 J0.557
X6.43 Y-12.262 Z0.845 I0.508 J-0.557
X5.414 Y-11.148 Z0.763 I-0.508 J0.557
X6.43 Y-12.262 Z0.68 I0.508 J-0.557
X5.414 Y-11.148 Z0.597 I-0.508 J0.557
X6.43 Y-12.262 Z0.515 I0.508 J-0.557
X5.414 Y-11.148 Z0.432 I-0.508 J0.557
X6.43 Y-12.262 Z0.349 I0.508 J-0.557
X5.414 Y-11.148 Z0.266 I-0.508 J0.557
X6.43 Y-12.262 Z0.184 I0.508 J-0.557
X5.414 Y-11.148 Z0.101 I-0.508 J0.557
X6.43 Y-12.262 Z0.018 I0.508 J-0.557
X5.414 Y-11.148 Z-0.064 I-0.508 J0.557
X6.43 Y-12.262 Z-0.147 I0.508 J-0.557
X5.414 Y-11.148 Z-0.23 I-0.508 J0.557
X6.43 Y-12.262 Z-0.313 I0.508 J-0.557
X5.414 Y-11.148 Z-0.395 I-0.508 J0.557
X6.43 Y-12.262 Z-0.478 I0.508 J-0.557
X6.676 Y-11.705 Z-0.5 I-0.508 J0.557
X6.003 Y-11.705 I-0.337 J0
X6.59 Y-11.705 I0.293 J0 F1000
X4.495 Y-11.705 I-1.048 J0
X6.749 Y-11.705 I1.127 J0
X4.336 Y-11.705 I-1.206 J0
X6.749 Y-11.705 I1.206 J0
G1 X6.743 Y-11.686
X6.727 Y-11.674
X6.707
X6.69 Y-11.685
X6.611 Y-11.784
X6.604 Y-11.803
X6.608 Y-11.822
X6.623 Y-11.835
X6.643 Y-11.837
X6.66 Y-11.827
X6.669 Y-11.809
G3 X5.175 Y-11.601 Z-0.583 I-0.747 J0.104 F333.3
X6.669 Y-11.809 Z-0.665 I0.747 J-0.104
X5.175 Y-11.601 Z-0.748 I-0.747 J0.104
X6.669 Y-11.809 Z-0.831 I0.747 J-0.104
X5.175 Y-11.601 Z-0.914 I-0.747 J0.104
X5.87 Y-12.458 Z-0.957 I0.747 J-0.104
X6.676 Y-11.705 Z-1 I0.052 J0.752
X6.003 Y-11.705 I-0.337 J0
X6.59 Y-11.705 I0.293 J0 F1000
X4.495 Y-11.705 I-1.048 J0
X6.749 Y-11.705 I1.127 J0
X4.336 Y-11.705 I-1.206 J0
X6.749 Y-11.705 I1.206 J0
G1 X6.743 Y-11.686
X6.727 Y-11.674
X6.707
X6.69 Y-11.685
X6.611 Y-11.784
X6.604 Y-11.803
X6.608 Y-11.822
X6.623 Y-11.835
X6.643 Y-11.837
X6.66 Y-11.827
X6.669 Y-11.809
G3 X5.175 Y-11.601 Z-1.083 I-0.747 J0.104 F333.3
X6.669 Y-11.809 Z-1.165 I0.747 J-0.104
X5.175 Y-11.601 Z-1.248 I-0.747 J0.104
X6.669 Y-11.809 Z-1.331 I0.747 J-0.104
X5.175 Y-11.601 Z-1.414 I-0.747 J0.104
X5.87 Y-12.458 Z-1.457 I0.747 J-0.104
X6.676 Y-11.705 Z-1.5 I0.052 J0.752
X6.003 Y-11.705 I-0.337 J0
X6.59 Y-11.705 I0.293 J0 F1000
X4.495 Y-11.705 I-1.048 J0
X6.749 Y-11.705 I1.127 J0
X4.336 Y-11.705 I-1.206 J0
X6.749 Y-11.705 I1.206 J0
G1 X6.743 Y-11.686
X6.727 Y-11.674
X6.707
X6.69 Y-11.685
X6.611 Y-11.784
X6.604 Y-11.803
X6.608 Y-11.822
X6.623 Y-11.835
X6.643 Y-11.837
X6.66 Y-11.827
X6.669 Y-11.809
G3 X5.175 Y-11.601 Z-1.583 I-0.747 J0.104 F333.3
X6.669 Y-11.809 Z-1.665 I0.747 J-0.104
X5.175 Y-11.601 Z-1.748 I-0.747 J0.104
X6.669 Y-11.809 Z-1.831 I0.747 J-0.104
X5.175 Y-11.601 Z-1.914 I-0.747 J0.104
X5.87 Y-12.458 Z-1.957 I0.747 J-0.104
X6.676 Y-11.705 Z-2 I0.052 J0.752
X6.003 Y-11.705 I-0.337 J0
X6.59 Y-11.705 I0.293 J0 F1000
X4.495 Y-11.705 I-1.048 J0
X6.749 Y-11.705 I1.127 J0
X4.336 Y-11.705 I-1.206 J0
X6.749 Y-11.705 I1.206 J0
G1 X6.743 Y-11.686
X6.727 Y-11.674
X6.707
X6.69 Y-11.685
X6.611 Y-11.784
X6.604 Y-11.803
X6.608 Y-11.822
X6.623 Y-11.835
X6.643 Y-11.837
X6.66 Y-11.827
X6.669 Y-11.809
G3 X5.175 Y-11.601 Z-2.083 I-0.747 J0.104 F333.3
X6.669 Y-11.809 Z-2.165 I0.747 J-0.104
X5.175 Y-11.601 Z-2.248 I-0.747 J0.104
X6.669 Y-11.809 Z-2.331 I0.747 J-0.104
X5.175 Y-11.601 Z-2.414 I-0.747 J0.104
X5.87 Y-12.458 Z-2.457 I0.747 J-0.104
X6.676 Y-11.705 Z-2.5 I0.052 J0.752
X6.003 Y-11.705 I-0.337 J0
X6.59 Y-11.705 I0.293 J0 F1000
X4.495 Y-11.705 I-1.048 J0
X6.749 Y-11.705 I1.127 J0
X4.336 Y-11.705 I-1.206 J0
X6.749 Y-11.705 I1.206 J0
G1 X6.743 Y-11.686
X6.727 Y-11.674
X6.707
X6.69 Y-11.685
X6.611 Y-11.784
X6.604 Y-11.803
X6.608 Y-11.822
X6.623 Y-11.835
X6.643 Y-11.837
X6.66 Y-11.827
X6.669 Y-11.809
G3 X5.175 Y-11.601 Z-2.583 I-0.747 J0.104 F333.3
X6.669 Y-11.809 Z-2.665 I0.747 J-0.104
X5.175 Y-11.601 Z-2.748 I-0.747 J0.104
X6.669 Y-11.809 Z-2.831 I0.747 J-0.104
X5.175 Y-11.601 Z-2.914 I-0.747 J0.104
X5.87 Y-12.458 Z-2.957 I0.747 J-0.104
X6.676 Y-11.705 Z-3 I0.052 J0.752
X6.003 Y-11.705 I-0.337 J0
X6.59 Y-11.705 I0.293 J0 F1000
X4.495 Y-11.705 I-1.048 J0
X6.749 Y-11.705 I1.127 J0
X4.336 Y-11.705 I-1.206 J0
X6.749 Y-11.705 I1.206 J0
G1 X6.743 Y-11.686
X6.727 Y-11.674
X6.707
X6.69 Y-11.685
X6.611 Y-11.784
X6.604 Y-11.803
X6.608 Y-11.822
X6.623 Y-11.835
X6.643 Y-11.837
X6.66 Y-11.827
X6.669 Y-11.809
G3 X5.175 Y-11.601 Z-3.083 I-0.747 J0.104 F333.3
X6.669 Y-11.809 Z-3.165 I0.747 J-0.104
X5.175 Y-11.601 Z-3.248 I-0.747 J0.104
X6.669 Y-11.809 Z-3.331 I0.747 J-0.104
X5.175 Y-11.601 Z-3.414 I-0.747 J0.104
X5.87 Y-12.458 Z-3.457 I0.747 J-0.104
X6.676 Y-11.705 Z-3.5 I0.052 J0.752
X6.003 Y-11.705 I-0.337 J0
X6.59 Y-11.705 I0.293 J0 F1000
X4.495 Y-11.705 I-1.048 J0
X6.749 Y-11.705 I1.127 J0
X4.336 Y-11.705 I-1.206 J0
X6.749 Y-11.705 I1.206 J0
G1 X6.743 Y-11.686
X6.727 Y-11.674
X6.707
X6.69 Y-11.685
X6.611 Y-11.784
X6.604 Y-11.803
X6.608 Y-11.822
X6.623 Y-11.835
X6.643 Y-11.837
X6.66 Y-11.827
X6.669 Y-11.809
G3 X5.175 Y-11.601 Z-3.583 I-0.747 J0.104 F333.3
X6.669 Y-11.809 Z-3.665 I0.747 J-0.104
X5.175 Y-11.601 Z-3.748 I-0.747 J0.104
X6.669 Y-11.809 Z-3.831 I0.747 J-0.104
X5.175 Y-11.601 Z-3.914 I-0.747 J0.104
X5.87 Y-12.458 Z-3.957 I0.747 J-0.104
X6.676 Y-11.705 Z-4 I0.052 J0.752
X6.003 Y-11.705 I-0.337 J0
X6.59 Y-11.705 I0.293 J0 F1000
X4.495 Y-11.705 I-1.048 J0
X6.749 Y-11.705 I1.127 J0
X4.336 Y-11.705 I-1.206 J0
X6.749 Y-11.705 I1.206 J0
G1 X6.744 Y-11.666 Z-3.989
X6.729 Y-11.629 Z-3.979
X6.713 Y-11.605 Z-3.95
X6.693 Y-11.584 Z-3.921
X6.676 Y-11.572 Z-3.841
G0 Z15
M9
G28 G91 Z0
G90
G28 G91 X0 Y0
G90
M5
M30
