(magnet_03)
(T1  D=6.35 CR=0 - ZMIN=-4 - flat end mill)
G90 G94
G17
G21
G28 G91 Z0
G90

(2D Adaptive2)
T1
S18000 M3
G54
M8
G0 X12.026 Y-15.678
Z15
Z5
Z2.5
G3 X13.474 Y-9.822 Z2.169 I0.724 J2.928 F250
X12.026 Y-15.678 Z1.838 I-0.724 J-2.928
X13.474 Y-9.822 Z1.507 I0.724 J2.928
X12.026 Y-15.678 Z1.176 I-0.724 J-2.928
X13.474 Y-9.822 Z0.845 I0.724 J2.928
X12.026 Y-15.678 Z0.515 I-0.724 J-2.928
X13.474 Y-9.822 Z0.184 I0.724 J2.928
X12.026 Y-15.678 Z-0.147 I-0.724 J-2.928
X13.474 Y-9.822 Z-0.478 I0.724 J2.928
X12.026 Y-15.678 Z-0.809 I-0.724 J-2.928
X15.766 Y-12.75 Z-1 I0.724 J2.928
X9.734 Y-12.75 I-3.016 J0
X15.766 Y-12.75 I3.016 J0
G1 X15.77 Y-12.522 F1500
X15.925 Y-11.624
X15.966 Y-11.517
X16.007 Y-11.373
X16.034 Y-11.225
X16.046 Y-11.076
Y-10.92
X16.032 Y-10.754
X16.004 Y-10.577
X15.958 Y-10.392
X15.894 Y-10.201
X15.81 Y-10.004
X15.706 Y-9.805
X15.58 Y-9.605
X15.431 Y-9.408
X15.26 Y-9.215
X15.067 Y-9.029
X14.852 Y-8.853
X14.616 Y-8.689
X14.36 Y-8.54
X14.085 Y-8.409
X13.793 Y-8.298
X13.486 Y-8.208
X13.166 Y-8.142
X12.835 Y-8.101
X12.496 Y-8.086
X12.152 Y-8.099
X11.805 Y-8.14
X11.459 Y-8.209
X11.115 Y-8.307
X10.777 Y-8.434
X10.448 Y-8.589
X10.129 Y-8.771
X9.824 Y-8.979
X9.535 Y-9.213
X9.264 Y-9.47
X9.014 Y-9.75
X8.786 Y-10.05
X8.582 Y-10.368
X8.403 Y-10.703
X8.252 Y-11.052
X8.129 Y-11.413
X8.035 Y-11.784
X7.971 Y-12.162
X7.937 Y-12.544
X7.935 Y-12.928
X7.963 Y-13.312
X8.022 Y-13.692
X8.111 Y-14.067
X8.23 Y-14.434
X8.378 Y-14.79
X8.555 Y-15.134
X8.759 Y-15.462
X8.988 Y-15.773
X9.242 Y-16.065
X9.519 Y-16.336
X9.816 Y-16.584
X10.133 Y-16.807
X10.466 Y-17.004
X10.814 Y-17.173
X11.175 Y-17.315
X11.546 Y-17.426
X11.925 Y-17.508
X12.309 Y-17.559
X12.697 Y-17.579
X13.084 Y-17.568
X13.47 Y-17.525
X13.85 Y-17.452
X14.224 Y-17.349
X14.588 Y-17.216
X14.941 Y-17.054
X15.279 Y-16.864
X15.601 Y-16.648
X15.905 Y-16.407
X16.188 Y-16.142
X16.449 Y-15.855
X16.687 Y-15.548
X16.904 Y-15.215
X17.297 Y-14.492
X17.594 Y-13.822
X17.787 Y-13.271
X17.917 Y-12.773
X18 Y-12.305
X18.044 Y-11.851
X18.051 Y-11.412
X18.023 Y-10.984
X17.962 Y-10.567
X17.868 Y-10.159
X17.743 Y-9.761
X17.585 Y-9.373
X17.396 Y-8.997
X17.175 Y-8.635
X16.924 Y-8.289
X16.644 Y-7.961
X16.334 Y-7.653
X15.997 Y-7.368
X15.633 Y-7.107
X15.244 Y-6.872
X14.831 Y-6.667
X14.397 Y-6.493
X13.945 Y-6.353
X13.477 Y-6.248
X12.997 Y-6.181
X12.507 Y-6.151
X12.012 Y-6.161
X11.513 Y-6.212
X11.017 Y-6.303
X10.525 Y-6.435
X10.042 Y-6.607
X9.571 Y-6.818
X9.116 Y-7.068
X8.68 Y-7.356
X8.266 Y-7.68
X7.877 Y-8.037
X7.517 Y-8.427
X7.187 Y-8.845
X6.892 Y-9.291
X6.632 Y-9.76
X6.41 Y-10.25
X6.227 Y-10.758
X6.086 Y-11.28
X5.986 Y-11.813
X5.93 Y-12.353
X5.917 Y-12.897
X5.948 Y-13.441
X6.022 Y-13.981
X6.14 Y-14.514
X6.3 Y-15.037
X6.502 Y-15.546
X6.745 Y-16.037
X7.026 Y-16.507
X7.344 Y-16.954
X7.697 Y-17.373
X8.083 Y-17.764
X8.499 Y-18.122
X8.943 Y-18.446
X9.411 Y-18.733
X9.901 Y-18.982
X10.41 Y-19.19
X10.934 Y-19.357
X11.469 Y-19.482
X12.013 Y-19.563
X12.562 Y-19.601
X13.112 Y-19.594
X13.66 Y-19.543
X14.202 Y-19.448
X14.735 Y-19.31
X15.255 Y-19.13
X15.759 Y-18.909
X16.243 Y-18.647
X16.705 Y-18.348
X17.143 Y-18.012
X17.616 Y-17.583
X18.078 Y-17.092
X18.512 Y-16.55
X18.909 Y-15.963
X19.254 Y-15.352
X19.542 Y-14.73
X19.773 Y-14.103
X19.949 Y-13.476
X20.021 Y-13.105
X20.03 Y-13.056
X20.037 Y-13.007
X20.042 Y-12.958
X20.059 Y-12.75
X20.042 Y-12.543
X19.946 Y-11.508
X19.934 Y-11.405
X19.907 Y-11.301
X19.583 Y-10.163
X19.566 Y-10.111
X19.543 Y-10.06
X19.028 Y-9.025
X18.975 Y-8.922
X18.904 Y-8.818
X18.222 Y-7.915
X18.108 Y-7.783
X17.189 Y-6.946
X16.983 Y-6.808
X16.054 Y-6.233
X15.95 Y-6.182
X14.918 Y-5.782
X14.725 Y-5.714
X14.712 Y-5.711
X13.473 Y-5.479
X13.266 Y-5.47
X12.234
X12.027 Y-5.479
X10.788 Y-5.711
X10.775 Y-5.714
X10.582 Y-5.782
X9.55 Y-6.182
X9.446 Y-6.233
X8.517 Y-6.808
X8.311 Y-6.946
X7.392 Y-7.783
X7.278 Y-7.915
X6.596 Y-8.818
X6.525 Y-8.922
X6.452 Y-9.065
X5.957 Y-10.06
X5.934 Y-10.111
X5.917 Y-10.163
X5.593 Y-11.301
X5.566 Y-11.405
X5.554 Y-11.508
X5.458 Y-12.543
X5.441 Y-12.75
X5.458 Y-12.957
X5.554 Y-13.992
X5.566 Y-14.095
X5.593 Y-14.199
X5.917 Y-15.337
X5.934 Y-15.389
X5.957 Y-15.44
X6.472 Y-16.475
X6.525 Y-16.578
X6.596 Y-16.682
X7.278 Y-17.585
X7.392 Y-17.717
X8.311 Y-18.554
X8.517 Y-18.692
X9.446 Y-19.267
X9.55 Y-19.318
X10.582 Y-19.718
X10.774 Y-19.786
X10.788 Y-19.789
X12.027 Y-20.021
X12.234 Y-20.03
X13.266
X13.473 Y-20.021
X14.712 Y-19.789
X14.726 Y-19.786
X14.918 Y-19.718
X15.95 Y-19.318
X16.054 Y-19.267
X16.983 Y-18.692
X17.189 Y-18.554
X18.108 Y-17.717
X18.222 Y-17.585
X18.904 Y-16.682
X18.975 Y-16.578
X19.048 Y-16.435
X19.543 Y-15.44
X19.566 Y-15.389
X19.583 Y-15.337
X19.907 Y-14.199
X19.934 Y-14.095
X19.946 Y-13.992
X20.042 Y-12.958
Y-12.883
X20.033 Y-12.808
X20.007 Y-12.737 Z-0.995
X19.98 Y-12.667 Z-0.982
X19.955 Y-12.599 Z-0.959
X19.902 Y-12.537 Z-0.921
X19.854 Y-12.48 Z-0.873
X19.81 Y-12.429 Z-0.814
X19.754 Y-12.396 Z-0.738
X19.71 Y-12.37 Z-0.653
X19.677 Y-12.35 Z-0.561
X19.657 Y-12.338 Z-0.465
X19.65 Y-12.334 Z-0.365
G0 Z5
X12.026 Y-15.678
Z1.5
G3 X13.474 Y-9.822 Z1.169 I0.724 J2.928 F250
X12.026 Y-15.678 Z0.838 I-0.724 J-2.928
X13.474 Y-9.822 Z0.507 I0.724 J2.928
X12.026 Y-15.678 Z0.176 I-0.724 J-2.928
X13.474 Y-9.822 Z-0.155 I0.724 J2.928
X12.026 Y-15.678 Z-0.485 I-0.724 J-2.928
X13.474 Y-9.822 Z-0.816 I0.724 J2.928
X12.026 Y-15.678 Z-1.147 I-0.724 J-2.928
X13.474 Y-9.822 Z-1.478 I0.724 J2.928
X12.026 Y-15.678 Z-1.809 I-0.724 J-2.928
X15.766 Y-12.75 Z-2 I0.724 J2.928
X9.734 Y-12.75 I-3.016 J0
X15.766 Y-12.75 I3.016 J0
G1 X15.77 Y-12.522 F1500
X15.925 Y-11.624
X15.966 Y-11.517
X16.007 Y-11.373
X16.034 Y-11.225
X16.046 Y-11.076
Y-10.92
X16.032 Y-10.754
X16.004 Y-10.577
X15.958 Y-10.392
X15.894 Y-10.201
X15.81 Y-10.004
X15.706 Y-9.805
X15.58 Y-9.605
X15.431 Y-9.408
X15.26 Y-9.215
X15.067 Y-9.029
X14.852 Y-8.853
X14.616 Y-8.689
X14.36 Y-8.54
X14.085 Y-8.409
X13.793 Y-8.298
X13.486 Y-8.208
X13.166 Y-8.142
X12.835 Y-8.101
X12.496 Y-8.086
X12.152 Y-8.099
X11.805 Y-8.14
X11.459 Y-8.209
X11.115 Y-8.307
X10.777 Y-8.434
X10.448 Y-8.589
X10.129 Y-8.771
X9.824 Y-8.979
X9.535 Y-9.213
X9.264 Y-9.47
X9.014 Y-9.75
X8.786 Y-10.05
X8.582 Y-10.368
X8.403 Y-10.703
X8.252 Y-11.052
X8.129 Y-11.413
X8.035 Y-11.784
X7.971 Y-12.162
X7.937 Y-12.544
X7.935 Y-12.928
X7.963 Y-13.312
X8.022 Y-13.692
X8.111 Y-14.067
X8.23 Y-14.434
X8.378 Y-14.79
X8.555 Y-15.134
X8.759 Y-15.462
X8.988 Y-15.773
X9.242 Y-16.065
X9.519 Y-16.336
X9.816 Y-16.584
X10.133 Y-16.807
X10.466 Y-17.004
X10.814 Y-17.173
X11.175 Y-17.315
X11.546 Y-17.426
X11.925 Y-17.508
X12.309 Y-17.559
X12.697 Y-17.579
X13.084 Y-17.568
X13.47 Y-17.525
X13.85 Y-17.452
X14.224 Y-17.349
X14.588 Y-17.216
X14.941 Y-17.054
X15.279 Y-16.864
X15.601 Y-16.648
X15.905 Y-16.407
X16.188 Y-16.142
X16.449 Y-15.855
X16.687 Y-15.548
X16.904 Y-15.215
X17.297 Y-14.492
X17.594 Y-13.822
X17.787 Y-13.271
X17.917 Y-12.773
X18 Y-12.305
X18.044 Y-11.851
X18.051 Y-11.412
X18.023 Y-10.984
X17.962 Y-10.567
X17.868 Y-10.159
X17.743 Y-9.761
X17.585 Y-9.373
X17.396 Y-8.997
X17.175 Y-8.635
X16.924 Y-8.289
X16.644 Y-7.961
X16.334 Y-7.653
X15.997 Y-7.368
X15.633 Y-7.107
X15.244 Y-6.872
X14.831 Y-6.667
X14.397 Y-6.493
X13.945 Y-6.353
X13.477 Y-6.248
X12.997 Y-6.181
X12.507 Y-6.151
X12.012 Y-6.161
X11.513 Y-6.212
X11.017 Y-6.303
X10.525 Y-6.435
X10.042 Y-6.607
X9.571 Y-6.818
X9.116 Y-7.068
X8.68 Y-7.356
X8.266 Y-7.68
X7.877 Y-8.037
X7.517 Y-8.427
X7.187 Y-8.845
X6.892 Y-9.291
X6.632 Y-9.76
X6.41 Y-10.25
X6.227 Y-10.758
X6.086 Y-11.28
X5.986 Y-11.813
X5.93 Y-12.353
X5.917 Y-12.897
X5.948 Y-13.441
X6.022 Y-13.981
X6.14 Y-14.514
X6.3 Y-15.037
X6.502 Y-15.546
X6.745 Y-16.037
X7.026 Y-16.507
X7.344 Y-16.954
X7.697 Y-17.373
X8.083 Y-17.764
X8.499 Y-18.122
X8.943 Y-18.446
X9.411 Y-18.733
X9.901 Y-18.982
X10.41 Y-19.19
X10.934 Y-19.357
X11.469 Y-19.482
X12.013 Y-19.563
X12.562 Y-19.601
X13.112 Y-19.594
X13.66 Y-19.543
X14.202 Y-19.448
X14.735 Y-19.31
X15.255 Y-19.13
X15.759 Y-18.909
X16.243 Y-18.647
X16.705 Y-18.348
X17.143 Y-18.012
X17.616 Y-17.583
X18.078 Y-17.092
X18.512 Y-16.55
X18.909 Y-15.963
X19.254 Y-15.352
X19.542 Y-14.73
X19.773 Y-14.103
X19.949 Y-13.476
X20.021 Y-13.105
X20.03 Y-13.056
X20.037 Y-13.007
X20.042 Y-12.958
X20.059 Y-12.75
X20.042 Y-12.543
X19.946 Y-11.508
X19.934 Y-11.405
X19.907 Y-11.301
X19.583 Y-10.163
X19.566 Y-10.111
X19.543 Y-10.06
X19.028 Y-9.025
X18.975 Y-8.922
X18.904 Y-8.818
X18.222 Y-7.915
X18.108 Y-7.783
X17.189 Y-6.946
X16.983 Y-6.808
X16.054 Y-6.233
X15.95 Y-6.182
X14.918 Y-5.782
X14.725 Y-5.714
X14.712 Y-5.711
X13.473 Y-5.479
X13.266 Y-5.47
X12.234
X12.027 Y-5.479
X10.788 Y-5.711
X10.775 Y-5.714
X10.582 Y-5.782
X9.55 Y-6.182
X9.446 Y-6.233
X8.517 Y-6.808
X8.311 Y-6.946
X7.392 Y-7.783
X7.278 Y-7.915
X6.596 Y-8.818
X6.525 Y-8.922
X6.452 Y-9.065
X5.957 Y-10.06
X5.934 Y-10.111
X5.917 Y-10.163
X5.593 Y-11.301
X5.566 Y-11.405
X5.554 Y-11.508
X5.458 Y-12.543
X5.441 Y-12.75
X5.458 Y-12.957
X5.554 Y-13.992
X5.566 Y-14.095
X5.593 Y-14.199
X5.917 Y-15.337
X5.934 Y-15.389
X5.957 Y-15.44
X6.472 Y-16.475
X6.525 Y-16.578
X6.596 Y-16.682
X7.278 Y-17.585
X7.392 Y-17.717
X8.311 Y-18.554
X8.517 Y-18.692
X9.446 Y-19.267
X9.55 Y-19.318
X10.582 Y-19.718
X10.774 Y-19.786
X10.788 Y-19.789
X12.027 Y-20.021
X12.234 Y-20.03
X13.266
X13.473 Y-20.021
X14.712 Y-19.789
X14.726 Y-19.786
X14.918 Y-19.718
X15.95 Y-19.318
X16.054 Y-19.267
X16.983 Y-18.692
X17.189 Y-18.554
X18.108 Y-17.717
X18.222 Y-17.585
X18.904 Y-16.682
X18.975 Y-16.578
X19.048 Y-16.435
X19.543 Y-15.44
X19.566 Y-15.389
X19.583 Y-15.337
X19.907 Y-14.199
X19.934 Y-14.095
X19.946 Y-13.992
X20.042 Y-12.958
Y-12.883
X20.033 Y-12.808
X20.007 Y-12.737 Z-1.995
X19.98 Y-12.667 Z-1.982
X19.955 Y-12.599 Z-1.959
X19.902 Y-12.537 Z-1.921
X19.854 Y-12.48 Z-1.873
X19.81 Y-12.429 Z-1.814
X19.754 Y-12.396 Z-1.738
X19.71 Y-12.37 Z-1.653
X19.677 Y-12.35 Z-1.561
X19.657 Y-12.338 Z-1.465
X19.65 Y-12.334 Z-1.365
G0 Z5
X12.026 Y-15.678
Z0.5
G3 X13.474 Y-9.822 Z0.169 I0.724 J2.928 F250
X12.026 Y-15.678 Z-0.162 I-0.724 J-2.928
X13.474 Y-9.822 Z-0.493 I0.724 J2.928
X12.026 Y-15.678 Z-0.824 I-0.724 J-2.928
X13.474 Y-9.822 Z-1.155 I0.724 J2.928
X12.026 Y-15.678 Z-1.485 I-0.724 J-2.928
X13.474 Y-9.822 Z-1.816 I0.724 J2.928
X12.026 Y-15.678 Z-2.147 I-0.724 J-2.928
X13.474 Y-9.822 Z-2.478 I0.724 J2.928
X12.026 Y-15.678 Z-2.809 I-0.724 J-2.928
X15.766 Y-12.75 Z-3 I0.724 J2.928
X9.734 Y-12.75 I-3.016 J0
X15.766 Y-12.75 I3.016 J0
G1 X15.77 Y-12.522 F1500
X15.925 Y-11.624
X15.966 Y-11.517
X16.007 Y-11.373
X16.034 Y-11.225
X16.046 Y-11.076
Y-10.92
X16.032 Y-10.754
X16.004 Y-10.577
X15.958 Y-10.392
X15.894 Y-10.201
X15.81 Y-10.004
X15.706 Y-9.805
X15.58 Y-9.605
X15.431 Y-9.408
X15.26 Y-9.215
X15.067 Y-9.029
X14.852 Y-8.853
X14.616 Y-8.689
X14.36 Y-8.54
X14.085 Y-8.409
X13.793 Y-8.298
X13.486 Y-8.208
X13.166 Y-8.142
X12.835 Y-8.101
X12.496 Y-8.086
X12.152 Y-8.099
X11.805 Y-8.14
X11.459 Y-8.209
X11.115 Y-8.307
X10.777 Y-8.434
X10.448 Y-8.589
X10.129 Y-8.771
X9.824 Y-8.979
X9.535 Y-9.213
X9.264 Y-9.47
X9.014 Y-9.75
X8.786 Y-10.05
X8.582 Y-10.368
X8.403 Y-10.703
X8.252 Y-11.052
X8.129 Y-11.413
X8.035 Y-11.784
X7.971 Y-12.162
X7.937 Y-12.544
X7.935 Y-12.928
X7.963 Y-13.312
X8.022 Y-13.692
X8.111 Y-14.067
X8.23 Y-14.434
X8.378 Y-14.79
X8.555 Y-15.134
X8.759 Y-15.462
X8.988 Y-15.773
X9.242 Y-16.065
X9.519 Y-16.336
X9.816 Y-16.584
X10.133 Y-16.807
X10.466 Y-17.004
X10.814 Y-17.173
X11.175 Y-17.315
X11.546 Y-17.426
X11.925 Y-17.508
X12.309 Y-17.559
X12.697 Y-17.579
X13.084 Y-17.568
X13.47 Y-17.525
X13.85 Y-17.452
X14.224 Y-17.349
X14.588 Y-17.216
X14.941 Y-17.054
X15.279 Y-16.864
X15.601 Y-16.648
X15.905 Y-16.407
X16.188 Y-16.142
X16.449 Y-15.855
X16.687 Y-15.548
X16.904 Y-15.215
X17.297 Y-14.492
X17.594 Y-13.822
X17.787 Y-13.271
X17.917 Y-12.773
X18 Y-12.305
X18.044 Y-11.851
X18.051 Y-11.412
X18.023 Y-10.984
X17.962 Y-10.567
X17.868 Y-10.159
X17.743 Y-9.761
X17.585 Y-9.373
X17.396 Y-8.997
X17.175 Y-8.635
X16.924 Y-8.289
X16.644 Y-7.961
X16.334 Y-7.653
X15.997 Y-7.368
X15.633 Y-7.107
X15.244 Y-6.872
X14.831 Y-6.667
X14.397 Y-6.493
X13.945 Y-6.353
X13.477 Y-6.248
X12.997 Y-6.181
X12.507 Y-6.151
X12.012 Y-6.161
X11.513 Y-6.212
X11.017 Y-6.303
X10.525 Y-6.435
X10.042 Y-6.607
X9.571 Y-6.818
X9.116 Y-7.068
X8.68 Y-7.356
X8.266 Y-7.68
X7.877 Y-8.037
X7.517 Y-8.427
X7.187 Y-8.845
X6.892 Y-9.291
X6.632 Y-9.76
X6.41 Y-10.25
X6.227 Y-10.758
X6.086 Y-11.28
X5.986 Y-11.813
X5.93 Y-12.353
X5.917 Y-12.897
X5.948 Y-13.441
X6.022 Y-13.981
X6.14 Y-14.514
X6.3 Y-15.037
X6.502 Y-15.546
X6.745 Y-16.037
X7.026 Y-16.507
X7.344 Y-16.954
X7.697 Y-17.373
X8.083 Y-17.764
X8.499 Y-18.122
X8.943 Y-18.446
X9.411 Y-18.733
X9.901 Y-18.982
X10.41 Y-19.19
X10.934 Y-19.357
X11.469 Y-19.482
X12.013 Y-19.563
X12.562 Y-19.601
X13.112 Y-19.594
X13.66 Y-19.543
X14.202 Y-19.448
X14.735 Y-19.31
X15.255 Y-19.13
X15.759 Y-18.909
X16.243 Y-18.647
X16.705 Y-18.348
X17.143 Y-18.012
X17.616 Y-17.583
X18.078 Y-17.092
X18.512 Y-16.55
X18.909 Y-15.963
X19.254 Y-15.352
X19.542 Y-14.73
X19.773 Y-14.103
X19.949 Y-13.476
X20.021 Y-13.105
X20.03 Y-13.056
X20.037 Y-13.007
X20.042 Y-12.958
X20.059 Y-12.75
X20.042 Y-12.543
X19.946 Y-11.508
X19.934 Y-11.405
X19.907 Y-11.301
X19.583 Y-10.163
X19.566 Y-10.111
X19.543 Y-10.06
X19.028 Y-9.025
X18.975 Y-8.922
X18.904 Y-8.818
X18.222 Y-7.915
X18.108 Y-7.783
X17.189 Y-6.946
X16.983 Y-6.808
X16.054 Y-6.233
X15.95 Y-6.182
X14.918 Y-5.782
X14.725 Y-5.714
X14.712 Y-5.711
X13.473 Y-5.479
X13.266 Y-5.47
X12.234
X12.027 Y-5.479
X10.788 Y-5.711
X10.775 Y-5.714
X10.582 Y-5.782
X9.55 Y-6.182
X9.446 Y-6.233
X8.517 Y-6.808
X8.311 Y-6.946
X7.392 Y-7.783
X7.278 Y-7.915
X6.596 Y-8.818
X6.525 Y-8.922
X6.452 Y-9.065
X5.957 Y-10.06
X5.934 Y-10.111
X5.917 Y-10.163
X5.593 Y-11.301
X5.566 Y-11.405
X5.554 Y-11.508
X5.458 Y-12.543
X5.441 Y-12.75
X5.458 Y-12.957
X5.554 Y-13.992
X5.566 Y-14.095
X5.593 Y-14.199
X5.917 Y-15.337
X5.934 Y-15.389
X5.957 Y-15.44
X6.472 Y-16.475
X6.525 Y-16.578
X6.596 Y-16.682
X7.278 Y-17.585
X7.392 Y-17.717
X8.311 Y-18.554
X8.517 Y-18.692
X9.446 Y-19.267
X9.55 Y-19.318
X10.582 Y-19.718
X10.774 Y-19.786
X10.788 Y-19.789
X12.027 Y-20.021
X12.234 Y-20.03
X13.266
X13.473 Y-20.021
X14.712 Y-19.789
X14.726 Y-19.786
X14.918 Y-19.718
X15.95 Y-19.318
X16.054 Y-19.267
X16.983 Y-18.692
X17.189 Y-18.554
X18.108 Y-17.717
X18.222 Y-17.585
X18.904 Y-16.682
X18.975 Y-16.578
X19.048 Y-16.435
X19.543 Y-15.44
X19.566 Y-15.389
X19.583 Y-15.337
X19.907 Y-14.199
X19.934 Y-14.095
X19.946 Y-13.992
X20.042 Y-12.958
Y-12.883
X20.033 Y-12.808
X20.007 Y-12.737 Z-2.995
X19.98 Y-12.667 Z-2.982
X19.955 Y-12.599 Z-2.959
X19.902 Y-12.537 Z-2.921
X19.854 Y-12.48 Z-2.873
X19.81 Y-12.429 Z-2.814
X19.754 Y-12.396 Z-2.738
X19.71 Y-12.37 Z-2.653
X19.677 Y-12.35 Z-2.561
X19.657 Y-12.338 Z-2.465
X19.65 Y-12.334 Z-2.365
G0 Z5
X12.026 Y-15.678
Z-0.5
G3 X13.474 Y-9.822 Z-0.831 I0.724 J2.928 F250
X12.026 Y-15.678 Z-1.162 I-0.724 J-2.928
X13.474 Y-9.822 Z-1.493 I0.724 J2.928
X12.026 Y-15.678 Z-1.824 I-0.724 J-2.928
X13.474 Y-9.822 Z-2.155 I0.724 J2.928
X12.026 Y-15.678 Z-2.485 I-0.724 J-2.928
X13.474 Y-9.822 Z-2.816 I0.724 J2.928
X12.026 Y-15.678 Z-3.147 I-0.724 J-2.928
X13.474 Y-9.822 Z-3.478 I0.724 J2.928
X12.026 Y-15.678 Z-3.809 I-0.724 J-2.928
X15.766 Y-12.75 Z-4 I0.724 J2.928
X9.734 Y-12.75 I-3.016 J0
X15.766 Y-12.75 I3.016 J0
G1 X15.77 Y-12.522 F1500
X15.925 Y-11.624
X15.966 Y-11.517
X16.007 Y-11.373
X16.034 Y-11.225
X16.046 Y-11.076
Y-10.92
X16.032 Y-10.754
X16.004 Y-10.577
X15.958 Y-10.392
X15.894 Y-10.201
X15.81 Y-10.004
X15.706 Y-9.805
X15.58 Y-9.605
X15.431 Y-9.408
X15.26 Y-9.215
X15.067 Y-9.029
X14.852 Y-8.853
X14.616 Y-8.689
X14.36 Y-8.54
X14.085 Y-8.409
X13.793 Y-8.298
X13.486 Y-8.208
X13.166 Y-8.142
X12.835 Y-8.101
X12.496 Y-8.086
X12.152 Y-8.099
X11.805 Y-8.14
X11.459 Y-8.209
X11.115 Y-8.307
X10.777 Y-8.434
X10.448 Y-8.589
X10.129 Y-8.771
X9.824 Y-8.979
X9.535 Y-9.213
X9.264 Y-9.47
X9.014 Y-9.75
X8.786 Y-10.05
X8.582 Y-10.368
X8.403 Y-10.703
X8.252 Y-11.052
X8.129 Y-11.413
X8.035 Y-11.784
X7.971 Y-12.162
X7.937 Y-12.544
X7.935 Y-12.928
X7.963 Y-13.312
X8.022 Y-13.692
X8.111 Y-14.067
X8.23 Y-14.434
X8.378 Y-14.79
X8.555 Y-15.134
X8.759 Y-15.462
X8.988 Y-15.773
X9.242 Y-16.065
X9.519 Y-16.336
X9.816 Y-16.584
X10.133 Y-16.807
X10.466 Y-17.004
X10.814 Y-17.173
X11.175 Y-17.315
X11.546 Y-17.426
X11.925 Y-17.508
X12.309 Y-17.559
X12.697 Y-17.579
X13.084 Y-17.568
X13.47 Y-17.525
X13.85 Y-17.452
X14.224 Y-17.349
X14.588 Y-17.216
X14.941 Y-17.054
X15.279 Y-16.864
X15.601 Y-16.648
X15.905 Y-16.407
X16.188 Y-16.142
X16.449 Y-15.855
X16.687 Y-15.548
X16.904 Y-15.215
X17.297 Y-14.492
X17.594 Y-13.822
X17.787 Y-13.271
X17.917 Y-12.773
X18 Y-12.305
X18.044 Y-11.851
X18.051 Y-11.412
X18.023 Y-10.984
X17.962 Y-10.567
X17.868 Y-10.159
X17.743 Y-9.761
X17.585 Y-9.373
X17.396 Y-8.997
X17.175 Y-8.635
X16.924 Y-8.289
X16.644 Y-7.961
X16.334 Y-7.653
X15.997 Y-7.368
X15.633 Y-7.107
X15.244 Y-6.872
X14.831 Y-6.667
X14.397 Y-6.493
X13.945 Y-6.353
X13.477 Y-6.248
X12.997 Y-6.181
X12.507 Y-6.151
X12.012 Y-6.161
X11.513 Y-6.212
X11.017 Y-6.303
X10.525 Y-6.435
X10.042 Y-6.607
X9.571 Y-6.818
X9.116 Y-7.068
X8.68 Y-7.356
X8.266 Y-7.68
X7.877 Y-8.037
X7.517 Y-8.427
X7.187 Y-8.845
X6.892 Y-9.291
X6.632 Y-9.76
X6.41 Y-10.25
X6.227 Y-10.758
X6.086 Y-11.28
X5.986 Y-11.813
X5.93 Y-12.353
X5.917 Y-12.897
X5.948 Y-13.441
X6.022 Y-13.981
X6.14 Y-14.514
X6.3 Y-15.037
X6.502 Y-15.546
X6.745 Y-16.037
X7.026 Y-16.507
X7.344 Y-16.954
X7.697 Y-17.373
X8.083 Y-17.764
X8.499 Y-18.122
X8.943 Y-18.446
X9.411 Y-18.733
X9.901 Y-18.982
X10.41 Y-19.19
X10.934 Y-19.357
X11.469 Y-19.482
X12.013 Y-19.563
X12.562 Y-19.601
X13.112 Y-19.594
X13.66 Y-19.543
X14.202 Y-19.448
X14.735 Y-19.31
X15.255 Y-19.13
X15.759 Y-18.909
X16.243 Y-18.647
X16.705 Y-18.348
X17.143 Y-18.012
X17.616 Y-17.583
X18.078 Y-17.092
X18.512 Y-16.55
X18.909 Y-15.963
X19.254 Y-15.352
X19.542 Y-14.73
X19.773 Y-14.103
X19.949 Y-13.476
X20.021 Y-13.105
X20.03 Y-13.056
X20.037 Y-13.007
X20.042 Y-12.958
X20.059 Y-12.75
X20.042 Y-12.543
X19.946 Y-11.508
X19.934 Y-11.405
X19.907 Y-11.301
X19.583 Y-10.163
X19.566 Y-10.111
X19.543 Y-10.06
X19.028 Y-9.025
X18.975 Y-8.922
X18.904 Y-8.818
X18.222 Y-7.915
X18.108 Y-7.783
X17.189 Y-6.946
X16.983 Y-6.808
X16.054 Y-6.233
X15.95 Y-6.182
X14.918 Y-5.782
X14.725 Y-5.714
X14.712 Y-5.711
X13.473 Y-5.479
X13.266 Y-5.47
X12.234
X12.027 Y-5.479
X10.788 Y-5.711
X10.775 Y-5.714
X10.582 Y-5.782
X9.55 Y-6.182
X9.446 Y-6.233
X8.517 Y-6.808
X8.311 Y-6.946
X7.392 Y-7.783
X7.278 Y-7.915
X6.596 Y-8.818
X6.525 Y-8.922
X6.452 Y-9.065
X5.957 Y-10.06
X5.934 Y-10.111
X5.917 Y-10.163
X5.593 Y-11.301
X5.566 Y-11.405
X5.554 Y-11.508
X5.458 Y-12.543
X5.441 Y-12.75
X5.458 Y-12.957
X5.554 Y-13.992
X5.566 Y-14.095
X5.593 Y-14.199
X5.917 Y-15.337
X5.934 Y-15.389
X5.957 Y-15.44
X6.472 Y-16.475
X6.525 Y-16.578
X6.596 Y-16.682
X7.278 Y-17.585
X7.392 Y-17.717
X8.311 Y-18.554
X8.517 Y-18.692
X9.446 Y-19.267
X9.55 Y-19.318
X10.582 Y-19.718
X10.774 Y-19.786
X10.788 Y-19.789
X12.027 Y-20.021
X12.234 Y-20.03
X13.266
X13.473 Y-20.021
X14.712 Y-19.789
X14.726 Y-19.786
X14.918 Y-19.718
X15.95 Y-19.318
X16.054 Y-19.267
X16.983 Y-18.692
X17.189 Y-18.554
X18.108 Y-17.717
X18.222 Y-17.585
X18.904 Y-16.682
X18.975 Y-16.578
X19.048 Y-16.435
X19.543 Y-15.44
X19.566 Y-15.389
X19.583 Y-15.337
X19.907 Y-14.199
X19.934 Y-14.095
X19.946 Y-13.992
X20.042 Y-12.958
G3 X19.65 Y-12.334 I-0.634 J0.036
G1 X19.559 Y-12.296 Z-3.992
X19.469 Y-12.259 Z-3.969
X19.384 Y-12.224 Z-3.931
X19.305 Y-12.192 Z-3.879
X19.235 Y-12.163 Z-3.814
X19.176 Y-12.138 Z-3.738
X19.127 Y-12.118 Z-3.653
X19.092 Y-12.104 Z-3.561
X19.071 Y-12.095 Z-3.464
X19.064 Y-12.092 Z-3.365
G0 Z15
M9
G28 G91 Z0
G90
G28 G91 X0 Y0
G90
M5
M30
