(1001)
(T22  D=3.175 CR=0 - ZMIN=-5.76 - flat end mill)
G90 G94
G17
G21
G28 G91 Z0
G90

(2D Contour6)
T22
S18000 M3
G54
G0 X14.96 Y-30.317
Z15
Z5
G1 Z1 F50
Z-5.443
G18 G2 X15.278 Z-5.76 I0.318 K0 F150
G1 X15.595
G17 G3 X15.913 Y-30 I0 J0.317
X14.087 Y-30 I-0.913 J0
X15.913 Y-30 I0.913 J0
X15.595 Y-29.683 I-0.318 J0
G1 X15.278
G18 G3 X14.96 Z-5.443 I0 K0.318
G1 Z5
G0 Z15
G17
G28 G91 Z0
G90
G28 G91 X0 Y0
G90
M5
M30
