(1001)
(T22  D=3.175 CR=0 - ZMIN=-1.5 - flat end mill)
G90 G94
G17
G21
G28 G91 Z0
G90

(2D Adaptive1)
T22
S18000 M3
G54
G0 X15.696 Y-31.405
Z15
Z5
Z2.5
G3 X16.062 Y-28.847 Z2.394 I-0.696 J1.405 F50
X13.546 Y-29.422 Z2.288 I-1.06 J-1.152
X14.983 Y-31.562 Z2.182 I1.454 J-0.576
X16.463 Y-29.455 Z2.076 I0.016 J1.562
X13.969 Y-28.83 Z1.97 I-1.462 J-0.544
X14.28 Y-31.379 Z1.864 I1.031 J-1.168
X16.545 Y-30.176 Z1.758 I0.719 J1.38
X14.612 Y-28.495 Z1.652 I-1.544 J0.176
X13.737 Y-30.9 Z1.545 I0.389 J-1.503
X16.293 Y-30.854 Z1.439 I1.262 J0.901
X15.334 Y-28.487 Z1.333 I-1.292 J0.854
X13.471 Y-30.229 Z1.227 I-0.333 J-1.511
X15.763 Y-31.342 Z1.121 I1.528 J0.231
X15.979 Y-28.807 Z1.015 I-0.762 J1.342
X13.538 Y-29.513 Z0.909 I-0.978 J-1.192
X15.071 Y-31.536 Z0.803 I1.461 J-0.485
X16.408 Y-29.382 Z0.697 I-0.071 J1.536
X13.921 Y-28.907 Z0.591 I-1.407 J-0.617
X14.369 Y-31.396 Z0.485 I1.079 J-1.09
X16.529 Y-30.087 Z0.379 I0.63 J1.397
X14.534 Y-28.542 Z0.273 I-1.528 J0.087
X13.809 Y-30.955 Z0.167 I0.466 J-1.456
X16.319 Y-30.767 Z0.061 I1.19 J0.956
X15.244 Y-28.495 Z-0.045 I-1.318 J0.767
X13.51 Y-30.311 Z-0.152 I-0.243 J-1.504
X15.825 Y-31.276 Z-0.258 I1.489 J0.312
X15.896 Y-28.773 Z-0.364 I-0.824 J1.276
X13.536 Y-29.603 Z-0.47 I-0.894 J-1.226
X15.156 Y-31.506 Z-0.576 I1.463 J-0.395
X16.349 Y-29.314 Z-0.682 I-0.156 J1.506
X13.878 Y-28.987 Z-0.788 I-1.348 J-0.685
X14.458 Y-31.407 Z-0.894 I1.122 J-1.011
X16.507 Y-30 Z-1 I0.541 J1.408
X13.491 Y-30 I-1.508 J0
X16.507 Y-30 I1.508 J0
G1 X16.524 Y-29.358 F150
X16.553 Y-29.283
X16.587 Y-29.137
X16.591 Y-28.987
X16.57 Y-28.838
X16.527 Y-28.694
X16.467 Y-28.557
X16.391 Y-28.428
X16.302 Y-28.307
X16.201 Y-28.196
X16.09 Y-28.095
X15.97 Y-28.005
X15.843 Y-27.925
X15.71 Y-27.856
X15.568 Y-27.797
X15.419 Y-27.748
X15.262 Y-27.711
X15.1 Y-27.685
X14.933 Y-27.673
X14.763 Y-27.674
X14.591 Y-27.688
X14.418 Y-27.717
X14.246 Y-27.761
X14.076 Y-27.818
X13.91 Y-27.89
X13.749 Y-27.975
X13.594 Y-28.074
X13.447 Y-28.186
X13.308 Y-28.309
X13.179 Y-28.445
X13.06 Y-28.591
X12.954 Y-28.746
X12.859 Y-28.91
X12.778 Y-29.082
X12.711 Y-29.26
X12.659 Y-29.444
X12.621 Y-29.631
X12.598 Y-29.822
X12.59 Y-30.013
X12.598 Y-30.205
X12.622 Y-30.396
X12.66 Y-30.585
X12.714 Y-30.77
X12.783 Y-30.95
X12.865 Y-31.125
X12.962 Y-31.292
X13.072 Y-31.451
X13.194 Y-31.601
X13.328 Y-31.741
X13.473 Y-31.869
X13.627 Y-31.986
X13.791 Y-32.089
X13.962 Y-32.18
X14.14 Y-32.256
X14.324 Y-32.318
X14.512 Y-32.364
X14.703 Y-32.396
X14.896 Y-32.412
X15.09 Y-32.413
X15.283 Y-32.397
X15.475 Y-32.367
X15.663 Y-32.321
X15.847 Y-32.261
X16.026 Y-32.185
X16.198 Y-32.096
X16.362 Y-31.993
X16.518 Y-31.877
X16.664 Y-31.749
X16.799 Y-31.61
X16.922 Y-31.46
X17.033 Y-31.301
X17.138 Y-31.122
X17.277 Y-30.834
X17.431 Y-30.434
X17.519 Y-30.137
X17.575 Y-29.875
X17.606 Y-29.631
X17.617 Y-29.403
X17.609 Y-29.186
X17.586 Y-28.977
X17.545 Y-28.771
X17.489 Y-28.57
X17.416 Y-28.375
X17.328 Y-28.186
X17.226 Y-28.004
X17.108 Y-27.83
X16.975 Y-27.665
X16.828 Y-27.509
X16.666 Y-27.363
X16.492 Y-27.229
X16.304 Y-27.108
X16.104 Y-27.001
X15.893 Y-26.908
X15.673 Y-26.832
X15.443 Y-26.773
X15.207 Y-26.732
X14.965 Y-26.71
X14.72 Y-26.707
X14.472 Y-26.724
X14.224 Y-26.762
X13.978 Y-26.819
X13.736 Y-26.897
X13.499 Y-26.995
X13.268 Y-27.112
X13.047 Y-27.248
X12.836 Y-27.403
X12.637 Y-27.574
X12.451 Y-27.763
X12.28 Y-27.966
X12.126 Y-28.183
X11.989 Y-28.413
X11.871 Y-28.654
X11.772 Y-28.904
X11.693 Y-29.162
X11.635 Y-29.427
X11.598 Y-29.695
X11.583 Y-29.967
X11.59 Y-30.239
X11.619 Y-30.51
X11.669 Y-30.778
X11.741 Y-31.041
X11.834 Y-31.298
X11.947 Y-31.548
X12.08 Y-31.787
X12.232 Y-32.015
X12.401 Y-32.23
X12.588 Y-32.431
X12.79 Y-32.617
X13.007 Y-32.786
X13.236 Y-32.937
X13.477 Y-33.069
X13.728 Y-33.181
X13.987 Y-33.273
X14.253 Y-33.344
X14.523 Y-33.393
X14.797 Y-33.42
X15.072 Y-33.426
X15.347 Y-33.409
X15.619 Y-33.37
X15.887 Y-33.309
X16.15 Y-33.228
X16.405 Y-33.125
X16.652 Y-33.002
X16.887 Y-32.86
X17.111 Y-32.699
X17.323 Y-32.519
X17.537 Y-32.306
X17.755 Y-32.05
X17.958 Y-31.769
X18.144 Y-31.464
X18.303 Y-31.145
X18.434 Y-30.822
X18.536 Y-30.499
X18.609 Y-30.179
X18.655 Y-29.863
X18.675 Y-29.549
X18.669 Y-29.239
X18.64 Y-28.934
X18.586 Y-28.635
X18.509 Y-28.343
X18.41 Y-28.06
X18.288 Y-27.786
X18.144 Y-27.522
X17.98 Y-27.271
X17.795 Y-27.032
X17.59 Y-26.808
X17.367 Y-26.6
X17.126 Y-26.409
X16.868 Y-26.236
X16.595 Y-26.084
X16.308 Y-25.952
X16.009 Y-25.843
X15.699 Y-25.758
X15.381 Y-25.698
X15.057 Y-25.662
X14.728 Y-25.653
X14.397 Y-25.671
X14.067 Y-25.715
X13.739 Y-25.786
X13.415 Y-25.884
X13.099 Y-26.008
X12.792 Y-26.158
X12.496 Y-26.334
X12.214 Y-26.533
X11.948 Y-26.755
X11.699 Y-26.999
X11.47 Y-27.264
X11.262 Y-27.547
X11.076 Y-27.846
X10.915 Y-28.161
X10.779 Y-28.488
X10.67 Y-28.826
X10.588 Y-29.173
X10.534 Y-29.525
X10.508 Y-29.882
X10.511 Y-30.24
X10.543 Y-30.597
X10.603 Y-30.951
X10.692 Y-31.299
X10.809 Y-31.639
X10.952 Y-31.969
X11.122 Y-32.287
X11.317 Y-32.59
X11.535 Y-32.877
X11.776 Y-33.145
X12.038 Y-33.393
X12.319 Y-33.62
X12.618 Y-33.823
X12.932 Y-34.002
X13.259 Y-34.155
X13.598 Y-34.282
X13.946 Y-34.38
X14.3 Y-34.451
X14.659 Y-34.493
X15.021 Y-34.506
X15.382 Y-34.49
X15.741 Y-34.445
X16.095 Y-34.371
X16.443 Y-34.269
X16.781 Y-34.139
X17.108 Y-33.983
X17.427 Y-33.797
X17.741 Y-33.579
X18.046 Y-33.329
X18.339 Y-33.046
X18.614 Y-32.734
X18.866 Y-32.397
X19.092 Y-32.039
X19.287 Y-31.665
X19.451 Y-31.28
X19.582 Y-30.886
X19.68 Y-30.487
X19.745 Y-30.085
X19.777 Y-29.682
Y-29.282
X19.745 Y-28.885
X19.681 Y-28.495
X19.587 Y-28.113
X19.463 Y-27.741
X19.31 Y-27.38
X19.128 Y-27.033
X18.919 Y-26.702
X18.683 Y-26.387
X18.422 Y-26.092
X18.137 Y-25.817
X17.83 Y-25.565
X17.501 Y-25.337
X17.153 Y-25.135
X16.788 Y-24.96
X16.408 Y-24.815
X16.015 Y-24.7
X15.611 Y-24.616
X15.2 Y-24.565
X14.783 Y-24.546
X14.364 Y-24.561
X13.945 Y-24.611
X13.529 Y-24.694
X13.119 Y-24.81
X12.718 Y-24.96
X12.328 Y-25.143
X11.953 Y-25.357
X11.594 Y-25.602
X11.255 Y-25.875
X10.938 Y-26.177
X10.645 Y-26.503
X10.379 Y-26.853
X10.14 Y-27.225
X9.932 Y-27.615
X9.755 Y-28.022
X9.612 Y-28.443
X9.502 Y-28.875
X9.427 Y-29.315
X9.388 Y-29.76
X9.384 Y-30.207
X9.416 Y-30.654
X9.485 Y-31.098
X9.589 Y-31.535
X9.727 Y-31.963
X9.9 Y-32.378
X10.105 Y-32.779
X10.343 Y-33.162
X10.61 Y-33.525
X10.906 Y-33.865
X11.228 Y-34.181
X11.575 Y-34.47
X11.944 Y-34.731
X12.332 Y-34.961
X12.739 Y-35.159
X13.159 Y-35.324
X13.592 Y-35.454
X14.034 Y-35.55
X14.482 Y-35.609
X14.934 Y-35.633
X15.386 Y-35.62
X15.835 Y-35.571
X16.28 Y-35.486
X16.717 Y-35.366
X17.146 Y-35.209
X17.567 Y-35.017
X17.975 Y-34.788
X18.371 Y-34.523
X18.752 Y-34.221
X19.113 Y-33.883
X19.451 Y-33.513
X19.76 Y-33.114
X20.037 Y-32.689
X20.279 Y-32.244
X20.484 Y-31.782
X20.651 Y-31.307
X20.778 Y-30.822
X20.866 Y-30.332
X20.914 Y-29.839
X20.921 Y-29.346
X20.89 Y-28.856
X20.82 Y-28.373
X20.711 Y-27.898
X20.565 Y-27.435
X20.383 Y-26.986
X20.165 Y-26.553
X19.913 Y-26.138
X19.628 Y-25.745
X19.312 Y-25.374
X18.966 Y-25.03
X18.592 Y-24.713
X18.192 Y-24.426
X17.769 Y-24.171
X17.325 Y-23.949
X16.862 Y-23.764
X16.383 Y-23.615
X15.892 Y-23.504
X15.391 Y-23.433
X14.883 Y-23.403
X14.372 Y-23.413
X13.862 Y-23.464
X13.355 Y-23.557
X12.854 Y-23.69
X12.365 Y-23.864
X11.888 Y-24.078
X11.429 Y-24.33
X10.99 Y-24.619
X10.574 Y-24.944
X10.185 Y-25.301
X9.824 Y-25.691
X9.495 Y-26.108
X9.2 Y-26.553
X8.941 Y-27.02
X8.719 Y-27.508
X8.537 Y-28.013
X8.396 Y-28.531
X8.297 Y-29.061
X8.241 Y-29.597
X8.228 Y-30.137
X8.258 Y-30.676
X8.332 Y-31.212
X8.448 Y-31.741
X8.607 Y-32.26
X8.807 Y-32.764
X9.046 Y-33.251
X9.325 Y-33.717
X9.64 Y-34.16
X9.99 Y-34.576
X10.372 Y-34.963
X10.784 Y-35.319
X11.223 Y-35.64
X11.687 Y-35.925
X12.173 Y-36.171
X12.676 Y-36.378
X13.195 Y-36.545
X13.726 Y-36.668
X14.265 Y-36.749
X14.808 Y-36.787
X15.353 Y-36.78
X15.897 Y-36.73
X16.436 Y-36.636
X16.968 Y-36.499
X17.49 Y-36.318
X18.002 Y-36.094
X18.499 Y-35.826
X18.979 Y-35.515
X19.439 Y-35.163
X19.873 Y-34.77
X20.278 Y-34.341
X20.649 Y-33.878
X20.982 Y-33.385
X21.276 Y-32.866
X21.526 Y-32.326
X21.732 Y-31.768
X21.893 Y-31.197
X22.006 Y-30.617
X22.073 Y-30.032
X22.092 Y-29.445
X22.064 Y-28.861
X21.989 Y-28.282
X21.869 Y-27.713
X21.703 Y-27.157
X21.494 Y-26.616
X21.242 Y-26.093
X20.949 Y-25.593
X20.616 Y-25.117
X20.246 Y-24.668
X19.84 Y-24.25
X19.4 Y-23.865
X18.929 Y-23.515
X18.431 Y-23.203
X17.907 Y-22.931
X17.36 Y-22.702
X16.795 Y-22.516
X16.215 Y-22.375
X15.622 Y-22.281
X15.022 Y-22.235
X14.418 Y-22.237
X13.813 Y-22.288
X13.212 Y-22.387
X12.619 Y-22.535
X12.037 Y-22.731
X11.472 Y-22.974
X10.925 Y-23.262
X10.403 Y-23.594
X9.907 Y-23.968
X9.441 Y-24.382
X9.009 Y-24.833
X8.614 Y-25.318
X8.258 Y-25.835
X7.944 Y-26.379
X7.674 Y-26.949
X7.451 Y-27.538
X7.275 Y-28.145
X7.149 Y-28.765
X7.072 Y-29.394
X7.046 Y-30.028
X7.071 Y-30.663
X7.147 Y-31.294
X7.274 Y-31.917
X7.45 Y-32.529
X7.675 Y-33.125
X7.947 Y-33.701
X8.265 Y-34.254
X8.626 Y-34.781
X9.029 Y-35.276
X9.47 Y-35.738
X9.947 Y-36.163
X10.457 Y-36.548
X10.996 Y-36.892
X11.561 Y-37.191
X12.149 Y-37.444
X12.755 Y-37.649
X13.375 Y-37.804
X14.006 Y-37.91
X14.644 Y-37.964
X15.285 Y-37.967
X15.925 Y-37.919
X16.559 Y-37.819
X17.184 Y-37.669
X17.794 Y-37.469
X18.387 Y-37.223
X18.959 Y-36.93
X19.506 Y-36.594
X20.025 Y-36.216
X20.514 Y-35.8
X20.97 Y-35.347
X21.39 Y-34.861
X21.772 Y-34.345
X22.115 Y-33.802
X22.416 Y-33.235
X22.675 Y-32.647
X22.889 Y-32.042
X23.057 Y-31.422
X23.179 Y-30.792
X23.253 Y-30.154
X23.278 Y-29.512
X23.256 Y-28.87
X23.184 Y-28.232
X23.065 Y-27.601
X22.897 Y-26.981
X22.682 Y-26.376
X22.421 Y-25.789
X22.116 Y-25.224
X21.768 Y-24.684
X21.381 Y-24.172
X20.956 Y-23.691
X20.495 Y-23.243
X20.002 Y-22.832
X19.48 Y-22.458
X18.931 Y-22.125
X18.358 Y-21.835
X17.765 Y-21.587
X17.156 Y-21.385
X17.102 Y-21.372
X17.087 Y-21.369
X15.947 Y-21.156
X15.801 Y-21.133
X14.199
X14.053 Y-21.156
X12.597 Y-21.428
X12.451 Y-21.478
X11.067 Y-22.014
X10.995 Y-22.05
X9.684 Y-22.862
X9.611 Y-22.913
X8.518 Y-23.909
X8.406 Y-24.018
X7.499 Y-25.218
X7.419 Y-25.331
X7.128 Y-25.915
X6.765 Y-26.644
X6.695 Y-26.79
X6.652 Y-26.936
X6.258 Y-28.322
X6.248 Y-28.359
X6.243 Y-28.395
X6.108 Y-29.854
X6.096 Y-30
X6.108 Y-30.146
X6.243 Y-31.605
X6.248 Y-31.641
X6.258 Y-31.678
X6.652 Y-33.064
X6.695 Y-33.21
X6.771 Y-33.367
X7.353 Y-34.538
X7.419 Y-34.669
X7.499 Y-34.782
X8.406 Y-35.982
X8.518 Y-36.091
X9.611 Y-37.087
X9.684 Y-37.138
X10.995 Y-37.95
X11.067 Y-37.986
X12.451 Y-38.522
X12.597 Y-38.572
X14.053 Y-38.844
X14.199 Y-38.867
X15.801
X15.947 Y-38.844
X17.403 Y-38.572
X17.549 Y-38.522
X18.933 Y-37.986
X19.005 Y-37.95
X20.316 Y-37.138
X20.389 Y-37.087
X21.482 Y-36.091
X21.594 Y-35.982
X22.501 Y-34.782
X22.581 Y-34.669
X22.872 Y-34.085
X23.235 Y-33.356
X23.305 Y-33.21
X23.348 Y-33.064
X23.742 Y-31.678
X23.751 Y-31.641
X23.757 Y-31.605
X23.892 Y-30.146
X23.904 Y-30
X23.892 Y-29.854
X23.757 Y-28.395
X23.751 Y-28.359
X23.742 Y-28.322
X23.348 Y-26.936
X23.305 Y-26.79
X23.229 Y-26.632
X22.647 Y-25.462
X22.581 Y-25.331
X22.501 Y-25.218
X21.594 Y-24.018
X21.482 Y-23.909
X20.389 Y-22.913
X20.316 Y-22.862
X19.005 Y-22.05
X18.933 Y-22.014
X17.549 Y-21.478
X17.403 Y-21.428
X17.087 Y-21.369
G3 X16.731 Y-21.605 I-0.047 J-0.314
G1 X16.726 Y-21.644 Z-0.998
X16.722 Y-21.683 Z-0.99
X16.736 Y-21.739 Z-0.969
X16.749 Y-21.79 Z-0.936
X16.76 Y-21.834 Z-0.894
X16.78 Y-21.862 Z-0.848
X16.795 Y-21.883 Z-0.796
X16.804 Y-21.895 Z-0.74
X16.807 Y-21.9 Z-0.683
G0 Z5
X15.212 Y-28.456
Z1.5
G3 X13.47 Y-30.3 Z1.397 I-0.212 J-1.544 F50
X15.776 Y-31.349 Z1.293 I1.528 J0.299
X16.022 Y-28.831 Z1.19 I-0.777 J1.347
X13.563 Y-29.413 Z1.086 I-1.022 J-1.17
X14.908 Y-31.549 Z0.983 I1.436 J-0.587
X16.492 Y-29.587 Z0.879 I0.091 J1.547
X14.125 Y-28.724 Z0.776 I-1.491 J-0.415
X14.076 Y-31.24 Z0.672 I0.874 J-1.275
X16.469 Y-30.473 Z0.569 I0.923 J1.238
X14.97 Y-28.459 Z0.466 I-1.469 J0.471
X13.552 Y-30.526 Z0.362 I0.029 J-1.54
X15.964 Y-31.199 Z0.259 I1.446 J0.526
X15.819 Y-28.702 Z0.155 I-0.965 J1.197
X13.506 Y-29.646 Z0.052 I-0.819 J-1.299
X15.147 Y-31.526 Z-0.052 I1.492 J-0.354
X16.393 Y-29.368 Z-0.155 I-0.148 J1.524
X13.951 Y-28.888 Z-0.259 I-1.393 J-0.633
X14.287 Y-31.352 Z-0.362 I1.048 J-1.112
X16.506 Y-30.237 Z-0.466 I0.712 J1.35
X14.735 Y-28.5 Z-0.569 I-1.506 J0.236
X13.666 Y-30.735 Z-0.672 I0.264 J-1.5
X16.124 Y-31.023 Z-0.776 I1.332 J0.735
X15.601 Y-28.607 Z-0.879 I-1.125 J1.021
X13.488 Y-29.883 Z-0.983 I-0.601 J-1.393
X15.376 Y-31.468 Z-1.086 I1.511 J-0.118
X16.263 Y-29.17 Z-1.19 I-0.377 J1.466
X13.805 Y-29.075 Z-1.293 I-1.263 J-0.831
X14.51 Y-31.428 Z-1.397 I1.193 J-0.925
X16.507 Y-30.001 Z-1.5 I0.488 J1.427
X13.49 Y-30.001 I-1.508 J0
X16.507 Y-30.001 I1.508 J0
G1 X16.523 Y-29.359 F150
X16.552 Y-29.285
X16.587 Y-29.139
X16.59 Y-28.989
X16.569 Y-28.84
X16.526 Y-28.696
X16.466 Y-28.559
X16.39 Y-28.43
X16.301 Y-28.309
X16.2 Y-28.198
X16.089 Y-28.097
X15.969 Y-28.007
X15.842 Y-27.927
X15.709 Y-27.858
X15.567 Y-27.799
X15.418 Y-27.75
X15.261 Y-27.712
X15.099 Y-27.687
X14.932 Y-27.675
X14.762
X14.59 Y-27.69
X14.417 Y-27.719
X14.245 Y-27.762
X14.076 Y-27.82
X13.909 Y-27.892
X13.748 Y-27.977
X13.593 Y-28.076
X13.446 Y-28.188
X13.307 Y-28.311
X13.178 Y-28.447
X13.059 Y-28.593
X12.953 Y-28.748
X12.859 Y-28.912
X12.778 Y-29.084
X12.71 Y-29.262
X12.658 Y-29.446
X12.62 Y-29.633
X12.597 Y-29.823
X12.59 Y-30.015
X12.598 Y-30.207
X12.621 Y-30.398
X12.66 Y-30.587
X12.713 Y-30.772
X12.782 Y-30.952
X12.865 Y-31.127
X12.961 Y-31.294
X13.071 Y-31.453
X13.193 Y-31.603
X13.327 Y-31.743
X13.472 Y-31.871
X13.626 Y-31.987
X13.79 Y-32.091
X13.961 Y-32.181
X14.139 Y-32.258
X14.323 Y-32.319
X14.511 Y-32.366
X14.702 Y-32.398
X14.895 Y-32.414
X15.089
X15.282 Y-32.399
X15.474 Y-32.369
X15.662 Y-32.323
X15.846 Y-32.262
X16.025 Y-32.187
X16.197 Y-32.098
X16.362 Y-31.995
X16.517 Y-31.879
X16.663 Y-31.751
X16.798 Y-31.612
X16.921 Y-31.462
X17.032 Y-31.303
X17.137 Y-31.124
X17.276 Y-30.836
X17.431 Y-30.436
X17.518 Y-30.139
X17.574 Y-29.877
X17.605 Y-29.633
X17.616 Y-29.405
X17.608 Y-29.188
X17.585 Y-28.979
X17.544 Y-28.773
X17.488 Y-28.572
X17.415 Y-28.377
X17.327 Y-28.188
X17.225 Y-28.006
X17.107 Y-27.832
X16.974 Y-27.667
X16.827 Y-27.511
X16.665 Y-27.365
X16.491 Y-27.231
X16.303 Y-27.11
X16.103 Y-27.002
X15.892 Y-26.91
X15.672 Y-26.834
X15.442 Y-26.775
X15.206 Y-26.734
X14.964 Y-26.712
X14.719 Y-26.709
X14.471 Y-26.726
X14.224 Y-26.764
X13.977 Y-26.821
X13.735 Y-26.899
X13.498 Y-26.997
X13.267 Y-27.114
X13.046 Y-27.25
X12.835 Y-27.405
X12.636 Y-27.576
X12.45 Y-27.765
X12.28 Y-27.968
X12.125 Y-28.185
X11.988 Y-28.415
X11.87 Y-28.656
X11.771 Y-28.906
X11.692 Y-29.164
X11.634 Y-29.429
X11.597 Y-29.697
X11.582 Y-29.969
X11.589 Y-30.241
X11.618 Y-30.512
X11.668 Y-30.78
X11.74 Y-31.043
X11.833 Y-31.3
X11.946 Y-31.55
X12.079 Y-31.789
X12.231 Y-32.017
X12.401 Y-32.232
X12.587 Y-32.433
X12.789 Y-32.619
X13.006 Y-32.788
X13.235 Y-32.939
X13.476 Y-33.071
X13.727 Y-33.183
X13.986 Y-33.275
X14.252 Y-33.346
X14.523 Y-33.395
X14.796 Y-33.422
X15.071 Y-33.427
X15.346 Y-33.411
X15.618 Y-33.372
X15.887 Y-33.311
X16.149 Y-33.23
X16.405 Y-33.127
X16.651 Y-33.004
X16.886 Y-32.862
X17.11 Y-32.701
X17.322 Y-32.521
X17.536 Y-32.308
X17.754 Y-32.051
X17.957 Y-31.771
X18.143 Y-31.465
X18.303 Y-31.147
X18.434 Y-30.824
X18.535 Y-30.501
X18.608 Y-30.181
X18.654 Y-29.865
X18.674 Y-29.551
X18.669 Y-29.241
X18.639 Y-28.936
X18.585 Y-28.637
X18.508 Y-28.345
X18.409 Y-28.062
X18.287 Y-27.788
X18.143 Y-27.524
X17.979 Y-27.273
X17.794 Y-27.034
X17.589 Y-26.81
X17.366 Y-26.602
X17.125 Y-26.411
X16.867 Y-26.238
X16.594 Y-26.085
X16.307 Y-25.954
X16.008 Y-25.845
X15.698 Y-25.76
X15.38 Y-25.7
X15.056 Y-25.664
X14.727 Y-25.655
X14.396 Y-25.673
X14.066 Y-25.717
X13.738 Y-25.788
X13.414 Y-25.886
X13.098 Y-26.01
X12.791 Y-26.16
X12.495 Y-26.336
X12.213 Y-26.535
X11.947 Y-26.757
X11.698 Y-27.001
X11.469 Y-27.266
X11.261 Y-27.549
X11.075 Y-27.848
X10.914 Y-28.163
X10.778 Y-28.49
X10.669 Y-28.828
X10.587 Y-29.175
X10.533 Y-29.527
X10.507 Y-29.884
X10.51 Y-30.242
X10.542 Y-30.599
X10.603 Y-30.953
X10.691 Y-31.301
X10.808 Y-31.641
X10.951 Y-31.971
X11.121 Y-32.289
X11.316 Y-32.592
X11.534 Y-32.879
X11.775 Y-33.147
X12.037 Y-33.395
X12.318 Y-33.622
X12.617 Y-33.825
X12.931 Y-34.004
X13.258 Y-34.157
X13.597 Y-34.284
X13.945 Y-34.382
X14.299 Y-34.453
X14.659 Y-34.495
X15.02 Y-34.508
X15.381 Y-34.492
X15.74 Y-34.447
X16.095 Y-34.373
X16.442 Y-34.271
X16.78 Y-34.141
X17.107 Y-33.985
X17.426 Y-33.799
X17.74 Y-33.581
X18.045 Y-33.331
X18.338 Y-33.048
X18.613 Y-32.736
X18.866 Y-32.398
X19.091 Y-32.041
X19.286 Y-31.667
X19.45 Y-31.282
X19.581 Y-30.888
X19.679 Y-30.489
X19.744 Y-30.087
X19.776 Y-29.684
Y-29.284
X19.744 Y-28.887
X19.68 Y-28.497
X19.586 Y-28.115
X19.462 Y-27.743
X19.309 Y-27.382
X19.127 Y-27.035
X18.918 Y-26.704
X18.682 Y-26.389
X18.421 Y-26.094
X18.136 Y-25.819
X17.829 Y-25.567
X17.5 Y-25.339
X17.152 Y-25.137
X16.787 Y-24.962
X16.407 Y-24.817
X16.014 Y-24.702
X15.61 Y-24.618
X15.199 Y-24.566
X14.782 Y-24.548
X14.363 Y-24.563
X13.944 Y-24.613
X13.528 Y-24.696
X13.118 Y-24.812
X12.717 Y-24.962
X12.327 Y-25.145
X11.952 Y-25.359
X11.593 Y-25.604
X11.254 Y-25.877
X10.937 Y-26.179
X10.644 Y-26.505
X10.378 Y-26.855
X10.139 Y-27.227
X9.931 Y-27.617
X9.754 Y-28.024
X9.611 Y-28.445
X9.501 Y-28.877
X9.426 Y-29.317
X9.387 Y-29.762
X9.383 Y-30.209
X9.416 Y-30.656
X9.484 Y-31.1
X9.588 Y-31.537
X9.726 Y-31.965
X9.899 Y-32.38
X10.105 Y-32.781
X10.342 Y-33.164
X10.609 Y-33.527
X10.905 Y-33.867
X11.227 Y-34.183
X11.574 Y-34.472
X11.943 Y-34.733
X12.332 Y-34.962
X12.738 Y-35.161
X13.158 Y-35.325
X13.591 Y-35.456
X14.033 Y-35.552
X14.481 Y-35.611
X14.933 Y-35.635
X15.385 Y-35.622
X15.835 Y-35.573
X16.279 Y-35.488
X16.716 Y-35.368
X17.146 Y-35.211
X17.566 Y-35.019
X17.974 Y-34.79
X18.37 Y-34.525
X18.751 Y-34.222
X19.112 Y-33.885
X19.45 Y-33.515
X19.759 Y-33.115
X20.036 Y-32.691
X20.278 Y-32.246
X20.483 Y-31.784
X20.65 Y-31.309
X20.777 Y-30.824
X20.865 Y-30.334
X20.913 Y-29.84
X20.921 Y-29.348
X20.889 Y-28.858
X20.819 Y-28.375
X20.71 Y-27.9
X20.564 Y-27.437
X20.382 Y-26.988
X20.164 Y-26.555
X19.912 Y-26.14
X19.627 Y-25.746
X19.311 Y-25.376
X18.965 Y-25.032
X18.591 Y-24.715
X18.191 Y-24.428
X17.768 Y-24.173
X17.324 Y-23.951
X16.861 Y-23.765
X16.382 Y-23.617
X15.891 Y-23.506
X15.39 Y-23.435
X14.882 Y-23.405
X14.371 Y-23.415
X13.861 Y-23.466
X13.354 Y-23.559
X12.853 Y-23.692
X12.364 Y-23.866
X11.887 Y-24.08
X11.428 Y-24.332
X10.989 Y-24.621
X10.573 Y-24.946
X10.184 Y-25.303
X9.823 Y-25.693
X9.494 Y-26.111
X9.199 Y-26.555
X8.94 Y-27.022
X8.718 Y-27.51
X8.536 Y-28.015
X8.395 Y-28.533
X8.296 Y-29.063
X8.24 Y-29.599
X8.227 Y-30.139
X8.257 Y-30.678
X8.331 Y-31.214
X8.447 Y-31.743
X8.606 Y-32.262
X8.806 Y-32.766
X9.046 Y-33.253
X9.324 Y-33.719
X9.639 Y-34.162
X9.989 Y-34.578
X10.371 Y-34.965
X10.783 Y-35.321
X11.222 Y-35.642
X11.686 Y-35.927
X12.172 Y-36.173
X12.676 Y-36.38
X13.194 Y-36.546
X13.725 Y-36.67
X14.264 Y-36.751
X14.808 Y-36.789
X15.353 Y-36.782
X15.896 Y-36.732
X16.435 Y-36.638
X16.967 Y-36.501
X17.489 Y-36.32
X18.001 Y-36.096
X18.498 Y-35.828
X18.979 Y-35.517
X19.438 Y-35.165
X19.872 Y-34.772
X20.277 Y-34.343
X20.648 Y-33.88
X20.981 Y-33.387
X21.275 Y-32.868
X21.525 Y-32.327
X21.732 Y-31.77
X21.892 Y-31.199
X22.005 Y-30.619
X22.072 Y-30.033
X22.091 Y-29.447
X22.063 Y-28.863
X21.988 Y-28.284
X21.868 Y-27.715
X21.702 Y-27.158
X21.493 Y-26.617
X21.241 Y-26.095
X20.948 Y-25.594
X20.615 Y-25.119
X20.245 Y-24.67
X19.839 Y-24.252
X19.399 Y-23.867
X18.928 Y-23.517
X18.43 Y-23.205
X17.906 Y-22.933
X17.359 Y-22.703
X16.794 Y-22.517
X16.214 Y-22.377
X15.621 Y-22.283
X15.021 Y-22.237
X14.417 Y-22.239
X13.812 Y-22.29
X13.211 Y-22.389
X12.618 Y-22.537
X12.036 Y-22.733
X11.471 Y-22.976
X10.924 Y-23.264
X10.402 Y-23.596
X9.906 Y-23.97
X9.44 Y-24.384
X9.008 Y-24.835
X8.613 Y-25.32
X8.257 Y-25.837
X7.943 Y-26.382
X7.673 Y-26.951
X7.45 Y-27.541
X7.274 Y-28.147
X7.148 Y-28.767
X7.071 Y-29.396
X7.045 Y-30.03
X7.07 Y-30.665
X7.146 Y-31.296
X7.273 Y-31.919
X7.449 Y-32.531
X7.674 Y-33.127
X7.946 Y-33.703
X8.264 Y-34.257
X8.626 Y-34.783
X9.028 Y-35.278
X9.469 Y-35.74
X9.947 Y-36.165
X10.456 Y-36.55
X10.995 Y-36.894
X11.561 Y-37.193
X12.148 Y-37.446
X12.754 Y-37.651
X13.375 Y-37.806
X14.006 Y-37.912
X14.643 Y-37.966
X15.284 Y-37.969
X15.924 Y-37.921
X16.559 Y-37.821
X17.183 Y-37.671
X17.793 Y-37.471
X18.386 Y-37.224
X18.958 Y-36.932
X19.505 Y-36.596
X20.025 Y-36.218
X20.513 Y-35.802
X20.969 Y-35.349
X21.389 Y-34.863
X21.771 Y-34.347
X22.114 Y-33.804
X22.415 Y-33.237
X22.674 Y-32.649
X22.888 Y-32.044
X23.056 Y-31.424
X23.178 Y-30.793
X23.252 Y-30.156
X23.278 Y-29.514
X23.255 Y-28.872
X23.184 Y-28.234
X23.064 Y-27.603
X22.896 Y-26.983
X22.681 Y-26.378
X22.42 Y-25.791
X22.115 Y-25.226
X21.767 Y-24.686
X21.38 Y-24.174
X20.955 Y-23.693
X20.494 Y-23.245
X20.001 Y-22.833
X19.479 Y-22.46
X18.929 Y-22.127
X18.357 Y-21.836
X17.764 Y-21.589
X17.155 Y-21.387
X17.068 Y-21.365
X17.053 Y-21.362
X15.947 Y-21.156
X15.801 Y-21.133
X14.199
X14.053 Y-21.156
X12.597 Y-21.428
X12.451 Y-21.478
X11.067 Y-22.014
X10.995 Y-22.05
X9.684 Y-22.862
X9.611 Y-22.913
X8.518 Y-23.909
X8.406 Y-24.018
X7.499 Y-25.218
X7.419 Y-25.331
X7.128 Y-25.915
X6.765 Y-26.644
X6.695 Y-26.79
X6.652 Y-26.936
X6.258 Y-28.322
X6.248 Y-28.359
X6.243 Y-28.395
X6.108 Y-29.854
X6.096 Y-30
X6.108 Y-30.146
X6.243 Y-31.605
X6.248 Y-31.641
X6.258 Y-31.678
X6.652 Y-33.064
X6.695 Y-33.21
X6.771 Y-33.367
X7.353 Y-34.538
X7.419 Y-34.669
X7.499 Y-34.782
X8.406 Y-35.982
X8.518 Y-36.091
X9.611 Y-37.087
X9.684 Y-37.138
X10.995 Y-37.95
X11.067 Y-37.986
X12.451 Y-38.522
X12.597 Y-38.572
X14.053 Y-38.844
X14.199 Y-38.867
X15.801
X15.947 Y-38.844
X17.403 Y-38.572
X17.549 Y-38.522
X18.933 Y-37.986
X19.005 Y-37.95
X20.316 Y-37.138
X20.389 Y-37.087
X21.482 Y-36.091
X21.594 Y-35.982
X22.501 Y-34.782
X22.581 Y-34.669
X22.872 Y-34.085
X23.235 Y-33.356
X23.305 Y-33.21
X23.348 Y-33.064
X23.742 Y-31.678
X23.751 Y-31.641
X23.757 Y-31.605
X23.892 Y-30.146
X23.904 Y-30
X23.892 Y-29.854
X23.757 Y-28.395
X23.751 Y-28.359
X23.742 Y-28.322
X23.348 Y-26.936
X23.305 Y-26.79
X23.229 Y-26.632
X22.647 Y-25.462
X22.581 Y-25.331
X22.501 Y-25.218
X21.594 Y-24.018
X21.482 Y-23.909
X20.389 Y-22.913
X20.316 Y-22.862
X19.005 Y-22.05
X18.933 Y-22.014
X17.549 Y-21.478
X17.403 Y-21.428
X17.053 Y-21.362
G3 X16.774 Y-21.893 I-0.047 J-0.314
G1 X16.822 Y-21.945 Z-1.492
X16.868 Y-21.994 Z-1.469
X16.909 Y-22.038 Z-1.431
X16.944 Y-22.075 Z-1.38
X16.97 Y-22.102 Z-1.32
X16.986 Y-22.119 Z-1.253
X16.991 Y-22.125 Z-1.183
G0 Z15
G28 G91 Z0
G90
G28 G91 X0 Y0
G90
M5
M30
