(1001)
(T7  D=6.35 CR=0 - ZMIN=-15.2 - flat end mill)
G90 G94
G17
G21
G28 G91 Z0
G90

(2D Contour1)
T7
S18000 M3
G54
G0 X50.113 Y-96.08
Z15
Z5
G1 Z1 F16.7
Z-14.565
G19 G3 Y-95.445 Z-15.2 J0.635 K0 F100
G1 Y-94.81
G17 G3 X49.478 Y-94.175 I-0.635 J0
G1 X45.558 F50
G2 X42.383 Y-91 I0 J3.175
G1 Y-76.632
G2 X49.109 Y-67.06 I10.175 J0
G3 X28.891 Y-10.94 I-10.109 J28.06
X28.865 Y-67.05 I10.109 J-28.06
G2 X35.582 Y-76.62 I-3.458 J-9.57
G1 Y-91
G2 X32.407 Y-94.175 I-3.175 J0
G1 X28.487
G2 X25.312 Y-91 I0 J3.175
G1 Y-80.452
G3 X22.976 Y-76.929 I-3.825 J0
G2 X55.024 Y-1.071 I16.024 J37.929
X76.234 Y-21.421 I-16.024 J-37.929
X76.538 Y-22.777 I-2.871 J-1.356
G1 Y-55.223
G2 X76.234 Y-56.579 I-3.175 J0
X54.993 Y-76.942 I-37.234 J17.579
G3 X52.653 Y-80.467 I1.486 J-3.525
G1 Y-91
G2 X49.478 Y-94.175 I-3.175 J0
G3 X48.843 Y-94.81 I0 J-0.635
G1 Y-95.445
G19 G2 Y-96.08 Z-14.565 J0 K0.635
G1 Z5
G0 Z15
G17
G28 G91 Z0
G90
G28 G91 X0 Y0
G90
M5
M30
