(1001)
(T39  D=6.35 CR=0 - ZMIN=-8 - flat end mill)
G90 G94
G17
G21
G28 G91 Z0
G90

(2D Contour2)
T39
S18000 M3
G54
G0 X5.331 Y-6.937
Z15
Z5
G1 Z1 F50
Z-7.365
X5.337 Y-6.942 Z-7.464 F150
X5.353 Y-6.959 Z-7.561
X5.38 Y-6.986 Z-7.653
X5.417 Y-7.022 Z-7.738
X5.463 Y-7.068 Z-7.814
X5.517 Y-7.122 Z-7.879
X5.577 Y-7.182 Z-7.931
X5.642 Y-7.247 Z-7.969
X5.71 Y-7.315 Z-7.992
X5.78 Y-7.386 Z-8
X6.229 Y-7.835
G3 X7.128 Y-7.835 I0.449 J0.449
G1 X7.835 Y-7.128
G2 X57.58 Y-7.128 I24.872 J-24.872
G1 X75.486 Y-25.034
G3 X94.454 Y-32.891 I18.968 J18.968
G1 X122.988
G3 X141.956 Y-25.034 I0 J26.825
G1 X159.863 Y-7.127
G2 X209.606 Y-7.127 I24.872 J-24.873
G1 X210.314 Y-7.833
X210.315 Y-7.835
G2 X210.315 Y-57.58 I-24.873 J-24.872
G1 X192.408 Y-75.486
G3 X184.551 Y-94.454 I18.968 J-18.968
G1 Y-122.988
G3 X192.408 Y-141.956 I26.825 J0
G1 X210.315 Y-159.863
G2 X210.315 Y-209.607 I-24.873 J-24.872
G1 X209.607 Y-210.315
G2 X159.863 Y-210.315 I-24.872 J24.873
G1 X141.956 Y-192.408
G3 X122.988 Y-184.551 I-18.968 J-18.968
G1 X94.454
G3 X75.486 Y-192.408 I0 J-26.825
G1 X57.58 Y-210.315
G2 X7.835 Y-210.315 I-24.872 J24.873
G1 X7.833 Y-210.314
X7.127 Y-209.606
G2 X7.127 Y-159.863 I24.873 J24.871
G1 X25.034 Y-141.956
G3 X32.891 Y-122.988 I-18.968 J18.968
G1 Y-94.454
G3 X25.034 Y-75.486 I-26.825 J0
G1 X7.128 Y-57.58
G2 X7.128 Y-7.835 I24.872 J24.872
G3 X7.128 Y-6.937 I-0.449 J0.449
G1 X6.679 Y-6.488
X6.608 Y-6.417 Z-7.992
X6.54 Y-6.349 Z-7.969
X6.475 Y-6.284 Z-7.931
X6.415 Y-6.224 Z-7.879
X6.361 Y-6.17 Z-7.814
X6.315 Y-6.124 Z-7.738
X6.278 Y-6.088 Z-7.653
X6.251 Y-6.061 Z-7.561
X6.235 Y-6.044 Z-7.464
X6.229 Y-6.039 Z-7.365
G0 Z15
G28 G91 Z0
G90
G28 G91 X0 Y0
G90
M5
M30
