(1001)
(T38  D=3.175 CR=0 - ZMIN=-5.76 - flat end mill)
G90 G94
G17
G21
G28 G91 Z0
G90

(2D Adaptive1)
T38
S18000 M3
G54
G0 X0.673 Y-234.693
Z15
Z5
Z-5.125
G1 Z-5.443 F200
X0.675 Y-234.685 Z-5.513
X0.68 Y-234.662 Z-5.58
X0.69 Y-234.626 Z-5.64
X0.702 Y-234.577 Z-5.691
X0.717 Y-234.519 Z-5.729
X0.734 Y-234.453 Z-5.752
X0.751 Y-234.385 Z-5.76
G3 X1 Y-232.657 I-7.852 J2.011
G1 Y-232.576
X1.01 Y-232.537
X1.322 Y-231.976
X1.658 Y-231.655
X1.961 Y-231.196
X2.188 Y-230.595
X2.294 Y-229.962
X2.332 Y-229.321
X2.342 Y-228.679
X2.345 Y-228.036
X2.346 Y-224.826
Y-182.441
Y-132.351
Y-82.26
Y-32.17
Y-31.528
X2.361 Y-31.449
X2.388 Y-31.301
X2.41 Y-31.153
X2.428 Y-30.995
X2.445 Y-30.801
X2.462 Y-30.545
X2.477 Y-30.14
X2.485 Y-29.497
X2.484 Y-28.855
X2.485 Y-1.522
X2.495 Y-1.483
X2.514 Y-1.448
X2.542 Y-1.419
X2.576 Y-1.398
X2.614 Y-1.386
X2.654 Y-1.384
X2.694 Y-1.392
X3.27 Y-1.676
X3.378 Y-1.78
X3.493 Y-1.876
X3.614 Y-1.964
X3.742 Y-2.043
X3.874 Y-2.114
X4.01 Y-2.176
X4.15 Y-2.231
X4.292 Y-2.279
X4.437 Y-2.319
X4.583 Y-2.353
X4.73 Y-2.381
X4.878 Y-2.404
X5.029 Y-2.423
X5.21 Y-2.44
X5.443 Y-2.457
X5.787 Y-2.473
X6.429 Y-2.486
X7.071 Y-2.484
X21.842 Y-2.485
X22.484
X23.113 Y-2.359
X23.756 Y-2.349
X24.398 Y-2.346
X29.535
X71.919
X122.01
X172.1
X172.743
X172.821 Y-2.361
X172.969 Y-2.388
X173.117 Y-2.41
X173.276 Y-2.428
X173.469 Y-2.445
X173.726 Y-2.462
X174.131 Y-2.477
X174.773 Y-2.485
X175.415 Y-2.484
X200.46 Y-2.485
X200.499 Y-2.495
X200.534 Y-2.514
X200.563 Y-2.542
X200.584 Y-2.576
X200.596 Y-2.614
X200.598 Y-2.654
X200.59 Y-2.694
X200.307 Y-3.27
X200.204 Y-3.379
X200.109 Y-3.495
X200.023 Y-3.618
X199.945 Y-3.746
X199.875 Y-3.879
X199.814 Y-4.016
X199.761 Y-4.156
X199.714 Y-4.299
X199.675 Y-4.443
X199.642 Y-4.59
X199.615 Y-4.737
X199.593 Y-4.886
X199.574 Y-5.041
X199.557 Y-5.229
X199.54 Y-5.475
X199.524 Y-5.851
X199.514 Y-6.494
X199.516 Y-7.136
X199.515 Y-23.833
Y-24.475
X199.641 Y-25.104
X199.651 Y-25.747
X199.654 Y-26.389
Y-31.526
Y-73.91
Y-124.001
Y-174.091
Y-224.182
Y-224.824
X199.639 Y-224.903
X199.612 Y-225.05
X199.59 Y-225.199
X199.572 Y-225.357
X199.555 Y-225.55
X199.538 Y-225.807
X199.523 Y-226.212
X199.515 Y-226.854
X199.516 Y-227.496
X199.515 Y-230.467
X199.505 Y-230.505
X199.486 Y-230.541
X199.458 Y-230.57
X199.424 Y-230.591
X199.386 Y-230.603
X199.346 Y-230.605
X199.306 Y-230.597
X198.73 Y-230.313
X198.622 Y-230.21
X198.506 Y-230.114
X198.383 Y-230.028
X198.255 Y-229.949
X198.123 Y-229.879
X197.986 Y-229.818
X197.846 Y-229.764
X197.704 Y-229.717
X197.559 Y-229.677
X197.413 Y-229.644
X197.265 Y-229.616
X197.117 Y-229.594
X196.964 Y-229.575
X196.778 Y-229.558
X196.537 Y-229.541
X196.173 Y-229.525
X195.531 Y-229.514
X194.889 Y-229.516
X155.715 Y-229.515
X155.073
X154.443 Y-229.641
X153.801 Y-229.651
X153.159 Y-229.654
X148.022
X105.637
X55.547
X5.537
X5.456
X5.309 Y-229.625
X5.161 Y-229.601
X5.013 Y-229.581
X4.84 Y-229.563
X4.621 Y-229.546
X4.461 Y-229.538
X4.3 Y-229.533
X4.262 Y-229.521
X4.227 Y-229.501
X4.199 Y-229.472
X4.179 Y-229.437
X4.168 Y-229.399
X4.167 Y-229.359
X4.177 Y-229.32
X4.196 Y-229.284
X4.63 Y-228.811
X4.732 Y-228.701
X4.827 Y-228.585
X4.913 Y-228.462
X4.99 Y-228.334
X5.06 Y-228.201
X5.121 Y-228.064
X5.174 Y-227.923
X5.22 Y-227.781
X5.259 Y-227.636
X5.292 Y-227.489
X5.319 Y-227.342
X5.341 Y-227.194
X5.359 Y-227.038
X5.377 Y-226.848
X5.394 Y-226.6
X5.409 Y-226.217
X5.419 Y-225.574
X5.418 Y-224.932
Y-180.621
Y-179.979
X5.292 Y-179.35
X5.282 Y-178.707
X5.279 Y-178.065
Y-172.928
Y-130.544
Y-80.453
Y-32.289
X5.314 Y-31.648
X5.367 Y-31.008
X5.4 Y-30.367
X5.414 Y-29.725
X5.444 Y-29.578
X5.468 Y-29.43
X5.488 Y-29.281
X5.507 Y-29.111
X5.524 Y-28.899
X5.54 Y-28.604
X5.555 Y-28.078
X5.557 Y-27.436
Y-4.398
X5.567 Y-4.359
X5.586 Y-4.324
X5.614 Y-4.295
X5.648 Y-4.273
X5.686 Y-4.261
X5.726 Y-4.259
X5.766 Y-4.267
X5.802 Y-4.285
X6.288 Y-4.704
X6.393 Y-4.812
X6.505 Y-4.911
X6.625 Y-5.002
X6.75 Y-5.085
X6.88 Y-5.159
X7.015 Y-5.225
X7.153 Y-5.283
X7.295 Y-5.333
X7.438 Y-5.376
X7.584 Y-5.412
X7.731 Y-5.443
X7.879 Y-5.467
X8.027 Y-5.488
X8.195 Y-5.506
X8.404 Y-5.523
X8.694 Y-5.539
X9.2 Y-5.554
X9.842 Y-5.557
X22.044
X22.204 Y-5.555
X22.354 Y-5.551
X22.504 Y-5.542
X22.67 Y-5.527
X22.876 Y-5.504
X23.512 Y-5.414
X24.154 Y-5.42
X24.796 Y-5.418
X29.291
X29.934
X30.563 Y-5.292
X31.205 Y-5.282
X31.848 Y-5.279
X36.985
X79.369
X129.46
X171.844
X172.486 Y-5.296
X173.125 Y-5.356
X173.767 Y-5.394
X174.408 Y-5.411
X175.051 Y-5.416
X176.335 Y-5.418
X179.546
X180.188
X180.267 Y-5.433
X180.414 Y-5.46
X180.563 Y-5.482
X180.721 Y-5.5
X180.915 Y-5.518
X181.171 Y-5.534
X181.576 Y-5.55
X182.218 Y-5.558
X182.861 Y-5.556
X197.591 Y-5.557
X197.629 Y-5.567
X197.665 Y-5.586
X197.694 Y-5.614
X197.715 Y-5.648
X197.727 Y-5.686
X197.729 Y-5.726
X197.721 Y-5.766
X197.703 Y-5.802
X197.284 Y-6.288
X197.177 Y-6.394
X197.079 Y-6.507
X196.989 Y-6.627
X196.907 Y-6.753
X196.834 Y-6.884
X196.769 Y-7.019
X196.712 Y-7.157
X196.662 Y-7.299
X196.62 Y-7.443
X196.584 Y-7.589
X196.555 Y-7.736
X196.53 Y-7.884
X196.51 Y-8.032
X196.492 Y-8.203
X196.475 Y-8.419
X196.459 Y-8.721
X196.444 Y-9.272
X196.443 Y-9.915
Y-24.043
X196.445 Y-24.203
X196.449 Y-24.353
X196.459 Y-24.503
X196.474 Y-24.671
X196.498 Y-24.879
X196.588 Y-25.515
X196.58 Y-26.157
X196.582 Y-26.799
Y-37.074
Y-37.716
X196.708 Y-38.346
X196.718 Y-38.988
X196.721 Y-39.63
Y-44.768
Y-87.152
Y-137.242
Y-187.333
Y-187.975
X196.706 Y-188.054
X196.679 Y-188.201
X196.657 Y-188.35
X196.639 Y-188.508
X196.621 Y-188.701
X196.605 Y-188.958
X196.589 Y-189.363
X196.581 Y-190.005
X196.582 Y-190.647
Y-224.683
X196.552 Y-224.893
X196.523 Y-225.134
X196.495 Y-225.426
X196.473 Y-225.758
X196.452 Y-226.272
X196.442 Y-227.074
X196.443 Y-227.596
X196.433 Y-227.635
X196.413 Y-227.67
X196.386 Y-227.699
X196.352 Y-227.72
X196.313 Y-227.732
X196.273 Y-227.734
X196.234 Y-227.726
X196.198 Y-227.708
X195.711 Y-227.29
X195.606 Y-227.183
X195.493 Y-227.084
X195.374 Y-226.993
X195.248 Y-226.911
X195.118 Y-226.837
X194.983 Y-226.772
X194.844 Y-226.715
X194.703 Y-226.665
X194.559 Y-226.622
X194.413 Y-226.586
X194.266 Y-226.556
X194.118 Y-226.531
X193.97 Y-226.511
X193.8 Y-226.493
X193.588 Y-226.476
X193.292 Y-226.46
X192.764 Y-226.445
X192.121 Y-226.443
X186.984
X186.342
X185.712 Y-226.569
X185.07 Y-226.579
X184.428 Y-226.582
X179.29
X155.529
X154.888 Y-226.609
X154.252 Y-226.696
X153.61 Y-226.714
X152.967 Y-226.719
X151.683 Y-226.721
X136.913
X86.822
X36.732
X36.09
X36.011 Y-226.706
X35.863 Y-226.679
X35.715 Y-226.657
X35.557 Y-226.639
X35.363 Y-226.621
X35.107 Y-226.605
X34.702 Y-226.589
X34.059 Y-226.581
X33.417 Y-226.582
X7.328
X7.29 Y-226.572
X7.255 Y-226.553
X7.225 Y-226.525
X7.204 Y-226.491
X7.192 Y-226.453
X7.19 Y-226.413
X7.198 Y-226.373
X7.216 Y-226.337
X7.635 Y-225.851
X7.743 Y-225.746
X7.842 Y-225.634
X7.933 Y-225.515
X8.016 Y-225.39
X8.09 Y-225.259
X8.157 Y-225.125
X8.215 Y-224.986
X8.265 Y-224.845
X8.308 Y-224.702
X8.345 Y-224.556
X8.375 Y-224.409
X8.4 Y-224.261
X8.42 Y-224.113
X8.439 Y-223.946
X8.456 Y-223.737
X8.472 Y-223.45
X8.487 Y-222.951
X8.49 Y-222.309
Y-206.254
Y-205.612
X8.364 Y-204.982
X8.354 Y-204.34
X8.352 Y-203.698
X8.351 Y-198.561
Y-180.579
X8.339 Y-179.937
X8.256 Y-179.3
X8.223 Y-178.659
X8.215 Y-178.017
X8.213 Y-177.375
X8.212 Y-173.522
Y-156.183
Y-106.092
Y-56.002
Y-55.36
X8.228 Y-55.281
X8.254 Y-55.133
X8.276 Y-54.985
X8.294 Y-54.827
X8.312 Y-54.633
X8.328 Y-54.376
X8.344 Y-53.971
X8.352 Y-53.329
X8.351 Y-52.687
Y-32.779
X8.359 Y-32.137
X8.409 Y-31.497
X8.43 Y-31.177
X8.46 Y-30.66
X8.481 Y-30.019
X8.52 Y-29.736
X8.552 Y-29.449
X8.58 Y-29.123
X8.607 Y-28.671
X8.624 Y-28.181
X8.629 Y-27.539
Y-7.471
X8.639 Y-7.432
X8.658 Y-7.397
X8.686 Y-7.368
X8.72 Y-7.346
X8.758 Y-7.334
X8.798 Y-7.332
X8.838 Y-7.34
X8.874 Y-7.358
X9.36 Y-7.777
X9.465 Y-7.885
X9.577 Y-7.984
X9.697 Y-8.075
X9.822 Y-8.157
X9.952 Y-8.231
X10.574 Y-8.395
X11.212 Y-8.462
X11.854 Y-8.483
X12.496 Y-8.488
X13.138 Y-8.489
X21.487 Y-8.49
X22.129 Y-8.487
X22.77 Y-8.453
X23.409 Y-8.384
X24.051 Y-8.36
X24.693 Y-8.353
X25.335 Y-8.351
X29.188
X29.83 Y-8.349
X30.469 Y-8.279
X31.109 Y-8.227
X31.751 Y-8.216
X32.393 Y-8.213
X34.319 Y-8.212
X60.007
X110.097
X160.188
X160.83
X160.909 Y-8.228
X161.056 Y-8.254
X161.205 Y-8.276
X161.363 Y-8.294
X161.556 Y-8.312
X161.813 Y-8.328
X162.218 Y-8.344
X162.86 Y-8.352
X163.502 Y-8.351
X171.851
X172.492 Y-8.375
X172.812 Y-8.406
X173.279 Y-8.441
X173.86 Y-8.47
X174.502 Y-8.485
X175.144 Y-8.489
X177.713 Y-8.49
X179.64
X180.28 Y-8.535
X180.594 Y-8.566
X180.98 Y-8.594
X181.424 Y-8.615
X182.066 Y-8.629
X194.509
X194.548 Y-8.639
X194.583 Y-8.658
X194.612 Y-8.686
X194.633 Y-8.72
X194.645 Y-8.758
X194.647 Y-8.798
X194.639 Y-8.838
X194.621 Y-8.874
X194.202 Y-9.36
X194.096 Y-9.467
X193.998 Y-9.58
X193.909 Y-9.701
X193.828 Y-9.827
X193.756 Y-9.958
X193.691 Y-10.094
X193.635 Y-10.233
X193.586 Y-10.375
X193.544 Y-10.519
X193.509 Y-10.665
X193.48 Y-10.812
X193.456 Y-10.96
X193.437 Y-11.109
X193.419 Y-11.283
X193.402 Y-11.503
X193.386 Y-11.816
X193.371 Y-12.413
Y-23.972
X193.378 Y-24.27
X193.534 Y-24.893
X193.627 Y-25.528
X193.643 Y-26.17
X193.648 Y-26.813
X193.649 Y-28.097
Y-37.088
X193.658 Y-37.73
X193.739 Y-38.367
X193.776 Y-39.008
X193.785 Y-39.65
X193.787 Y-40.292
X193.788 Y-44.145
Y-74.328
Y-124.418
Y-174.509
Y-175.151
X193.772 Y-175.23
X193.746 Y-175.377
X193.724 Y-175.526
X193.706 Y-175.684
X193.688 Y-175.878
X193.672 Y-176.134
X193.656 Y-176.539
X193.648 Y-177.181
X193.649 Y-177.824
Y-187.456
X193.598 Y-188.096
X193.567 Y-188.435
X193.54 Y-188.843
X193.518 Y-189.384
X193.509 Y-190.026
X193.51 Y-190.668
Y-224.302
X193.5 Y-224.422
X193.487 Y-224.46
X193.464 Y-224.493
X193.434 Y-224.52
X193.398 Y-224.538
X193.359 Y-224.547
X193.319 Y-224.545
X193.281 Y-224.534
X192.731 Y-224.202
X192.625 Y-224.096
X192.511 Y-223.998
X192.39 Y-223.909
X192.264 Y-223.828
X192.133 Y-223.756
X191.997 Y-223.691
X191.858 Y-223.635
X191.716 Y-223.586
X191.572 Y-223.544
X191.426 Y-223.509
X191.279 Y-223.48
X191.131 Y-223.456
X190.983 Y-223.437
X190.809 Y-223.419
X190.588 Y-223.402
X190.275 Y-223.386
X189.678 Y-223.371
X186.789
X186.615 Y-223.372
X186.465 Y-223.377
X186.315 Y-223.387
X186.147 Y-223.402
X185.939 Y-223.426
X185.304 Y-223.516
X184.661 Y-223.508
X184.019 Y-223.51
X155.763
X155.442 Y-223.517
X155.104 Y-223.528
X154.886 Y-223.54
X154.579 Y-223.566
X153.941 Y-223.637
X153.298 Y-223.645
X152.656 Y-223.648
X150.088 Y-223.649
X143.666
X143.024
X142.394 Y-223.775
X141.752 Y-223.785
X141.109 Y-223.787
X135.972 Y-223.788
X93.588
X43.497
X42.855
X42.776 Y-223.772
X42.629 Y-223.746
X42.48 Y-223.724
X42.322 Y-223.706
X42.129 Y-223.688
X41.872 Y-223.672
X41.467 Y-223.656
X40.825 Y-223.648
X40.183 Y-223.649
X36.33
X36.052 Y-223.612
X35.753 Y-223.58
X35.385 Y-223.551
X35.01 Y-223.53
X34.368 Y-223.512
X33.726 Y-223.509
X33.084 Y-223.51
X10.407
X10.368 Y-223.5
X10.333 Y-223.481
X10.303 Y-223.453
X10.282 Y-223.419
X10.27 Y-223.381
X10.268 Y-223.341
X10.276 Y-223.301
X10.294 Y-223.265
X10.713 Y-222.779
X10.82 Y-222.674
X10.919 Y-222.561
X11.01 Y-222.442
X11.092 Y-222.316
X11.166 Y-222.186
X11.232 Y-222.051
X11.29 Y-221.912
X11.34 Y-221.771
X11.382 Y-221.627
X11.419 Y-221.481
X11.449 Y-221.335
X11.473 Y-221.187
X11.493 Y-221.038
X11.512 Y-220.869
X11.529 Y-220.658
X11.545 Y-220.365
X11.56 Y-219.845
X11.562 Y-219.202
Y-207.001
Y-206.359
X11.436 Y-205.729
X11.358 Y-205.092
X11.3 Y-204.452
X11.288 Y-203.81
X11.285 Y-203.168
X11.284 Y-201.241
Y-181.333
X11.283 Y-180.691
X11.274 Y-180.049
X11.218 Y-179.409
X11.17 Y-178.769
X11.153 Y-178.127
X11.147 Y-177.485
X11.146 Y-176.843
X11.145 Y-170.421
Y-156.935
Y-106.844
Y-56.754
Y-56.112
X11.183 Y-55.967
X11.218 Y-55.811
X11.251 Y-55.65
X11.283 Y-55.468
X11.314 Y-55.266
X11.341 Y-55.043
X11.368 Y-54.768
X11.391 Y-54.452
X11.412 Y-53.989
X11.424 Y-53.347
X11.423 Y-52.705
Y-32.797
X11.431 Y-32.155
X11.48 Y-31.604
X11.52 Y-30.963
X11.545 Y-30.321
X11.6 Y-29.835
X11.644 Y-29.326
X11.676 Y-28.788
X11.696 Y-28.208
X11.701 Y-27.566
Y-10.468
X11.711 Y-10.429
X11.73 Y-10.394
X11.758 Y-10.365
X11.792 Y-10.344
X11.83 Y-10.332
X11.87 Y-10.33
X11.91 Y-10.338
X11.946 Y-10.356
X12.432 Y-10.775
X12.542 Y-10.877
X12.658 Y-10.972
X12.781 Y-11.058
X12.91 Y-11.135
X13.043 Y-11.204
X13.18 Y-11.265
X13.32 Y-11.319
X13.463 Y-11.365
X13.608 Y-11.404
X13.754 Y-11.436
X13.902 Y-11.463
X14.05 Y-11.485
X14.206 Y-11.504
X14.396 Y-11.521
X14.646 Y-11.538
X15.031 Y-11.553
X15.673 Y-11.563
X16.303 Y-11.436
X16.945 Y-11.426
X17.587 Y-11.424
X21.44 Y-11.422
X22.082 Y-11.416
X22.724 Y-11.39
X23.364 Y-11.334
X24.005 Y-11.301
X24.647 Y-11.289
X25.289 Y-11.286
X26.574 Y-11.284
X29.142
X29.785 Y-11.277
X30.425 Y-11.227
X31.065 Y-11.174
X31.707 Y-11.154
X32.349 Y-11.148
X32.991 Y-11.146
X36.844 Y-11.145
X65.1
X115.191
X160.144
X160.784 Y-11.188
X161.425 Y-11.239
X162.066 Y-11.268
X162.708 Y-11.281
X163.35 Y-11.283
X165.277 Y-11.284
X165.919
X165.998 Y-11.3
X166.145 Y-11.326
X166.294 Y-11.348
X166.452 Y-11.366
X166.646 Y-11.384
X166.902 Y-11.4
X167.307 Y-11.416
X167.949 Y-11.424
X168.591 Y-11.423
X171.802
X172.444 Y-11.451
X172.86 Y-11.488
X173.435 Y-11.525
X174.077 Y-11.549
X174.719 Y-11.559
X175.361 Y-11.561
X179.214 Y-11.562
X179.856 Y-11.58
X180.373 Y-11.629
X180.893 Y-11.664
X181.529 Y-11.691
X182.171 Y-11.702
X183.456 Y-11.701
X191.443
X191.482 Y-11.711
X191.517 Y-11.73
X191.546 Y-11.758
X191.567 Y-11.792
X191.579 Y-11.83
X191.581 Y-11.87
X191.573 Y-11.91
X191.555 Y-11.946
X191.136 Y-12.432
X191.03 Y-12.538
X190.932 Y-12.652
X190.842 Y-12.772
X190.761 Y-12.898
X190.688 Y-13.029
X190.623 Y-13.164
X190.566 Y-13.303
X190.517 Y-13.445
X190.475 Y-13.589
X190.439 Y-13.734
X190.41 Y-13.881
X190.385 Y-14.029
X190.366 Y-14.178
X190.348 Y-14.35
X190.331 Y-14.567
X190.315 Y-14.873
X190.3 Y-15.44
X190.299 Y-23.788
X190.302 Y-24.004
X190.308 Y-24.154
X190.319 Y-24.303
X190.334 Y-24.452
X190.354 Y-24.611
X190.385 Y-24.803
X190.501 Y-25.435
X190.584 Y-26.072
X190.573 Y-26.714
X190.577 Y-27.356
Y-35.062
Y-35.704
X190.703 Y-36.334
X190.724 Y-37.618
X190.778 Y-38.258
X190.828 Y-38.898
X190.847 Y-39.54
X190.853 Y-40.182
X190.854 Y-40.825
X190.855 Y-45.962
Y-85.135
Y-135.226
Y-174.399
X190.818 Y-175.04
X190.766 Y-175.68
X190.734 Y-176.322
X190.72 Y-176.964
X190.717 Y-177.606
X190.716 Y-179.533
Y-185.312
Y-185.954
X190.7 Y-186.033
X190.674 Y-186.181
X190.652 Y-186.329
X190.634 Y-186.487
X190.616 Y-186.681
X190.575 Y-187.322
X190.527 Y-187.962
X190.489 Y-188.436
X190.459 Y-189.007
X190.441 Y-189.649
X190.437 Y-190.291
X190.439 Y-190.933
X190.438 Y-221.437
X190.428 Y-221.476
X190.409 Y-221.511
X190.381 Y-221.54
X190.347 Y-221.561
X190.309 Y-221.573
X190.268 Y-221.575
X190.229 Y-221.567
X190.193 Y-221.549
X189.706 Y-221.13
X189.6 Y-221.024
X189.487 Y-220.926
X189.366 Y-220.837
X189.24 Y-220.756
X189.108 Y-220.684
X188.973 Y-220.619
X188.834 Y-220.563
X188.692 Y-220.514
X188.548 Y-220.472
X188.402 Y-220.437
X188.255 Y-220.408
X188.107 Y-220.384
X187.958 Y-220.365
X187.784 Y-220.347
X187.564 Y-220.33
X187.266 Y-220.315
X186.949 Y-220.307
X186.691
X186.441 Y-220.313
X186.181 Y-220.327
X185.918 Y-220.348
X185.279 Y-220.415
X184.637 Y-220.442
X183.995 Y-220.437
X182.711 Y-220.438
X176.931
X176.289
X175.659 Y-220.564
X175.017 Y-220.574
X174.375 Y-220.576
X169.237 Y-220.577
X156.394
X155.751 Y-220.58
X155.11 Y-220.597
X154.469 Y-220.638
X153.829 Y-220.694
X153.187 Y-220.709
X152.545 Y-220.714
X151.903 Y-220.715
X143.554 Y-220.716
X142.912 Y-220.734
X142.276 Y-220.822
X141.634 Y-220.846
X140.992 Y-220.853
X140.35 Y-220.854
X131.359 Y-220.855
X126.864
X76.774
X43.38
X42.74 Y-220.798
X42.1 Y-220.753
X41.458 Y-220.728
X40.816 Y-220.719
X40.174 Y-220.717
X36.963 Y-220.716
X36.321 Y-220.682
X35.681 Y-220.634
X35.04 Y-220.602
X34.398 Y-220.584
X33.756 Y-220.578
X31.829 Y-220.577
X26.692
X26.049
X25.971 Y-220.561
X25.823 Y-220.535
X25.675 Y-220.513
X25.516 Y-220.495
X25.323 Y-220.477
X25.066 Y-220.461
X24.661 Y-220.445
X24.019 Y-220.437
X23.377 Y-220.438
X13.503
X13.465 Y-220.428
X13.429 Y-220.409
X13.4 Y-220.381
X13.379 Y-220.347
X13.367 Y-220.309
X13.365 Y-220.268
X13.373 Y-220.229
X13.391 Y-220.193
X13.81 Y-219.706
X13.915 Y-219.6
X14.013 Y-219.486
X14.101 Y-219.365
X14.182 Y-219.238
X14.254 Y-219.106
X14.318 Y-218.971
X14.374 Y-218.831
X14.422 Y-218.689
X14.463 Y-218.545
X14.498 Y-218.399
X14.527 Y-218.252
X14.55 Y-218.104
X14.569 Y-217.955
X14.587 Y-217.779
X14.604 Y-217.555
X14.62 Y-217.234
X14.635 Y-216.601
X14.634 Y-215.959
Y-206.807
X14.633 Y-206.633
X14.628 Y-206.483
X14.619 Y-206.333
X14.604 Y-206.166
X14.58 Y-205.958
X14.49 Y-205.322
X14.402 Y-204.686
X14.36 Y-204.045
X14.356 Y-202.761
Y-183.495
Y-182.853
X14.23 Y-182.223
X14.22 Y-181.581
X14.217 Y-180.939
X14.21 Y-180.297
X14.176 Y-179.656
X14.129 Y-179.015
X14.098 Y-178.374
X14.085 Y-177.732
X14.08 Y-177.09
X14.079 Y-176.447
X14.078 Y-170.026
Y-133.421
Y-83.33
Y-57.001
X14.115 Y-56.36
X14.208 Y-55.724
X14.278 Y-55.086
X14.322 Y-54.445
X14.345 Y-53.804
X14.354 Y-53.161
X14.355 Y-52.519
X14.356 Y-37.749
Y-33.254
X14.36 Y-32.611
X14.398 Y-32.466
X14.431 Y-32.32
X14.459 Y-32.173
X14.488 Y-31.997
X14.519 Y-31.773
X14.545 Y-31.54
X14.574 Y-31.201
X14.612 Y-30.56
X14.676 Y-29.934
X14.723 Y-29.313
X14.755 Y-28.672
X14.77 Y-28.03
X14.773 Y-27.387
Y-23.534
Y-13.5
X14.783 Y-13.461
X14.802 Y-13.426
X14.83 Y-13.397
X14.864 Y-13.376
X14.902 Y-13.364
X14.943 Y-13.362
X14.982 Y-13.37
X15.558 Y-13.654
X15.663 Y-13.76
X15.776 Y-13.859
X15.896 Y-13.949
X16.022 Y-14.031
X16.152 Y-14.105
X16.287 Y-14.17
X16.426 Y-14.227
X16.568 Y-14.277
X16.712 Y-14.319
X16.857 Y-14.355
X17.004 Y-14.384
X17.152 Y-14.409
X17.301 Y-14.428
X17.472 Y-14.446
X17.687 Y-14.463
X17.989 Y-14.479
X18.547 Y-14.494
X20.473 Y-14.495
X21.115
X21.757 Y-14.492
X22.079 Y-14.486
X22.56 Y-14.471
X23.201 Y-14.434
X23.841 Y-14.383
X24.483 Y-14.364
X25.126 Y-14.358
X25.768 Y-14.357
X28.979 Y-14.356
X29.56 Y-14.351
X29.928 Y-14.338
X30.569 Y-14.299
X31.209 Y-14.244
X31.851 Y-14.223
X32.493 Y-14.219
X33.135 Y-14.218
X44.695 Y-14.217
X45.337
X45.966 Y-14.091
X46.609 Y-14.081
X47.251 Y-14.079
X52.388 Y-14.078
X94.773
X144.863
X145.505
X145.584 Y-14.094
X145.732 Y-14.12
X145.88 Y-14.142
X146.038 Y-14.16
X146.232 Y-14.178
X146.488 Y-14.194
X146.893 Y-14.21
X147.535 Y-14.218
X148.178 Y-14.217
X159.737
X160.379 Y-14.236
X161.019 Y-14.289
X161.66 Y-14.326
X162.302 Y-14.346
X162.944 Y-14.354
X164.228 Y-14.356
X165.513
X166.124 Y-14.42
X166.52 Y-14.452
X166.973 Y-14.476
X167.615 Y-14.493
X168.257 Y-14.496
X168.899 Y-14.495
X171.468
X172.11 Y-14.509
X172.75 Y-14.56
X173.391 Y-14.599
X174.033 Y-14.621
X174.675 Y-14.631
X175.317 Y-14.633
X179.17 Y-14.634
X179.812 Y-14.653
X180.251 Y-14.696
X180.793 Y-14.734
X181.394 Y-14.76
X182.036 Y-14.772
X182.678 Y-14.773
X183.963
X188.378
X188.416 Y-14.783
X188.451 Y-14.802
X188.481 Y-14.83
X188.502 Y-14.864
X188.514 Y-14.902
X188.516 Y-14.943
X188.508 Y-14.982
X188.49 Y-15.018
X188.071 Y-15.505
X187.964 Y-15.61
X187.865 Y-15.723
X187.775 Y-15.842
X187.693 Y-15.968
X187.62 Y-16.099
X187.554 Y-16.234
X187.497 Y-16.373
X187.447 Y-16.514
X187.405 Y-16.658
X187.369 Y-16.804
X187.339 Y-16.951
X187.315 Y-17.099
X187.295 Y-17.247
X187.277 Y-17.417
X187.26 Y-17.631
X187.244 Y-17.93
X187.228 Y-18.469
X187.227 Y-19.111
Y-21.038
Y-21.68
X187.353 Y-22.309
X187.363 Y-22.952
X187.365 Y-23.594
X187.383 Y-24.236
X187.442 Y-24.875
X187.539 Y-25.51
X187.632 Y-26.145
X187.639 Y-26.788
X187.643 Y-27.43
X187.644 Y-29.356
Y-35.136
X187.659 Y-35.778
X187.744 Y-36.414
X187.775 Y-37.056
X187.798 Y-37.698
X187.889 Y-38.979
X187.91 Y-39.621
X187.918 Y-40.263
X187.921 Y-40.905
X187.922 Y-42.832
Y-71.088
Y-121.178
Y-171.269
Y-171.911
X187.906 Y-171.99
X187.88 Y-172.137
X187.858 Y-172.286
X187.84 Y-172.444
X187.822 Y-172.637
X187.806 Y-172.894
X187.79 Y-173.299
X187.782 Y-173.941
X187.772 Y-174.583
X187.721 Y-175.223
X187.68 Y-175.864
X187.656 Y-176.506
X187.646 Y-177.148
X187.644 Y-178.432
Y-185.496
X187.584 Y-186.136
X187.53 Y-186.776
X187.488 Y-187.417
X187.438 Y-188.057
X187.399 Y-188.683
X187.376 Y-189.325
X187.366 Y-189.967
X187.365 Y-190.609
X187.367 Y-191.252
X187.366 Y-218.384
X187.356 Y-218.423
X187.337 Y-218.458
X187.309 Y-218.487
X187.275 Y-218.508
X187.237 Y-218.52
X187.196 Y-218.522
X187.157 Y-218.514
X187.121 Y-218.496
X186.634 Y-218.077
X186.522 Y-217.978
X186.402 Y-217.888
X186.276 Y-217.807
X186.144 Y-217.735
X186.009 Y-217.671
X185.869 Y-217.615
X185.727 Y-217.567
X185.583 Y-217.527
X185.436 Y-217.494
X185.289 Y-217.467
X185.14 Y-217.445
X184.978 Y-217.426
X184.777 Y-217.407
X184.52 Y-217.39
X183.885 Y-217.49
X183.243 Y-217.502
X182.601 Y-217.504
X179.39 Y-217.505
X176.821
X176.179 Y-217.523
X175.543 Y-217.611
X174.902 Y-217.635
X174.259 Y-217.642
X173.617 Y-217.643
X165.269 Y-217.644
X156.92
X156.278 Y-217.645
X155.636 Y-217.652
X154.994 Y-217.672
X154.353 Y-217.71
X153.713 Y-217.755
X153.071 Y-217.773
X152.428 Y-217.779
X151.786 Y-217.782
X149.218 Y-217.783
X144.08
X143.438 Y-217.789
X142.796 Y-217.815
X142.157 Y-217.881
X141.516 Y-217.908
X140.874 Y-217.918
X140.232 Y-217.921
X138.305 Y-217.922
X134.452
X84.361
X43.904
X43.262 Y-217.892
X42.621 Y-217.849
X41.98 Y-217.816
X41.338 Y-217.796
X40.696 Y-217.787
X40.054 Y-217.784
X38.77 Y-217.783
X37.485
X36.843 Y-217.767
X36.202 Y-217.729
X35.561 Y-217.692
X34.919 Y-217.667
X34.277 Y-217.652
X33.635 Y-217.647
X33.557 Y-217.631
X33.409 Y-217.604
X33.261 Y-217.582
X33.104 Y-217.563
X32.915 Y-217.546
X32.665 Y-217.529
X32.279 Y-217.513
X31.637 Y-217.504
X30.995 Y-217.505
X26.499
X25.86 Y-217.444
X25.487 Y-217.413
X25.048 Y-217.388
X24.406 Y-217.369
X23.764 Y-217.365
X23.122 Y-217.366
X16.58
X16.541 Y-217.356
X16.506 Y-217.337
X16.477 Y-217.309
X16.455 Y-217.275
X16.443 Y-217.237
X16.441 Y-217.196
X16.449 Y-217.157
X16.467 Y-217.121
X16.886 Y-216.634
X16.991 Y-216.527
X17.088 Y-216.413
X17.177 Y-216.292
X17.257 Y-216.165
X17.328 Y-216.033
X17.392 Y-215.897
X17.447 Y-215.758
X17.496 Y-215.616
X17.537 Y-215.472
X17.571 Y-215.326
X17.6 Y-215.178
X17.623 Y-215.03
X17.642 Y-214.881
X17.66 Y-214.704
X17.677 Y-214.478
X17.693 Y-214.151
X17.707 Y-213.509
X17.706 Y-212.867
Y-207.087
X17.704 Y-206.731
X17.695 Y-206.455
X17.679 Y-206.177
X17.655 Y-205.894
X17.601 Y-205.402
X17.514 Y-204.766
X17.437 Y-204.128
X17.43 Y-203.486
X17.428 Y-202.202
Y-185.505
Y-184.863
X17.302 Y-184.233
X17.292 Y-183.591
X17.288 Y-182.949
X17.216 Y-182.311
X17.165 Y-181.67
X17.153 Y-181.028
X17.143 Y-180.386
X17.116 Y-179.745
X17.075 Y-179.104
X17.04 Y-178.462
X17.022 Y-177.821
X17.015 Y-177.178
X17.013 Y-176.536
X17.011 Y-174.61
Y-135.436
Y-85.346
Y-57.732
X17.019 Y-57.09
X17.075 Y-56.45
X17.148 Y-55.812
X17.207 Y-55.173
X17.248 Y-54.532
X17.272 Y-53.89
X17.284 Y-53.248
X17.287 Y-52.606
X17.289 Y-51.321
Y-35.267
Y-34.624
X17.305 Y-34.546
X17.331 Y-34.398
X17.353 Y-34.25
X17.371 Y-34.091
X17.389 Y-33.897
X17.407 Y-33.616
X17.432 Y-32.975
X17.491 Y-32.639
X17.54 Y-32.312
X17.584 Y-31.949
X17.625 Y-31.535
X17.67 Y-30.894
X17.73 Y-30.255
X17.781 Y-29.615
X17.816 Y-28.974
X17.837 Y-28.332
X17.845 Y-27.69
Y-27.047
Y-16.411
X17.855 Y-16.372
X17.874 Y-16.337
X17.902 Y-16.308
X17.936 Y-16.287
X17.974 Y-16.275
X18.015 Y-16.273
X18.054 Y-16.281
X18.09 Y-16.299
X18.577 Y-16.718
X18.681 Y-16.825
X18.794 Y-16.924
X18.913 Y-17.015
X19.039 Y-17.097
X19.169 Y-17.171
X19.304 Y-17.237
X19.443 Y-17.294
X19.584 Y-17.344
X19.728 Y-17.387
X19.873 Y-17.424
X20.02 Y-17.454
X20.168 Y-17.478
X20.317 Y-17.498
X20.484 Y-17.516
X20.686 Y-17.533
X20.961 Y-17.548
X21.354 Y-17.559
X21.867 Y-17.561
X22.489 Y-17.547
X23.13 Y-17.516
X23.771 Y-17.471
X24.412 Y-17.437
X25.054 Y-17.431
X25.696 Y-17.429
X28.907 Y-17.428
X29.524 Y-17.424
X30.048 Y-17.407
X30.689 Y-17.369
X31.329 Y-17.318
X31.971 Y-17.292
X33.255 Y-17.289
X44.975
X45.125 Y-17.286
X45.275 Y-17.28
X45.426 Y-17.269
X45.606 Y-17.251
X46.244 Y-17.171
X46.885 Y-17.149
X47.528 Y-17.151
X48.812 Y-17.15
X49.454
X50.084 Y-17.024
X50.726 Y-17.014
X51.368 Y-17.012
X56.506 Y-17.011
X98.89
X145.127
X145.766 Y-17.078
X146.407 Y-17.12
X147.049 Y-17.141
X147.691 Y-17.148
X148.333 Y-17.15
X148.975
X149.617
X149.696 Y-17.166
X149.844 Y-17.192
X149.992 Y-17.214
X150.15 Y-17.233
X150.344 Y-17.25
X150.6 Y-17.266
X151.005 Y-17.282
X151.647 Y-17.29
X152.289 Y-17.289
X159.353
X159.996 Y-17.296
X160.636 Y-17.338
X161.277 Y-17.382
X161.919 Y-17.408
X162.561 Y-17.422
X163.203 Y-17.427
X165.13 Y-17.428
X165.771 Y-17.467
X166.201 Y-17.505
X166.671 Y-17.535
X167.313 Y-17.559
X167.955 Y-17.567
X171.166
X171.808 Y-17.574
X173.089 Y-17.659
X173.731 Y-17.685
X174.373 Y-17.699
X175.015 Y-17.705
X176.3 Y-17.706
X178.868
X179.511 Y-17.716
X180.151 Y-17.769
X180.791 Y-17.81
X181.433 Y-17.835
X182.075 Y-17.845
X185.286
X185.325 Y-17.855
X185.36 Y-17.874
X185.389 Y-17.902
X185.41 Y-17.936
X185.422 Y-17.974
X185.424 Y-18.015
X185.416 Y-18.054
X185.399 Y-18.09
X184.98 Y-18.577
X184.874 Y-18.683
X184.777 Y-18.797
X184.688 Y-18.918
X184.608 Y-19.045
X184.536 Y-19.176
X184.472 Y-19.312
X184.416 Y-19.451
X184.367 Y-19.593
X184.326 Y-19.738
X184.291 Y-19.883
X184.262 Y-20.031
X184.239 Y-20.179
X184.22 Y-20.328
X184.202 Y-20.503
X184.185 Y-20.727
X184.169 Y-21.048
X184.163 Y-21.291
Y-21.441
X184.168 Y-21.591
X184.177 Y-21.741
X184.192 Y-21.908
X184.216 Y-22.116
X184.306 Y-22.752
X184.296 Y-23.187
X184.297 Y-23.767
X184.305 Y-24.066
X184.327 Y-24.466
X184.356 Y-24.83
X184.392 Y-25.173
X184.476 Y-25.81
X184.572 Y-26.445
X184.568 Y-27.087
X184.571 Y-27.729
X184.572 Y-31.582
Y-32.225
X184.698 Y-32.854
X184.708 Y-33.496
X184.71 Y-34.139
X184.711 Y-34.781
X184.719 Y-35.423
X184.756 Y-36.064
X184.814 Y-36.703
X184.882 Y-37.986
X184.925 Y-38.627
X184.96 Y-39.268
X184.977 Y-39.91
X184.984 Y-40.552
X184.987 Y-41.194
X184.989 Y-42.479
Y-81.652
Y-131.743
Y-171.558
X184.921 Y-172.197
X184.878 Y-172.837
X184.858 Y-173.479
X184.846 Y-174.121
X184.811 Y-174.763
X184.77 Y-175.403
X184.74 Y-176.045
X184.722 Y-176.687
X184.715 Y-177.329
X184.712 Y-177.971
X184.711 Y-179.898
Y-181.824
Y-182.466
X184.695 Y-182.545
X184.669 Y-182.693
X184.647 Y-182.841
X184.629 Y-182.999
X184.611 Y-183.193
X184.595 Y-183.45
X184.579 Y-183.855
X184.571 Y-184.497
X184.572 Y-185.139
X184.536 Y-185.78
X184.477 Y-186.419
X184.433 Y-187.06
X184.385 Y-187.701
X184.342 Y-188.341
X184.314 Y-188.983
X184.298 Y-189.625
X184.293 Y-190.267
X184.294 Y-191.551
Y-215.393
X184.284 Y-215.431
X184.265 Y-215.466
X184.237 Y-215.496
X184.203 Y-215.517
X184.164 Y-215.529
X184.124 Y-215.531
X184.085 Y-215.523
X183.509 Y-215.239
X183.401 Y-215.135
X183.286 Y-215.039
X183.164 Y-214.952
X183.036 Y-214.873
X182.904 Y-214.802
X182.767 Y-214.74
X182.628 Y-214.685
X182.485 Y-214.638
X182.341 Y-214.598
X182.195 Y-214.564
X182.047 Y-214.536
X181.899 Y-214.513
X181.748 Y-214.494
X181.566 Y-214.477
X181.331 Y-214.46
X180.982 Y-214.444
X180.34 Y-214.432
X179.698 Y-214.433
X178.366
X178.333 Y-214.437
X178.238 Y-214.452
X178.093 Y-214.473
X177.801 Y-214.512
X177.655 Y-214.527
X177.509
X176.868 Y-214.562
X176.226 Y-214.587
X175.587 Y-214.652
X174.946 Y-214.693
X174.304 Y-214.705
X173.662 Y-214.709
X172.378 Y-214.711
X156.965
X156.323 Y-214.713
X155.681 Y-214.72
X155.039 Y-214.738
X154.398 Y-214.771
X153.757 Y-214.812
X153.115 Y-214.835
X152.473 Y-214.844
X151.831 Y-214.848
X150.546 Y-214.85
X144.767
X144.125 Y-214.851
X143.482 Y-214.858
X142.841 Y-214.88
X142.201 Y-214.933
X141.559 Y-214.967
X140.917 Y-214.981
X140.275 Y-214.986
X139.633 Y-214.988
X135.78 Y-214.989
X127.431
X77.341
X44.589
X43.947 Y-214.982
X43.306 Y-214.951
X42.665 Y-214.915
X42.023 Y-214.886
X41.381 Y-214.867
X40.739 Y-214.857
X40.097 Y-214.852
X39.455 Y-214.851
X38.17 Y-214.85
X37.528 Y-214.846
X36.886 Y-214.826
X36.245 Y-214.793
X35.604 Y-214.761
X34.962 Y-214.737
X34.32 Y-214.722
X33.68 Y-214.671
X33.04 Y-214.618
X32.398 Y-214.589
X31.756 Y-214.576
X31.114 Y-214.573
X29.187 Y-214.572
X27.261
X26.619 Y-214.559
X26.222 Y-214.529
X26.214
X24.636 Y-214.528
X24.345 Y-214.527
X24.199 Y-214.512
X23.559 Y-214.459
X23.413 Y-214.425
X23.265 Y-214.397
X23.117 Y-214.374
X22.966 Y-214.356
X22.785 Y-214.338
X22.551 Y-214.321
X22.205 Y-214.305
X21.563 Y-214.293
X20.841 Y-214.294
X19.637
X19.598 Y-214.284
X19.563 Y-214.264
X19.534 Y-214.237
X19.513 Y-214.203
X19.501 Y-214.164
X19.499 Y-214.124
X19.507 Y-214.085
X19.524 Y-214.049
X19.943 Y-213.562
X20.05 Y-213.456
X20.148 Y-213.343
X20.237 Y-213.223
X20.319 Y-213.097
X20.391 Y-212.965
X20.456 Y-212.83
X20.513 Y-212.691
X20.562 Y-212.549
X20.603 Y-212.405
X20.622 Y-212.33
X20.631 Y-212.255
X20.622 Y-212.181
X20.596 Y-212.111
X20.476 Y-211.871
X20.406 Y-211.716
X20.36 Y-211.58
X20.322 Y-211.434
X20.25 Y-210.996
X20.181 Y-210.558
X20.174 Y-210.412
X20.164 Y-210.12
X20.163 Y-209.974
Y-183.125
X20.13 Y-182.483
X20.11 Y-181.841
X20.092 Y-181.199
X20.08 Y-180.557
X20.057 Y-179.916
X20.023 Y-179.274
X19.987 Y-178.633
X19.963 Y-177.991
X19.952 Y-177.349
X19.947 Y-176.707
X19.945 Y-176.065
X19.944 Y-172.854
Y-133.038
Y-82.948
X19.945 Y-57.903
X19.959 Y-57.261
X20.013 Y-56.621
X20.076 Y-55.982
X20.131 Y-55.342
X20.162 Y-54.836
X20.163 Y-54.829
Y-27.278
X20.182 Y-26.841
X20.201 Y-26.695
X20.26 Y-26.322
X20.321 Y-25.965
X20.355 Y-25.819
X20.401 Y-25.673
X20.406 Y-25.663
X20.623 Y-25.128
X20.676 Y-24.988
X20.722 Y-24.845
X20.76 Y-24.7
X20.793 Y-24.554
X20.82 Y-24.406
X20.841 Y-24.258
X20.86 Y-24.1
X20.877 Y-23.908
X20.894 Y-23.654
X20.909 Y-23.257
X20.918 Y-22.615
X20.917 Y-21.973
Y-19.484
X20.927 Y-19.445
X20.946 Y-19.41
X20.974 Y-19.381
X21.008 Y-19.36
X21.047 Y-19.348
X21.087 Y-19.346
X21.126 Y-19.354
X21.162 Y-19.372
X21.649 Y-19.791
X21.757 Y-19.895
X21.873 Y-19.99
X21.995 Y-20.076
X22.124 Y-20.154
X22.257 Y-20.223
X22.394 Y-20.284
X22.535 Y-20.336
X22.678 Y-20.38
X22.824 Y-20.416
X22.971 Y-20.445
X23.119 Y-20.468
X23.268 Y-20.485
X23.418 Y-20.497
X23.586 Y-20.506
X23.797 Y-20.512
X24.439 Y-20.514
X25.081 Y-20.502
X26.365 Y-20.5
X28.934
X29.576 Y-20.496
X30.178 Y-20.476
X30.819 Y-20.439
X31.46 Y-20.389
X32.101 Y-20.361
X32.743 Y-20.363
X33.386 Y-20.361
X44.875
X45.163 Y-20.354
X45.441 Y-20.339
X45.774 Y-20.313
X46.413 Y-20.247
X47.054 Y-20.216
X47.696 Y-20.224
X48.339 Y-20.222
X48.981
X49.141
X49.291 Y-20.218
X49.441 Y-20.21
X49.601 Y-20.197
X49.796 Y-20.176
X50.432 Y-20.09
X51.074 Y-20.085
X52.359 Y-20.083
X64.56
X65.202
X65.832 Y-19.958
X66.474 Y-19.947
X67.116 Y-19.945
X72.254 Y-19.944
X114.638
X144.821
X145.461 Y-19.995
X146.102 Y-20.038
X146.743 Y-20.064
X147.386 Y-20.076
X148.028 Y-20.081
X148.67 Y-20.083
X149.312 Y-20.092
X149.951 Y-20.156
X150.592 Y-20.196
X151.234 Y-20.215
X151.876 Y-20.221
X153.16 Y-20.222
X158.94
X159.582 Y-20.226
X160.224 Y-20.254
X160.865 Y-20.294
X161.506 Y-20.325
X162.148 Y-20.345
X162.79 Y-20.356
X163.432 Y-20.359
X164.717 Y-20.361
X165.358 Y-20.385
X165.503 Y-20.425
X165.649 Y-20.459
X165.796 Y-20.488
X165.944 Y-20.514
X166.112 Y-20.538
X166.323 Y-20.563
X166.614 Y-20.59
X166.921 Y-20.61
X167.444 Y-20.631
X168.086 Y-20.64
X169.371 Y-20.639
X171.297 Y-20.64
X171.939 Y-20.658
X172.58 Y-20.705
X173.221 Y-20.74
X173.863 Y-20.762
X174.505 Y-20.773
X175.147 Y-20.777
X178.358 Y-20.778
X179 Y-20.779
X179.642 Y-20.805
X179.962 Y-20.831
X180.492 Y-20.869
X180.813 Y-20.884
X181.048 Y-20.892
X181.69 Y-20.913
X182.172 Y-20.916
X182.212
X182.251 Y-20.926
X182.286 Y-20.946
X182.315 Y-20.974
X182.336 Y-21.008
X182.348 Y-21.046
X182.35 Y-21.086
X182.342 Y-21.125
X182.056 Y-21.701
X181.95 Y-21.807
X181.853 Y-21.921
X181.763 Y-22.041
X181.682 Y-22.167
X181.609 Y-22.298
X181.545 Y-22.434
X181.489 Y-22.573
X181.44 Y-22.715
X181.398 Y-22.859
X181.363 Y-23.005
X181.334 Y-23.152
X181.311 Y-23.3
X181.293 Y-23.449
X181.279 Y-23.598
X181.269 Y-23.757
X181.262 Y-23.951
X181.26 Y-24.157
X181.264 Y-24.414
X181.275 Y-24.695
X181.296 Y-25.004
X181.302 Y-25.046
X181.313 Y-25.087
X181.33 Y-25.127
X181.46 Y-25.381
X181.531 Y-25.527
X181.599 Y-25.673
X181.645 Y-25.819
X181.679 Y-25.965
X181.739 Y-26.318
X181.799 Y-26.695
X181.818 Y-26.841
X181.837 Y-27.278
Y-35.596
X181.87 Y-36.237
X181.89 Y-36.879
X181.921 Y-37.521
X181.956 Y-38.162
X181.995 Y-38.803
X182.026 Y-39.444
X182.043 Y-40.086
X182.051 Y-40.728
X182.054 Y-41.371
X182.055 Y-42.655
X182.056 Y-85.681
Y-135.772
Y-171.092
X182.013 Y-171.733
X181.97 Y-172.374
X181.941 Y-173.015
X181.923 Y-173.657
X181.896 Y-174.299
X181.859 Y-174.94
X181.837 Y-175.373
Y-209.974
X181.836 Y-210.12
X181.826 Y-210.412
X181.819 Y-210.558
X181.739 Y-211.063
X181.678 Y-211.434
X181.64 Y-211.58
X181.593 Y-211.717
X181.524 Y-211.871
X181.448 Y-212.025
X181.302 Y-212.311
X181.222 Y-212.455
X181.022 Y-212.804
X181.01 Y-212.823
X180.95 Y-212.893
X180.864 Y-212.991
X180.426 Y-213.429
X180.376 Y-213.477
X180.135 Y-213.696
X180.037 Y-213.768
X179.989 Y-213.8
X179.697 Y-213.952
X179.405 Y-214.102
X179.26 Y-214.177
X179.114 Y-214.247
X178.968 Y-214.305
X178.819 Y-214.352
X178.676 Y-214.381
X178.53 Y-214.406
X178.333 Y-214.437
G3 X178.069 Y-214.8 Z-5.56 I0.05 J-0.314
X178.697 Y-214.701 I0.314 J0.049
X178.163 Y-214.521 I-0.314 J-0.049
G1 X177.883 Y-214.79
G3 X178.322 Y-215.249 I0.22 J-0.229
X178.264 Y-214.746 I-0.22 J0.229
X177.997 Y-214.62 I-0.803 J-1.364
X177.509 Y-214.527 Z-5.76 I-0.536 J-1.489
G1 X177.071 Y-214.529
X144.688 Y-214.528
X144.25 Y-214.522
X144.074 Y-214.498
X143.813 Y-214.46
X143.375 Y-214.391
X143.229 Y-214.362
X143.084 Y-214.326
X142.938 Y-214.269
X142.792 Y-214.202
X142.5 Y-214.054
X142.354 Y-213.978
X141.962 Y-213.768
X141.917 Y-213.739
X141.771 Y-213.607
X141.625 Y-213.473
X141.475 Y-213.331
X141.187 Y-213.039
X140.769 Y-212.654
X140.263 Y-212.362
X139.649 Y-212.174
X139.012 Y-212.092
X138.37 Y-212.065
X137.728 Y-212.058
X137.086 Y-212.056
X108.83
X90.849
X61.626
X61.513 Y-212.077
X61.414 Y-212.137
X61.343 Y-212.229
X61.303 Y-212.309
X61.25 Y-212.408
X61.055 Y-212.747
X60.955 Y-212.893
X60.812 Y-213.039
X60.521 Y-213.335
X60.371 Y-213.477
X60.213 Y-213.623
X60.083 Y-213.739
X60.038 Y-213.768
X59.645 Y-213.979
X59.488 Y-214.06
X59.2 Y-214.206
X59.062 Y-214.269
X58.916 Y-214.326
X58.77 Y-214.362
X58.624 Y-214.391
X58.187 Y-214.46
X57.895 Y-214.503
X57.749 Y-214.522
X57.311 Y-214.528
X26.214 Y-214.529
G3 X25.98 Y-214.63 Z-5.655 I0 J-0.317
G1 X25.936 Y-214.67 Z-5.631
X25.885 Y-214.701 Z-5.607
X25.828 Y-214.722 Z-5.583
X25.773 Y-214.736 Z-5.56
X25.533 Y-214.8
X25.194 Y-214.889
G2 X24.916 Y-214.831 I-0.081 J0.307
G3 X24.669 Y-214.671 I-0.982 J-1.241
X24.199 Y-214.512 Z-5.76 I-0.735 J-1.402
G1 X23.907 Y-214.473
X23.761 Y-214.452
X23.469 Y-214.406
X23.323 Y-214.381
X23.178 Y-214.351
X23.032 Y-214.305
X22.886 Y-214.247
X22.74 Y-214.176
X22.448 Y-214.027
X22.157 Y-213.876
X22.011 Y-213.799
X21.964 Y-213.768
X21.865 Y-213.695
X21.624 Y-213.477
X21.573 Y-213.429
X21.135 Y-212.991
X21.049 Y-212.893
X20.99 Y-212.823
X20.967 Y-212.785
X20.777 Y-212.455
X20.697 Y-212.309
X20.596 Y-212.111
G3 X20.005 Y-212.213 I-0.278 J-0.154
G1 X19.994 Y-212.283 Z-5.752
X19.983 Y-212.349 Z-5.729
X19.973 Y-212.409 Z-5.691
X19.965 Y-212.458 Z-5.64
X19.959 Y-212.496 Z-5.58
X19.955 Y-212.519 Z-5.513
X19.954 Y-212.527 Z-5.443
G0 Z5
X19.779 Y-184.151
Z-5.125
G1 Z-5.443 F200
X19.783 Y-184.144 Z-5.513
X19.795 Y-184.124 Z-5.58
X19.814 Y-184.091 Z-5.64
X19.84 Y-184.048 Z-5.691
X19.871 Y-183.997 Z-5.729
X19.905 Y-183.939 Z-5.752
X19.941 Y-183.878 Z-5.76
G3 X20.163 Y-183.125 I-1.36 J0.809
G1 Y-167.365
X20.165 Y-167.219
X20.175 Y-166.927
X20.188 Y-166.781
X20.26 Y-166.323
X20.33 Y-165.906
X20.373 Y-165.76
X20.406 Y-165.666
X20.496 Y-165.468
X20.719 Y-165.03
X20.979 Y-164.576
X20.99 Y-164.559
X21.086 Y-164.446
X21.135 Y-164.391
X21.573 Y-163.954
X21.719 Y-163.82
X21.833 Y-163.717
X22.223 Y-163.326
X22.522 Y-162.85
X22.735 Y-162.245
X22.832 Y-161.61
X22.865 Y-160.968
X22.874 Y-160.326
X22.877 Y-159.684
X22.878 Y-155.189
Y-134.438
X22.856 Y-134.323
X22.795 Y-134.224
X22.701 Y-134.154
X22.448 Y-134.027
X22.294 Y-133.948
X22.017 Y-133.802
X21.865 Y-133.698
X21.815 Y-133.656
X21.656 Y-133.511
X21.135 Y-132.99
X21.08 Y-132.927
X20.99 Y-132.82
X20.96 Y-132.781
X20.867 Y-132.635
X20.844 Y-132.594
X20.641 Y-132.197
X20.552 Y-132.017
X20.406 Y-131.714
X20.37 Y-131.614
X20.328 Y-131.468
X20.303 Y-131.322
X20.26 Y-131.062
X20.232 Y-130.884
X20.211 Y-130.738
X20.177 Y-130.446
X20.163 Y-130.3
Y-97.322
X20.167 Y-97.176
X20.178 Y-96.884
X20.194 Y-96.738
X20.264 Y-96.3
X20.313 Y-96.008
X20.342 Y-95.862
X20.386 Y-95.716
X20.406 Y-95.664
X20.449 Y-95.57
X20.518 Y-95.425
X20.844 Y-94.787
X20.901 Y-94.695
X20.99 Y-94.559
X20.997 Y-94.549
X21.124 Y-94.403
X21.573 Y-93.954
X21.721 Y-93.819
X21.865 Y-93.691
X22.214 Y-93.346
X22.514 Y-92.875
X22.731 Y-92.271
X22.83 Y-91.636
X22.865 Y-90.995
X22.874 Y-90.353
X22.877 Y-89.711
X22.878 Y-85.215
Y-84.438
X22.856 Y-84.323
X22.795 Y-84.224
X22.701 Y-84.154
X22.448 Y-84.028
X22.157 Y-83.879
X22.011 Y-83.798
X21.865 Y-83.695
X21.757 Y-83.605
X21.604 Y-83.459
X21.135 Y-82.99
X21.038 Y-82.875
X20.99 Y-82.816
X20.925 Y-82.729
X20.84 Y-82.583
X20.763 Y-82.437
X20.614 Y-82.146
X20.543 Y-82
X20.375 Y-81.63
X20.369 Y-81.613
X20.298 Y-81.27
X20.27 Y-81.124
X20.224 Y-80.832
X20.202 Y-80.686
X20.163 Y-80.248
Y-54.829
G3 X19.589 Y-54.652 I-0.317 J-0.011
G1 X19.547 Y-54.709 Z-5.752
X19.508 Y-54.763 Z-5.729
X19.472 Y-54.812 Z-5.691
X19.442 Y-54.852 Z-5.64
X19.42 Y-54.883 Z-5.58
X19.406 Y-54.902 Z-5.513
X19.401 Y-54.908 Z-5.443
G0 Z5
X19.625 Y-26.431
Z-5.125
G1 Z-5.443 F200
X19.631 Y-26.426 Z-5.513
X19.651 Y-26.413 Z-5.58
X19.682 Y-26.392 Z-5.64
X19.723 Y-26.364 Z-5.691
X19.773 Y-26.33 Z-5.729
X19.829 Y-26.292 Z-5.752
X19.887 Y-26.252 Z-5.76
G3 X20.406 Y-25.663 I-0.891 J1.308
G1 X20.469 Y-25.527
X20.552 Y-25.359
X20.764 Y-24.943
X20.844 Y-24.789
X20.929 Y-24.652
X20.99 Y-24.562
X21.034 Y-24.506
X21.135 Y-24.392
X21.605 Y-23.922
X21.755 Y-23.776
X21.865 Y-23.687
X21.937 Y-23.63
X22.011 Y-23.583
X22.481 Y-23.338
X22.767 Y-23.192
X22.886 Y-23.135
X23.032 Y-23.077
X23.122 Y-23.046
X23.178 Y-23.031
X23.323 Y-23.002
X23.469 Y-22.977
X23.761 Y-22.931
X23.907 Y-22.909
X24.199 Y-22.87
X24.345 Y-22.855
X24.928 Y-22.854
X177.217
X177.655 Y-22.855
X177.801 Y-22.87
X178.093 Y-22.909
X178.238 Y-22.93
X178.53 Y-22.977
X178.676 Y-23.002
X178.822 Y-23.031
X178.878 Y-23.046
X178.968 Y-23.077
X179.114 Y-23.135
X179.26 Y-23.206
X179.551 Y-23.355
X179.989 Y-23.582
X180.064 Y-23.63
X180.135 Y-23.686
X180.246 Y-23.776
X180.426 Y-23.953
X180.864 Y-24.392
X180.966 Y-24.506
X181.01 Y-24.561
X181.07 Y-24.652
X181.156 Y-24.789
X181.33 Y-25.127
X181.46 Y-25.381 Z-5.645
X181.531 Y-25.527 Z-5.58
X181.552 Y-25.573 Z-5.56
X181.599 Y-25.673
X181.641 Y-25.804
X181.645 Y-25.819
X181.679 Y-25.965
X181.739 Y-26.318
X181.753 Y-26.403
X181.799 Y-26.695
X181.818 Y-26.841
X181.831 Y-27.132
X181.837 Y-27.278
Y-34.849
Y-35.097
Y-35.596 Z-5.76
Y-60.257
X181.827 Y-60.403
X181.795 Y-60.695
X181.775 Y-60.841
X181.705 Y-61.278
X181.68 Y-61.424
X181.643 Y-61.57
X181.592 Y-61.716
X181.382 Y-62.154
X181.156 Y-62.596
X181.068 Y-62.738
X181.01 Y-62.82
X180.956 Y-62.884
X180.864 Y-62.991
X180.388 Y-63.467
X180.281 Y-63.569
X180.233 Y-63.613
X180.135 Y-63.698
X179.885 Y-63.914
X179.573 Y-64.337
X179.316 Y-64.925
X179.189 Y-65.555
X179.141 Y-66.195
X179.127 Y-66.837
X179.124 Y-67.479
X179.123 Y-69.406
X179.122 Y-92.941
X179.144 Y-93.055
X179.204 Y-93.154
X179.296 Y-93.224
X179.604 Y-93.382
X179.885 Y-93.528
X179.989 Y-93.582
X180.116 Y-93.673
X180.281 Y-93.821
X180.426 Y-93.953
X180.876 Y-94.403
X181.003 Y-94.549
X181.01 Y-94.559
X181.099 Y-94.695
X181.156 Y-94.787
X181.482 Y-95.425
X181.551 Y-95.57
X181.593 Y-95.663
X181.614 Y-95.716
X181.658 Y-95.862
X181.687 Y-96.008
X181.739 Y-96.318
X181.806 Y-96.738
X181.822 Y-96.884
X181.833 Y-97.176
X181.837 Y-97.322
Y-150.146
X181.835 Y-150.292
X181.792 Y-150.73
X181.723 Y-151.167
X181.694 Y-151.313
X181.626 Y-151.63
X181.622 Y-151.642
X181.436 Y-152.043
X181.364 Y-152.189
X181.215 Y-152.481
X181.156 Y-152.59
X181.046 Y-152.772
X180.926 Y-152.918
X180.864 Y-152.99
X180.426 Y-153.428
X180.281 Y-153.568
X180.197 Y-153.648
X180.135 Y-153.695
X179.959 Y-153.833
X179.639 Y-154.225
X179.36 Y-154.785
X179.208 Y-155.409
X179.147 Y-156.048
X179.129 Y-156.69
X179.124 Y-157.332
X179.123 Y-158.617
X179.122 Y-162.941
X179.144 Y-163.055
X179.204 Y-163.153
X179.296 Y-163.224
X179.551 Y-163.355
X179.967 Y-163.571
X179.989 Y-163.583
X180.135 Y-163.687
X180.328 Y-163.863
X180.426 Y-163.953
X180.864 Y-164.391
X180.914 Y-164.446
X181.01 Y-164.559
X181.021 Y-164.576
X181.281 Y-165.03
X181.504 Y-165.468
X181.593 Y-165.665
X181.628 Y-165.76
X181.67 Y-165.906
X181.743 Y-166.343
X181.812 Y-166.781
X181.825 Y-166.927
X181.835 Y-167.219
X181.837 Y-167.365
Y-175.373
G3 X182.411 Y-175.55 I0.317 J0.011
G1 X182.453 Y-175.493 Z-5.752
X182.492 Y-175.439 Z-5.729
X182.528 Y-175.39 Z-5.691
X182.558 Y-175.349 Z-5.64
X182.58 Y-175.319 Z-5.58
X182.594 Y-175.3 Z-5.513
X182.599 Y-175.294 Z-5.443
G0 Z5
X181.195 Y-153.419
Z-5.125
G1 Z-5.443 F200
X181.187 Z-5.513
X181.164 Y-153.421 Z-5.58
X181.126 Y-153.424 Z-5.64
X181.076 Y-153.428 Z-5.691
X181.016 Y-153.433 Z-5.729
X180.949 Y-153.438 Z-5.752
X180.878 Y-153.443 Z-5.76
G3 X180.135 Y-153.695 I0.121 J-1.578
G1 X179.989 Y-153.798
X179.843 Y-153.878
X179.551 Y-154.028
X179.114 Y-154.246
X178.968 Y-154.305
X178.822 Y-154.352
X178.676 Y-154.381
X178.53 Y-154.406
X178.238 Y-154.452
X178.093 Y-154.473
X177.801 Y-154.527
X177.443 Y-154.681
X177.09 Y-154.938
X176.759 Y-155.316
X176.47 Y-155.849
X176.297 Y-156.468
X176.223 Y-157.106
X176.198 Y-157.748
X176.192 Y-158.39
X176.19 Y-159.032
X176.189 Y-162.243
X176.191 Y-162.538
X176.216 Y-162.659
X176.285 Y-162.761
X176.388 Y-162.83
X176.509 Y-162.854
X177.363
X177.655 Y-162.855
X177.801 Y-162.87
X178.093 Y-162.909
X178.238 Y-162.93
X178.599 Y-162.987
X178.676 Y-163.001
G3 X179.036 Y-162.734 Z-5.56 I0.046 J0.314
G1 X179.039 Y-162.663
X179.025 Y-162.486
X178.458 Y-155.006
X178.44 Y-154.765
X178.439 Y-154.758
G3 X178.093 Y-154.473 Z-5.76 I-0.316 J-0.031
G1 X177.717 Y-154.524
X177.655 Y-154.527
X177.071 Y-154.529
X175.613
X175.208 Y-154.549
X174.826 Y-154.656
X174.451 Y-154.859
X174.084 Y-155.18
X173.738 Y-155.657
X173.484 Y-156.247
X173.35 Y-156.875
X173.289 Y-157.514
X173.266 Y-158.156
X173.259 Y-158.798
X173.257 Y-159.44
X173.256 Y-162.009
X173.273 Y-162.546
X173.3 Y-162.664
X173.369 Y-162.764
X173.471 Y-162.83
X173.59 Y-162.854
X176.509
G3 X176.815 Y-162.525 Z-5.56 I-0.011 J0.317
G1 X176.813 Y-162.499
X176.787 Y-162.279
X175.951 Y-155.103
X175.923 Y-154.856
X175.917 Y-154.809 Z-5.579
G3 X175.613 Y-154.529 Z-5.76 I-0.315 J-0.037
G1 X172.695
X172.347 Y-154.546
X171.963 Y-154.653
X171.568 Y-154.867
X171.182 Y-155.206
X170.842 Y-155.674
X170.588 Y-156.264
X170.442 Y-156.889
X170.372 Y-157.528
X170.341 Y-158.169
X170.329 Y-158.811
X170.325 Y-159.453
X170.323 Y-160.738
Y-161.38
X170.327 Y-162.022
X170.349 Y-162.549
X170.377 Y-162.667
X170.447 Y-162.765
X170.548 Y-162.831
X170.667 Y-162.854
X173.59
G3 X173.896 Y-162.525 Z-5.56 I-0.011 J0.317
G1 X173.894 Y-162.499
X173.869 Y-162.279
X173.034 Y-155.103
X173.005 Y-154.856
X173 Y-154.809 Z-5.579
G3 X172.695 Y-154.529 Z-5.76 I-0.315 J-0.037
G1 X169.778
X169.452 Y-154.545
X169.064 Y-154.653
X168.665 Y-154.87
X168.275 Y-155.211
X167.93 Y-155.686
X167.676 Y-156.276
X167.527 Y-156.9
X167.452 Y-157.538
X167.416 Y-158.179
X167.4 Y-158.821
X167.394 Y-159.464
X167.391 Y-160.106
X167.39 Y-160.748
X167.391 Y-161.39
X167.399 Y-162.032
X167.424 Y-162.551
X167.452 Y-162.668
X167.522 Y-162.766
X167.623 Y-162.831
X167.741 Y-162.854
X170.667
G3 X170.973 Y-162.525 Z-5.56 I-0.011 J0.317
G1 X170.971 Y-162.5
X170.945 Y-162.279
X170.116 Y-155.103
X170.088 Y-154.856
X170.082 Y-154.809 Z-5.579
G3 X169.778 Y-154.529 Z-5.76 I-0.315 J-0.036
G1 X166.86
X166.542 Y-154.544
X166.153 Y-154.653
X165.753 Y-154.87
X165.361 Y-155.213
X165.013 Y-155.692
X164.76 Y-156.282
X164.608 Y-156.906
X164.53 Y-157.543
X164.49 Y-158.184
X164.471 Y-158.826
X164.462 Y-159.468
X164.459 Y-160.111
X164.458 Y-160.753
X164.46 Y-161.395
X164.47 Y-162.037
X164.496 Y-162.552
X164.525 Y-162.669
X164.595 Y-162.766
X164.696 Y-162.831
X164.814 Y-162.854
X167.741
G3 X168.047 Y-162.525 Z-5.56 I-0.011 J0.317
G1 X168.045 Y-162.5
X168.02 Y-162.279
X167.198 Y-155.103
X167.17 Y-154.856
X167.165 Y-154.81 Z-5.579
G3 X166.86 Y-154.529 Z-5.76 I-0.315 J-0.036
G1 X163.943
X163.626 Y-154.544
X163.237 Y-154.653
X162.836 Y-154.871
X162.443 Y-155.215
X162.093 Y-155.696
X161.84 Y-156.286
X161.687 Y-156.91
X161.607 Y-157.547
X161.564 Y-158.188
X161.542 Y-158.829
X161.531 Y-159.471
X161.527 Y-160.114
X161.526 Y-160.756
X161.529 Y-161.398
X161.54 Y-162.04
X161.568 Y-162.553
X161.597 Y-162.669
X161.667 Y-162.767
X161.768 Y-162.831
X161.885 Y-162.854
X164.814
G3 X165.12 Y-162.525 Z-5.56 I-0.011 J0.317
G1 X165.118 Y-162.5
X165.093 Y-162.279
X164.281 Y-155.103
X164.253 Y-154.856
X164.247 Y-154.81 Z-5.579
G3 X163.943 Y-154.529 Z-5.76 I-0.315 J-0.036
G1 X161.026
X160.707 Y-154.544
X160.318 Y-154.654
X159.916 Y-154.871
X159.522 Y-155.216
X159.171 Y-155.699
X158.918 Y-156.289
X158.765 Y-156.912
X158.682 Y-157.549
X158.637 Y-158.19
X158.613 Y-158.832
X158.601 Y-159.474
X158.595 Y-160.116
X158.594 Y-160.758
X158.598 Y-161.4
X158.611 Y-162.042
X158.639 Y-162.554
X158.668 Y-162.67
X158.738 Y-162.767
X158.839 Y-162.831
X158.956 Y-162.854
X161.885
G3 X162.191 Y-162.525 Z-5.56 I-0.011 J0.317
G1 X162.19 Y-162.501
X162.165 Y-162.279
X161.363 Y-155.103
X161.335 Y-154.856
X161.33 Y-154.811 Z-5.579
G3 X161.026 Y-154.529 Z-5.76 I-0.316 J-0.035
G1 X158.108
X157.786 Y-154.545
X157.396 Y-154.654
X156.993 Y-154.872
X156.6 Y-155.216
X156.247 Y-155.701
X155.994 Y-156.291
X155.84 Y-156.915
X155.756 Y-157.551
X155.71 Y-158.192
X155.684 Y-158.833
X155.67 Y-159.475
X155.664 Y-160.118
X155.662 Y-160.76
X155.667 Y-161.402
X155.681 Y-162.044
X155.71 Y-162.554
X155.739 Y-162.67
X155.809 Y-162.767
X155.91 Y-162.831
X156.027 Y-162.854
X158.956
G3 X159.262 Y-162.525 Z-5.56 I-0.011 J0.317
G1 X159.261 Y-162.501
X159.236 Y-162.278
X158.445 Y-155.103
X158.418 Y-154.856
X158.413 Y-154.811 Z-5.578
G3 X158.108 Y-154.529 Z-5.76 I-0.316 J-0.035
G1 X155.191
X154.862 Y-154.545
X154.472 Y-154.654
X154.07 Y-154.872
X153.676 Y-155.217
X153.323 Y-155.703
X153.069 Y-156.293
X152.915 Y-156.916
X152.83 Y-157.553
X152.782 Y-158.193
X152.755 Y-158.835
X152.74 Y-159.477
X152.732 Y-160.119
X152.731 Y-160.761
X152.736 Y-161.403
X152.75 Y-162.045
X152.78 Y-162.554
X152.809 Y-162.67
X152.879 Y-162.767
X152.98 Y-162.831
X153.097 Y-162.854
X156.027
G3 X156.333 Y-162.525 Z-5.56 I-0.011 J0.317
G1 X156.331 Y-162.502
X156.307 Y-162.278
X155.527 Y-155.103
X155.5 Y-154.856
X155.495 Y-154.811 Z-5.578
G3 X155.191 Y-154.529 Z-5.76 I-0.316 J-0.034
G1 X152.273
X151.938 Y-154.545
X151.547 Y-154.655
X151.145 Y-154.873
X150.75 Y-155.218
X150.397 Y-155.704
X150.143 Y-156.295
X149.989 Y-156.918
X149.903 Y-157.554
X149.854 Y-158.195
X149.825 Y-158.836
X149.809 Y-159.478
X149.801 Y-160.12
X149.8 Y-160.762
X149.805 Y-161.405
X149.82 Y-162.047
X149.85 Y-162.555
X149.879 Y-162.67
X149.949 Y-162.767
X150.05 Y-162.831
X150.167 Y-162.854
X153.097
G3 X153.403 Y-162.525 Z-5.56 I-0.011 J0.317
G1 X153.402 Y-162.502
X153.378 Y-162.278
X152.609 Y-155.103
X152.583 Y-154.856
X152.578 Y-154.812 Z-5.578
G3 X152.273 Y-154.529 Z-5.76 I-0.316 J-0.034
G1 X149.356
X149.012 Y-154.546
X148.622 Y-154.655
X148.219 Y-154.873
X147.824 Y-155.218
X147.47 Y-155.706
X147.217 Y-156.296
X147.062 Y-156.919
X146.975 Y-157.556
X146.925 Y-158.196
X146.896 Y-158.837
X146.879 Y-159.479
X146.87 Y-160.121
X146.869 Y-160.764
X146.874 Y-161.406
X146.89 Y-162.048
X146.92 Y-162.555
X146.949 Y-162.67
X147.019 Y-162.767
X147.12 Y-162.831
X147.237 Y-162.854
X150.167
G3 X150.473 Y-162.525 Z-5.56 I-0.011 J0.317
G1 X150.472 Y-162.503
X150.448 Y-162.278
X149.691 Y-155.103
X149.665 Y-154.856
X149.661 Y-154.813 Z-5.578
G3 X149.356 Y-154.529 Z-5.76 I-0.316 J-0.033
G1 X146.439
X146.085 Y-154.546
X145.695 Y-154.656
X145.292 Y-154.874
X144.897 Y-155.219
X144.543 Y-155.707
X144.289 Y-156.297
X144.134 Y-156.921
X144.047 Y-157.557
X143.996 Y-158.197
X143.966 Y-158.838
X143.948 Y-159.48
X143.94 Y-160.122
X143.938 Y-160.765
X143.944 Y-161.407
X143.959 Y-162.049
X143.99 Y-162.555
X144.019 Y-162.671
X144.089 Y-162.767
X144.19 Y-162.831
X144.307 Y-162.854
X147.237
G3 X147.543 Y-162.525 Z-5.56 I-0.011 J0.317
G1 X147.542 Y-162.503
X147.518 Y-162.278
X146.773 Y-155.103
X146.748 Y-154.856
X146.743 Y-154.813 Z-5.578
G3 X146.439 Y-154.529 Z-5.76 I-0.316 J-0.033
G1 X144.688 Y-154.528
X144.25 Y-154.522
X144.105 Y-154.503
X143.813 Y-154.46
X143.441 Y-154.421
X143.066 Y-154.465
X142.67 Y-154.606
X142.266 Y-154.863
X141.871 Y-155.26
X141.53 Y-155.804
X141.314 Y-156.409
X141.182 Y-157.037
X141.105 Y-157.675
X141.059 Y-158.315
X141.032 Y-158.957
X141.016 Y-159.599
X141.008 Y-160.241
Y-160.883
X141.015 Y-161.525
X141.035 Y-162.167
X141.065 Y-162.56
X141.096 Y-162.674
X141.166 Y-162.769
X141.266 Y-162.832
X141.381 Y-162.854
X144.307
G3 X144.613 Y-162.525 Z-5.56 I-0.011 J0.317
G1 X144.612 Y-162.514
X144.596 Y-162.278
X144.093 Y-155.079
X144.076 Y-154.831
X144.07 Y-154.749 Z-5.593
G3 X143.813 Y-154.46 Z-5.76 I-0.317 J-0.022
G1 X143.295 Y-154.378
X143.229 Y-154.364
X143.084 Y-154.325
X142.938 Y-154.271
X142.851 Y-154.232
X142.208 Y-153.905
X142.008 Y-153.794
X141.917 Y-153.734
X141.696 Y-153.59
X141.367 Y-153.468
X140.983 Y-153.416
X140.55 Y-153.456
X140.103 Y-153.6
X139.667 Y-153.86
X139.217 Y-154.287
X138.861 Y-154.821
X138.6 Y-155.408
X138.419 Y-156.024
X138.293 Y-156.654
X138.207 Y-157.29
X138.15 Y-157.93
X138.115 Y-158.571
X138.093 Y-159.213
X138.081 Y-159.855
X138.076 Y-160.497
X138.079 Y-161.139
X138.091 Y-161.781
X138.12 Y-162.423
X138.14 Y-162.577
X138.194 Y-162.718
X138.308 Y-162.818
X138.454 Y-162.854
X141.381
G3 X141.688 Y-162.549 Z-5.569 I-0.011 J0.317
G1 X141.689 Y-162.525 Z-5.56
X141.699 Y-162.277
X142.015 Y-154.445
X142.025 Y-154.197
X142.034 Y-153.993 Z-5.642
G3 X141.917 Y-153.734 Z-5.76 I-0.317 J0.013
G1 X141.803 Y-153.648
X141.771 Y-153.62
X141.625 Y-153.479
X141.187 Y-153.041
X141.069 Y-152.918
X141.041 Y-152.885
X140.956 Y-152.772
X140.895 Y-152.68
X140.864 Y-152.627
X140.785 Y-152.481
X140.75 Y-152.411
X140.575 Y-152.107
X140.337 Y-151.849
X140.021 Y-151.632
X139.645 Y-151.482
X139.214 Y-151.414
X138.712 Y-151.448
X138.125 Y-151.623
X137.566 Y-151.938
X137.086 Y-152.365
X136.676 Y-152.86
X136.331 Y-153.402
X136.041 Y-153.974
X135.81 Y-154.574
X135.622 Y-155.188
X135.477 Y-155.813
X135.369 Y-156.446
X135.289 Y-157.083
X135.232 Y-157.723
X135.193 Y-158.364
X135.168 Y-159.006
X135.153 Y-159.648
X135.145 Y-160.29
X135.146 Y-160.932
X135.154 Y-161.574
X135.176 Y-162.216
X135.208 Y-162.565
X135.24 Y-162.677
X135.31 Y-162.77
X135.409 Y-162.832
X135.524 Y-162.854
X138.454
G3 X138.755 Y-162.599 Z-5.59 I-0.011 J0.317
G1 X138.769 Y-162.526 Z-5.56
X138.818 Y-162.283
X140.665 Y-153.142
X140.715 Y-152.898
X140.773 Y-152.608 Z-5.679
X140.779 Y-152.541 Z-5.706
X140.771 Y-152.474 Z-5.733
X140.75 Y-152.411 Z-5.76
X140.604 Y-152.125
X140.564 Y-152.043
X140.378 Y-151.642
X140.373 Y-151.623
X140.306 Y-151.313
X140.277 Y-151.167
X140.208 Y-150.73
X140.179 Y-150.438
X140.139 Y-150.166
X140.011 Y-149.835
X139.801 Y-149.523
X139.505 Y-149.244
X139.108 Y-149.01
X138.592 Y-148.845
X137.996 Y-148.793
X137.36 Y-148.881
X136.754 Y-149.093
X136.18 Y-149.382
X135.656 Y-149.753
X135.167 Y-150.17
X134.728 Y-150.638
X134.328 Y-151.14
X133.966 Y-151.67
X133.649 Y-152.229
X133.37 Y-152.807
X133.126 Y-153.402
X132.921 Y-154.01
X132.75 Y-154.629
X132.609 Y-155.256
X132.496 Y-155.888
X132.406 Y-156.524
X132.34 Y-157.162
X132.292 Y-157.803
X132.257 Y-158.444
X132.234 Y-159.086
X132.221 Y-159.728
X132.214 Y-160.37
X132.216 Y-161.012
X132.226 Y-161.654
X132.251 Y-162.296
X132.28 Y-162.57
X132.313 Y-162.681
X132.384 Y-162.772
X132.482 Y-162.832
X132.596 Y-162.854
X135.524
G3 X135.812 Y-162.644 Z-5.608 I-0.011 J0.317
G1 X135.853 Y-162.53 Z-5.56
X135.937 Y-162.297
X139.952 Y-151.146
X140.036 Y-150.912
X140.161 Y-150.565 Z-5.708
X140.177 Y-150.502 Z-5.734
X140.179 Y-150.438 Z-5.76
X140.165 Y-150.292
X140.163 Y-150.146
Y-148.103
X140.142 Y-147.702
X140.041 Y-147.34
X139.841 Y-146.971
X139.528 Y-146.614
X139.114 Y-146.312
X138.587 Y-146.086
X137.956 Y-145.97
X137.314 Y-145.968
X136.68 Y-146.07
X136.062 Y-146.244
X135.465 Y-146.483
X134.888 Y-146.764
X134.344 Y-147.105
X133.825 Y-147.484
X133.331 Y-147.893
X132.872 Y-148.343
X132.443 Y-148.821
X132.041 Y-149.322
X131.667 Y-149.844
X131.33 Y-150.39
X131.021 Y-150.953
X130.74 Y-151.531
X130.486 Y-152.12
X130.265 Y-152.724
X130.073 Y-153.336
X129.905 Y-153.956
X129.761 Y-154.582
X129.64 Y-155.213
X129.542 Y-155.847
X129.465 Y-156.485
X129.405 Y-157.124
X129.36 Y-157.765
X129.327 Y-158.406
X129.304 Y-159.048
X129.29 Y-159.69
X129.284 Y-160.332
X129.285 Y-160.974
X129.294 Y-161.616
X129.316 Y-162.258
X129.348 Y-162.569
X129.381 Y-162.68
X129.451 Y-162.772
X129.55 Y-162.832
X129.664 Y-162.854
X132.596
G3 X132.773 Y-162.28 I-0.011 J0.317
G1 X132.716 Y-162.238 Z-5.752
X132.662 Y-162.199 Z-5.729
X132.613 Y-162.163 Z-5.691
X132.572 Y-162.133 Z-5.64
X132.542 Y-162.111 Z-5.58
X132.523 Y-162.097 Z-5.513
X132.517 Y-162.092 Z-5.443
G0 Z5
X139.779 Y-149.129
Z-5.125
G1 Z-5.443 F200
X139.783 Y-149.123 Z-5.513
X139.795 Y-149.102 Z-5.58
X139.814 Y-149.07 Z-5.64
X139.84 Y-149.027 Z-5.691
X139.871 Y-148.975 Z-5.729
X139.905 Y-148.917 Z-5.752
X139.941 Y-148.856 Z-5.76
G3 X140.163 Y-148.103 I-1.36 J0.809
G1 Y-145.33
X140.142 Y-144.926
X140.036 Y-144.547
X139.826 Y-144.159
X139.504 Y-143.791
X139.073 Y-143.478
X138.483 Y-143.224
X137.853 Y-143.099
X137.211 Y-143.078
X136.571 Y-143.135
X135.94 Y-143.255
X135.319 Y-143.419
X134.714 Y-143.634
X134.124 Y-143.886
X133.549 Y-144.173
X132.995 Y-144.497
X132.463 Y-144.857
X131.95 Y-145.243
X131.456 Y-145.653
X130.986 Y-146.091
X130.543 Y-146.556
X130.122 Y-147.041
X129.722 Y-147.543
X129.343 Y-148.062
X128.993 Y-148.601
X128.669 Y-149.155
X128.367 Y-149.722
X128.088 Y-150.3
X127.83 Y-150.888
X127.599 Y-151.487
X127.393 Y-152.095
X127.209 Y-152.711
X127.046 Y-153.332
X126.903 Y-153.958
X126.778 Y-154.588
X126.674 Y-155.221
X126.589 Y-155.858
X126.521 Y-156.497
X126.467 Y-157.137
X126.425 Y-157.777
X126.394 Y-158.419
X126.373 Y-159.061
X126.359 Y-159.703
X126.353 Y-160.345
X126.354 Y-160.987
X126.364 Y-161.629
X126.386 Y-162.271
X126.417 Y-162.569
X126.45 Y-162.68
X126.52 Y-162.772
X126.619 Y-162.832
X126.733 Y-162.854
X129.664
G3 X129.841 Y-162.28 I-0.011 J0.317
G1 X129.784 Y-162.238 Z-5.752
X129.729 Y-162.199 Z-5.729
X129.681 Y-162.163 Z-5.691
X129.64 Y-162.133 Z-5.64
X129.61 Y-162.111 Z-5.58
X129.591 Y-162.097 Z-5.513
X129.585 Y-162.092 Z-5.443
G0 Z5
X139.779 Y-146.357
Z-5.125
G1 Z-5.443 F200
X139.783 Y-146.35 Z-5.513
X139.795 Y-146.33 Z-5.58
X139.814 Y-146.297 Z-5.64
X139.84 Y-146.254 Z-5.691
X139.871 Y-146.202 Z-5.729
X139.905 Y-146.145 Z-5.752
X139.941 Y-146.084 Z-5.76
G3 X140.163 Y-145.33 I-1.36 J0.809
G1 Y-142.412
X140.146 Y-142.082
X140.039 Y-141.701
X139.827 Y-141.309
X139.493 Y-140.928
X139.047 Y-140.603
X138.457 Y-140.35
X137.828 Y-140.218
X137.187 Y-140.18
X136.545 Y-140.204
X135.909 Y-140.289
X135.279 Y-140.412
X134.656 Y-140.568
X134.045 Y-140.766
X133.445 Y-140.996
X132.857 Y-141.253
X132.281 Y-141.537
X131.72 Y-141.85
X131.177 Y-142.193
X130.65 Y-142.56
X130.138 Y-142.948
X129.642 Y-143.355
X129.164 Y-143.785
X128.709 Y-144.238
X128.273 Y-144.709
X127.854 Y-145.195
X127.452 Y-145.696
X127.067 Y-146.211
X126.707 Y-146.743
X126.369 Y-147.289
X126.05 Y-147.846
X125.751 Y-148.414
X125.469 Y-148.991
X125.206 Y-149.577
X124.965 Y-150.172
X124.747 Y-150.776
X124.549 Y-151.387
X124.369 Y-152.003
X124.206 Y-152.625
X124.06 Y-153.25
X123.931 Y-153.879
X123.82 Y-154.512
X123.727 Y-155.147
X123.65 Y-155.785
X123.587 Y-156.424
X123.535 Y-157.064
X123.495 Y-157.705
X123.465 Y-158.346
X123.443 Y-158.988
X123.429 Y-159.63
X123.422 Y-160.272
X123.423 Y-160.914
X123.431 Y-161.557
X123.45 Y-162.199
X123.484 Y-162.565
X123.516 Y-162.677
X123.586 Y-162.771
X123.685 Y-162.832
X123.8 Y-162.854
X126.733
G3 X126.909 Y-162.28 I-0.011 J0.317
G1 X126.852 Y-162.238 Z-5.752
X126.798 Y-162.199 Z-5.729
X126.75 Y-162.163 Z-5.691
X126.709 Y-162.133 Z-5.64
X126.679 Y-162.111 Z-5.58
X126.66 Y-162.097 Z-5.513
X126.653 Y-162.092 Z-5.443
G0 Z5
X139.779 Y-143.438
Z-5.125
G1 Z-5.443 F200
X139.783 Y-143.432 Z-5.513
X139.795 Y-143.411 Z-5.58
X139.814 Y-143.379 Z-5.64
X139.84 Y-143.336 Z-5.691
X139.871 Y-143.284 Z-5.729
X139.905 Y-143.226 Z-5.752
X139.941 Y-143.165 Z-5.76
G3 X140.163 Y-142.412 I-1.36 J0.809
G1 Y-139.639
X140.141 Y-139.21
X140.034 Y-138.827
X139.82 Y-138.433
X139.484 Y-138.048
X139.029 Y-137.717
X138.439 Y-137.464
X137.811 Y-137.326
X137.171 Y-137.277
X136.529 Y-137.283
X135.89 Y-137.342
X135.255 Y-137.438
X134.625 Y-137.564
X134.001 Y-137.716
X133.386 Y-137.901
X132.781 Y-138.115
X132.184 Y-138.354
X131.597 Y-138.614
X131.02 Y-138.896
X130.455 Y-139.201
X129.905 Y-139.532
X129.369 Y-139.885
X128.845 Y-140.257
X128.333 Y-140.645
X127.835 Y-141.051
X127.352 Y-141.474
X126.888 Y-141.918
X126.441 Y-142.378
X126.008 Y-142.853
X125.59 Y-143.341
X125.187 Y-143.841
X124.799 Y-144.352
X124.431 Y-144.878
X124.083 Y-145.418
X123.751 Y-145.968
X123.436 Y-146.528
X123.137 Y-147.096
X122.854 Y-147.672
X122.587 Y-148.256
X122.339 Y-148.849
X122.112 Y-149.449
X121.901 Y-150.056
X121.708 Y-150.668
X121.53 Y-151.285
X121.368 Y-151.907
X121.22 Y-152.532
X121.087 Y-153.16
X120.971 Y-153.792
X120.871 Y-154.426
X120.786 Y-155.062
X120.714 Y-155.701
X120.654 Y-156.34
X120.605 Y-156.98
X120.566 Y-157.621
X120.536 Y-158.263
X120.514 Y-158.905
X120.499 Y-159.547
X120.492 Y-160.189
X120.491 Y-160.831
X120.498 Y-161.473
X120.514 Y-162.115
X120.549 Y-162.561
X120.58 Y-162.675
X120.65 Y-162.769
X120.75 Y-162.832
X120.866 Y-162.854
X123.8
G3 X123.977 Y-162.28 I-0.011 J0.317
G1 X123.92 Y-162.238 Z-5.752
X123.865 Y-162.199 Z-5.729
X123.817 Y-162.163 Z-5.691
X123.776 Y-162.133 Z-5.64
X123.746 Y-162.111 Z-5.58
X123.727 Y-162.097 Z-5.513
X123.721 Y-162.092 Z-5.443
G0 Z5
X139.779 Y-140.666
Z-5.125
G1 Z-5.443 F200
X139.783 Y-140.659 Z-5.513
X139.795 Y-140.639 Z-5.58
X139.814 Y-140.606 Z-5.64
X139.84 Y-140.563 Z-5.691
X139.871 Y-140.511 Z-5.729
X139.905 Y-140.454 Z-5.752
X139.941 Y-140.393 Z-5.76
G3 X140.163 Y-139.639 I-1.36 J0.809
G1 X140.162 Y-137.596
X140.16 Y-137.159
X140.142 Y-137.013
X140.085 Y-136.575
X140.065 Y-136.429
X140.046 Y-136.367
X139.829 Y-135.845
X139.811 Y-135.809
X139.788 Y-135.772
X139.437 Y-135.314
X139.414 Y-135.288
X139.386 Y-135.262
X139.145 Y-135.076
X138.926 Y-134.908
X138.89 Y-134.883
X138.853 Y-134.865
X138.403 Y-134.678
X138.27 Y-134.629
X138.124 Y-134.607
X137.978 Y-134.588
X137.686 Y-134.556
X137.465 Y-134.532
X137.395 Y-134.529
X135.79
X135.149 Y-134.561
X134.509 Y-134.623
X133.878 Y-134.74
X133.254 Y-134.892
X132.637 Y-135.07
X132.028 Y-135.274
X131.428 Y-135.501
X130.835 Y-135.749
X130.25 Y-136.015
X129.674 Y-136.299
X129.108 Y-136.602
X128.554 Y-136.926
X128.012 Y-137.271
X127.482 Y-137.632
X126.962 Y-138.01
X126.453 Y-138.401
X125.956 Y-138.808
X125.471 Y-139.229
X125.002 Y-139.667
X124.548 Y-140.122
X124.107 Y-140.589
X123.68 Y-141.068
X123.266 Y-141.559
X122.864 Y-142.06
X122.476 Y-142.572
X122.104 Y-143.095
X121.749 Y-143.63
X121.41 Y-144.176
X121.086 Y-144.73
X120.776 Y-145.293
X120.48 Y-145.863
X120.199 Y-146.44
X119.931 Y-147.024
X119.68 Y-147.615
X119.446 Y-148.213
X119.229 Y-148.817
X119.027 Y-149.427
X118.84 Y-150.041
X118.666 Y-150.659
X118.506 Y-151.281
X118.359 Y-151.906
X118.226 Y-152.535
X118.107 Y-153.166
X118.002 Y-153.799
X117.912 Y-154.435
X117.835 Y-155.073
X117.769 Y-155.711
X117.713 Y-156.351
X117.668 Y-156.992
X117.631 Y-157.633
X117.602 Y-158.274
X117.582 Y-158.916
X117.568 Y-159.558
X117.561 Y-160.2
X117.56 Y-160.843
X117.567 Y-161.485
X117.585 Y-162.127
X117.618 Y-162.56
X117.649 Y-162.674
X117.719 Y-162.769
X117.819 Y-162.832
X117.935 Y-162.854
X120.866
G3 X121.043 Y-162.28 I-0.011 J0.317
G1 X120.986 Y-162.238 Z-5.752
X120.932 Y-162.199 Z-5.729
X120.883 Y-162.163 Z-5.691
X120.842 Y-162.133 Z-5.64
X120.812 Y-162.111 Z-5.58
X120.793 Y-162.097 Z-5.513
X120.787 Y-162.092 Z-5.443
G0 Z5
X136.816 Y-134.912
Z-5.125
G1 Z-5.443 F200
X136.81 Y-134.908 Z-5.513
X136.789 Y-134.896 Z-5.58
X136.757 Y-134.877 Z-5.64
X136.714 Y-134.851 Z-5.691
X136.662 Y-134.82 Z-5.729
X136.604 Y-134.786 Z-5.752
X136.544 Y-134.75 Z-5.76
G3 X135.79 Y-134.529 I-0.809 J-1.36
G1 X128.059
X127.417 Y-134.561
X126.796 Y-134.724
X126.217 Y-135.001
X125.673 Y-135.342
X125.149 Y-135.714
X124.64 Y-136.104
X124.141 Y-136.509
X123.653 Y-136.927
X123.179 Y-137.36
X122.718 Y-137.807
X122.27 Y-138.267
X121.833 Y-138.738
X121.408 Y-139.22
X120.995 Y-139.711
X120.592 Y-140.211
X120.202 Y-140.721
X119.825 Y-141.241
X119.464 Y-141.772
X119.118 Y-142.313
X118.784 Y-142.862
X118.464 Y-143.419
X118.157 Y-143.982
X117.862 Y-144.553
X117.579 Y-145.129
X117.309 Y-145.712
X117.053 Y-146.301
X116.813 Y-146.897
X116.589 Y-147.498
X116.378 Y-148.105
X116.181 Y-148.716
X115.996 Y-149.331
X115.824 Y-149.95
X115.664 Y-150.572
X115.516 Y-151.197
X115.381 Y-151.825
X115.258 Y-152.455
X115.148 Y-153.088
X115.052 Y-153.723
X114.969 Y-154.359
X114.896 Y-154.997
X114.833 Y-155.637
X114.78 Y-156.277
X114.736 Y-156.917
X114.701 Y-157.558
X114.672 Y-158.2
X114.652 Y-158.842
X114.637 Y-159.484
X114.63 Y-160.126
X114.629 Y-160.768
X114.635 Y-161.41
X114.65 Y-162.052
X114.684 Y-162.557
X114.714 Y-162.672
X114.784 Y-162.768
X114.884 Y-162.831
X115.001 Y-162.854
X117.935
G3 X118.111 Y-162.28 I-0.011 J0.317
G1 X118.055 Y-162.238 Z-5.752
X118 Y-162.199 Z-5.729
X117.952 Y-162.163 Z-5.691
X117.911 Y-162.133 Z-5.64
X117.881 Y-162.111 Z-5.58
X117.862 Y-162.097 Z-5.513
X117.855 Y-162.092 Z-5.443
G0 Z5
X129.085 Y-134.912
Z-5.125
G1 Z-5.443 F200
X129.078 Y-134.908 Z-5.513
X129.058 Y-134.896 Z-5.58
X129.026 Y-134.877 Z-5.64
X128.983 Y-134.851 Z-5.691
X128.931 Y-134.82 Z-5.729
X128.873 Y-134.786 Z-5.752
X128.812 Y-134.75 Z-5.76
G3 X128.059 Y-134.529 I-0.809 J-1.36
G1 X123.245
X122.674 Y-134.557
X122.085 Y-134.722
X121.52 Y-135.028
X121.012 Y-135.42
X120.54 Y-135.856
X120.09 Y-136.314
X119.653 Y-136.785
X119.227 Y-137.265
X118.811 Y-137.755
X118.406 Y-138.253
X118.012 Y-138.76
X117.63 Y-139.276
X117.261 Y-139.802
X116.905 Y-140.336
X116.562 Y-140.879
X116.23 Y-141.429
X115.91 Y-141.986
X115.602 Y-142.549
X115.304 Y-143.118
X115.018 Y-143.693
X114.744 Y-144.274
X114.483 Y-144.86
X114.236 Y-145.453
X114.002 Y-146.051
X113.781 Y-146.654
X113.572 Y-147.262
X113.376 Y-147.873
X113.191 Y-148.488
X113.017 Y-149.106
X112.855 Y-149.728
X112.704 Y-150.352
X112.564 Y-150.979
X112.436 Y-151.608
X112.321 Y-152.239
X112.217 Y-152.873
X112.125 Y-153.509
X112.044 Y-154.146
X111.972 Y-154.784
X111.911 Y-155.423
X111.858 Y-156.063
X111.813 Y-156.704
X111.777 Y-157.345
X111.747 Y-157.987
X111.725 Y-158.628
X111.709 Y-159.27
X111.7 Y-159.912
X111.697 Y-160.555
X111.7 Y-161.197
X111.712 Y-161.839
X111.743 Y-162.48
X111.757 Y-162.58
X111.813 Y-162.72
X111.926 Y-162.818
X112.072 Y-162.854
X115.001
G3 X115.178 Y-162.28 I-0.011 J0.317
G1 X115.121 Y-162.238 Z-5.752
X115.067 Y-162.199 Z-5.729
X115.018 Y-162.163 Z-5.691
X114.978 Y-162.133 Z-5.64
X114.947 Y-162.111 Z-5.58
X114.928 Y-162.097 Z-5.513
X114.922 Y-162.092 Z-5.443
G0 Z5
X124.272 Y-134.912
Z-5.125
G1 Z-5.443 F200
X124.265 Y-134.908 Z-5.513
X124.245 Y-134.896 Z-5.58
X124.212 Y-134.877 Z-5.64
X124.169 Y-134.851 Z-5.691
X124.117 Y-134.82 Z-5.729
X124.059 Y-134.786 Z-5.752
X123.999 Y-134.75 Z-5.76
G3 X123.245 Y-134.529 I-0.809 J-1.36
G1 X119.161
X118.605 Y-134.556
X118.073 Y-134.705
X117.508 Y-135.011
X117.015 Y-135.422
X116.573 Y-135.888
X116.159 Y-136.379
X115.76 Y-136.883
X115.374 Y-137.396
X115.001 Y-137.919
X114.64 Y-138.45
X114.29 Y-138.988
X113.951 Y-139.534
X113.623 Y-140.086
X113.305 Y-140.644
X112.998 Y-141.207
X112.7 Y-141.777
X112.414 Y-142.351
X112.138 Y-142.931
X111.873 Y-143.516
X111.621 Y-144.107
X111.382 Y-144.703
X111.154 Y-145.303
X110.938 Y-145.908
X110.734 Y-146.517
X110.54 Y-147.129
X110.357 Y-147.745
X110.184 Y-148.363
X110.021 Y-148.984
X109.869 Y-149.608
X109.727 Y-150.235
X109.596 Y-150.863
X109.476 Y-151.494
X109.368 Y-152.127
X109.271 Y-152.762
X109.184 Y-153.398
X109.107 Y-154.036
X109.038 Y-154.674
X108.979 Y-155.314
X108.927 Y-155.954
X108.884 Y-156.595
X108.848 Y-157.236
X108.819 Y-157.877
X108.796 Y-158.519
X108.78 Y-159.161
X108.77 Y-159.803
X108.765 Y-160.445
X108.768 Y-161.087
X108.778 Y-161.73
X108.803 Y-162.371
X108.828 Y-162.574
X108.881 Y-162.716
X108.995 Y-162.817
X109.143 Y-162.854
X112.072
G3 X112.248 Y-162.28 I-0.011 J0.317
G1 X112.191 Y-162.238 Z-5.752
X112.137 Y-162.199 Z-5.729
X112.089 Y-162.163 Z-5.691
X112.048 Y-162.133 Z-5.64
X112.018 Y-162.111 Z-5.58
X111.999 Y-162.097 Z-5.513
X111.992 Y-162.092 Z-5.443
G0 Z5
X120.187 Y-134.912
Z-5.125
G1 Z-5.443 F200
X120.18 Y-134.908 Z-5.513
X120.16 Y-134.896 Z-5.58
X120.128 Y-134.877 Z-5.64
X120.084 Y-134.851 Z-5.691
X120.033 Y-134.82 Z-5.729
X119.975 Y-134.786 Z-5.752
X119.914 Y-134.75 Z-5.76
G3 X119.161 Y-134.529 I-0.809 J-1.36
G1 X115.368
X114.827 Y-134.556
X114.328 Y-134.695
X113.763 Y-135.001
X113.28 Y-135.424
X112.86 Y-135.91
X112.479 Y-136.427
X112.117 Y-136.957
X111.768 Y-137.496
X111.43 Y-138.042
X111.101 Y-138.594
X110.783 Y-139.152
X110.473 Y-139.714
X110.174 Y-140.282
X109.883 Y-140.855
X109.604 Y-141.433
X109.334 Y-142.016
X109.076 Y-142.604
X108.828 Y-143.197
X108.592 Y-143.794
X108.367 Y-144.395
X108.153 Y-145.001
X107.948 Y-145.609
X107.754 Y-146.222
X107.569 Y-146.837
X107.394 Y-147.454
X107.229 Y-148.075
X107.073 Y-148.698
X106.927 Y-149.323
X106.792 Y-149.951
X106.666 Y-150.581
X106.551 Y-151.213
X106.446 Y-151.846
X106.352 Y-152.481
X106.266 Y-153.118
X106.189 Y-153.756
X106.121 Y-154.394
X106.062 Y-155.034
X106.009 Y-155.674
X105.965 Y-156.314
X105.927 Y-156.955
X105.896 Y-157.597
X105.872 Y-158.238
X105.853 Y-158.88
X105.841 Y-159.522
X105.835 Y-160.165
X105.834 Y-160.807
X105.841 Y-161.449
X105.859 Y-162.091
X105.893 Y-162.559
X105.923 Y-162.673
X105.993 Y-162.768
X106.093 Y-162.831
X106.209 Y-162.854
X109.143
G3 X109.32 Y-162.28 I-0.011 J0.317
G1 X109.263 Y-162.238 Z-5.752
X109.209 Y-162.199 Z-5.729
X109.16 Y-162.163 Z-5.691
X109.119 Y-162.133 Z-5.64
X109.089 Y-162.111 Z-5.58
X109.07 Y-162.097 Z-5.513
X109.064 Y-162.092 Z-5.443
G0 Z5
X116.395 Y-134.912
Z-5.125
G1 Z-5.443 F200
X116.388 Y-134.908 Z-5.513
X116.367 Y-134.896 Z-5.58
X116.335 Y-134.877 Z-5.64
X116.292 Y-134.851 Z-5.691
X116.24 Y-134.82 Z-5.729
X116.182 Y-134.786 Z-5.752
X116.122 Y-134.75 Z-5.76
G3 X115.368 Y-134.529 I-0.809 J-1.36
G1 X111.721
X111.245 Y-134.552
X110.772 Y-134.685
X110.245 Y-134.97
X109.762 Y-135.393
X109.356 Y-135.891
X108.997 Y-136.423
X108.66 Y-136.969
X108.336 Y-137.524
X108.023 Y-138.085
X107.72 Y-138.651
X107.425 Y-139.221
X107.139 Y-139.797
X106.863 Y-140.376
X106.597 Y-140.961
X106.341 Y-141.55
X106.095 Y-142.143
X105.859 Y-142.74
X105.633 Y-143.341
X105.417 Y-143.946
X105.21 Y-144.554
X105.013 Y-145.165
X104.825 Y-145.779
X104.647 Y-146.396
X104.477 Y-147.015
X104.316 Y-147.637
X104.165 Y-148.261
X104.023 Y-148.888
X103.89 Y-149.516
X103.767 Y-150.146
X103.653 Y-150.778
X103.549 Y-151.412
X103.454 Y-152.047
X103.367 Y-152.683
X103.289 Y-153.321
X103.219 Y-153.959
X103.157 Y-154.598
X103.103 Y-155.238
X103.056 Y-155.879
X103.015 Y-156.52
X102.982 Y-157.161
X102.954 Y-157.802
X102.933 Y-158.444
X102.917 Y-159.086
X102.907 Y-159.728
X102.903 Y-160.371
X102.905 Y-161.013
X102.915 Y-161.655
X102.94 Y-162.297
X102.969 Y-162.569
X103.002 Y-162.68
X103.072 Y-162.772
X103.171 Y-162.832
X103.285 Y-162.854
X106.209
G3 X106.386 Y-162.28 I-0.011 J0.317
G1 X106.329 Y-162.238 Z-5.752
X106.275 Y-162.199 Z-5.729
X106.227 Y-162.163 Z-5.691
X106.186 Y-162.133 Z-5.64
X106.155 Y-162.111 Z-5.58
X106.137 Y-162.097 Z-5.513
X106.13 Y-162.092 Z-5.443
G0 Z5
X112.748 Y-134.912
Z-5.125
G1 Z-5.443 F200
X112.741 Y-134.908 Z-5.513
X112.721 Y-134.896 Z-5.58
X112.688 Y-134.877 Z-5.64
X112.645 Y-134.851 Z-5.691
X112.593 Y-134.82 Z-5.729
X112.536 Y-134.786 Z-5.752
X112.475 Y-134.75 Z-5.76
G3 X111.721 Y-134.529 I-0.809 J-1.36
G1 X108.22
X107.796 Y-134.55
X107.334 Y-134.679
X106.833 Y-134.95
X106.35 Y-135.373
X105.952 Y-135.878
X105.609 Y-136.42
X105.293 Y-136.979
X104.992 Y-137.547
X104.7 Y-138.119
X104.418 Y-138.695
X104.144 Y-139.276
X103.88 Y-139.862
X103.625 Y-140.451
X103.379 Y-141.044
X103.143 Y-141.642
X102.915 Y-142.242
X102.697 Y-142.846
X102.488 Y-143.453
X102.288 Y-144.063
X102.096 Y-144.676
X101.914 Y-145.292
X101.74 Y-145.91
X101.574 Y-146.531
X101.417 Y-147.154
X101.269 Y-147.778
X101.129 Y-148.405
X100.998 Y-149.034
X100.876 Y-149.664
X100.763 Y-150.296
X100.658 Y-150.93
X100.562 Y-151.565
X100.475 Y-152.201
X100.395 Y-152.838
X100.323 Y-153.477
X100.258 Y-154.115
X100.201 Y-154.755
X100.151 Y-155.395
X100.108 Y-156.036
X100.071 Y-156.677
X100.04 Y-157.319
X100.015 Y-157.96
X99.996 Y-158.602
X99.982 Y-159.244
X99.974 Y-159.886
X99.972 Y-160.529
X99.976 Y-161.171
X99.99 Y-161.813
X100.021 Y-162.454
X100.039 Y-162.58
X100.094 Y-162.72
X100.207 Y-162.818
X100.353 Y-162.854
X103.285
G3 X103.461 Y-162.28 I-0.011 J0.317
G1 X103.404 Y-162.238 Z-5.752
X103.35 Y-162.199 Z-5.729
X103.302 Y-162.163 Z-5.691
X103.261 Y-162.133 Z-5.64
X103.231 Y-162.111 Z-5.58
X103.212 Y-162.097 Z-5.513
X103.205 Y-162.092 Z-5.443
G0 Z5
X109.247 Y-134.912
Z-5.125
G1 Z-5.443 F200
X109.24 Y-134.908 Z-5.513
X109.22 Y-134.896 Z-5.58
X109.187 Y-134.877 Z-5.64
X109.144 Y-134.851 Z-5.691
X109.092 Y-134.82 Z-5.729
X109.035 Y-134.786 Z-5.752
X108.974 Y-134.75 Z-5.76
G3 X108.22 Y-134.529 I-0.809 J-1.36
G1 X104.865
X104.43 Y-134.55
X103.977 Y-134.677
X103.494 Y-134.938
X103.011 Y-135.361
X102.62 Y-135.871
X102.291 Y-136.422
X101.993 Y-136.991
X101.71 Y-137.568
X101.438 Y-138.149
X101.174 Y-138.735
X100.92 Y-139.325
X100.674 Y-139.918
X100.437 Y-140.515
X100.208 Y-141.115
X99.988 Y-141.718
X99.776 Y-142.324
X99.573 Y-142.933
X99.378 Y-143.545
X99.192 Y-144.16
X99.013 Y-144.777
X98.843 Y-145.396
X98.681 Y-146.017
X98.526 Y-146.641
X98.38 Y-147.266
X98.242 Y-147.893
X98.112 Y-148.522
X97.991 Y-149.153
X97.877 Y-149.785
X97.772 Y-150.418
X97.675 Y-151.053
X97.586 Y-151.689
X97.504 Y-152.326
X97.43 Y-152.964
X97.363 Y-153.603
X97.303 Y-154.242
X97.25 Y-154.882
X97.204 Y-155.522
X97.164 Y-156.163
X97.129 Y-156.805
X97.101 Y-157.446
X97.078 Y-158.088
X97.061 Y-158.73
X97.048 Y-159.372
X97.042 Y-160.014
X97.041 Y-160.656
X97.047 Y-161.298
X97.064 Y-161.94
X97.099 Y-162.582
X97.101 Y-162.59
X97.158 Y-162.725
X97.271 Y-162.82
X97.413 Y-162.854
X100.353
G3 X100.53 Y-162.28 I-0.011 J0.317
G1 X100.473 Y-162.238 Z-5.752
X100.419 Y-162.199 Z-5.729
X100.37 Y-162.163 Z-5.691
X100.33 Y-162.133 Z-5.64
X100.299 Y-162.111 Z-5.58
X100.28 Y-162.097 Z-5.513
X100.274 Y-162.092 Z-5.443
G0 Z5
X105.892 Y-134.912
Z-5.125
G1 Z-5.443 F200
X105.885 Y-134.908 Z-5.513
X105.865 Y-134.896 Z-5.58
X105.832 Y-134.877 Z-5.64
X105.789 Y-134.851 Z-5.691
X105.737 Y-134.82 Z-5.729
X105.68 Y-134.786 Z-5.752
X105.619 Y-134.75 Z-5.76
G3 X104.865 Y-134.529 I-0.809 J-1.36
G1 X101.51
X101.131 Y-134.547
X100.686 Y-134.672
X100.216 Y-134.927
X99.733 Y-135.35
X99.347 Y-135.863
X99.03 Y-136.422
X98.747 Y-136.998
X98.482 Y-137.583
X98.226 Y-138.172
X97.979 Y-138.765
X97.741 Y-139.361
X97.511 Y-139.961
X97.288 Y-140.563
X97.074 Y-141.168
X96.867 Y-141.777
X96.669 Y-142.387
X96.479 Y-143.001
X96.297 Y-143.617
X96.122 Y-144.234
X95.955 Y-144.854
X95.795 Y-145.476
X95.643 Y-146.1
X95.498 Y-146.726
X95.361 Y-147.353
X95.232 Y-147.982
X95.11 Y-148.613
X94.997 Y-149.245
X94.891 Y-149.878
X94.792 Y-150.513
X94.701 Y-151.149
X94.617 Y-151.785
X94.541 Y-152.423
X94.471 Y-153.061
X94.409 Y-153.701
X94.353 Y-154.34
X94.303 Y-154.981
X94.26 Y-155.621
X94.222 Y-156.262
X94.19 Y-156.904
X94.163 Y-157.545
X94.142 Y-158.187
X94.126 Y-158.829
X94.115 Y-159.471
X94.11 Y-160.114
Y-160.756
X94.118 Y-161.398
X94.137 Y-162.04
X94.166 Y-162.554
X94.195 Y-162.67
X94.265 Y-162.767
X94.365 Y-162.831
X94.483 Y-162.854
X97.413
G3 X97.59 Y-162.28 I-0.011 J0.317
G1 X97.533 Y-162.238 Z-5.752
X97.479 Y-162.199 Z-5.729
X97.43 Y-162.163 Z-5.691
X97.39 Y-162.133 Z-5.64
X97.359 Y-162.111 Z-5.58
X97.34 Y-162.097 Z-5.513
X97.334 Y-162.092 Z-5.443
G0 Z5
X102.537 Y-134.912
Z-5.125
G1 Z-5.443 F200
X102.53 Y-134.908 Z-5.513
X102.51 Y-134.896 Z-5.58
X102.477 Y-134.877 Z-5.64
X102.434 Y-134.851 Z-5.691
X102.382 Y-134.82 Z-5.729
X102.325 Y-134.786 Z-5.752
X102.264 Y-134.75 Z-5.76
G3 X101.51 Y-134.529 I-0.809 J-1.36
G1 X98.301
X97.881 Y-134.55
X97.443 Y-134.672
X96.982 Y-134.922
X96.499 Y-135.345
X96.119 Y-135.862
X95.812 Y-136.426
X95.542 Y-137.009
X95.291 Y-137.6
X95.051 Y-138.196
X94.818 Y-138.794
X94.594 Y-139.396
X94.377 Y-140
X94.168 Y-140.608
X93.966 Y-141.217
X93.773 Y-141.83
X93.586 Y-142.444
X93.407 Y-143.061
X93.235 Y-143.68
X93.07 Y-144.3
X92.913 Y-144.923
X92.762 Y-145.547
X92.619 Y-146.173
X92.483 Y-146.801
X92.354 Y-147.43
X92.232 Y-148.06
X92.118 Y-148.692
X92.011 Y-149.326
X91.911 Y-149.96
X91.818 Y-150.595
X91.733 Y-151.232
X91.654 Y-151.869
X91.582 Y-152.507
X91.516 Y-153.146
X91.458 Y-153.786
X91.405 Y-154.426
X91.358 Y-155.066
X91.318 Y-155.707
X91.282 Y-156.348
X91.252 Y-156.99
X91.227 Y-157.631
X91.207 Y-158.273
X91.193 Y-158.915
X91.183 Y-159.557
X91.178 Y-160.2
X91.18 Y-160.842
X91.19 Y-161.484
X91.21 Y-162.126
X91.24 Y-162.558
X91.27 Y-162.673
X91.34 Y-162.768
X91.44 Y-162.831
X91.557 Y-162.854
X94.483
G3 X94.66 Y-162.28 I-0.011 J0.317
G1 X94.603 Y-162.238 Z-5.752
X94.549 Y-162.199 Z-5.729
X94.5 Y-162.163 Z-5.691
X94.459 Y-162.133 Z-5.64
X94.429 Y-162.111 Z-5.58
X94.41 Y-162.097 Z-5.513
X94.404 Y-162.092 Z-5.443
G0 Z5
X99.328 Y-134.912
Z-5.125
G1 Z-5.443 F200
X99.321 Y-134.908 Z-5.513
X99.301 Y-134.896 Z-5.58
X99.268 Y-134.877 Z-5.64
X99.225 Y-134.851 Z-5.691
X99.173 Y-134.82 Z-5.729
X99.115 Y-134.786 Z-5.752
X99.055 Y-134.75 Z-5.76
G3 X98.301 Y-134.529 I-0.809 J-1.36
G1 X95.092
X94.675 Y-134.549
X94.242 Y-134.67
X93.788 Y-134.916
X93.31 Y-135.335
X92.932 Y-135.854
X92.633 Y-136.422
X92.375 Y-137.011
X92.136 Y-137.607
X91.908 Y-138.207
X91.688 Y-138.81
X91.477 Y-139.417
X91.272 Y-140.025
X91.075 Y-140.637
X90.885 Y-141.25
X90.702 Y-141.866
X90.525 Y-142.483
X90.355 Y-143.102
X90.193 Y-143.724
X90.036 Y-144.346
X89.887 Y-144.971
X89.744 Y-145.597
X89.609 Y-146.225
X89.48 Y-146.854
X89.358 Y-147.485
X89.243 Y-148.116
X89.135 Y-148.749
X89.034 Y-149.384
X88.939 Y-150.019
X88.851 Y-150.655
X88.77 Y-151.292
X88.696 Y-151.93
X88.628 Y-152.568
X88.566 Y-153.208
X88.511 Y-153.847
X88.461 Y-154.488
X88.416 Y-155.128
X88.378 Y-155.769
X88.344 Y-156.411
X88.315 Y-157.052
X88.292 Y-157.694
X88.273 Y-158.336
X88.259 Y-158.978
X88.251 Y-159.62
X88.247 Y-160.262
X88.25 Y-160.904
X88.26 Y-161.546
X88.282 Y-162.188
X88.313 Y-162.562
X88.344 Y-162.676
X88.415 Y-162.77
X88.514 Y-162.832
X88.63 Y-162.854
X91.557
G3 X91.733 Y-162.28 I-0.011 J0.317
G1 X91.676 Y-162.238 Z-5.752
X91.622 Y-162.199 Z-5.729
X91.574 Y-162.163 Z-5.691
X91.533 Y-162.133 Z-5.64
X91.503 Y-162.111 Z-5.58
X91.484 Y-162.097 Z-5.513
X91.477 Y-162.092 Z-5.443
G0 Z5
X96.118 Y-134.912
Z-5.125
G1 Z-5.443 F200
X96.112 Y-134.908 Z-5.513
X96.091 Y-134.896 Z-5.58
X96.059 Y-134.877 Z-5.64
X96.016 Y-134.851 Z-5.691
X95.964 Y-134.82 Z-5.729
X95.906 Y-134.786 Z-5.752
X95.846 Y-134.75 Z-5.76
G3 X95.092 Y-134.529 I-0.809 J-1.36
G1 X91.883
X91.502 Y-134.548
X91.074 Y-134.667
X90.625 Y-134.91
X90.16 Y-135.318
X89.782 Y-135.838
X89.487 Y-136.408
X89.238 Y-137
X89.01 Y-137.6
X88.794 Y-138.205
X88.587 Y-138.813
X88.386 Y-139.423
X88.192 Y-140.035
X88.005 Y-140.649
X87.824 Y-141.266
X87.65 Y-141.884
X87.482 Y-142.504
X87.32 Y-143.125
X87.165 Y-143.748
X87.017 Y-144.373
X86.875 Y-144.999
X86.739 Y-145.627
X86.611 Y-146.256
X86.488 Y-146.887
X86.372 Y-147.518
X86.263 Y-148.151
X86.16 Y-148.785
X86.064 Y-149.42
X85.974 Y-150.056
X85.891 Y-150.693
X85.814 Y-151.33
X85.743 Y-151.968
X85.678 Y-152.607
X85.62 Y-153.247
X85.567 Y-153.887
X85.519 Y-154.527
X85.477 Y-155.168
X85.439 Y-155.809
X85.407 Y-156.45
X85.38 Y-157.092
X85.358 Y-157.734
X85.34 Y-158.376
X85.327 Y-159.018
X85.319 Y-159.66
X85.316 Y-160.302
X85.319 Y-160.944
X85.33 Y-161.586
X85.353 Y-162.228
X85.385 Y-162.566
X85.417 Y-162.678
X85.487 Y-162.771
X85.586 Y-162.832
X85.701 Y-162.854
X88.63
G3 X88.806 Y-162.28 I-0.011 J0.317
G1 X88.749 Y-162.238 Z-5.752
X88.695 Y-162.199 Z-5.729
X88.647 Y-162.163 Z-5.691
X88.606 Y-162.133 Z-5.64
X88.576 Y-162.111 Z-5.58
X88.557 Y-162.097 Z-5.513
X88.55 Y-162.092 Z-5.443
G0 Z5
X92.909 Y-134.912
Z-5.125
G1 Z-5.443 F200
X92.902 Y-134.908 Z-5.513
X92.882 Y-134.896 Z-5.58
X92.85 Y-134.877 Z-5.64
X92.807 Y-134.851 Z-5.691
X92.755 Y-134.82 Z-5.729
X92.697 Y-134.786 Z-5.752
X92.636 Y-134.75 Z-5.76
G3 X91.883 Y-134.529 I-0.809 J-1.36
G1 X88.82
X88.354 Y-134.552
X87.93 Y-134.671
X87.486 Y-134.911
X87.03 Y-135.31
X86.652 Y-135.83
X86.362 Y-136.402
X86.121 Y-136.998
X85.904 Y-137.602
X85.699 Y-138.211
X85.501 Y-138.822
X85.31 Y-139.435
X85.125 Y-140.05
X84.947 Y-140.667
X84.774 Y-141.285
X84.608 Y-141.906
X84.448 Y-142.528
X84.294 Y-143.151
X84.147 Y-143.776
X84.005 Y-144.402
X83.87 Y-145.03
X83.741 Y-145.659
X83.618 Y-146.29
X83.501 Y-146.921
X83.391 Y-147.554
X83.287 Y-148.188
X83.189 Y-148.822
X83.097 Y-149.458
X83.011 Y-150.094
X82.932 Y-150.731
X82.859 Y-151.369
X82.792 Y-152.008
X82.73 Y-152.647
X82.674 Y-153.287
X82.623 Y-153.927
X82.578 Y-154.568
X82.537 Y-155.209
X82.502 Y-155.85
X82.471 Y-156.491
X82.445 Y-157.133
X82.423 Y-157.775
X82.406 Y-158.417
X82.394 Y-159.059
X82.387 Y-159.701
X82.385 Y-160.343
X82.389 Y-160.985
X82.4 Y-161.627
X82.424 Y-162.269
X82.455 Y-162.569
X82.488 Y-162.68
X82.558 Y-162.772
X82.657 Y-162.832
X82.771 Y-162.854
X85.701
G3 X85.878 Y-162.28 I-0.011 J0.317
G1 X85.821 Y-162.238 Z-5.752
X85.767 Y-162.199 Z-5.729
X85.718 Y-162.163 Z-5.691
X85.677 Y-162.133 Z-5.64
X85.647 Y-162.111 Z-5.58
X85.628 Y-162.097 Z-5.513
X85.622 Y-162.092 Z-5.443
G0 Z5
X89.846 Y-134.912
Z-5.125
G1 Z-5.443 F200
X89.839 Y-134.908 Z-5.513
X89.819 Y-134.896 Z-5.58
X89.786 Y-134.877 Z-5.64
X89.743 Y-134.851 Z-5.691
X89.692 Y-134.82 Z-5.729
X89.634 Y-134.786 Z-5.752
X89.573 Y-134.75 Z-5.76
G3 X88.82 Y-134.529 I-0.809 J-1.36
G1 X85.61
X85.232 Y-134.547
X84.811 Y-134.665
X84.371 Y-134.904
X83.924 Y-135.295
X83.546 Y-135.815
X83.26 Y-136.389
X83.027 Y-136.988
X82.819 Y-137.595
X82.622 Y-138.207
X82.433 Y-138.82
X82.251 Y-139.436
X82.074 Y-140.054
X81.904 Y-140.673
X81.739 Y-141.293
X81.58 Y-141.916
X81.427 Y-142.539
X81.28 Y-143.164
X81.138 Y-143.791
X81.003 Y-144.419
X80.874 Y-145.048
X80.75 Y-145.678
X80.633 Y-146.309
X80.522 Y-146.942
X80.416 Y-147.575
X80.316 Y-148.21
X80.223 Y-148.845
X80.135 Y-149.481
X80.053 Y-150.118
X79.978 Y-150.756
X79.908 Y-151.394
X79.844 Y-152.033
X79.784 Y-152.672
X79.731 Y-153.312
X79.682 Y-153.953
X79.638 Y-154.593
X79.599 Y-155.234
X79.565 Y-155.876
X79.535 Y-156.517
X79.51 Y-157.159
X79.49 Y-157.801
X79.474 Y-158.443
X79.462 Y-159.085
X79.455 Y-159.727
X79.453 Y-160.369
X79.458 Y-161.011
X79.47 Y-161.653
X79.494 Y-162.295
X79.524 Y-162.571
X79.558 Y-162.681
X79.628 Y-162.772
X79.727 Y-162.833
X79.84 Y-162.854
X82.771
G3 X82.948 Y-162.28 I-0.011 J0.317
G1 X82.891 Y-162.238 Z-5.752
X82.837 Y-162.199 Z-5.729
X82.788 Y-162.163 Z-5.691
X82.748 Y-162.133 Z-5.64
X82.717 Y-162.111 Z-5.58
X82.698 Y-162.097 Z-5.513
X82.692 Y-162.092 Z-5.443
G0 Z5
X86.637 Y-134.912
Z-5.125
G1 Z-5.443 F200
X86.63 Y-134.908 Z-5.513
X86.61 Y-134.896 Z-5.58
X86.577 Y-134.877 Z-5.64
X86.534 Y-134.851 Z-5.691
X86.482 Y-134.82 Z-5.729
X86.425 Y-134.786 Z-5.752
X86.364 Y-134.75 Z-5.76
G3 X85.61 Y-134.529 I-0.809 J-1.36
G1 X82.547
X82.128 Y-134.549
X81.71 Y-134.666
X81.273 Y-134.903
X80.833 Y-135.288
X80.456 Y-135.808
X80.173 Y-136.384
X79.946 Y-136.985
X79.746 Y-137.595
X79.557 Y-138.209
X79.376 Y-138.825
X79.201 Y-139.443
X79.032 Y-140.063
X78.869 Y-140.684
X78.711 Y-141.306
X78.559 Y-141.93
X78.412 Y-142.555
X78.271 Y-143.182
X78.136 Y-143.81
X78.006 Y-144.439
X77.882 Y-145.069
X77.764 Y-145.7
X77.652 Y-146.332
X77.545 Y-146.965
X77.444 Y-147.6
X77.348 Y-148.235
X77.259 Y-148.87
X77.175 Y-149.507
X77.097 Y-150.145
X77.025 Y-150.783
X76.958 Y-151.421
X76.896 Y-152.061
X76.84 Y-152.7
X76.788 Y-153.34
X76.741 Y-153.981
X76.699 Y-154.622
X76.661 Y-155.263
X76.629 Y-155.904
X76.6 Y-156.546
X76.576 Y-157.187
X76.556 Y-157.829
X76.541 Y-158.471
X76.53 Y-159.113
X76.523 Y-159.756
X76.522 Y-160.398
X76.527 Y-161.04
X76.54 Y-161.682
X76.564 Y-162.324
X76.593 Y-162.572
X76.647 Y-162.715
X76.76 Y-162.817
X76.909 Y-162.854
X79.84
G3 X80.017 Y-162.28 I-0.011 J0.317
G1 X79.96 Y-162.238 Z-5.752
X79.906 Y-162.199 Z-5.729
X79.857 Y-162.163 Z-5.691
X79.817 Y-162.133 Z-5.64
X79.786 Y-162.111 Z-5.58
X79.767 Y-162.097 Z-5.513
X79.761 Y-162.092 Z-5.443
G0 Z5
X83.574 Y-134.912
Z-5.125
G1 Z-5.443 F200
X83.567 Y-134.908 Z-5.513
X83.547 Y-134.896 Z-5.58
X83.514 Y-134.877 Z-5.64
X83.471 Y-134.851 Z-5.691
X83.419 Y-134.82 Z-5.729
X83.361 Y-134.786 Z-5.752
X83.301 Y-134.75 Z-5.76
G3 X82.547 Y-134.529 I-0.809 J-1.36
G1 X79.484
X79.041 Y-134.551
X78.626 Y-134.667
X78.192 Y-134.902
X77.758 Y-135.282
X77.38 Y-135.802
X77.1 Y-136.379
X76.879 Y-136.983
X76.685 Y-137.595
X76.504 Y-138.211
X76.33 Y-138.829
X76.162 Y-139.449
X76 Y-140.07
X75.843 Y-140.693
X75.691 Y-141.317
X75.545 Y-141.942
X75.405 Y-142.569
X75.269 Y-143.197
X75.14 Y-143.826
X75.015 Y-144.456
X74.896 Y-145.087
X74.783 Y-145.719
X74.675 Y-146.352
X74.572 Y-146.986
X74.475 Y-147.621
X74.384 Y-148.256
X74.298 Y-148.893
X74.218 Y-149.53
X74.144 Y-150.168
X74.074 Y-150.806
X74.01 Y-151.445
X73.95 Y-152.085
X73.896 Y-152.725
X73.846 Y-153.365
X73.801 Y-154.005
X73.76 Y-154.646
X73.724 Y-155.287
X73.692 Y-155.929
X73.665 Y-156.57
X73.642 Y-157.212
X73.623 Y-157.854
X73.608 Y-158.496
X73.597 Y-159.138
X73.592 Y-159.78
X73.591 Y-160.423
X73.596 Y-161.065
X73.609 Y-161.707
X73.634 Y-162.348
X73.661 Y-162.574
X73.715 Y-162.716
X73.829 Y-162.817
X73.977 Y-162.854
X76.909
G3 X77.085 Y-162.28 I-0.011 J0.317
G1 X77.028 Y-162.238 Z-5.752
X76.974 Y-162.199 Z-5.729
X76.926 Y-162.163 Z-5.691
X76.885 Y-162.133 Z-5.64
X76.855 Y-162.111 Z-5.58
X76.836 Y-162.097 Z-5.513
X76.829 Y-162.092 Z-5.443
G0 Z5
X80.51 Y-134.912
Z-5.125
G1 Z-5.443 F200
X80.503 Y-134.908 Z-5.513
X80.483 Y-134.896 Z-5.58
X80.451 Y-134.877 Z-5.64
X80.408 Y-134.851 Z-5.691
X80.356 Y-134.82 Z-5.729
X80.298 Y-134.786 Z-5.752
X80.237 Y-134.75 Z-5.76
G3 X79.484 Y-134.529 I-0.809 J-1.36
G1 X76.42
X75.969 Y-134.551
X75.556 Y-134.667
X75.124 Y-134.901
X74.694 Y-135.277
X74.317 Y-135.796
X74.039 Y-136.375
X73.823 Y-136.98
X73.635 Y-137.594
X73.461 Y-138.212
X73.294 Y-138.832
X73.132 Y-139.454
X72.976 Y-140.077
X72.825 Y-140.701
X72.679 Y-141.326
X72.539 Y-141.953
X72.403 Y-142.581
X72.273 Y-143.21
X72.149 Y-143.84
X72.029 Y-144.471
X71.915 Y-145.103
X71.806 Y-145.735
X71.702 Y-146.369
X71.603 Y-147.004
X71.51 Y-147.639
X71.422 Y-148.275
X71.34 Y-148.912
X71.263 Y-149.55
X71.192 Y-150.188
X71.125 Y-150.827
X71.063 Y-151.466
X71.006 Y-152.105
X70.953 Y-152.745
X70.905 Y-153.386
X70.862 Y-154.027
X70.822 Y-154.668
X70.787 Y-155.309
X70.757 Y-155.95
X70.73 Y-156.592
X70.708 Y-157.234
X70.689 Y-157.876
X70.675 Y-158.518
X70.665 Y-159.16
X70.66 Y-159.802
Y-160.444
X70.665 Y-161.086
X70.679 Y-161.728
X70.703 Y-162.37
X70.729 Y-162.575
X70.783 Y-162.717
X70.897 Y-162.817
X71.044 Y-162.854
X73.977
G3 X74.153 Y-162.28 I-0.011 J0.317
G1 X74.096 Y-162.238 Z-5.752
X74.042 Y-162.199 Z-5.729
X73.994 Y-162.163 Z-5.691
X73.953 Y-162.133 Z-5.64
X73.923 Y-162.111 Z-5.58
X73.904 Y-162.097 Z-5.513
X73.897 Y-162.092 Z-5.443
G0 Z5
X77.447 Y-134.912
Z-5.125
G1 Z-5.443 F200
X77.44 Y-134.908 Z-5.513
X77.42 Y-134.896 Z-5.58
X77.387 Y-134.877 Z-5.64
X77.344 Y-134.851 Z-5.691
X77.292 Y-134.82 Z-5.729
X77.235 Y-134.786 Z-5.752
X77.174 Y-134.75 Z-5.76
G3 X76.42 Y-134.529 I-0.809 J-1.36
G1 X73.357
X72.909 Y-134.551
X72.498 Y-134.666
X72.068 Y-134.899
X71.642 Y-135.272
X71.264 Y-135.791
X70.988 Y-136.371
X70.777 Y-136.978
X70.595 Y-137.594
X70.426 Y-138.213
X70.265 Y-138.835
X70.109 Y-139.458
X69.959 Y-140.082
X69.814 Y-140.708
X69.673 Y-141.334
X69.538 Y-141.962
X69.408 Y-142.591
X69.282 Y-143.221
X69.162 Y-143.852
X69.047 Y-144.483
X68.937 Y-145.116
X68.832 Y-145.75
X68.732 Y-146.384
X68.637 Y-147.019
X68.548 Y-147.655
X68.464 Y-148.292
X68.385 Y-148.929
X68.311 Y-149.567
X68.241 Y-150.205
X68.177 Y-150.844
X68.117 Y-151.484
X68.062 Y-152.124
X68.011 Y-152.764
X67.965 Y-153.404
X67.923 Y-154.045
X67.885 Y-154.686
X67.851 Y-155.327
X67.821 Y-155.969
X67.796 Y-156.611
X67.774 Y-157.252
X67.756 Y-157.894
X67.743 Y-158.536
X67.733 Y-159.178
X67.728 Y-159.821
Y-160.463
X67.734 Y-161.105
X67.748 Y-161.747
X67.772 Y-162.389
X67.797 Y-162.577
X67.851 Y-162.718
X67.965 Y-162.818
X68.112 Y-162.854
X71.044
G3 X71.221 Y-162.28 I-0.011 J0.317
G1 X71.164 Y-162.238 Z-5.752
X71.11 Y-162.199 Z-5.729
X71.061 Y-162.163 Z-5.691
X71.021 Y-162.133 Z-5.64
X70.99 Y-162.111 Z-5.58
X70.971 Y-162.097 Z-5.513
X70.965 Y-162.092 Z-5.443
G0 Z5
X74.384 Y-134.912
Z-5.125
G1 Z-5.443 F200
X74.377 Y-134.908 Z-5.513
X74.357 Y-134.896 Z-5.58
X74.324 Y-134.877 Z-5.64
X74.281 Y-134.851 Z-5.691
X74.229 Y-134.82 Z-5.729
X74.171 Y-134.786 Z-5.752
X74.111 Y-134.75 Z-5.76
G3 X73.357 Y-134.529 I-0.809 J-1.36
G1 X70.294
X69.859 Y-134.55
X69.45 Y-134.665
X69.022 Y-134.896
X68.599 Y-135.267
X68.221 Y-135.787
X67.947 Y-136.367
X67.739 Y-136.975
X67.563 Y-137.593
X67.4 Y-138.214
X67.244 Y-138.837
X67.094 Y-139.461
X66.948 Y-140.087
X66.808 Y-140.713
X66.673 Y-141.341
X66.542 Y-141.97
X66.417 Y-142.6
X66.296 Y-143.23
X66.18 Y-143.862
X66.069 Y-144.494
X65.963 Y-145.128
X65.861 Y-145.762
X65.765 Y-146.397
X65.674 Y-147.033
X65.588 Y-147.669
X65.507 Y-148.306
X65.431 Y-148.944
X65.359 Y-149.582
X65.293 Y-150.221
X65.23 Y-150.86
X65.173 Y-151.499
X65.119 Y-152.139
X65.07 Y-152.78
X65.025 Y-153.42
X64.984 Y-154.061
X64.948 Y-154.702
X64.915 Y-155.344
X64.886 Y-155.985
X64.861 Y-156.627
X64.84 Y-157.269
X64.823 Y-157.911
X64.81 Y-158.553
X64.801 Y-159.195
X64.797 Y-159.837
Y-160.479
X64.803 Y-161.121
X64.817 Y-161.763
X64.841 Y-162.405
X64.864 Y-162.578
X64.919 Y-162.718
X65.032 Y-162.818
X65.179 Y-162.854
X68.112
G3 X68.288 Y-162.28 I-0.011 J0.317
G1 X68.231 Y-162.238 Z-5.752
X68.177 Y-162.199 Z-5.729
X68.129 Y-162.163 Z-5.691
X68.088 Y-162.133 Z-5.64
X68.058 Y-162.111 Z-5.58
X68.039 Y-162.097 Z-5.513
X68.032 Y-162.092 Z-5.443
G0 Z5
X71.32 Y-134.912
Z-5.125
G1 Z-5.443 F200
X71.314 Y-134.908 Z-5.513
X71.293 Y-134.896 Z-5.58
X71.261 Y-134.877 Z-5.64
X71.218 Y-134.851 Z-5.691
X71.166 Y-134.82 Z-5.729
X71.108 Y-134.786 Z-5.752
X71.047 Y-134.75 Z-5.76
G3 X70.294 Y-134.529 I-0.809 J-1.36
G1 X67.231
X66.819 Y-134.549
X66.411 Y-134.663
X65.985 Y-134.894
X65.564 Y-135.263
X65.186 Y-135.782
X64.914 Y-136.364
X64.71 Y-136.973
X64.538 Y-137.591
X64.38 Y-138.214
X64.229 Y-138.838
X64.084 Y-139.463
X63.944 Y-140.09
X63.808 Y-140.718
X63.677 Y-141.347
X63.551 Y-141.976
X63.43 Y-142.607
X63.313 Y-143.238
X63.201 Y-143.871
X63.094 Y-144.504
X62.991 Y-145.138
X62.893 Y-145.773
X62.801 Y-146.408
X62.713 Y-147.044
X62.63 Y-147.681
X62.552 Y-148.318
X62.479 Y-148.956
X62.41 Y-149.595
X62.345 Y-150.234
X62.285 Y-150.873
X62.229 Y-151.513
X62.177 Y-152.153
X62.13 Y-152.793
X62.086 Y-153.434
X62.047 Y-154.075
X62.011 Y-154.716
X61.979 Y-155.358
X61.951 Y-155.999
X61.927 Y-156.641
X61.907 Y-157.283
X61.89 Y-157.925
X61.878 Y-158.567
X61.869 Y-159.209
X61.865 Y-159.851
X61.866 Y-160.493
X61.872 Y-161.136
X61.886 Y-161.778
X61.91 Y-162.419
X61.931 Y-162.578
X61.986 Y-162.719
X62.1 Y-162.818
X62.246 Y-162.854
X65.179
G3 X65.356 Y-162.28 I-0.011 J0.317
G1 X65.299 Y-162.238 Z-5.752
X65.244 Y-162.199 Z-5.729
X65.196 Y-162.163 Z-5.691
X65.155 Y-162.133 Z-5.64
X65.125 Y-162.111 Z-5.58
X65.106 Y-162.097 Z-5.513
X65.1 Y-162.092 Z-5.443
G0 Z5
X68.257 Y-134.912
Z-5.125
G1 Z-5.443 F200
X68.25 Y-134.908 Z-5.513
X68.23 Y-134.896 Z-5.58
X68.198 Y-134.877 Z-5.64
X68.154 Y-134.851 Z-5.691
X68.103 Y-134.82 Z-5.729
X68.045 Y-134.786 Z-5.752
X67.984 Y-134.75 Z-5.76
G3 X67.231 Y-134.529 I-0.809 J-1.36
G1 X64.167
X63.786 Y-134.548
X63.379 Y-134.662
X62.955 Y-134.891
X62.536 Y-135.258
X62.159 Y-135.777
X61.888 Y-136.36
X61.687 Y-136.97
X61.519 Y-137.59
X61.366 Y-138.213
X61.22 Y-138.839
X61.08 Y-139.465
X60.944 Y-140.093
X60.813 Y-140.722
X60.686 Y-141.351
X60.564 Y-141.982
X60.447 Y-142.613
X60.334 Y-143.245
X60.226 Y-143.878
X60.122 Y-144.512
X60.023 Y-145.146
X59.928 Y-145.782
X59.839 Y-146.418
X59.754 Y-147.054
X59.674 Y-147.691
X59.599 Y-148.329
X59.528 Y-148.967
X59.461 Y-149.606
X59.399 Y-150.245
X59.34 Y-150.885
X59.286 Y-151.525
X59.236 Y-152.165
X59.19 Y-152.805
X59.148 Y-153.446
X59.109 Y-154.087
X59.075 Y-154.728
X59.044 Y-155.37
X59.017 Y-156.012
X58.993 Y-156.653
X58.973 Y-157.295
X58.957 Y-157.937
X58.945 Y-158.579
X58.937 Y-159.221
X58.933 Y-159.864
X58.934 Y-160.506
X58.941 Y-161.148
X58.954 Y-161.79
X58.979 Y-162.432
X58.999 Y-162.579
X59.054 Y-162.719
X59.167 Y-162.818
X59.313 Y-162.854
X62.246
G3 X62.423 Y-162.28 I-0.011 J0.317
G1 X62.366 Y-162.238 Z-5.752
X62.312 Y-162.199 Z-5.729
X62.263 Y-162.163 Z-5.691
X62.223 Y-162.133 Z-5.64
X62.192 Y-162.111 Z-5.58
X62.173 Y-162.097 Z-5.513
X62.167 Y-162.092 Z-5.443
G0 Z5
X65.194 Y-134.912
Z-5.125
G1 Z-5.443 F200
X65.187 Y-134.908 Z-5.513
X65.167 Y-134.896 Z-5.58
X65.134 Y-134.877 Z-5.64
X65.091 Y-134.851 Z-5.691
X65.039 Y-134.82 Z-5.729
X64.982 Y-134.786 Z-5.752
X64.921 Y-134.75 Z-5.76
G3 X64.167 Y-134.529 I-0.809 J-1.36
G1 X61.104
X60.761 Y-134.546
X60.355 Y-134.659
X59.932 Y-134.888
X59.515 Y-135.253
X59.138 Y-135.773
X58.869 Y-136.356
X58.67 Y-136.967
X58.506 Y-137.588
X58.357 Y-138.212
X58.216 Y-138.839
X58.08 Y-139.466
X57.949 Y-140.095
X57.822 Y-140.725
X57.699 Y-141.355
X57.581 Y-141.986
X57.467 Y-142.618
X57.358 Y-143.251
X57.253 Y-143.885
X57.153 Y-144.519
X57.057 Y-145.154
X56.966 Y-145.79
X56.88 Y-146.426
X56.798 Y-147.063
X56.72 Y-147.7
X56.647 Y-148.338
X56.579 Y-148.977
X56.514 Y-149.616
X56.453 Y-150.255
X56.397 Y-150.895
X56.344 Y-151.535
X56.295 Y-152.175
X56.251 Y-152.816
X56.209 Y-153.457
X56.172 Y-154.098
X56.138 Y-154.739
X56.108 Y-155.381
X56.082 Y-156.022
X56.059 Y-156.664
X56.04 Y-157.306
X56.025 Y-157.948
X56.013 Y-158.59
X56.005 Y-159.232
X56.002 Y-159.874
X56.003 Y-160.516
X56.01 Y-161.159
X56.023 Y-161.801
X56.047 Y-162.442
X56.066 Y-162.58
X56.121 Y-162.719
X56.235 Y-162.818
X56.381 Y-162.854
X59.313
G3 X59.49 Y-162.28 I-0.011 J0.317
G1 X59.433 Y-162.238 Z-5.752
X59.379 Y-162.199 Z-5.729
X59.33 Y-162.163 Z-5.691
X59.29 Y-162.133 Z-5.64
X59.259 Y-162.111 Z-5.58
X59.241 Y-162.097 Z-5.513
X59.234 Y-162.092 Z-5.443
G0 Z5
X62.131 Y-134.912
Z-5.125
G1 Z-5.443 F200
X62.124 Y-134.908 Z-5.513
X62.103 Y-134.896 Z-5.58
X62.071 Y-134.877 Z-5.64
X62.028 Y-134.851 Z-5.691
X61.976 Y-134.82 Z-5.729
X61.918 Y-134.786 Z-5.752
X61.858 Y-134.75 Z-5.76
G3 X61.104 Y-134.529 I-0.809 J-1.36
G1 X58.187
X57.739 Y-134.551
X57.335 Y-134.664
X56.913 Y-134.892
X56.498 Y-135.256
X56.121 Y-135.775
X55.853 Y-136.359
X55.658 Y-136.971
X55.497 Y-137.592
X55.352 Y-138.218
X55.215 Y-138.845
X55.083 Y-139.474
X54.956 Y-140.103
X54.833 Y-140.734
X54.714 Y-141.365
X54.6 Y-141.997
X54.49 Y-142.629
X54.384 Y-143.263
X54.282 Y-143.897
X54.185 Y-144.532
X54.092 Y-145.167
X54.004 Y-145.803
X53.921 Y-146.44
X53.842 Y-147.077
X53.767 Y-147.715
X53.696 Y-148.353
X53.63 Y-148.992
X53.567 Y-149.631
X53.508 Y-150.271
X53.453 Y-150.911
X53.402 Y-151.551
X53.355 Y-152.191
X53.311 Y-152.832
X53.271 Y-153.473
X53.235 Y-154.114
X53.202 Y-154.755
X53.173 Y-155.397
X53.147 Y-156.038
X53.125 Y-156.68
X53.107 Y-157.322
X53.092 Y-157.964
X53.081 Y-158.606
X53.073 Y-159.248
X53.07 Y-159.891
X53.071 Y-160.533
X53.078 Y-161.175
X53.092 Y-161.817
X53.116 Y-162.459
X53.133 Y-162.581
X53.189 Y-162.72
X53.302 Y-162.818
X53.448 Y-162.854
X56.381
G3 X56.557 Y-162.28 I-0.011 J0.317
G1 X56.5 Y-162.238 Z-5.752
X56.446 Y-162.199 Z-5.729
X56.398 Y-162.163 Z-5.691
X56.357 Y-162.133 Z-5.64
X56.327 Y-162.111 Z-5.58
X56.308 Y-162.097 Z-5.513
X56.301 Y-162.092 Z-5.443
G0 Z5
X59.213 Y-134.912
Z-5.125
G1 Z-5.443 F200
X59.206 Y-134.908 Z-5.513
X59.186 Y-134.896 Z-5.58
X59.154 Y-134.877 Z-5.64
X59.11 Y-134.851 Z-5.691
X59.059 Y-134.82 Z-5.729
X59.001 Y-134.786 Z-5.752
X58.94 Y-134.75 Z-5.76
G3 X58.187 Y-134.529 I-0.809 J-1.36
G1 X55.123
X54.727 Y-134.548
X54.323 Y-134.661
X53.903 Y-134.889
X53.489 Y-135.251
X53.111 Y-135.771
X52.845 Y-136.355
X52.651 Y-136.968
X52.494 Y-137.59
X52.353 Y-138.217
X52.22 Y-138.845
X52.092 Y-139.474
X51.968 Y-140.105
X51.849 Y-140.736
X51.734 Y-141.367
X51.623 Y-142
X51.516 Y-142.633
X51.413 Y-143.267
X51.315 Y-143.902
X51.221 Y-144.537
X51.131 Y-145.173
X51.046 Y-145.809
X50.965 Y-146.446
X50.888 Y-147.084
X50.816 Y-147.722
X50.747 Y-148.36
X50.682 Y-148.999
X50.621 Y-149.639
X50.564 Y-150.278
X50.511 Y-150.918
X50.461 Y-151.559
X50.415 Y-152.199
X50.373 Y-152.84
X50.334 Y-153.481
X50.298 Y-154.122
X50.267 Y-154.763
X50.238 Y-155.405
X50.213 Y-156.047
X50.192 Y-156.689
X50.174 Y-157.33
X50.159 Y-157.972
X50.148 Y-158.615
X50.141 Y-159.257
X50.138 Y-159.899
X50.14 Y-160.541
X50.147 Y-161.183
X50.161 Y-161.825
X50.184 Y-162.467
X50.201 Y-162.581
X50.256 Y-162.72
X50.37 Y-162.818
X50.515 Y-162.854
X53.448
G3 X53.625 Y-162.28 I-0.011 J0.317
G1 X53.568 Y-162.238 Z-5.752
X53.513 Y-162.199 Z-5.729
X53.465 Y-162.163 Z-5.691
X53.424 Y-162.133 Z-5.64
X53.394 Y-162.111 Z-5.58
X53.375 Y-162.097 Z-5.513
X53.369 Y-162.092 Z-5.443
G0 Z5
X56.15 Y-134.912
Z-5.125
G1 Z-5.443 F200
X56.143 Y-134.908 Z-5.513
X56.123 Y-134.896 Z-5.58
X56.09 Y-134.877 Z-5.64
X56.047 Y-134.851 Z-5.691
X55.995 Y-134.82 Z-5.729
X55.938 Y-134.786 Z-5.752
X55.877 Y-134.75 Z-5.76
G3 X55.123 Y-134.529 I-0.809 J-1.36
G1 X52.06
X51.719 Y-134.546
X51.316 Y-134.658
X50.896 Y-134.885
X50.484 Y-135.247
X50.106 Y-135.766
X49.841 Y-136.351
X49.65 Y-136.964
X49.496 Y-137.588
X49.358 Y-138.215
X49.229 Y-138.844
X49.104 Y-139.474
X48.984 Y-140.105
X48.868 Y-140.736
X48.756 Y-141.369
X48.648 Y-142.002
X48.545 Y-142.636
X48.445 Y-143.27
X48.349 Y-143.905
X48.258 Y-144.541
X48.172 Y-145.177
X48.089 Y-145.814
X48.011 Y-146.451
X47.936 Y-147.089
X47.866 Y-147.727
X47.799 Y-148.366
X47.736 Y-149.005
X47.677 Y-149.645
X47.621 Y-150.284
X47.569 Y-150.925
X47.521 Y-151.565
X47.476 Y-152.206
X47.434 Y-152.846
X47.397 Y-153.487
X47.362 Y-154.129
X47.331 Y-154.77
X47.303 Y-155.412
X47.279 Y-156.053
X47.258 Y-156.695
X47.241 Y-157.337
X47.226 Y-157.979
X47.216 Y-158.621
X47.209 Y-159.264
X47.207 Y-159.906
X47.208 Y-160.548
X47.215 Y-161.19
X47.229 Y-161.832
X47.253 Y-162.474
X47.268 Y-162.582
X47.324 Y-162.72
X47.437 Y-162.818
X47.582 Y-162.854
X50.515
G3 X50.692 Y-162.28 I-0.011 J0.317
G1 X50.635 Y-162.238 Z-5.752
X50.581 Y-162.199 Z-5.729
X50.532 Y-162.163 Z-5.691
X50.492 Y-162.133 Z-5.64
X50.461 Y-162.111 Z-5.58
X50.442 Y-162.097 Z-5.513
X50.436 Y-162.092 Z-5.443
G0 Z5
X53.087 Y-134.912
Z-5.125
G1 Z-5.443 F200
X53.08 Y-134.908 Z-5.513
X53.059 Y-134.896 Z-5.58
X53.027 Y-134.877 Z-5.64
X52.984 Y-134.851 Z-5.691
X52.932 Y-134.82 Z-5.729
X52.874 Y-134.786 Z-5.752
X52.814 Y-134.75 Z-5.76
G3 X52.06 Y-134.529 I-0.809 J-1.36
G1 X49.143
X48.713 Y-134.55
X48.311 Y-134.663
X47.892 Y-134.889
X47.481 Y-135.249
X47.104 Y-135.768
X46.839 Y-136.354
X46.651 Y-136.968
X46.5 Y-137.592
X46.366 Y-138.22
X46.239 Y-138.849
X46.118 Y-139.48
X46.002 Y-140.112
X45.889 Y-140.744
X45.78 Y-141.377
X45.675 Y-142.01
X45.575 Y-142.645
X45.478 Y-143.279
X45.385 Y-143.915
X45.297 Y-144.551
X45.213 Y-145.188
X45.133 Y-145.825
X45.057 Y-146.463
X44.985 Y-147.101
X44.916 Y-147.739
X44.851 Y-148.378
X44.79 Y-149.017
X44.732 Y-149.657
X44.678 Y-150.297
X44.627 Y-150.937
X44.58 Y-151.577
X44.537 Y-152.218
X44.496 Y-152.859
X44.459 Y-153.5
X44.426 Y-154.141
X44.395 Y-154.783
X44.368 Y-155.425
X44.345 Y-156.066
X44.324 Y-156.708
X44.307 Y-157.35
X44.294 Y-157.992
X44.284 Y-158.634
X44.277 Y-159.276
X44.275 Y-159.919
X44.277 Y-160.561
X44.284 Y-161.203
X44.298 Y-161.845
X44.321 Y-162.487
X44.336 Y-162.583
X44.392 Y-162.721
X44.505 Y-162.818
X44.65 Y-162.854
X47.582
G3 X47.759 Y-162.28 I-0.011 J0.317
G1 X47.702 Y-162.238 Z-5.752
X47.648 Y-162.199 Z-5.729
X47.6 Y-162.163 Z-5.691
X47.559 Y-162.133 Z-5.64
X47.529 Y-162.111 Z-5.58
X47.51 Y-162.097 Z-5.513
X47.503 Y-162.092 Z-5.443
G0 Z5
X50.169 Y-134.912
Z-5.125
G1 Z-5.443 F200
X50.162 Y-134.908 Z-5.513
X50.142 Y-134.896 Z-5.58
X50.11 Y-134.877 Z-5.64
X50.066 Y-134.851 Z-5.691
X50.015 Y-134.82 Z-5.729
X49.957 Y-134.786 Z-5.752
X49.896 Y-134.75 Z-5.76
G3 X49.143 Y-134.529 I-0.809 J-1.36
G1 X46.079
X45.714 Y-134.547
X45.313 Y-134.659
X44.895 Y-134.885
X44.485 Y-135.245
X44.107 Y-135.764
X43.844 Y-136.35
X43.657 Y-136.964
X43.509 Y-137.589
X43.377 Y-138.218
X43.255 Y-138.848
X43.137 Y-139.479
X43.023 Y-140.111
X42.914 Y-140.744
X42.808 Y-141.378
X42.706 Y-142.012
X42.608 Y-142.646
X42.514 Y-143.282
X42.424 Y-143.917
X42.339 Y-144.554
X42.257 Y-145.191
X42.179 Y-145.828
X42.105 Y-146.466
X42.035 Y-147.105
X41.968 Y-147.743
X41.905 Y-148.382
X41.845 Y-149.022
X41.789 Y-149.661
X41.736 Y-150.301
X41.687 Y-150.942
X41.641 Y-151.582
X41.598 Y-152.223
X41.559 Y-152.864
X41.523 Y-153.505
X41.49 Y-154.147
X41.46 Y-154.788
X41.434 Y-155.43
X41.411 Y-156.071
X41.391 Y-156.713
X41.374 Y-157.355
X41.361 Y-157.997
X41.351 Y-158.639
X41.345 Y-159.282
X41.343 Y-159.924
X41.345 Y-160.566
X41.352 Y-161.208
X41.366 Y-161.85
X41.389 Y-162.492
X41.403 Y-162.583
X41.459 Y-162.721
X41.572 Y-162.818
X41.717 Y-162.854
X44.65
G3 X44.826 Y-162.28 I-0.011 J0.317
G1 X44.769 Y-162.238 Z-5.752
X44.715 Y-162.199 Z-5.729
X44.667 Y-162.163 Z-5.691
X44.626 Y-162.133 Z-5.64
X44.596 Y-162.111 Z-5.58
X44.577 Y-162.097 Z-5.513
X44.57 Y-162.092 Z-5.443
G0 Z5
X47.106 Y-134.912
Z-5.125
G1 Z-5.443 F200
X47.099 Y-134.908 Z-5.513
X47.079 Y-134.896 Z-5.58
X47.046 Y-134.877 Z-5.64
X47.003 Y-134.851 Z-5.691
X46.951 Y-134.82 Z-5.729
X46.894 Y-134.786 Z-5.752
X46.833 Y-134.75 Z-5.76
G3 X46.079 Y-134.529 I-0.809 J-1.36
G1 X43.162
X42.717 Y-134.551
X42.316 Y-134.663
X41.899 Y-134.888
X41.49 Y-135.247
X41.113 Y-135.766
X40.85 Y-136.352
X40.665 Y-136.967
X40.519 Y-137.593
X40.391 Y-138.222
X40.271 Y-138.853
X40.157 Y-139.485
X40.046 Y-140.117
X39.939 Y-140.751
X39.836 Y-141.385
X39.737 Y-142.019
X39.642 Y-142.654
X39.551 Y-143.29
X39.464 Y-143.926
X39.381 Y-144.563
X39.302 Y-145.2
X39.226 Y-145.838
X39.154 Y-146.476
X39.085 Y-147.114
X39.02 Y-147.753
X38.958 Y-148.393
X38.9 Y-149.032
X38.845 Y-149.672
X38.794 Y-150.312
X38.746 Y-150.952
X38.701 Y-151.593
X38.659 Y-152.234
X38.621 Y-152.875
X38.586 Y-153.516
X38.554 Y-154.158
X38.525 Y-154.799
X38.499 Y-155.441
X38.477 Y-156.083
X38.457 Y-156.724
X38.441 Y-157.366
X38.428 Y-158.008
X38.419 Y-158.651
X38.413 Y-159.293
X38.411 Y-159.935
X38.414 Y-160.577
X38.421 Y-161.219
X38.435 Y-161.861
X38.458 Y-162.503
X38.47 Y-162.583
X38.527 Y-162.721
X38.639 Y-162.819
X38.784 Y-162.854
X41.717
G3 X41.894 Y-162.28 I-0.011 J0.317
G1 X41.837 Y-162.238 Z-5.752
X41.783 Y-162.199 Z-5.729
X41.734 Y-162.163 Z-5.691
X41.694 Y-162.133 Z-5.64
X41.663 Y-162.111 Z-5.58
X41.644 Y-162.097 Z-5.513
X41.638 Y-162.092 Z-5.443
G0 Z5
X44.188 Y-134.912
Z-5.125
G1 Z-5.443 F200
X44.182 Y-134.908 Z-5.513
X44.161 Y-134.896 Z-5.58
X44.129 Y-134.877 Z-5.64
X44.086 Y-134.851 Z-5.691
X44.034 Y-134.82 Z-5.729
X43.976 Y-134.786 Z-5.752
X43.915 Y-134.75 Z-5.76
G3 X43.162 Y-134.529 I-0.809 J-1.36
G1 X40.099
X39.725 Y-134.547
X39.325 Y-134.659
X38.91 Y-134.884
X38.501 Y-135.242
X38.123 Y-135.762
X37.861 Y-136.348
X37.678 Y-136.964
X37.534 Y-137.59
X37.409 Y-138.22
X37.292 Y-138.851
X37.18 Y-139.483
X37.072 Y-140.116
X36.968 Y-140.75
X36.868 Y-141.384
X36.772 Y-142.019
X36.679 Y-142.655
X36.591 Y-143.291
X36.506 Y-143.928
X36.426 Y-144.565
X36.348 Y-145.202
X36.274 Y-145.84
X36.204 Y-146.478
X36.137 Y-147.117
X36.074 Y-147.756
X36.014 Y-148.395
X35.957 Y-149.035
X35.903 Y-149.675
X35.853 Y-150.315
X35.806 Y-150.956
X35.762 Y-151.596
X35.722 Y-152.237
X35.684 Y-152.878
X35.65 Y-153.52
X35.618 Y-154.161
X35.59 Y-154.803
X35.565 Y-155.444
X35.543 Y-156.086
X35.524 Y-156.728
X35.508 Y-157.37
X35.496 Y-158.012
X35.487 Y-158.654
X35.481 Y-159.296
X35.479 Y-159.939
X35.482 Y-160.581
X35.489 Y-161.223
X35.503 Y-161.865
X35.526 Y-162.507
X35.538 Y-162.584
X35.594 Y-162.721
X35.707 Y-162.819
X35.852 Y-162.854
X38.784
G3 X38.961 Y-162.28 I-0.011 J0.317
G1 X38.904 Y-162.238 Z-5.752
X38.85 Y-162.199 Z-5.729
X38.801 Y-162.163 Z-5.691
X38.761 Y-162.133 Z-5.64
X38.73 Y-162.111 Z-5.58
X38.711 Y-162.097 Z-5.513
X38.705 Y-162.092 Z-5.443
G0 Z5
X41.125 Y-134.912
Z-5.125
G1 Z-5.443 F200
X41.118 Y-134.908 Z-5.513
X41.098 Y-134.896 Z-5.58
X41.066 Y-134.877 Z-5.64
X41.022 Y-134.851 Z-5.691
X40.971 Y-134.82 Z-5.729
X40.913 Y-134.786 Z-5.752
X40.852 Y-134.75 Z-5.76
G3 X40.099 Y-134.529 I-0.809 J-1.36
G1 X37.181
X36.735 Y-134.551
X36.335 Y-134.663
X35.92 Y-134.887
X35.512 Y-135.244
X35.135 Y-135.764
X34.874 Y-136.351
X34.692 Y-136.967
X34.551 Y-137.593
X34.428 Y-138.223
X34.314 Y-138.855
X34.205 Y-139.488
