(1001)
(T39  D=6.35 CR=0 - ZMIN=-4.76 - flat end mill)
G90 G94
G17
G21
G28 G91 Z0
G90

(2D Adaptive1)
T39
S18000 M3
G54
G0 X-0.611 Y-203.485
Z15
Z5
Z-3.49
G1 Z-4.125 F200
X-0.609 Y-203.477 Z-4.224
X-0.603 Y-203.455 Z-4.321
X-0.594 Y-203.418 Z-4.413
X-0.581 Y-203.367 Z-4.498
X-0.565 Y-203.305 Z-4.574
X-0.546 Y-203.231 Z-4.639
X-0.525 Y-203.149 Z-4.691
X-0.502 Y-203.06 Z-4.729
X-0.478 Y-202.966 Z-4.752
X-0.453 Y-202.87 Z-4.76
G3 X0.044 Y-199.413 I-15.704 J4.023
G1 Y-199.299
X0.084 Y-199.192
X0.687 Y-198.508
X1.157 Y-198.214
X1.641 Y-197.75
X2.1 Y-197.077
X2.447 Y-196.234
X2.633 Y-195.341
X2.7 Y-194.432
X2.689 Y-193.52
X2.621 Y-192.611
X2.513 Y-191.705
X2.391 Y-190.802
X2.278 Y-189.897
X2.171 Y-188.991
X2.069 Y-188.085
X1.996 Y-187.176
X1.951 Y-186.266
X1.922 Y-185.354
X1.914 Y-184.443
X1.945 Y-183.531
X1.999 Y-182.621
X2.069 Y-181.712
X2.177 Y-180.807
X2.316 Y-179.906
X2.474 Y-179.007
X2.657 Y-178.114
X2.877 Y-177.229
X3.12 Y-176.35
X3.377 Y-175.475
X3.675 Y-174.614
X4 Y-173.762
X4.342 Y-172.917
X4.71 Y-172.082
X5.112 Y-171.264
X5.533 Y-170.455
X5.968 Y-169.654
X6.442 Y-168.875
X6.939 Y-168.111
X7.45 Y-167.356
X7.987 Y-166.619
X8.552 Y-165.903
X9.134 Y-165.201
X9.728 Y-164.509
X10.34 Y-163.834
X10.965 Y-163.169
X11.597 Y-162.512
X12.233 Y-161.859
X12.872 Y-161.209
X13.514 Y-160.56
X14.156 Y-159.913
X15.443 Y-158.622
X18.021 Y-156.041
X18.665 Y-155.396
X27.692 Y-146.369
X28.326 Y-145.714
X28.953 Y-145.052
X29.574 Y-144.385
X30.193 Y-143.715
X30.792 Y-143.028
X31.372 Y-142.324
X31.94 Y-141.611
X32.5 Y-140.891
X33.041 Y-140.158
X33.559 Y-139.407
X34.061 Y-138.646
X34.551 Y-137.877
X35.027 Y-137.099
X35.476 Y-136.306
X35.905 Y-135.501
X36.321 Y-134.689
X36.727 Y-133.873
X37.102 Y-133.042
X37.455 Y-132.201
X37.792 Y-131.354
X38.119 Y-130.503
X38.42 Y-129.642
X38.695 Y-128.773
X38.952 Y-127.898
X39.196 Y-127.02
X39.421 Y-126.136
X39.616 Y-125.245
X39.79 Y-124.35
X39.951 Y-123.453
X40.098 Y-122.553
X40.211 Y-121.648
X40.302 Y-120.741
X40.377 Y-119.832
X40.441 Y-118.922
X40.486 Y-118.012
X40.515 Y-117.1
X40.535 Y-116.189
X40.547 Y-115.277
X40.555 Y-114.365
X40.561 Y-113.453
X40.564 Y-112.542
X40.568 Y-110.718
X40.57 Y-107.071
X40.571 Y-102.512
X40.562 Y-101.6
X40.541 Y-100.688
X40.511 Y-99.777
X40.476 Y-98.866
X40.426 Y-97.955
X40.348 Y-97.047
X40.251 Y-96.14
X40.141 Y-95.235
X40.018 Y-94.332
X39.863 Y-93.433
X39.685 Y-92.539
X39.492 Y-91.648
X39.29 Y-90.759
X39.055 Y-89.877
X38.797 Y-89.003
X38.521 Y-88.134
X38.235 Y-87.268
X37.925 Y-86.411
X37.588 Y-85.563
X37.233 Y-84.724
X36.866 Y-83.889
X36.482 Y-83.062
X36.07 Y-82.248
X35.639 Y-81.445
X35.194 Y-80.649
X34.74 Y-79.858
X34.256 Y-79.085
X33.752 Y-78.326
X33.234 Y-77.575
X32.708 Y-76.831
X32.157 Y-76.104
X31.586 Y-75.393
X31 Y-74.694
X30.406 Y-74.003
X29.799 Y-73.322
X29.179 Y-72.653
X28.551 Y-71.993
X27.917 Y-71.337
X27.279 Y-70.686
X26.639 Y-70.037
X25.997 Y-69.389
X24.711 Y-68.096
X24.067 Y-67.451
X20.844 Y-64.226
X12.463 Y-55.844
X11.819 Y-55.198
X11.187 Y-54.541
X10.563 Y-53.876
X9.943 Y-53.207
X9.34 Y-52.523
X8.761 Y-51.819
X8.198 Y-51.102
X7.644 Y-50.378
X7.126 Y-49.627
X6.631 Y-48.862
X6.149 Y-48.087
X5.694 Y-47.297
X5.27 Y-46.49
X4.865 Y-45.673
X4.474 Y-44.849
X4.125 Y-44.007
X3.8 Y-43.155
X3.49 Y-42.298
X3.213 Y-41.429
X2.967 Y-40.551
X2.742 Y-39.667
X2.536 Y-38.779
X2.371 Y-37.882
X2.232 Y-36.981
X2.109 Y-36.078
X2.022 Y-35.17
X1.967 Y-34.26
X1.932 Y-33.349
X1.919 Y-32.437
X1.947 Y-31.526
X2 Y-30.615
X2.068 Y-29.706
X2.176 Y-28.801
X2.314 Y-27.899
X2.47 Y-27.001
X2.652 Y-26.107
X2.871 Y-25.222
X3.114 Y-24.343
X3.37 Y-23.468
X3.667 Y-22.606
X3.992 Y-21.754
X4.334 Y-20.909
X4.701 Y-20.074
X5.102 Y-19.255
X5.523 Y-18.447
X5.957 Y-17.645
X6.43 Y-16.865
X6.927 Y-16.101
X7.438 Y-15.346
X7.974 Y-14.608
X8.539 Y-13.892
X9.12 Y-13.19
X9.713 Y-12.497
X10.326 Y-11.822
X10.964 Y-11.17
X11.616 Y-10.534
X12.278 Y-9.906
X12.959 Y-9.3
X13.662 Y-8.719
X14.378 Y-8.154
X15.103 Y-7.602
X15.854 Y-7.085
X16.62 Y-6.59
X17.395 Y-6.109
X18.187 Y-5.657
X18.995 Y-5.234
X19.812 Y-4.831
X20.638 Y-4.444
X21.481 Y-4.096
X22.333 Y-3.773
X23.191 Y-3.464
X24.061 Y-3.19
X24.94 Y-2.947
X25.824 Y-2.724
X26.713 Y-2.521
X27.61 Y-2.359
X28.512 Y-2.221
X29.415 Y-2.099
X30.323 Y-2.015
X31.233 Y-1.963
X32.145 Y-1.929
X33.056 Y-1.921
X33.968 Y-1.951
X34.878 Y-2.006
X35.787 Y-2.075
X36.692 Y-2.186
X37.593 Y-2.326
X38.491 Y-2.484
X39.384 Y-2.67
X40.268 Y-2.892
X41.147 Y-3.136
X42.021 Y-3.393
X42.882 Y-3.694
X43.734 Y-4.02
X44.578 Y-4.363
X45.411 Y-4.734
X46.229 Y-5.137
X47.037 Y-5.56
X47.837 Y-5.997
X48.615 Y-6.473
X49.379 Y-6.971
X50.134 Y-7.483
X50.869 Y-8.022
X51.583 Y-8.588
X52.285 Y-9.171
X52.976 Y-9.766
X53.65 Y-10.379
X54.314 Y-11.004
X54.972 Y-11.636
X55.624 Y-12.273
X56.274 Y-12.913
X56.922 Y-13.554
X57.569 Y-14.196
X58.861 Y-15.484
X61.442 Y-18.061
X69.824 Y-26.443
X70.47 Y-27.085
X71.127 Y-27.718
X71.79 Y-28.344
X72.458 Y-28.965
X73.129 Y-29.582
X73.821 Y-30.176
X74.527 Y-30.753
X75.242 Y-31.319
X75.963 Y-31.877
X76.701 Y-32.412
X77.455 Y-32.926
X78.218 Y-33.424
X78.988 Y-33.912
X79.77 Y-34.382
X80.566 Y-34.826
X81.372 Y-35.252
X82.185 Y-35.665
X83.004 Y-36.066
X83.838 Y-36.436
X84.68 Y-36.785
X85.528 Y-37.12
X86.38 Y-37.445
X87.243 Y-37.739
X88.114 Y-38.009
X88.99 Y-38.262
X89.869 Y-38.505
X90.754 Y-38.722
X91.646 Y-38.912
X92.542 Y-39.082
X93.44 Y-39.24
X94.341 Y-39.38
X95.246 Y-39.488
X96.154 Y-39.575
X97.063 Y-39.647
X97.973 Y-39.709
X98.884 Y-39.75
X99.795 Y-39.776
X100.707 Y-39.794
X101.618 Y-39.806
X102.53 Y-39.813
X103.442 Y-39.818
X104.354 Y-39.821
X106.177 Y-39.824
X109.825 Y-39.826
X113.472 Y-39.827
X114.384 Y-39.815
X115.295 Y-39.792
X116.207 Y-39.764
X117.118 Y-39.73
X118.027 Y-39.666
X118.935 Y-39.582
X119.842 Y-39.485
X120.747 Y-39.375
X121.648 Y-39.234
X122.545 Y-39.072
X123.44 Y-38.895
X124.331 Y-38.704
X125.216 Y-38.482
X126.095 Y-38.239
X126.969 Y-37.983
X127.84 Y-37.71
X128.7 Y-37.408
X129.553 Y-37.086
X130.401 Y-36.751
X131.242 Y-36.4
X132.071 Y-36.02
X132.892 Y-35.621
X133.706 Y-35.211
X134.511 Y-34.783
X135.301 Y-34.328
X136.082 Y-33.857
X136.855 Y-33.374
X137.617 Y-32.873
X138.363 Y-32.348
X139.097 Y-31.808
X139.823 Y-31.256
X140.54 Y-30.692
X141.246 Y-30.115
X141.944 Y-29.529
X142.637 Y-28.937
X143.327 Y-28.341
X144.015 Y-27.742
X144.702 Y-27.142
X146.073 Y-25.94
X148.126 Y-24.132
X159.07 Y-14.485
X161.805 Y-12.072
X162.488 Y-11.468
X163.169 Y-10.861
X163.848 Y-10.253
X164.527 Y-9.645
X165.228 Y-9.061
X165.943 Y-8.495
X166.666 Y-7.939
X167.404 Y-7.404
X168.162 Y-6.898
X168.932 Y-6.41
X169.71 Y-5.933
X170.509 Y-5.495
X171.322 Y-5.082
X172.142 Y-4.684
X172.976 Y-4.313
X173.822 Y-3.975
X174.677 Y-3.658
X175.538 Y-3.356
X176.412 Y-3.096
X177.293 Y-2.862
X178.178 Y-2.644
X179.071 Y-2.458
X179.97 Y-2.306
X180.872 Y-2.175
X181.777 Y-2.063
X182.686 Y-1.993
X183.597 Y-1.949
X184.508 Y-1.92
X185.42 Y-1.928
X186.331 Y-1.969
X187.241 Y-2.03
X188.149 Y-2.112
X189.052 Y-2.236
X189.952 Y-2.383
X190.849 Y-2.546
X191.739 Y-2.748
X192.621 Y-2.979
X193.497 Y-3.229
X194.367 Y-3.503
X195.224 Y-3.813
X196.073 Y-4.146
X196.917 Y-4.493
X197.743 Y-4.879
X198.556 Y-5.291
X199.361 Y-5.719
X200.153 Y-6.171
X200.926 Y-6.656
X201.686 Y-7.159
X202.438 Y-7.675
X203.163 Y-8.227
X203.872 Y-8.801
X204.569 Y-9.388
X205.254 Y-9.991
X205.918 Y-10.616
X206.562 Y-11.26
X207.195 Y-11.917
X207.819 Y-12.582
X208.411 Y-13.275
X208.983 Y-13.985
X209.542 Y-14.705
X210.078 Y-15.444
X210.584 Y-16.202
X211.072 Y-16.972
X211.546 Y-17.751
X211.982 Y-18.552
X212.394 Y-19.365
X212.792 Y-20.186
X213.159 Y-21.02
X213.495 Y-21.868
X213.811 Y-22.723
X214.109 Y-23.585
X214.367 Y-24.46
X214.599 Y-25.341
X214.816 Y-26.227
X214.998 Y-27.121
X215.148 Y-28.02
X215.278 Y-28.922
X215.386 Y-29.828
X215.453 Y-30.737
X215.496 Y-31.648
X215.523 Y-32.559
X215.511 Y-33.471
X215.468 Y-34.382
X215.406 Y-35.292
X215.32 Y-36.199
X215.194 Y-37.102
X215.045 Y-38.002
X214.881 Y-38.899
X214.676 Y-39.787
X214.443 Y-40.669
X214.191 Y-41.545
X213.914 Y-42.414
X213.601 Y-43.27
X213.266 Y-44.118
X212.918 Y-44.961
X212.529 Y-45.786
X212.115 Y-46.598
X211.686 Y-47.403
X211.23 Y-48.193
X210.744 Y-48.964
X210.239 Y-49.723
X209.721 Y-50.473
X209.166 Y-51.197
X208.591 Y-51.905
X208.003 Y-52.602
X207.399 Y-53.284
X206.78 Y-53.954
X206.151 Y-54.614
X205.517 Y-55.269
X204.879 Y-55.92
X204.238 Y-56.57
X203.596 Y-57.217
X202.31 Y-58.51
X200.377 Y-60.445
X198.443 Y-62.38
X190.062 Y-70.762
X189.423 Y-71.413
X188.793 Y-72.072
X188.169 Y-72.737
X187.549 Y-73.406
X186.941 Y-74.084
X186.353 Y-74.782
X185.78 Y-75.491
X185.218 Y-76.209
X184.665 Y-76.934
X184.139 Y-77.679
X183.632 Y-78.437
X183.138 Y-79.203
X182.653 Y-79.975
X182.194 Y-80.763
X181.758 Y-81.564
X181.338 Y-82.373
X180.928 Y-83.188
X180.54 Y-84.013
X180.179 Y-84.85
X179.835 Y-85.695
X179.504 Y-86.544
X179.19 Y-87.4
X178.906 Y-88.266
X178.642 Y-89.139
X178.393 Y-90.017
X178.154 Y-90.897
X177.95 Y-91.785
X177.769 Y-92.679
X177.604 Y-93.576
X177.449 Y-94.474
X177.324 Y-95.377
X177.225 Y-96.284
X177.144 Y-97.192
X177.076 Y-98.101
X177.023 Y-99.011
X176.987 Y-99.923
X176.964 Y-100.834
X176.949 Y-101.746
X176.939 Y-102.658
X176.933 Y-103.569
X176.929 Y-104.481
X176.926 Y-105.393
X176.923 Y-107.217
X176.921 Y-111.776
Y-114.511
X176.922 Y-115.423
X176.938 Y-116.335
X176.964 Y-117.246
X176.996 Y-118.157
X177.033 Y-119.068
X177.099 Y-119.978
X177.188 Y-120.885
X177.292 Y-121.791
X177.407 Y-122.696
X177.546 Y-123.597
X177.713 Y-124.493
X177.899 Y-125.386
X178.097 Y-126.276
X178.313 Y-127.162
X178.56 Y-128.039
X178.828 Y-128.911
X179.108 Y-129.779
X179.401 Y-130.642
X179.726 Y-131.494
X180.073 Y-132.337
X180.435 Y-133.174
X180.806 Y-134.007
X181.206 Y-134.827
X181.629 Y-135.635
X182.067 Y-136.434
X182.516 Y-137.228
X182.985 Y-138.009
X183.48 Y-138.776
X183.991 Y-139.531
X184.513 Y-140.278
X185.048 Y-141.017
X185.61 Y-141.735
X186.189 Y-142.439
X186.779 Y-143.134
X187.377 Y-143.822
X187.991 Y-144.496
X188.616 Y-145.16
X189.248 Y-145.818
X189.884 Y-146.471
X190.523 Y-147.121
X191.164 Y-147.77
X191.807 Y-148.417
X193.094 Y-149.709
X193.738 Y-150.354
X197.605 Y-154.224
X205.342 Y-161.961
X205.979 Y-162.613
X206.607 Y-163.275
X207.228 Y-163.942
X207.845 Y-164.614
X208.432 Y-165.312
X209 Y-166.024
X209.557 Y-166.746
X210.09 Y-167.486
X210.595 Y-168.245
X211.083 Y-169.016
X211.556 Y-169.795
X211.991 Y-170.597
X212.403 Y-171.41
X212.8 Y-172.231
X213.166 Y-173.066
X213.502 Y-173.914
X213.817 Y-174.769
X214.115 Y-175.631
X214.372 Y-176.506
X214.604 Y-177.388
X214.821 Y-178.273
X215.002 Y-179.167
X215.151 Y-180.067
X215.28 Y-180.969
X215.387 Y-181.875
X215.454 Y-182.784
X215.497 Y-183.695
X215.524 Y-184.606
X215.511 Y-185.518
X215.467 Y-186.429
X215.405 Y-187.338
X215.317 Y-188.246
X215.191 Y-189.149
X215.042 Y-190.049
X214.878 Y-190.945
X214.672 Y-191.834
X214.438 Y-192.715
X214.186 Y-193.591
X213.908 Y-194.46
X213.594 Y-195.316
X213.259 Y-196.164
X212.911 Y-197.007
X212.521 Y-197.831
X212.107 Y-198.643
X211.678 Y-199.448
X211.221 Y-200.237
X210.734 Y-201.008
X210.229 Y-201.767
X209.709 Y-202.516
X209.155 Y-203.24
X208.579 Y-203.947
X207.991 Y-204.644
X207.386 Y-205.326
X206.758 Y-205.987
X206.112 Y-206.63
X205.454 Y-207.262
X204.786 Y-207.883
X204.091 Y-208.473
X203.38 Y-209.043
X202.659 Y-209.602
X201.918 Y-210.133
X201.158 Y-210.637
X200.387 Y-211.123
X199.605 Y-211.593
X198.803 Y-212.026
X197.989 Y-212.437
X197.168 Y-212.834
X196.331 Y-213.196
X195.483 Y-213.53
X194.627 Y-213.844
X193.763 Y-214.137
X192.888 Y-214.392
X192.006 Y-214.623
X191.12 Y-214.839
X190.225 Y-215.016
X189.326 Y-215.163
X188.423 Y-215.291
X187.517 Y-215.394
X186.607 Y-215.458
X185.696 Y-215.499
X184.785 Y-215.525
X183.873 Y-215.509
X182.963 Y-215.463
X182.053 Y-215.399
X181.146 Y-215.308
X180.243 Y-215.179
X179.344 Y-215.028
X178.447 Y-214.863
X177.56 Y-214.654
X176.679 Y-214.417
X175.803 Y-214.164
X174.936 Y-213.882
X174.081 Y-213.566
X173.233 Y-213.23
X172.392 Y-212.878
X171.569 Y-212.486
X170.757 Y-212.07
X169.953 Y-211.639
X169.166 Y-211.179
X168.397 Y-210.69
X167.638 Y-210.184
X166.891 Y-209.661
X166.169 Y-209.105
X165.463 Y-208.528
X164.767 Y-207.939
X164.086 Y-207.333
X163.417 Y-206.712
X162.758 Y-206.083
X162.103 Y-205.448
X161.452 Y-204.81
X160.803 Y-204.169
X160.156 Y-203.527
X158.863 Y-202.24
X156.283 Y-199.663
X142.098 Y-185.479
X141.449 Y-184.839
X140.791 Y-184.208
X140.126 Y-183.583
X139.458 Y-182.963
X138.783 Y-182.35
X138.087 Y-181.76
X137.379 Y-181.186
X136.663 Y-180.622
X135.941 Y-180.065
X135.198 Y-179.536
X134.442 Y-179.026
X133.677 Y-178.531
X132.906 Y-178.044
X132.12 Y-177.581
X131.321 Y-177.142
X130.513 Y-176.719
X129.699 Y-176.308
X128.877 Y-175.915
X128.041 Y-175.55
X127.197 Y-175.204
X126.348 Y-174.872
X125.494 Y-174.551
X124.629 Y-174.264
X123.757 Y-173.998
X122.88 Y-173.747
X122.001 Y-173.506
X121.114 Y-173.296
X120.221 Y-173.112
X119.324 Y-172.945
X118.426 Y-172.789
X117.524 Y-172.657
X116.618 Y-172.554
X115.71 Y-172.471
X114.801 Y-172.401
X113.89 Y-172.345
X112.979 Y-172.307
X112.068 Y-172.282
X111.156 Y-172.266
X110.245 Y-172.256
X109.333 Y-172.249
X108.421 Y-172.244
X107.509 Y-172.241
X106.597 Y-172.242
X105.686 Y-172.258
X104.774 Y-172.284
X103.863 Y-172.317
X102.952 Y-172.354
X102.043 Y-172.423
X101.136 Y-172.515
X100.23 Y-172.62
X99.325 Y-172.736
X98.425 Y-172.879
X97.529 Y-173.049
X96.637 Y-173.236
X95.747 Y-173.436
X94.862 Y-173.656
X93.985 Y-173.906
X93.114 Y-174.175
X92.247 Y-174.457
X91.385 Y-174.754
X90.534 Y-175.082
X89.692 Y-175.43
X88.855 Y-175.794
X88.023 Y-176.166
X87.205 Y-176.569
X86.398 Y-176.994
X85.6 Y-177.434
X84.807 Y-177.884
X84.027 Y-178.357
X83.262 Y-178.854
X82.508 Y-179.366
X81.761 Y-179.889
X81.026 Y-180.428
X80.309 Y-180.992
X79.606 Y-181.573
X78.912 Y-182.164
X78.226 Y-182.764
X77.553 Y-183.38
X76.89 Y-184.005
X76.233 Y-184.637
X75.58 Y-185.274
X74.93 Y-185.914
X74.282 Y-186.555
X73.635 Y-187.197
X72.343 Y-188.484
X69.762 Y-191.062
X55.577 Y-205.246
X54.927 Y-205.885
X54.266 Y-206.514
X53.6 Y-207.136
X52.929 Y-207.754
X52.235 Y-208.345
X51.524 Y-208.916
X50.804 Y-209.475
X50.068 Y-210.013
X49.311 Y-210.522
X48.542 Y-211.011
X47.765 Y-211.488
X46.966 Y-211.928
X46.154 Y-212.343
X45.334 Y-212.742
X44.502 Y-213.114
X43.655 Y-213.453
X42.801 Y-213.771
X41.941 Y-214.075
X41.067 Y-214.336
X40.186 Y-214.571
X39.301 Y-214.79
X38.409 Y-214.977
X37.51 Y-215.13
X36.608 Y-215.262
X35.703 Y-215.376
X34.794 Y-215.447
X33.883 Y-215.492
X32.972 Y-215.521
X32.06 Y-215.514
X31.149 Y-215.475
X30.239 Y-215.415
X29.331 Y-215.334
X28.427 Y-215.212
X27.528 Y-215.066
X26.63 Y-214.903
X25.741 Y-214.704
X24.858 Y-214.473
X23.981 Y-214.224
X23.111 Y-213.952
X22.253 Y-213.642
X21.404 Y-213.31
X20.561 Y-212.964
X19.734 Y-212.58
X18.92 Y-212.169
X18.114 Y-211.741
X17.322 Y-211.291
X16.549 Y-210.807
X15.788 Y-210.304
X15.036 Y-209.789
X14.309 Y-209.239
X13.6 Y-208.666
X12.902 Y-208.079
X12.217 Y-207.477
X11.552 Y-206.853
X10.907 Y-206.209
X10.274 Y-205.552
X9.649 Y-204.888
X9.056 Y-204.196
X8.483 Y-203.486
X7.923 Y-202.767
X7.386 Y-202.03
X7.133 Y-201.651
X6.946 Y-201.364
X6.824 Y-201.172
X6.73 Y-200.726
X6.819 Y-199.819
X7.001 Y-198.925
X7.185 Y-198.032
X7.34 Y-197.133
X7.461 Y-196.23
X7.538 Y-195.321
X7.571 Y-194.41
X7.564 Y-193.498
X7.521 Y-192.587
X7.453 Y-191.678
X7.37 Y-190.77
X7.188 Y-188.955
X7.109 Y-188.047
X7.045 Y-187.138
X6.998 Y-186.227
X6.979 Y-185.315
X6.987 Y-184.404
X7.022 Y-183.492
X7.09 Y-182.583
X7.189 Y-181.677
X7.317 Y-180.774
X7.481 Y-179.877
X7.676 Y-178.986
X7.901 Y-178.103
X8.16 Y-177.228
X8.449 Y-176.364
X8.77 Y-175.51
X9.124 Y-174.67
X9.505 Y-173.842
X9.916 Y-173.028
X10.359 Y-172.23
X10.829 Y-171.449
X11.328 Y-170.686
X11.856 Y-169.943
X12.407 Y-169.216
X12.98 Y-168.506
X13.571 Y-167.813
X14.178 Y-167.132
X14.796 Y-166.461
X15.421 Y-165.798
X16.053 Y-165.14
X16.688 Y-164.486
X17.326 Y-163.835
X17.966 Y-163.186
X18.608 Y-162.538
X19.894 Y-161.245
X21.826 Y-159.308
X23.115 Y-158.018
X29.562 Y-151.57
X30.206 Y-150.925
X30.846 Y-150.275
X31.481 Y-149.621
X32.112 Y-148.962
X32.738 Y-148.3
X33.355 Y-147.628
X33.96 Y-146.946
X34.554 Y-146.254
X35.137 Y-145.553
X35.709 Y-144.843
X36.266 Y-144.122
X36.809 Y-143.389
X37.337 Y-142.646
X37.852 Y-141.893
X38.354 Y-141.132
X38.838 Y-140.359
X39.305 Y-139.576
X39.756 Y-138.784
X40.193 Y-137.983
X40.615 Y-137.175
X41.018 Y-136.357
X41.404 Y-135.531
X41.772 Y-134.697
X42.127 Y-133.857
X42.463 Y-133.009
X42.781 Y-132.155
X43.079 Y-131.293
X43.361 Y-130.426
X43.627 Y-129.554
X43.876 Y-128.676
X44.105 Y-127.794
X44.315 Y-126.907
X44.508 Y-126.015
X44.685 Y-125.121
X44.843 Y-124.223
X44.98 Y-123.321
X45.098 Y-122.417
X45.199 Y-121.511
X45.286 Y-120.603
X45.356 Y-119.694
X45.412 Y-118.784
X45.455 Y-117.873
X45.487 Y-116.962
X45.511 Y-116.051
X45.528 Y-115.139
X45.541 Y-114.227
X45.55 Y-113.316
X45.556 Y-112.404
X45.561 Y-111.492
X45.566 Y-109.668
X45.569 Y-106.933
X45.57 Y-104.198
X45.567 Y-103.286
X45.558 Y-102.374
X45.543 Y-101.462
X45.521 Y-100.551
X45.49 Y-99.639
X45.446 Y-98.729
X45.387 Y-97.819
X45.313 Y-96.91
X45.225 Y-96.002
X45.122 Y-95.096
X45 Y-94.193
X44.86 Y-93.292
X44.702 Y-92.394
X44.528 Y-91.499
X44.337 Y-90.607
X44.126 Y-89.72
X43.895 Y-88.838
X43.648 Y-87.96
X43.386 Y-87.087
X43.105 Y-86.219
X42.806 Y-85.358
X42.487 Y-84.504
X42.153 Y-83.655
X41.803 Y-82.814
X41.435 Y-81.979
X41.049 Y-81.153
X40.645 Y-80.336
X40.227 Y-79.526
X39.794 Y-78.723
X39.344 Y-77.93
X38.875 Y-77.148
X38.39 Y-76.376
X37.892 Y-75.612
X37.378 Y-74.859
X36.848 Y-74.117
X36.302 Y-73.386
X35.742 Y-72.667
X35.169 Y-71.958
X34.584 Y-71.259
X33.987 Y-70.569
X33.379 Y-69.89
X32.762 Y-69.218
X32.138 Y-68.553
X31.509 Y-67.894
X30.875 Y-67.238
X30.238 Y-66.585
X29.599 Y-65.935
X28.958 Y-65.286
X28.316 Y-64.639
X27.03 Y-63.346
X25.098 Y-61.41
X19.296 Y-55.606
X16.717 Y-53.027
X16.076 Y-52.379
X15.441 Y-51.725
X14.811 Y-51.066
X14.191 Y-50.397
X13.587 Y-49.714
X12.998 Y-49.017
X12.429 Y-48.305
X11.883 Y-47.575
X11.36 Y-46.828
X10.862 Y-46.064
X10.394 Y-45.282
X9.951 Y-44.485
X9.537 Y-43.672
X9.153 Y-42.845
X8.798 Y-42.005
X8.475 Y-41.152
X8.185 Y-40.288
X7.923 Y-39.415
X7.694 Y-38.532
X7.499 Y-37.642
X7.334 Y-36.745
X7.204 Y-35.842
X7.107 Y-34.936
X7.04 Y-34.026
X7.01 Y-33.115
X7.012 Y-32.203
X7.046 Y-31.292
X7.116 Y-30.383
X7.216 Y-29.477
X7.35 Y-28.575
X7.519 Y-27.678
X7.718 Y-26.789
X7.948 Y-25.907
X8.214 Y-25.034
X8.509 Y-24.171
X8.836 Y-23.32
X9.195 Y-22.482
X9.581 Y-21.656
X9.998 Y-20.845
X10.447 Y-20.052
X10.923 Y-19.274
X11.428 Y-18.514
X11.96 Y-17.774
X12.514 Y-17.05
X13.092 Y-16.345
X13.695 Y-15.661
X14.319 Y-14.995
X14.961 Y-14.348
X15.624 Y-13.722
X16.307 Y-13.118
X17.008 Y-12.536
X17.731 Y-11.98
X18.473 Y-11.45
X19.232 Y-10.945
X20.01 Y-10.469
X20.805 Y-10.022
X21.614 Y-9.602
X22.439 Y-9.214
X23.277 Y-8.853
X24.127 Y-8.524
X24.99 Y-8.229
X25.862 Y-7.963
X26.743 Y-7.729
X27.633 Y-7.528
X28.528 Y-7.357
X29.43 Y-7.222
X30.336 Y-7.12
X31.245 Y-7.049
X32.156 Y-7.013
X33.068 Y-7.01
X33.979 Y-7.038
X34.889 Y-7.102
X35.796 Y-7.199
X36.698 Y-7.326
X37.596 Y-7.489
X38.486 Y-7.684
X39.37 Y-7.91
X40.244 Y-8.17
X41.108 Y-8.46
X41.961 Y-8.781
X42.801 Y-9.136
X43.629 Y-9.519
X44.442 Y-9.932
X45.239 Y-10.375
X46.02 Y-10.846
X46.782 Y-11.346
X47.525 Y-11.875
X48.251 Y-12.426
X48.96 Y-13
X49.653 Y-13.592
X50.333 Y-14.199
X51.004 Y-14.817
X51.667 Y-15.443
X52.325 Y-16.074
X52.979 Y-16.71
X53.63 Y-17.348
X54.279 Y-17.989
X54.927 Y-18.63
X56.22 Y-19.916
X58.156 Y-21.848
X63.315 Y-27.005
X65.25 Y-28.939
X65.896 Y-29.583
X66.546 Y-30.222
X67.201 Y-30.856
X67.86 Y-31.486
X68.524 Y-32.111
X69.197 Y-32.727
X69.881 Y-33.33
X70.575 Y-33.921
X71.277 Y-34.503
X71.989 Y-35.072
X72.713 Y-35.627
X73.448 Y-36.167
X74.193 Y-36.692
X74.947 Y-37.204
X75.711 Y-37.703
X76.486 Y-38.183
X77.271 Y-38.647
X78.065 Y-39.095
X78.867 Y-39.529
X79.677 Y-39.947
X80.496 Y-40.348
X81.324 Y-40.73
X82.159 Y-41.096
X83 Y-41.448
X83.849 Y-41.781
X84.705 Y-42.095
X85.568 Y-42.39
X86.436 Y-42.669
X87.309 Y-42.932
X88.187 Y-43.177
X89.071 Y-43.402
X89.959 Y-43.609
X90.851 Y-43.799
X91.746 Y-43.972
X92.645 Y-44.126
X93.547 Y-44.259
X94.451 Y-44.374
X95.358 Y-44.473
X96.266 Y-44.556
X97.175 Y-44.624
X98.085 Y-44.677
X98.996 Y-44.718
X99.908 Y-44.748
X100.819 Y-44.771
X101.731 Y-44.787
X102.642 Y-44.799
X103.554 Y-44.807
X104.466 Y-44.813
X105.378 Y-44.818
X107.201 Y-44.822
X109.937 Y-44.825
X111.761 Y-44.826
X112.672 Y-44.822
X113.584 Y-44.813
X114.496 Y-44.796
X115.407 Y-44.774
X116.318 Y-44.741
X117.229 Y-44.693
X118.139 Y-44.63
X119.047 Y-44.554
X119.955 Y-44.463
X120.86 Y-44.354
X121.763 Y-44.226
X122.663 Y-44.082
X123.561 Y-43.922
X124.455 Y-43.743
X125.345 Y-43.544
X126.23 Y-43.328
X127.112 Y-43.095
X127.989 Y-42.845
X128.86 Y-42.577
X129.726 Y-42.29
X130.586 Y-41.986
X131.439 Y-41.666
X132.286 Y-41.328
X133.125 Y-40.971
X133.957 Y-40.597
X134.781 Y-40.208
X135.598 Y-39.802
X136.406 Y-39.379
X137.204 Y-38.939
X137.995 Y-38.484
X138.776 Y-38.014
X139.546 Y-37.526
X140.306 Y-37.022
X141.056 Y-36.503
X141.796 Y-35.971
X142.527 Y-35.426
X143.249 Y-34.869
X143.963 Y-34.301
X144.669 Y-33.725
X145.37 Y-33.142
X146.066 Y-32.553
X146.759 Y-31.96
X147.45 Y-31.365
X148.138 Y-30.767
X148.825 Y-30.168
X149.512 Y-29.567
X150.882 Y-28.364
X152.936 Y-26.557
X160.46 Y-19.925
X163.879 Y-16.91
X164.563 Y-16.306
X165.245 Y-15.701
X166.608 Y-14.49
X167.297 Y-13.893
X167.997 Y-13.308
X168.707 Y-12.736
X169.433 Y-12.184
X170.174 Y-11.653
X170.928 Y-11.14
X171.701 Y-10.657
X172.491 Y-10.201
X173.295 Y-9.771
X174.115 Y-9.372
X174.948 Y-9.001
X175.792 Y-8.658
X176.65 Y-8.349
X177.519 Y-8.07
X178.396 Y-7.822
X179.282 Y-7.608
X180.176 Y-7.426
X181.075 Y-7.275
X181.98 Y-7.16
X182.887 Y-7.075
X183.798 Y-7.023
X184.709 Y-7.007
X185.621 Y-7.023
X186.532 Y-7.071
X187.44 Y-7.155
X188.344 Y-7.267
X189.244 Y-7.416
X190.137 Y-7.598
X191.024 Y-7.811
X191.902 Y-8.056
X192.771 Y-8.334
X193.629 Y-8.641
X194.475 Y-8.982
X195.308 Y-9.354
X196.127 Y-9.753
X196.931 Y-10.184
X197.718 Y-10.644
X198.49 Y-11.13
X199.241 Y-11.647
X199.974 Y-12.189
X200.69 Y-12.754
X201.386 Y-13.343
X202.062 Y-13.955
X202.721 Y-14.585
X203.36 Y-15.235
X203.977 Y-15.907
X204.572 Y-16.598
X205.142 Y-17.309
X205.686 Y-18.041
X206.207 Y-18.789
X206.701 Y-19.556
X207.164 Y-20.341
X207.601 Y-21.141
X208.007 Y-21.958
X208.382 Y-22.789
X208.731 Y-23.631
X209.046 Y-24.487
X209.329 Y-25.354
X209.582 Y-26.23
X209.801 Y-27.115
X209.989 Y-28.007
X210.146 Y-28.905
X210.266 Y-29.809
X210.355 Y-30.717
X210.413 Y-31.627
X210.434 Y-32.538
X210.424 Y-33.45
X210.381 Y-34.361
X210.302 Y-35.269
X210.194 Y-36.175
X210.053 Y-37.075
X209.875 Y-37.97
X209.667 Y-38.857
X209.426 Y-39.737
X209.153 Y-40.607
X208.852 Y-41.468
X208.517 Y-42.315
X208.15 Y-43.15
X207.754 Y-43.972
X207.328 Y-44.777
X206.872 Y-45.568
X206.391 Y-46.342
X205.879 Y-47.096
X205.34 Y-47.832
X204.779 Y-48.55
X204.197 Y-49.252
X203.598 Y-49.94
X202.985 Y-50.616
X202.364 Y-51.283
X201.735 Y-51.943
X201.102 Y-52.599
X200.465 Y-53.252
X199.826 Y-53.902
X199.185 Y-54.551
X198.543 Y-55.198
X197.257 Y-56.491
X195.324 Y-58.427
X188.878 Y-64.875
X187.588 Y-66.165
X186.946 Y-66.812
X186.309 Y-67.464
X185.676 Y-68.121
X185.048 Y-68.781
X184.426 Y-69.448
X183.815 Y-70.125
X183.216 Y-70.812
X182.628 Y-71.509
X182.05 Y-72.215
X181.485 Y-72.93
X180.935 Y-73.658
X180.4 Y-74.396
X179.879 Y-75.144
X179.37 Y-75.901
X178.878 Y-76.669
X178.403 Y-77.447
X177.945 Y-78.235
X177.502 Y-79.032
X177.073 Y-79.837
X176.661 Y-80.651
X176.268 Y-81.473
X175.891 Y-82.303
X175.53 Y-83.141
X175.185 Y-83.985
X174.858 Y-84.836
X174.551 Y-85.694
X174.261 Y-86.559
X173.987 Y-87.429
X173.729 Y-88.303
X173.49 Y-89.183
X173.272 Y-90.068
X173.071 Y-90.958
X172.886 Y-91.851
X172.72 Y-92.747
X172.574 Y-93.647
X172.447 Y-94.55
X172.338 Y-95.455
X172.245 Y-96.363
X172.167 Y-97.271
X172.105 Y-98.181
X172.056 Y-99.091
X172.019 Y-100.002
X171.991 Y-100.914
X171.971 Y-101.825
X171.956 Y-102.737
X171.946 Y-103.649
X171.938 Y-104.56
X171.933 Y-105.472
X171.929 Y-106.384
X171.925 Y-108.208
X171.922 Y-110.943
Y-113.679
X171.927 Y-114.59
X171.939 Y-115.502
X171.957 Y-116.414
X171.982 Y-117.325
X172.017 Y-118.236
X172.068 Y-119.147
X172.133 Y-120.056
X172.213 Y-120.964
X172.308 Y-121.871
X172.418 Y-122.776
X172.548 Y-123.679
X172.697 Y-124.579
X172.862 Y-125.475
X173.043 Y-126.369
X173.243 Y-127.259
X173.462 Y-128.144
X173.699 Y-129.024
X173.953 Y-129.9
X174.221 Y-130.771
X174.509 Y-131.637
X174.817 Y-132.495
X175.143 Y-133.347
X175.483 Y-134.192
X175.841 Y-135.031
X176.217 Y-135.862
X176.61 Y-136.684
X177.021 Y-137.499
X177.445 Y-138.305
X177.885 Y-139.104
X178.344 Y-139.892
X178.82 Y-140.67
X179.311 Y-141.438
X179.815 Y-142.198
X180.335 Y-142.947
X180.872 Y-143.684
X181.424 Y-144.41
X181.99 Y-145.125
X182.567 Y-145.83
X183.158 Y-146.525
X183.759 Y-147.21
X184.371 Y-147.886
X184.991 Y-148.555
X185.618 Y-149.217
X186.249 Y-149.875
X186.885 Y-150.529
X187.523 Y-151.181
X188.162 Y-151.83
X188.804 Y-152.478
X189.446 Y-153.125
X190.733 Y-154.418
X192.665 Y-156.354
X197.178 Y-160.868
X200.402 Y-164.092
X201.044 Y-164.738
X201.683 Y-165.389
X202.316 Y-166.046
X202.943 Y-166.708
X203.556 Y-167.383
X204.152 Y-168.073
X204.731 Y-168.777
X205.288 Y-169.499
X205.821 Y-170.238
X206.334 Y-170.992
X206.817 Y-171.766
X207.273 Y-172.556
X207.701 Y-173.36
X208.1 Y-174.181
X208.469 Y-175.014
X208.809 Y-175.86
X209.116 Y-176.719
X209.392 Y-177.588
X209.638 Y-178.466
X209.849 Y-179.353
X210.029 Y-180.247
X210.177 Y-181.147
X210.29 Y-182.051
X210.372 Y-182.959
X210.422 Y-183.87
X210.435 Y-184.782
X210.417 Y-185.693
X210.365 Y-186.604
X210.279 Y-187.511
X210.165 Y-188.416
X210.014 Y-189.315
X209.829 Y-190.208
X209.614 Y-191.094
X209.365 Y-191.971
X209.085 Y-192.839
X208.776 Y-193.697
X208.432 Y-194.542
X208.059 Y-195.373
X207.657 Y-196.192
X207.223 Y-196.994
X206.761 Y-197.78
X206.272 Y-198.55
X205.753 Y-199.299
X205.209 Y-200.031
X204.643 Y-200.746
X204.052 Y-201.44
X203.438 Y-202.114
X202.806 Y-202.772
X202.154 Y-203.409
X201.481 Y-204.024
X200.789 Y-204.618
X200.076 Y-205.186
X199.343 Y-205.729
X198.593 Y-206.247
X197.824 Y-206.738
X197.038 Y-207.199
X196.237 Y-207.634
X195.419 Y-208.038
X194.587 Y-208.411
X193.743 Y-208.757
X192.887 Y-209.069
X192.019 Y-209.35
X191.143 Y-209.601
X190.257 Y-209.817
X189.364 Y-210.003
X188.465 Y-210.156
X187.561 Y-210.274
X186.654 Y-210.361
X185.743 Y-210.416
X184.832 Y-210.435
X183.92 Y-210.422
X183.009 Y-210.376
X182.101 Y-210.295
X181.196 Y-210.184
X180.296 Y-210.04
X179.402 Y-209.861
X178.515 Y-209.65
X177.636 Y-209.406
X176.767 Y-209.13
X175.907 Y-208.827
X175.06 Y-208.489
X174.227 Y-208.119
X173.406 Y-207.721
X172.602 Y-207.292
X171.813 Y-206.835
X171.04 Y-206.351
X170.287 Y-205.836
X169.553 Y-205.296
X168.836 Y-204.733
X168.135 Y-204.149
X167.449 Y-203.549
X166.774 Y-202.936
X166.107 Y-202.314
X165.447 Y-201.685
X164.791 Y-201.052
X164.139 Y-200.415
X163.489 Y-199.775
X162.84 Y-199.134
X162.193 Y-198.492
X160.901 Y-197.205
X158.965 Y-195.273
X158.32 Y-194.628
X146.713 Y-183.024
X146.066 Y-182.381
X145.416 Y-181.743
X144.76 Y-181.109
X144.1 Y-180.48
X143.434 Y-179.856
X142.76 Y-179.243
X142.074 Y-178.642
X141.379 Y-178.052
X140.675 Y-177.472
X139.962 Y-176.904
X139.237 Y-176.351
X138.501 Y-175.813
X137.754 Y-175.29
X136.999 Y-174.779
X136.233 Y-174.284
X135.456 Y-173.806
X134.67 Y-173.345
X133.874 Y-172.899
X133.071 Y-172.468
X132.259 Y-172.052
X131.439 Y-171.655
X130.61 Y-171.276
X129.774 Y-170.912
X128.931 Y-170.563
X128.081 Y-170.233
X127.224 Y-169.922
X126.361 Y-169.629
X125.492 Y-169.352
X124.618 Y-169.091
X123.739 Y-168.849
X122.855 Y-168.627
X121.966 Y-168.423
X121.074 Y-168.235
X120.178 Y-168.065
X119.278 Y-167.915
X118.376 Y-167.785
X117.471 Y-167.673
X116.564 Y-167.577
X115.656 Y-167.496
X114.747 Y-167.43
X113.836 Y-167.379
X112.925 Y-167.34
X112.014 Y-167.311
X111.103 Y-167.289
X110.191 Y-167.274
X109.279 Y-167.262
X108.367 Y-167.255
X107.455 Y-167.256
X106.544 Y-167.264
X105.632 Y-167.281
X104.721 Y-167.304
X103.809 Y-167.339
X102.899 Y-167.39
X101.99 Y-167.456
X101.081 Y-167.537
X100.175 Y-167.632
X99.27 Y-167.744
X98.367 Y-167.876
X97.468 Y-168.026
X96.571 Y-168.192
X95.678 Y-168.375
X94.789 Y-168.577
X93.904 Y-168.797
X93.024 Y-169.036
X92.149 Y-169.291
X91.278 Y-169.561
X90.414 Y-169.851
X89.556 Y-170.161
X88.705 Y-170.488
X87.859 Y-170.83
X87.021 Y-171.189
X86.191 Y-171.566
X85.369 Y-171.961
X84.556 Y-172.373
X83.749 Y-172.799
X82.952 Y-173.24
X82.165 Y-173.701
X81.388 Y-174.178
X80.62 Y-174.67
X79.862 Y-175.176
X79.114 Y-175.698
X78.378 Y-176.236
X77.653 Y-176.79
X76.939 Y-177.357
X76.234 Y-177.935
X75.54 Y-178.527
X74.856 Y-179.129
X74.181 Y-179.742
X73.513 Y-180.363
X72.851 Y-180.99
X72.194 Y-181.622
X71.54 Y-182.257
X70.888 Y-182.895
X70.239 Y-183.535
X69.591 Y-184.177
X68.297 Y-185.462
X66.361 Y-187.394
X61.847 Y-191.906
X53.465 Y-200.288
X52.819 Y-200.931
X52.168 Y-201.571
X51.513 Y-202.204
X50.852 Y-202.833
X50.18 Y-203.448
X49.492 Y-204.047
X48.79 Y-204.629
X48.072 Y-205.191
X47.335 Y-205.729
X46.584 Y-206.246
X45.814 Y-206.734
X45.027 Y-207.194
X44.225 Y-207.628
X43.407 Y-208.031
X42.576 Y-208.405
X41.733 Y-208.752
X40.876 Y-209.065
X40.009 Y-209.346
X39.132 Y-209.597
X38.247 Y-209.814
X37.354 Y-209.999
X36.455 Y-210.154
X35.551 Y-210.273
X34.643 Y-210.36
X33.733 Y-210.416
X32.822 Y-210.435
X31.91 Y-210.422
X30.999 Y-210.377
X30.091 Y-210.297
X29.186 Y-210.187
X28.286 Y-210.042
X27.392 Y-209.863
X26.504 Y-209.653
X25.625 Y-209.411
X24.756 Y-209.136
X23.896 Y-208.832
X23.049 Y-208.494
X22.215 Y-208.126
X21.394 Y-207.729
X20.589 Y-207.301
X19.8 Y-206.844
X19.027 Y-206.361
X18.274 Y-205.847
X17.539 Y-205.307
X16.821 Y-204.745
X16.123 Y-204.158
X15.446 Y-203.548
X14.785 Y-202.919
X14.144 Y-202.271
X13.525 Y-201.601
X12.928 Y-200.912
X12.728 Y-200.502
X12.513 Y-199.616
X12.462 Y-198.706
X12.469 Y-197.794
X12.496 Y-196.883
X12.522 Y-195.971
X12.535 Y-195.06
X12.53 Y-194.148
X12.504 Y-193.236
X12.459 Y-192.326
X12.4 Y-191.416
X12.33 Y-190.507
X12.255 Y-189.598
X12.182 Y-188.689
X12.118 Y-187.779
X12.068 Y-186.869
X12.041 Y-185.958
Y-185.046
X12.072 Y-184.134
X12.136 Y-183.225
X12.236 Y-182.319
X12.375 Y-181.417
X12.552 Y-180.523
X12.768 Y-179.637
X13.023 Y-178.762
X13.319 Y-177.899
X13.653 Y-177.051
X14.024 Y-176.218
X14.433 Y-175.403
X14.88 Y-174.608
X15.363 Y-173.835
X15.877 Y-173.082
X16.42 Y-172.349
X16.987 Y-171.635
X17.574 Y-170.938
X18.176 Y-170.253
X18.789 Y-169.578
X19.411 Y-168.911
X20.039 Y-168.25
X20.672 Y-167.593
X21.307 Y-166.94
X21.946 Y-166.289
X22.586 Y-165.639
X23.228 Y-164.991
X24.513 Y-163.698
X26.445 Y-161.761
X30.957 Y-157.247
X32.246 Y-155.957
X32.89 Y-155.311
X33.531 Y-154.663
X34.17 Y-154.012
X34.805 Y-153.358
X35.436 Y-152.7
X36.061 Y-152.036
X36.679 Y-151.365
X37.287 Y-150.686
X37.887 Y-150
X38.478 Y-149.305
X39.057 Y-148.601
X39.625 Y-147.887
X40.181 Y-147.164
X40.724 Y-146.432
X41.256 Y-145.691
X41.774 Y-144.942
X42.28 Y-144.182
X42.771 Y-143.414
X43.248 Y-142.637
X43.712 Y-141.852
X44.161 Y-141.059
X44.596 Y-140.257
X45.015 Y-139.448
X45.419 Y-138.63
X45.809 Y-137.806
X46.184 Y-136.975
X46.543 Y-136.137
X46.887 Y-135.292
X47.215 Y-134.442
X47.528 Y-133.585
X47.824 Y-132.723
X48.105 Y-131.855
X48.37 Y-130.983
X48.619 Y-130.105
X48.851 Y-129.224
X49.067 Y-128.338
X49.268 Y-127.449
X49.453 Y-126.556
X49.62 Y-125.659
X49.771 Y-124.76
X49.905 Y-123.858
X50.024 Y-122.954
X50.127 Y-122.048
X50.215 Y-121.141
X50.29 Y-120.232
X50.351 Y-119.322
X50.401 Y-118.412
X50.442 Y-117.501
X50.473 Y-116.589
X50.498 Y-115.678
X50.517 Y-114.766
X50.531 Y-113.855
X50.542 Y-112.943
X50.55 Y-112.031
X50.555 Y-111.119
X50.56 Y-110.208
X50.565 Y-108.384
X50.568 Y-106.56
Y-105.648
X50.567 Y-104.737
X50.563 Y-103.825
X50.554 Y-102.913
X50.541 Y-102.001
X50.521 Y-101.09
X50.492 Y-100.178
X50.453 Y-99.267
X50.403 Y-98.357
X50.34 Y-97.447
X50.265 Y-96.539
X50.176 Y-95.631
X50.073 Y-94.725
X49.954 Y-93.821
X49.82 Y-92.919
X49.671 Y-92.02
X49.506 Y-91.123
X49.325 Y-90.229
X49.128 Y-89.339
X48.914 Y-88.453
X48.685 Y-87.57
X48.439 Y-86.692
X48.178 Y-85.818
X47.901 Y-84.95
X47.608 Y-84.086
X47.299 Y-83.228
X46.975 Y-82.376
X46.636 Y-81.53
X46.281 Y-80.69
X45.91 Y-79.857
X45.523 Y-79.031
X45.122 Y-78.212
X44.707 Y-77.4
X44.277 Y-76.597
X43.831 Y-75.801
X43.371 Y-75.014
X42.897 Y-74.235
X42.409 Y-73.465
X41.906 Y-72.704
X41.389 Y-71.953
X40.858 Y-71.212
X40.314 Y-70.48
X39.757 Y-69.758
X39.189 Y-69.045
X38.609 Y-68.341
X38.018 Y-67.647
X37.418 Y-66.961
X36.809 Y-66.282
X36.193 Y-65.61
X35.57 Y-64.944
X34.943 Y-64.282
X34.311 Y-63.624
X33.676 Y-62.97
X33.039 Y-62.318
X32.4 Y-61.668
X31.759 Y-61.019
X31.117 Y-60.371
X29.831 Y-59.078
X27.9 Y-57.141
X23.388 Y-52.627
X21.454 Y-50.692
X20.81 Y-50.046
X20.17 Y-49.397
X19.533 Y-48.744
X18.904 Y-48.085
X18.285 Y-47.415
X17.68 Y-46.733
X17.093 Y-46.035
X16.526 Y-45.321
X15.985 Y-44.587
X15.473 Y-43.833
X14.991 Y-43.059
X14.541 Y-42.265
X14.125 Y-41.454
X13.747 Y-40.624
X13.406 Y-39.779
X13.102 Y-38.919
X12.837 Y-38.046
X12.614 Y-37.162
X12.431 Y-36.269
X12.288 Y-35.369
X12.187 Y-34.462
X12.128 Y-33.552
X12.11 Y-32.641
X12.134 Y-31.729
X12.199 Y-30.82
X12.307 Y-29.914
X12.456 Y-29.015
X12.645 Y-28.123
X12.875 Y-27.241
X13.147 Y-26.37
X13.457 Y-25.513
X13.805 Y-24.67
X14.192 Y-23.845
X14.618 Y-23.038
X15.08 Y-22.252
X15.575 Y-21.487
X16.103 Y-20.743
X16.663 Y-20.023
X17.25 Y-19.326
X17.864 Y-18.651
X18.503 Y-18.001
X19.169 Y-17.378
X19.86 Y-16.783
X20.574 Y-16.217
X21.313 Y-15.682
X22.074 Y-15.181
X22.858 Y-14.714
X23.661 Y-14.282
X24.482 Y-13.886
X25.322 Y-13.53
X26.176 Y-13.212
X27.044 Y-12.933
X27.924 Y-12.692
X28.814 Y-12.494
X29.712 Y-12.337
X30.616 Y-12.22
X31.525 Y-12.145
X32.436 Y-12.111
X33.348 Y-12.121
X34.258 Y-12.17
X35.165 Y-12.262
X36.067 Y-12.396
X36.962 Y-12.57
X37.848 Y-12.785
X38.724 Y-13.04
X39.586 Y-13.337
X40.434 Y-13.672
X41.266 Y-14.045
X42.08 Y-14.456
X42.874 Y-14.904
X43.647 Y-15.389
X44.398 Y-15.904
X45.13 Y-16.449
X45.843 Y-17.017
X46.54 Y-17.605
X47.224 Y-18.208
X47.899 Y-18.821
X48.566 Y-19.443
X49.226 Y-20.071
X49.883 Y-20.704
X50.536 Y-21.34
X51.187 Y-21.979
X51.836 Y-22.619
X52.484 Y-23.261
X53.778 Y-24.546
X55.714 Y-26.478
X60.874 Y-31.634
X61.52 Y-32.278
X62.169 Y-32.919
X62.82 Y-33.557
X63.475 Y-34.191
X64.134 Y-34.821
X64.799 Y-35.445
X65.471 Y-36.061
X66.152 Y-36.668
X66.84 Y-37.266
X67.537 Y-37.854
X68.242 Y-38.432
X68.958 Y-38.997
X69.683 Y-39.55
X70.417 Y-40.091
X71.159 Y-40.62
X71.911 Y-41.136
X72.672 Y-41.638
X73.442 Y-42.126
X74.221 Y-42.6
X75.008 Y-43.061
X75.803 Y-43.507
X76.607 Y-43.939
X77.418 Y-44.355
X78.237 Y-44.756
X79.063 Y-45.143
X79.895 Y-45.515
X80.734 Y-45.871
X81.58 Y-46.212
X82.432 Y-46.537
X83.29 Y-46.846
X84.153 Y-47.14
X85.021 Y-47.418
X85.895 Y-47.679
X86.773 Y-47.924
X87.656 Y-48.153
X88.542 Y-48.366
X89.433 Y-48.564
X90.326 Y-48.744
X91.223 Y-48.908
X92.123 Y-49.056
X93.025 Y-49.187
X93.93 Y-49.302
X94.836 Y-49.402
X95.744 Y-49.488
X96.653 Y-49.559
X97.563 Y-49.619
X98.473 Y-49.667
X99.384 Y-49.705
X100.296 Y-49.735
X101.207 Y-49.758
X102.119 Y-49.776
X103.031 Y-49.79
X103.942 Y-49.8
X104.854 Y-49.807
X105.766 Y-49.813
X106.678 Y-49.817
X108.501 Y-49.822
X110.325 Y-49.824
X111.237 Y-49.823
X112.149 Y-49.818
X113.06 Y-49.809
X113.972 Y-49.794
X114.884 Y-49.773
X115.795 Y-49.743
X116.706 Y-49.701
X117.616 Y-49.648
X118.525 Y-49.583
X119.434 Y-49.504
X120.341 Y-49.411
X121.246 Y-49.303
X122.15 Y-49.18
X123.051 Y-49.042
X123.95 Y-48.889
X124.846 Y-48.719
X125.739 Y-48.533
X126.628 Y-48.332
X127.513 Y-48.114
X128.395 Y-47.881
X129.272 Y-47.631
X130.144 Y-47.365
X131.011 Y-47.084
X131.873 Y-46.787
X132.73 Y-46.474
X133.58 Y-46.146
X134.425 Y-45.802
X135.263 Y-45.442
X136.094 Y-45.067
X136.918 Y-44.677
X137.735 Y-44.272
X138.544 Y-43.851
X139.345 Y-43.417
X140.139 Y-42.967
X140.924 Y-42.504
X141.7 Y-42.025
X142.468 Y-41.533
X143.226 Y-41.027
X143.976 Y-40.508
X144.717 Y-39.976
X145.449 Y-39.433
X146.174 Y-38.88
X146.891 Y-38.317
X147.602 Y-37.746
X148.307 Y-37.168
X149.008 Y-36.585
X149.705 Y-35.997
X150.399 Y-35.405
X151.09 Y-34.81
X151.78 Y-34.214
X152.468 Y-33.615
X153.155 Y-33.016
X154.526 Y-31.814
X156.581 Y-30.008
X160.686 Y-26.391
X165.473 Y-22.17
X166.841 Y-20.964
X168.889 Y-19.151
X169.576 Y-18.551
X170.27 Y-17.959
X170.972 Y-17.378
X171.688 Y-16.813
X172.418 Y-16.266
X173.165 Y-15.744
X173.932 Y-15.25
X174.716 Y-14.786
X175.519 Y-14.353
X176.339 Y-13.955
X177.176 Y-13.594
X178.028 Y-13.269
X178.894 Y-12.983
X179.772 Y-12.736
X180.66 Y-12.53
X181.557 Y-12.365
X182.46 Y-12.239
X183.368 Y-12.156
X184.279 Y-12.115
X185.191 Y-12.116
X186.102 Y-12.156
X187.01 Y-12.24
X187.913 Y-12.365
X188.809 Y-12.532
X189.697 Y-12.738
X190.575 Y-12.986
X191.44 Y-13.274
X192.291 Y-13.601
X193.127 Y-13.966
X193.944 Y-14.37
X194.742 Y-14.811
X195.52 Y-15.287
X196.276 Y-15.796
X197.009 Y-16.338
X197.719 Y-16.91
X198.407 Y-17.509
X199.072 Y-18.133
X199.711 Y-18.784
X200.322 Y-19.46
X200.904 Y-20.162
X201.458 Y-20.887
X201.979 Y-21.635
X202.465 Y-22.406
X202.917 Y-23.198
X203.333 Y-24.009
X203.713 Y-24.839
X204.053 Y-25.685
X204.354 Y-26.545
X204.617 Y-27.418
X204.839 Y-28.303
X205.02 Y-29.196
X205.16 Y-30.097
X205.259 Y-31.004
X205.317 Y-31.914
X205.331 Y-32.825
X205.305 Y-33.737
X205.238 Y-34.646
X205.128 Y-35.551
X204.977 Y-36.45
X204.784 Y-37.342
X204.553 Y-38.224
X204.28 Y-39.094
X203.967 Y-39.95
X203.616 Y-40.791
X203.227 Y-41.616
X202.8 Y-42.422
X202.336 Y-43.207
X201.838 Y-43.971
X201.309 Y-44.714
X200.754 Y-45.437
X200.176 Y-46.142
X199.582 Y-46.834
X198.974 Y-47.513
X198.357 Y-48.184
X197.732 Y-48.848
X197.101 Y-49.507
X196.467 Y-50.162
X195.83 Y-50.815
X195.191 Y-51.465
X194.55 Y-52.113
X193.908 Y-52.761
X192.621 Y-54.053
X190.689 Y-55.99
X185.532 Y-61.149
X184.888 Y-61.794
X184.246 Y-62.441
X183.606 Y-63.091
X182.969 Y-63.743
X182.336 Y-64.4
X181.708 Y-65.061
X181.087 Y-65.729
X180.475 Y-66.404
X179.871 Y-67.087
X179.276 Y-67.778
X178.691 Y-68.478
X178.117 Y-69.187
X177.556 Y-69.905
X177.007 Y-70.633
X176.47 Y-71.37
X175.946 Y-72.116
X175.434 Y-72.871
X174.937 Y-73.635
X174.454 Y-74.408
X173.984 Y-75.19
X173.529 Y-75.98
X173.088 Y-76.778
X172.662 Y-77.584
X172.251 Y-78.398
X171.855 Y-79.219
X171.474 Y-80.048
X171.107 Y-80.883
X170.756 Y-81.724
X170.421 Y-82.572
X170.102 Y-83.426
X169.797 Y-84.286
X169.509 Y-85.151
X169.236 Y-86.021
X168.98 Y-86.896
X168.741 Y-87.776
X168.517 Y-88.66
X168.31 Y-89.548
X168.118 Y-90.439
X167.943 Y-91.334
X167.785 Y-92.232
X167.644 Y-93.133
X167.519 Y-94.036
X167.409 Y-94.941
X167.314 Y-95.848
X167.234 Y-96.756
X167.167 Y-97.666
X167.112 Y-98.576
X167.067 Y-99.486
X167.032 Y-100.398
X167.004 Y-101.309
X166.983 Y-102.221
X166.967 Y-103.132
X166.955 Y-104.044
X166.945 Y-104.956
X166.939 Y-105.868
X166.934 Y-106.779
X166.928 Y-108.603
X166.923 Y-111.338
Y-112.25
X166.926 Y-113.162
X166.932 Y-114.074
X166.943 Y-114.986
X166.959 Y-115.897
X166.982 Y-116.809
X167.014 Y-117.72
X167.058 Y-118.631
X167.114 Y-119.541
X167.182 Y-120.45
X167.264 Y-121.358
X167.359 Y-122.265
X167.47 Y-123.17
X167.596 Y-124.073
X167.737 Y-124.974
X167.893 Y-125.872
X168.065 Y-126.768
X168.253 Y-127.66
X168.458 Y-128.549
X168.679 Y-129.433
X168.915 Y-130.314
X169.166 Y-131.19
X169.434 Y-132.062
X169.719 Y-132.928
X170.019 Y-133.789
X170.334 Y-134.645
X170.665 Y-135.495
X171.011 Y-136.338
X171.374 Y-137.175
X171.752 Y-138.004
X172.145 Y-138.827
X172.553 Y-139.643
X172.975 Y-140.451
X173.412 Y-141.251
X173.865 Y-142.043
X174.332 Y-142.826
X174.812 Y-143.601
X175.306 Y-144.367
X175.815 Y-145.124
X176.338 Y-145.871
X176.875 Y-146.608
X177.425 Y-147.335
X177.986 Y-148.053
X178.56 Y-148.762
X179.145 Y-149.462
X179.74 Y-150.152
X180.344 Y-150.835
X180.957 Y-151.511
X181.576 Y-152.18
X182.201 Y-152.844
X182.83 Y-153.504
X183.463 Y-154.16
X184.1 Y-154.813
X184.738 Y-155.464
X185.378 Y-156.114
X186.019 Y-156.762
X187.304 Y-158.056
X188.591 Y-159.348
X191.169 Y-161.928
X195.681 Y-166.442
X196.325 Y-167.088
X196.967 Y-167.735
X197.606 Y-168.386
X198.239 Y-169.042
X198.864 Y-169.706
X199.476 Y-170.382
X200.072 Y-171.072
X200.648 Y-171.779
X201.203 Y-172.503
X201.729 Y-173.247
X202.226 Y-174.012
X202.691 Y-174.796
X203.123 Y-175.599
X203.52 Y-176.42
X203.879 Y-177.258
X204.2 Y-178.111
X204.484 Y-178.978
X204.726 Y-179.857
X204.929 Y-180.746
X205.09 Y-181.643
X205.213 Y-182.547
X205.292 Y-183.455
X205.329 Y-184.366
X205.324 Y-185.278
X205.28 Y-186.189
X205.192 Y-187.097
X205.063 Y-187.999
X204.893 Y-188.895
X204.682 Y-189.782
X204.431 Y-190.659
X204.139 Y-191.522
X203.809 Y-192.372
X203.44 Y-193.206
X203.032 Y-194.022
X202.587 Y-194.818
X202.108 Y-195.593
X201.595 Y-196.347
X201.05 Y-197.078
X200.476 Y-197.786
X199.874 Y-198.472
X199.247 Y-199.134
X198.594 Y-199.77
X197.915 Y-200.379
X197.212 Y-200.959
X196.484 Y-201.509
X195.734 Y-202.026
X194.961 Y-202.51
X194.167 Y-202.958
X193.354 Y-203.371
X192.523 Y-203.747
X191.675 Y-204.083
X190.814 Y-204.381
X189.939 Y-204.64
X189.054 Y-204.858
X188.16 Y-205.035
X187.258 Y-205.171
X186.351 Y-205.267
X185.441 Y-205.32
X184.529 Y-205.331
X183.618 Y-205.3
X182.709 Y-205.23
X181.804 Y-205.116
X180.906 Y-204.961
X180.015 Y-204.764
X179.134 Y-204.529
X178.266 Y-204.252
X177.411 Y-203.935
X176.571 Y-203.58
X175.748 Y-203.187
X174.944 Y-202.757
X174.161 Y-202.289
X173.4 Y-201.788
X172.659 Y-201.257
X171.937 Y-200.699
X171.233 Y-200.12
X170.543 Y-199.524
X169.864 Y-198.915
X169.194 Y-198.297
X168.53 Y-197.671
X167.872 Y-197.04
X167.217 Y-196.406
X166.565 Y-195.768
X165.915 Y-195.129
X165.267 Y-194.488
X164.62 Y-193.846
X163.327 Y-192.559
X161.39 Y-190.627
X156.231 Y-185.47
X155.587 Y-184.826
X151.718 Y-180.957
X151.073 Y-180.313
X150.426 Y-179.67
X149.777 Y-179.029
X149.125 Y-178.392
X148.47 Y-177.758
X147.809 Y-177.13
X147.143 Y-176.508
X146.469 Y-175.893
X145.787 Y-175.288
X145.098 Y-174.691
X144.4 Y-174.104
X143.692 Y-173.529
X142.976 Y-172.965
X142.249 Y-172.414
X141.514 Y-171.875
X140.769 Y-171.349
X140.016 Y-170.835
X139.253 Y-170.336
X138.481 Y-169.85
X137.701 Y-169.379
X136.912 Y-168.921
X136.116 Y-168.477
X135.311 Y-168.048
X134.498 Y-167.635
X133.678 Y-167.236
X132.851 Y-166.853
X132.017 Y-166.483
X131.177 Y-166.13
X130.33 Y-165.792
X129.477 Y-165.47
X128.618 Y-165.163
X127.754 Y-164.872
X126.885 Y-164.597
X126.011 Y-164.338
X125.132 Y-164.096
X124.248 Y-163.87
X123.361 Y-163.659
X122.47 Y-163.465
X121.576 Y-163.288
X120.678 Y-163.127
X119.778 Y-162.982
X118.875 Y-162.854
X117.97 Y-162.742
X117.064 Y-162.645
X116.156 Y-162.562
X115.246 Y-162.492
X114.336 Y-162.435
X113.426 Y-162.389
X112.515 Y-162.352
X111.603 Y-162.323
X110.692 Y-162.301
X109.78 Y-162.285
X108.868 Y-162.276
X107.957 Y-162.273
X107.045 Y-162.278
X106.133 Y-162.29
X105.221 Y-162.31
X104.31 Y-162.341
X103.399 Y-162.384
X102.489 Y-162.439
X101.58 Y-162.508
X100.672 Y-162.59
X99.765 Y-162.686
X98.86 Y-162.798
X97.957 Y-162.926
X97.057 Y-163.068
X96.159 Y-163.226
X95.264 Y-163.4
X94.372 Y-163.589
X93.484 Y-163.796
X92.599 Y-164.018
X91.719 Y-164.256
X90.843 Y-164.51
X89.972 Y-164.779
X89.107 Y-165.066
X88.246 Y-165.368
X87.391 Y-165.685
X86.542 Y-166.017
X85.699 Y-166.364
X84.863 Y-166.728
X84.034 Y-167.108
X83.212 Y-167.503
X82.397 Y-167.912
X81.59 Y-168.336
X80.791 Y-168.775
X80 Y-169.229
X79.218 Y-169.697
X78.444 Y-170.179
X77.679 Y-170.675
X76.923 Y-171.185
X76.177 Y-171.71
X75.441 Y-172.248
X74.715 Y-172.799
X73.998 Y-173.363
X73.29 Y-173.937
X72.591 Y-174.523
X71.901 Y-175.12
X71.22 Y-175.725
X70.545 Y-176.338
X69.876 Y-176.958
X69.212 Y-177.583
X68.553 Y-178.213
X67.897 Y-178.847
X67.244 Y-179.483
X66.593 Y-180.122
X65.944 Y-180.762
X65.296 Y-181.403
X64.002 Y-182.688
X62.065 Y-184.62
X58.195 Y-188.487
X51.103 Y-195.579
X50.457 Y-196.223
X49.81 Y-196.865
X49.16 Y-197.504
X48.505 Y-198.139
X47.842 Y-198.765
X47.168 Y-199.379
X46.481 Y-199.978
X45.777 Y-200.558
X45.056 Y-201.116
X44.315 Y-201.647
X43.553 Y-202.149
X42.772 Y-202.619
X41.972 Y-203.057
X41.154 Y-203.459
X40.319 Y-203.824
X39.468 Y-204.152
X38.603 Y-204.442
X37.726 Y-204.691
X36.838 Y-204.899
X35.942 Y-205.068
X35.039 Y-205.197
X34.132 Y-205.282
X33.221 Y-205.326
X32.309 Y-205.328
X31.398 Y-205.29
X30.49 Y-205.209
X29.586 Y-205.086
X28.689 Y-204.922
X27.801 Y-204.718
X26.922 Y-204.473
X26.057 Y-204.187
X25.204 Y-203.863
X24.368 Y-203.5
X23.549 Y-203.099
X22.75 Y-202.66
X21.971 Y-202.186
X21.213 Y-201.679
X20.479 Y-201.139
X19.767 Y-200.569
X19.078 Y-199.972
X18.745 Y-199.66
X18.442 Y-199.32
X18.033 Y-198.505
X17.835 Y-197.615
X17.724 Y-196.71
X17.654 Y-195.8
X17.602 Y-194.89
X17.553 Y-193.98
X17.502 Y-193.069
X17.446 Y-192.159
X17.384 Y-191.249
X17.251 Y-189.431
X17.189 Y-188.521
X17.137 Y-187.611
X17.103 Y-186.699
X17.095 Y-185.788
X17.119 Y-184.876
X17.18 Y-183.966
X17.283 Y-183.06
X17.434 Y-182.161
X17.633 Y-181.271
X17.881 Y-180.394
X18.181 Y-179.533
X18.532 Y-178.691
X18.932 Y-177.872
X19.38 Y-177.078
X19.871 Y-176.309
X20.396 Y-175.564
X20.95 Y-174.839
X21.526 Y-174.133
X22.119 Y-173.441
X22.726 Y-172.76
X23.342 Y-172.088
X23.966 Y-171.423
X24.595 Y-170.763
X25.229 Y-170.107
X25.865 Y-169.454
X26.504 Y-168.803
X27.144 Y-168.154
X27.785 Y-167.506
X29.071 Y-166.212
X31.002 Y-164.275
X34.869 Y-160.405
X35.513 Y-159.759
X36.156 Y-159.113
X36.796 Y-158.464
X37.435 Y-157.813
X38.07 Y-157.159
X38.701 Y-156.5
X39.326 Y-155.837
X39.946 Y-155.168
X40.558 Y-154.492
X41.163 Y-153.81
X41.76 Y-153.12
X42.347 Y-152.423
X42.924 Y-151.717
X43.49 Y-151.002
X44.046 Y-150.28
X44.592 Y-149.549
X45.126 Y-148.81
X45.649 Y-148.063
X46.159 Y-147.307
X46.658 Y-146.544
X47.144 Y-145.773
X47.618 Y-144.993
X48.078 Y-144.207
X48.525 Y-143.412
X48.959 Y-142.61
X49.379 Y-141.801
X49.786 Y-140.985
X50.18 Y-140.162
X50.56 Y-139.333
X50.926 Y-138.498
X51.278 Y-137.657
X51.617 Y-136.811
X51.941 Y-135.958
X52.25 Y-135.101
X52.545 Y-134.238
X52.825 Y-133.37
X53.091 Y-132.498
X53.342 Y-131.621
X53.579 Y-130.741
X53.801 Y-129.857
X54.009 Y-128.969
X54.202 Y-128.078
X54.38 Y-127.183
X54.543 Y-126.286
X54.691 Y-125.386
X54.824 Y-124.484
X54.943 Y-123.58
X55.048 Y-122.675
X55.14 Y-121.767
X55.219 Y-120.859
X55.287 Y-119.95
X55.344 Y-119.04
X55.391 Y-118.129
X55.43 Y-117.218
X55.461 Y-116.307
X55.486 Y-115.395
X55.506 Y-114.484
X55.522 Y-113.572
X55.534 Y-112.66
X55.543 Y-111.749
X55.55 Y-110.837
X55.555 Y-109.925
X55.56 Y-109.013
X55.565 Y-107.19
Y-106.278
X55.564 Y-105.366
X55.56 Y-104.454
X55.552 Y-103.542
X55.54 Y-102.631
X55.523 Y-101.719
X55.498 Y-100.808
X55.464 Y-99.896
X55.421 Y-98.986
X55.368 Y-98.075
X55.304 Y-97.166
X55.228 Y-96.257
X55.139 Y-95.35
X55.038 Y-94.443
X54.924 Y-93.539
X54.796 Y-92.636
X54.654 Y-91.735
X54.499 Y-90.837
X54.329 Y-89.941
X54.144 Y-89.048
X53.944 Y-88.158
X53.73 Y-87.272
X53.501 Y-86.389
X53.258 Y-85.511
X53.001 Y-84.636
X52.729 Y-83.766
X52.442 Y-82.9
X52.142 Y-82.039
X51.828 Y-81.183
X51.499 Y-80.332
X51.156 Y-79.488
X50.799 Y-78.649
X50.427 Y-77.816
X50.042 Y-76.99
X49.643 Y-76.17
X49.231 Y-75.356
X48.805 Y-74.55
X48.366 Y-73.751
X47.914 Y-72.959
X47.449 Y-72.175
X46.971 Y-71.399
X46.479 Y-70.631
X45.975 Y-69.871
X45.457 Y-69.12
X44.927 Y-68.378
X44.386 Y-67.645
X43.833 Y-66.92
X43.269 Y-66.203
X42.694 Y-65.495
X42.11 Y-64.795
X41.517 Y-64.103
X40.915 Y-63.418
X40.306 Y-62.739
X39.69 Y-62.066
X39.069 Y-61.399
X38.443 Y-60.736
X37.813 Y-60.077
X37.18 Y-59.421
X36.544 Y-58.767
X35.907 Y-58.115
X35.267 Y-57.465
X34.626 Y-56.817
X33.985 Y-56.169
X32.699 Y-54.876
X30.767 Y-52.939
X26.9 Y-49.069
X25.611 Y-47.779
X24.968 Y-47.132
X24.328 Y-46.483
X23.691 Y-45.831
X23.061 Y-45.172
X22.441 Y-44.503
X21.835 Y-43.821
X21.248 Y-43.124
X20.685 Y-42.407
X20.15 Y-41.668
X19.651 Y-40.905
X19.19 Y-40.118
X18.771 Y-39.309
X18.399 Y-38.476
X18.075 Y-37.624
X17.801 Y-36.754
X17.582 Y-35.869
X17.416 Y-34.972
X17.305 Y-34.067
X17.25 Y-33.157
X17.251 Y-32.245
X17.307 Y-31.335
X17.421 Y-30.431
X17.589 Y-29.535
X17.813 Y-28.65
X18.091 Y-27.782
X18.421 Y-26.932
X18.804 Y-26.105
X19.236 Y-25.302
X19.714 Y-24.525
X20.235 Y-23.777
X20.796 Y-23.058
X21.394 Y-22.37
X22.026 Y-21.713
X22.694 Y-21.092
X23.395 Y-20.509
X24.127 Y-19.965
X24.89 Y-19.466
X25.681 Y-19.013
X26.497 Y-18.606
X27.337 Y-18.251
X28.197 Y-17.948
X29.073 Y-17.696
X29.964 Y-17.5
X30.865 Y-17.359
X31.773 Y-17.273
X32.684 Y-17.244
X33.595 Y-17.271
X34.503 Y-17.353
X35.405 Y-17.493
X36.295 Y-17.687
X37.173 Y-17.936
X38.033 Y-18.239
X38.873 Y-18.594
X39.689 Y-19
X40.48 Y-19.454
X41.246 Y-19.949
X41.988 Y-20.478
X42.71 Y-21.035
X43.414 Y-21.614
X44.104 Y-22.21
X44.784 Y-22.818
X45.455 Y-23.436
X46.119 Y-24.06
X46.778 Y-24.69
X47.434 Y-25.324
X48.086 Y-25.961
X48.737 Y-26.6
X49.386 Y-27.24
X50.034 Y-27.882
X51.327 Y-29.167
X52.619 Y-30.455
X56.489 Y-34.321
X57.135 Y-34.965
X57.783 Y-35.607
X58.432 Y-36.247
X59.084 Y-36.884
X59.739 Y-37.518
X60.399 Y-38.148
X61.064 Y-38.772
X61.735 Y-39.389
X62.412 Y-39.999
X63.097 Y-40.602
X63.789 Y-41.196
X64.489 Y-41.78
X65.197 Y-42.354
X65.914 Y-42.918
X66.639 Y-43.47
X67.372 Y-44.012
X68.114 Y-44.543
X68.864 Y-45.062
X69.622 Y-45.568
X70.388 Y-46.063
X71.162 Y-46.545
X71.943 Y-47.015
X72.732 Y-47.471
X73.529 Y-47.915
X74.334 Y-48.344
X75.145 Y-48.761
X75.963 Y-49.163
X76.787 Y-49.553
X77.618 Y-49.929
X78.455 Y-50.291
X79.298 Y-50.639
X80.146 Y-50.973
X81 Y-51.292
X81.859 Y-51.598
X82.723 Y-51.889
X83.592 Y-52.165
X84.466 Y-52.426
X85.344 Y-52.673
X86.226 Y-52.905
X87.111 Y-53.122
X88 Y-53.325
X88.892 Y-53.514
X89.787 Y-53.687
X90.685 Y-53.845
X91.586 Y-53.989
X92.488 Y-54.118
X93.393 Y-54.233
X94.299 Y-54.334
X95.207 Y-54.422
X96.115 Y-54.497
X97.025 Y-54.561
X97.935 Y-54.615
X98.846 Y-54.66
X99.757 Y-54.696
X100.668 Y-54.725
X101.58 Y-54.749
X102.491 Y-54.767
X103.403 Y-54.782
X104.315 Y-54.793
X105.227 Y-54.802
X106.138 Y-54.808
X107.05 Y-54.813
X107.962 Y-54.817
X108.874 Y-54.819
X109.786 Y-54.82
X110.698 Y-54.818
X111.609 Y-54.814
X112.521 Y-54.805
X113.433 Y-54.792
X114.344 Y-54.773
X115.256 Y-54.745
X116.167 Y-54.709
X117.078 Y-54.663
X117.988 Y-54.606
X118.897 Y-54.538
X119.805 Y-54.458
X120.712 Y-54.365
X121.618 Y-54.258
X122.522 Y-54.139
X123.424 Y-54.006
X124.324 Y-53.859
X125.221 Y-53.698
X126.116 Y-53.522
X127.008 Y-53.332
X127.896 Y-53.128
X128.781 Y-52.908
X129.662 Y-52.674
X130.54 Y-52.425
X131.413 Y-52.162
X132.281 Y-51.885
X133.145 Y-51.594
X134.004 Y-51.288
X134.858 Y-50.968
X135.707 Y-50.634
X136.55 Y-50.286
X137.386 Y-49.924
X138.217 Y-49.547
X139.041 Y-49.157
X139.858 Y-48.753
X140.669 Y-48.335
X141.472 Y-47.904
X142.269 Y-47.46
X143.057 Y-47.003
X143.839 Y-46.533
X144.612 Y-46.05
X145.377 Y-45.554
X146.135 Y-45.046
X146.884 Y-44.526
X147.625 Y-43.996
X148.359 Y-43.455
X149.086 Y-42.904
X149.807 Y-42.345
X150.521 Y-41.779
X151.23 Y-41.205
X151.934 Y-40.626
X152.635 Y-40.042
X153.332 Y-39.455
X154.026 Y-38.863
X154.718 Y-38.27
X155.408 Y-37.674
X156.097 Y-37.076
X156.784 Y-36.477
X157.471 Y-35.877
X158.842 Y-34.675
X160.896 Y-32.869
X165.001 Y-29.252
X169.105 Y-25.634
X171.155 Y-23.823
X171.84 Y-23.222
X172.53 Y-22.625
X173.227 Y-22.037
X173.934 Y-21.461
X174.655 Y-20.903
X175.393 Y-20.368
X176.152 Y-19.862
X176.932 Y-19.39
X177.733 Y-18.955
X178.557 Y-18.564
X179.401 Y-18.22
X180.264 Y-17.924
X181.142 Y-17.68
X182.034 Y-17.488
X182.935 Y-17.35
X183.843 Y-17.269
X184.755 Y-17.243
X185.666 Y-17.272
X186.574 Y-17.359
X187.475 Y-17.501
X188.365 Y-17.697
X189.241 Y-17.949
X190.1 Y-18.254
X190.939 Y-18.611
X191.754 Y-19.02
X192.544 Y-19.476
X193.306 Y-19.977
X194.039 Y-20.519
X194.743 Y-21.099
X195.415 Y-21.715
X196.053 Y-22.366
X196.655 Y-23.051
X197.219 Y-23.768
X197.739 Y-24.517
X198.215 Y-25.294
X198.645 Y-26.098
X199.025 Y-26.927
X199.353 Y-27.778
X199.631 Y-28.647
X199.853 Y-29.531
X200.021 Y-30.427
X200.134 Y-31.332
X200.191 Y-32.242
Y-33.154
X200.136 Y-34.064
X200.024 Y-34.969
X199.856 Y-35.865
X199.634 Y-36.749
X199.357 Y-37.618
X199.027 Y-38.468
X198.646 Y-39.296
X198.214 Y-40.1
X197.739 Y-40.878
X197.225 Y-41.631
X196.681 Y-42.362
X196.111 Y-43.074
X195.523 Y-43.771
X194.92 Y-44.455
X194.307 Y-45.13
X193.686 Y-45.797
X193.058 Y-46.459
X192.426 Y-47.116
X191.791 Y-47.77
X191.153 Y-48.422
X190.513 Y-49.071
X189.872 Y-49.72
X189.23 Y-50.367
X187.944 Y-51.66
X186.656 Y-52.951
X182.789 Y-56.821
X182.145 Y-57.467
X181.502 Y-58.113
X180.861 Y-58.761
X180.222 Y-59.412
X179.586 Y-60.065
X178.954 Y-60.723
X178.327 Y-61.385
X177.706 Y-62.052
X177.091 Y-62.726
X176.485 Y-63.407
X175.886 Y-64.094
X175.296 Y-64.79
X174.716 Y-65.493
X174.146 Y-66.205
X173.587 Y-66.925
X173.039 Y-67.654
X172.501 Y-68.391
X171.976 Y-69.136
X171.462 Y-69.889
X170.961 Y-70.651
X170.472 Y-71.42
X169.995 Y-72.198
X169.531 Y-72.983
X169.08 Y-73.775
X168.643 Y-74.575
X168.219 Y-75.382
X167.809 Y-76.197
X167.412 Y-77.018
X167.029 Y-77.845
X166.659 Y-78.679
X166.304 Y-79.518
X165.962 Y-80.364
X165.634 Y-81.214
X165.321 Y-82.071
X165.021 Y-82.932
X164.736 Y-83.798
X164.466 Y-84.669
X164.211 Y-85.544
X163.971 Y-86.424
X163.745 Y-87.307
X163.534 Y-88.194
X163.337 Y-89.085
X163.156 Y-89.978
X162.989 Y-90.875
X162.838 Y-91.774
X162.7 Y-92.675
X162.578 Y-93.579
X162.469 Y-94.484
X162.374 Y-95.391
X162.292 Y-96.299
X162.221 Y-97.208
X162.162 Y-98.118
X162.112 Y-99.028
X162.071 Y-99.939
X162.038 Y-100.851
X162.012 Y-101.762
X161.99 Y-102.674
X161.974 Y-103.585
X161.961 Y-104.497
X161.951 Y-105.409
X161.943 Y-106.32
X161.938 Y-107.232
X161.933 Y-108.144
X161.928 Y-109.968
X161.926 Y-110.88
X161.927 Y-111.791
X161.93 Y-112.703
X161.936 Y-113.615
X161.946 Y-114.527
X161.962 Y-115.438
X161.984 Y-116.35
X162.014 Y-117.261
X162.053 Y-118.172
X162.102 Y-119.083
X162.162 Y-119.993
X162.233 Y-120.902
X162.317 Y-121.809
X162.414 Y-122.716
X162.524 Y-123.621
X162.647 Y-124.525
X162.784 Y-125.426
X162.935 Y-126.325
X163.1 Y-127.222
X163.28 Y-128.116
X163.473 Y-129.007
X163.682 Y-129.895
X163.905 Y-130.779
X164.142 Y-131.659
X164.394 Y-132.536
X164.661 Y-133.408
X164.942 Y-134.275
X165.237 Y-135.138
X165.547 Y-135.995
X165.87 Y-136.848
X166.208 Y-137.695
X166.56 Y-138.536
X166.926 Y-139.371
X167.306 Y-140.2
X167.7 Y-141.022
X168.107 Y-141.838
X168.528 Y-142.647
X168.963 Y-143.448
X169.411 Y-144.242
X169.872 Y-145.029
X170.345 Y-145.808
X170.832 Y-146.58
X171.331 Y-147.342
X171.844 Y-148.097
X172.369 Y-148.842
X172.906 Y-149.579
X173.455 Y-150.307
X174.015 Y-151.027
X174.585 Y-151.738
X175.166 Y-152.441
X175.756 Y-153.136
X176.355 Y-153.824
X176.962 Y-154.504
X177.575 Y-155.179
X178.194 Y-155.848
X178.818 Y-156.513
X179.447 Y-157.173
X180.079 Y-157.831
X180.714 Y-158.485
X181.351 Y-159.137
X181.99 Y-159.788
X182.63 Y-160.437
X183.272 Y-161.085
X184.557 Y-162.379
X186.488 Y-164.316
X189.71 Y-167.542
X191.644 Y-169.476
X192.287 Y-170.123
X192.929 Y-170.771
X193.567 Y-171.422
X194.199 Y-172.079
X194.822 Y-172.745
X195.432 Y-173.422
X196.026 Y-174.114
X196.597 Y-174.825
X197.14 Y-175.557
X197.65 Y-176.314
X198.123 Y-177.093
X198.555 Y-177.896
X198.94 Y-178.723
X199.278 Y-179.569
X199.566 Y-180.434
X199.801 Y-181.315
X199.983 Y-182.209
X200.11 Y-183.112
X200.181 Y-184.021
X200.197 Y-184.933
X200.157 Y-185.843
X200.06 Y-186.75
X199.908 Y-187.649
X199.7 Y-188.537
X199.438 Y-189.41
X199.123 Y-190.266
X198.755 Y-191.1
X198.337 Y-191.91
X197.872 Y-192.695
X197.362 Y-193.451
X196.812 Y-194.178
X196.226 Y-194.876
X195.603 Y-195.542
X194.945 Y-196.173
X194.254 Y-196.768
X193.531 Y-197.324
X192.776 Y-197.835
X191.993 Y-198.303
X191.184 Y-198.723
X190.35 Y-199.093
X189.496 Y-199.412
X188.624 Y-199.678
X187.737 Y-199.89
X186.839 Y-200.048
X185.933 Y-200.15
X185.022 Y-200.195
X184.111 Y-200.185
X183.201 Y-200.118
X182.298 Y-199.995
X181.403 Y-199.818
X180.522 Y-199.584
X179.657 Y-199.297
X178.81 Y-198.957
X177.987 Y-198.565
X177.189 Y-198.124
X176.416 Y-197.641
X175.667 Y-197.121
X174.94 Y-196.571
X174.231 Y-195.997
X173.537 Y-195.406
X172.855 Y-194.801
X172.181 Y-194.186
X171.515 Y-193.563
X170.855 Y-192.935
X170.198 Y-192.302
X169.545 Y-191.666
X168.894 Y-191.028
X168.244 Y-190.388
X167.596 Y-189.746
X166.302 Y-188.461
X165.011 Y-187.174
X162.43 Y-184.597
X155.982 Y-178.15
X155.336 Y-177.506
X154.69 Y-176.863
X154.042 Y-176.221
X153.392 Y-175.582
X152.739 Y-174.946
X152.082 Y-174.313
X151.42 Y-173.686
X150.753 Y-173.065
X150.079 Y-172.45
X149.399 Y-171.842
X148.712 Y-171.243
X148.017 Y-170.653
X147.315 Y-170.072
X146.604 Y-169.501
X145.884 Y-168.941
X145.156 Y-168.392
X144.42 Y-167.854
X143.675 Y-167.328
X142.922 Y-166.813
X142.161 Y-166.311
X141.392 Y-165.822
X140.615 Y-165.344
X139.83 Y-164.879
X139.038 Y-164.428
X138.239 Y-163.989
X137.432 Y-163.564
X136.619 Y-163.153
X135.798 Y-162.755
X134.971 Y-162.37
X134.138 Y-162
X133.299 Y-161.643
X132.454 Y-161.301
X131.603 Y-160.972
X130.748 Y-160.658
X129.887 Y-160.357
X129.021 Y-160.071
X128.15 Y-159.8
X127.275 Y-159.544
X126.396 Y-159.302
X125.513 Y-159.076
X124.626 Y-158.864
X123.736 Y-158.666
X122.842 Y-158.484
X121.946 Y-158.316
X121.047 Y-158.164
X120.146 Y-158.025
X119.243 Y-157.901
X118.337 Y-157.791
X117.431 Y-157.695
X116.523 Y-157.612
X115.614 Y-157.541
X114.704 Y-157.481
X113.793 Y-157.43
X112.883 Y-157.389
X111.971 Y-157.356
X111.06 Y-157.329
X110.148 Y-157.31
X109.237 Y-157.298
X108.325 Y-157.293
X107.413 Y-157.295
X106.501 Y-157.304
X105.59 Y-157.322
X104.678 Y-157.349
X103.767 Y-157.387
X102.857 Y-157.436
X101.947 Y-157.496
X101.038 Y-157.568
X100.13 Y-157.654
X99.224 Y-157.752
X98.319 Y-157.865
X97.416 Y-157.99
X96.515 Y-158.13
X95.616 Y-158.284
X94.72 Y-158.452
X93.826 Y-158.634
X92.936 Y-158.831
X92.049 Y-159.042
X91.165 Y-159.268
X90.286 Y-159.508
X89.41 Y-159.763
X88.54 Y-160.033
X87.673 Y-160.317
X86.811 Y-160.616
X85.955 Y-160.928
X85.103 Y-161.254
X84.258 Y-161.595
X83.418 Y-161.95
X82.584 Y-162.318
X81.756 Y-162.701
X80.935 Y-163.098
X80.121 Y-163.508
X79.314 Y-163.932
X78.514 Y-164.37
X77.721 Y-164.82
X76.936 Y-165.284
X76.158 Y-165.76
X75.389 Y-166.25
X74.628 Y-166.752
X73.875 Y-167.267
X73.132 Y-167.794
X72.396 Y-168.334
X71.67 Y-168.885
X70.952 Y-169.447
X70.243 Y-170.02
X69.542 Y-170.603
X68.848 Y-171.195
X68.162 Y-171.796
X67.483 Y-172.404
X66.809 Y-173.018
X66.141 Y-173.639
X65.477 Y-174.264
X64.818 Y-174.893
X64.161 Y-175.526
X63.507 Y-176.161
X62.855 Y-176.799
X62.205 Y-177.438
X61.556 Y-178.078
X60.908 Y-178.72
X59.614 Y-180.005
X57.677 Y-181.937
X54.452 Y-185.159
X48.004 Y-191.606
X47.358 Y-192.249
X46.71 Y-192.891
X46.059 Y-193.529
X45.402 Y-194.162
X44.737 Y-194.786
X44.06 Y-195.397
X43.369 Y-195.991
X42.66 Y-196.565
X41.928 Y-197.109
X41.174 Y-197.621
X40.396 Y-198.096
X39.594 Y-198.53
X38.769 Y-198.919
X37.924 Y-199.26
X37.059 Y-199.551
X36.179 Y-199.789
X35.286 Y-199.975
X34.384 Y-200.105
X33.475 Y-200.179
X32.564 Y-200.198
X31.653 Y-200.161
X30.746 Y-200.067
X29.846 Y-199.919
X28.957 Y-199.714
X28.083 Y-199.454
X27.226 Y-199.143
X26.391 Y-198.778
X25.579 Y-198.363
X24.793 Y-197.901
X24.035 Y-197.394
X23.723 Y-197.061
X23.336 Y-196.402
X23.296 Y-196.342
X23.25 Y-196.286
X23.197 Y-196.237
X22.747 Y-195.858
X22.603 Y-195.731
X22.333 Y-195.468
X21.974 Y-195.109
X21.711 Y-194.839
X21.584 Y-194.695
X21.235 Y-194.281
X20.367 Y-193.245
X20.261 Y-193.113
X19.955 Y-192.623
X19.847 Y-192.449
X19.11 Y-191.173
X19.018 Y-191.011
X18.997 Y-190.966
X18.811 Y-190.54
X18.736 Y-190.345
X18.359 Y-189.309
X18.285 Y-189.102
X18.142 Y-188.687
X18.072 Y-188.48
X17.947 Y-187.859
X17.691 Y-186.408
X17.639 Y-185.994
X17.622 Y-185.787
X17.618 Y-185.165
Y-183.922
X17.628 Y-183.715
X17.657 Y-183.301
X17.685 Y-183.094
X17.982 Y-181.414
X18.015 Y-181.229
X18.198 Y-180.608
X18.272 Y-180.401
X18.649 Y-179.365
X18.727 Y-179.158
X18.89 Y-178.743
X18.978 Y-178.536
X19.018 Y-178.46
X19.432 Y-177.739
X19.81 Y-177.086
X20.054 Y-176.666
X20.189 Y-176.464
X20.261 Y-176.364
X20.34 Y-176.257
X21.208 Y-175.221
X21.557 Y-174.807
X21.711 Y-174.628
X21.943 Y-174.393
X22.564 Y-173.771
X53.2 Y-143.135
X53.812 Y-142.459
X54.388 Y-141.751
X54.898 Y-140.996
X55.356 Y-140.207
X55.772 Y-139.396
X56.154 Y-138.568
X56.508 Y-137.728
X56.839 Y-136.878
X57.15 Y-136.021
X57.443 Y-135.158
X57.72 Y-134.289
X57.982 Y-133.415
X58.229 Y-132.538
X58.463 Y-131.656
X58.682 Y-130.771
X58.887 Y-129.883
X59.079 Y-128.991
X59.256 Y-128.097
X59.419 Y-127.2
X59.569 Y-126.301
X59.706 Y-125.399
X59.829 Y-124.496
X59.94 Y-123.59
X60.039 Y-122.684
X60.125 Y-121.776
X60.201 Y-120.868
X60.267 Y-119.958
X60.323 Y-119.048
X60.371 Y-118.138
X60.41 Y-117.227
X60.443 Y-116.315
X60.47 Y-115.404
X60.492 Y-114.492
X60.509 Y-113.581
X60.523 Y-112.669
X60.534 Y-111.757
X60.543 Y-110.846
X60.55 Y-109.934
X60.555 Y-109.022
X60.558 Y-108.11
X60.56 Y-107.198
X60.561 Y-106.287
X60.558 Y-105.375
X60.553 Y-104.463
X60.544 Y-103.551
X60.529 Y-102.64
X60.51 Y-101.728
X60.483 Y-100.816
X60.448 Y-99.905
X60.405 Y-98.995
X60.353 Y-98.084
X60.291 Y-97.175
X60.218 Y-96.266
X60.135 Y-95.358
X60.04 Y-94.451
X59.933 Y-93.545
X59.814 Y-92.641
X59.683 Y-91.739
X59.538 Y-90.839
X59.381 Y-89.94
X59.21 Y-89.045
X59.026 Y-88.152
X58.829 Y-87.261
X58.619 Y-86.374
X58.395 Y-85.49
X58.158 Y-84.61
X57.908 Y-83.733
X57.645 Y-82.86
X57.369 Y-81.991
X57.08 Y-81.126
X56.778 Y-80.266
X56.462 Y-79.41
X56.133 Y-78.56
X55.791 Y-77.715
X55.436 Y-76.875
X55.223 Y-76.391
X55.187 Y-76.321
X55.143 Y-76.257
X55.091 Y-76.198
X22.125 Y-43.233
X21.738 Y-42.842
X21.711 Y-42.814
X21.504 Y-42.571
X20.86 Y-41.806
X20.34 Y-41.185
X20.261 Y-41.078
X20.189 Y-40.978
X20.051 Y-40.77
X19.639 Y-40.062
X19.212 Y-39.32
X19.018 Y-38.982
X18.977 Y-38.906
X18.89 Y-38.699
X18.727 Y-38.284
X18.649 Y-38.077
X18.272 Y-37.041
X18.198 Y-36.834
X18.015 Y-36.213
X17.722 Y-34.555
X17.685 Y-34.348
X17.657 Y-34.141
X17.628 Y-33.727
X17.618 Y-33.52
Y-32.277
X17.622 Y-31.655
X17.639 Y-31.448
X17.691 Y-31.034
X17.947 Y-29.583
X18.072 Y-28.962
X18.142 Y-28.755
X18.285 Y-28.34
X18.604 Y-27.463
X18.737 Y-27.097
X18.811 Y-26.903
X18.997 Y-26.476
X19.018 Y-26.431
X19.11 Y-26.269
X19.847 Y-24.993
X20.085 Y-24.611
X20.261 Y-24.33
X20.367 Y-24.197
X21.409 Y-22.954
X21.584 Y-22.747
X21.711 Y-22.603
X21.974 Y-22.333
X22.333 Y-21.974
X22.603 Y-21.711
X22.747 Y-21.584
X23.161 Y-21.235
X24.197 Y-20.367
X24.33 Y-20.261
X24.819 Y-19.955
X24.993 Y-19.847
X26.269 Y-19.11
X26.431 Y-19.018
X26.476 Y-18.997
X26.903 Y-18.811
X27.097 Y-18.737
X28.133 Y-18.36
X28.34 Y-18.285
X28.755 Y-18.142
X28.962 Y-18.072
X29.583 Y-17.947
X31.034 Y-17.691
X31.448 Y-17.639
X31.655 Y-17.622
X32.277 Y-17.618
X33.52
X33.727 Y-17.628
X34.141 Y-17.657
X34.348 Y-17.685
X36.028 Y-17.982
X36.213 Y-18.015
X36.834 Y-18.198
X37.041 Y-18.272
X38.077 Y-18.649
X38.284 Y-18.727
X38.699 Y-18.89
X38.906 Y-18.977
X38.982 Y-19.018
X39.704 Y-19.432
X40.356 Y-19.81
X40.776 Y-20.054
X40.978 Y-20.189
X41.078 Y-20.261
X41.185 Y-20.34
X42.221 Y-21.208
X42.635 Y-21.557
X42.814 Y-21.711
X43.049 Y-21.943
X43.671 Y-22.564
X73.686 Y-52.579
X74.362 Y-53.191
X75.082 Y-53.75
X75.846 Y-54.248
X76.64 Y-54.696
X77.456 Y-55.104
X78.286 Y-55.48
X79.129 Y-55.829
X79.98 Y-56.156
X80.838 Y-56.463
X81.703 Y-56.753
X82.572 Y-57.028
X83.447 Y-57.287
X84.325 Y-57.531
X85.207 Y-57.762
X86.093 Y-57.978
X86.982 Y-58.18
X87.874 Y-58.368
X88.769 Y-58.543
X89.667 Y-58.704
X90.567 Y-58.851
X91.468 Y-58.986
X92.372 Y-59.107
X93.277 Y-59.216
X94.184 Y-59.312
X95.092 Y-59.397
X96.001 Y-59.471
X96.91 Y-59.535
X97.821 Y-59.589
X98.731 Y-59.635
X99.642 Y-59.673
X100.553 Y-59.705
X101.465 Y-59.731
X102.376 Y-59.752
X103.288 Y-59.768
X104.2 Y-59.782
X105.112 Y-59.792
X106.023 Y-59.8
X106.935 Y-59.807
X107.847 Y-59.811
X108.759 Y-59.814
X109.671
X110.582 Y-59.812
X111.494 Y-59.807
X112.406 Y-59.797
X113.318 Y-59.782
X114.229 Y-59.761
X115.141 Y-59.734
X116.052 Y-59.698
X116.962 Y-59.653
X117.873 Y-59.599
X118.782 Y-59.534
X119.691 Y-59.459
X120.599 Y-59.373
X121.505 Y-59.275
X122.41 Y-59.165
X123.314 Y-59.043
X124.216 Y-58.908
X125.115 Y-58.76
X126.013 Y-58.599
X126.908 Y-58.425
X127.8 Y-58.238
X128.69 Y-58.038
X129.576 Y-57.824
X130.46 Y-57.597
X131.339 Y-57.357
X132.215 Y-57.104
X133.087 Y-56.838
X133.955 Y-56.558
X134.818 Y-56.265
X135.677 Y-55.959
X136.532 Y-55.64
X137.381 Y-55.308
X138.225 Y-54.963
X139.063 Y-54.605
X139.896 Y-54.234
X140.724 Y-53.85
X141.545 Y-53.454
X142.36 Y-53.046
X143.169 Y-52.625
X143.972 Y-52.192
X144.284 Y-52.017
X144.334 Y-51.987
X144.38 Y-51.951
X144.423 Y-51.912
X174.209 Y-22.125
X174.6 Y-21.738
X174.628 Y-21.711
X174.871 Y-21.504
X175.636 Y-20.86
X176.257 Y-20.34
X176.364 Y-20.261
X176.464 Y-20.189
X176.672 Y-20.051
X177.38 Y-19.639
X178.122 Y-19.212
X178.46 Y-19.018
X178.536 Y-18.978
X178.743 Y-18.89
X179.158 Y-18.727
X179.365 Y-18.649
X180.401 Y-18.272
X180.608 Y-18.198
X181.229 Y-18.015
X182.887 Y-17.722
X183.094 Y-17.685
X183.301 Y-17.657
X183.715 Y-17.628
X183.922 Y-17.618
X185.165
X185.787 Y-17.622
X185.994 Y-17.639
X186.408 Y-17.691
X187.859 Y-17.947
X188.48 Y-18.072
X188.687 Y-18.142
X189.102 Y-18.285
X189.98 Y-18.604
X190.345 Y-18.736
X190.54 Y-18.811
X190.966 Y-18.997
X191.011 Y-19.018
X191.173 Y-19.11
X192.449 Y-19.847
X192.831 Y-20.084
X193.113 Y-20.261
X193.245 Y-20.367
X194.488 Y-21.409
X194.695 Y-21.584
X194.839 Y-21.711
X195.109 Y-21.974
X195.468 Y-22.333
X195.731 Y-22.603
X195.858 Y-22.747
X196.207 Y-23.161
X197.076 Y-24.197
X197.181 Y-24.329
X197.488 Y-24.819
X197.595 Y-24.992
X198.332 Y-26.269
X198.424 Y-26.431
X198.445 Y-26.476
X198.631 Y-26.903
X198.706 Y-27.097
X199.083 Y-28.133
X199.157 Y-28.34
X199.301 Y-28.755
X199.37 Y-28.962
X199.495 Y-29.583
X199.75 Y-31.034
X199.803 Y-31.448
X199.82 Y-31.655
X199.824 Y-32.277
Y-33.52
X199.814 Y-33.727
X199.785 Y-34.141
X199.756 Y-34.348
X199.46 Y-36.029
X199.427 Y-36.213
X199.244 Y-36.834
X199.17 Y-37.041
X198.793 Y-38.077
X198.715 Y-38.284
X198.552 Y-38.699
X198.465 Y-38.906
X198.424 Y-38.982
X198.01 Y-39.704
X197.633 Y-40.356
X197.388 Y-40.776
X197.253 Y-40.978
X197.181 Y-41.078
X197.103 Y-41.185
X196.234 Y-42.221
X195.885 Y-42.635
X195.731 Y-42.814
X195.499 Y-43.049
X194.879 Y-43.671
X164.242 Y-74.308
X163.63 Y-74.984
X163.061 Y-75.696
X162.556 Y-76.455
X162.102 Y-77.247
X161.69 Y-78.06
X161.31 Y-78.889
X160.958 Y-79.73
X160.628 Y-80.58
X160.317 Y-81.437
X160.025 Y-82.301
X159.749 Y-83.17
X159.489 Y-84.044
X159.243 Y-84.922
X159.011 Y-85.804
X158.793 Y-86.689
X158.59 Y-87.578
X158.399 Y-88.47
X158.223 Y-89.364
X158.06 Y-90.261
X157.911 Y-91.161
X157.775 Y-92.062
X157.653 Y-92.966
X157.543 Y-93.871
X157.446 Y-94.778
X157.36 Y-95.686
X157.285 Y-96.594
X157.22 Y-97.504
X157.165 Y-98.414
X157.118 Y-99.325
X157.079 Y-100.236
X157.047 Y-101.147
X157.02 Y-102.058
X156.999 Y-102.97
X156.982 Y-103.881
X156.968 Y-104.793
X156.957 Y-105.705
X156.948 Y-106.617
X156.942 Y-107.528
X156.937 Y-108.44
X156.933 Y-109.352
X156.931 Y-110.264
Y-111.176
X156.933 Y-112.088
X156.939 Y-112.999
X156.948 Y-113.911
X156.961 Y-114.823
X156.981 Y-115.734
X157.007 Y-116.646
X157.041 Y-117.557
X157.083 Y-118.468
X157.135 Y-119.378
X157.197 Y-120.288
X157.269 Y-121.197
X157.353 Y-122.105
X157.448 Y-123.012
X157.555 Y-123.917
X157.674 Y-124.821
X157.806 Y-125.723
X157.95 Y-126.624
X158.106 Y-127.522
X158.276 Y-128.418
X158.459 Y-129.311
X158.655 Y-130.202
X158.865 Y-131.089
X159.088 Y-131.973
X159.325 Y-132.854
X159.575 Y-133.731
X159.838 Y-134.604
X160.114 Y-135.473
X160.403 Y-136.338
X160.704 Y-137.198
X161.019 Y-138.054
X161.347 Y-138.904
X161.688 Y-139.75
X162.042 Y-140.59
X162.265 Y-141.097
X162.301 Y-141.167
X162.346 Y-141.232
X162.398 Y-141.291
X195.317 Y-174.209
X195.704 Y-174.6
X195.731 Y-174.628
X195.938 Y-174.87
X196.582 Y-175.636
X197.103 Y-176.257
X197.181 Y-176.364
X197.253 Y-176.464
X197.392 Y-176.672
X197.803 Y-177.379
X198.23 Y-178.122
X198.424 Y-178.46
X198.464 Y-178.536
X198.552 Y-178.743
X198.715 Y-179.158
X198.793 Y-179.365
X199.17 Y-180.401
X199.244 Y-180.608
X199.427 Y-181.229
X199.72 Y-182.887
X199.756 Y-183.094
X199.785 Y-183.301
X199.814 Y-183.715
X199.824 Y-183.922
Y-185.165
X199.82 Y-185.787
X199.803 Y-185.994
X199.75 Y-186.408
X199.495 Y-187.859
X199.37 Y-188.48
X199.301 Y-188.687
X199.158 Y-189.102
X198.838 Y-189.98
X198.706 Y-190.345
X198.631 Y-190.54
X198.445 Y-190.966
X198.424 Y-191.011
X198.332 Y-191.173
X197.595 Y-192.45
X197.358 Y-192.831
X197.181 Y-193.113
X197.076 Y-193.245
X196.033 Y-194.488
X195.858 Y-194.695
X195.731 Y-194.839
X195.468 Y-195.109
X195.109 Y-195.468
X194.839 Y-195.731
X194.695 Y-195.858
X194.281 Y-196.207
X193.245 Y-197.076
X193.113 Y-197.181
X192.623 Y-197.488
X192.45 Y-197.595
X191.173 Y-198.332
X191.011 Y-198.424
X190.966 Y-198.445
X190.54 Y-198.631
X190.345 Y-198.706
X189.309 Y-199.083
X189.102 Y-199.158
X188.687 Y-199.301
X188.48 Y-199.37
X187.859 Y-199.495
X186.408 Y-199.75
X185.994 Y-199.803
X185.787 Y-199.82
X185.165 Y-199.824
X183.922
X183.715 Y-199.814
X183.301 Y-199.785
X183.094 Y-199.756
X181.412 Y-199.46
X181.229 Y-199.427
X180.608 Y-199.244
X180.401 Y-199.17
X179.365 Y-198.793
X179.158 Y-198.715
X178.743 Y-198.552
X178.536 Y-198.464
X178.46 Y-198.424
X177.738 Y-198.01
X177.086 Y-197.633
X176.665 Y-197.388
X176.464 Y-197.253
X176.364 Y-197.181
X176.257 Y-197.103
X175.221 Y-196.234
X174.807 Y-195.885
X174.628 Y-195.731
X174.393 Y-195.499
X173.771 Y-194.878
X138.37 Y-159.477
X137.693 Y-158.865
X136.973 Y-158.306
X136.209 Y-157.809
X135.414 Y-157.362
X134.598 Y-156.955
X133.767 Y-156.58
X132.924 Y-156.231
X132.073 Y-155.904
X131.215 Y-155.596
X130.351 Y-155.305
X129.481 Y-155.031
X128.607 Y-154.772
X127.728 Y-154.528
X126.846 Y-154.299
X125.96 Y-154.083
X125.071 Y-153.881
X124.179 Y-153.693
X123.284 Y-153.519
X122.386 Y-153.358
X121.486 Y-153.21
X120.585 Y-153.075
X119.681 Y-152.954
X118.776 Y-152.845
X117.869 Y-152.749
X116.961 Y-152.665
X116.052 Y-152.591
X115.142 Y-152.528
X114.232 Y-152.474
X113.322 Y-152.428
X112.411 Y-152.391
X111.499 Y-152.361
X110.588 Y-152.338
X109.676 Y-152.323
X108.764 Y-152.314
X107.852 Y-152.313
X106.941 Y-152.319
X106.029 Y-152.333
X105.117 Y-152.356
X104.206 Y-152.388
X103.295 Y-152.43
X102.385 Y-152.483
X101.475 Y-152.546
X100.567 Y-152.621
X99.659 Y-152.708
X98.753 Y-152.807
X97.848 Y-152.918
X96.944 Y-153.042
X96.043 Y-153.178
X95.143 Y-153.327
X94.246 Y-153.489
X93.351 Y-153.664
X92.459 Y-153.852
X91.569 Y-154.053
X90.683 Y-154.268
X89.8 Y-154.496
X88.921 Y-154.738
X88.046 Y-154.993
X87.174 Y-155.262
X86.307 Y-155.543
X85.444 Y-155.838
X84.586 Y-156.145
X83.732 Y-156.465
X82.883 Y-156.799
X82.04 Y-157.145
X81.201 Y-157.503
X81.028 Y-157.581
X80.959 Y-157.617
X80.896 Y-157.661
X80.838 Y-157.712
X43.233 Y-195.317
X42.842 Y-195.704
X42.814 Y-195.731
X42.572 Y-195.938
X41.806 Y-196.582
X41.185 Y-197.103
X41.078 Y-197.181
X40.978 Y-197.253
X40.77 Y-197.392
X40.063 Y-197.803
X39.32 Y-198.23
X38.982 Y-198.424
X38.906 Y-198.465
X38.699 Y-198.552
X38.284 Y-198.715
X38.077 Y-198.793
X37.041 Y-199.17
X36.834 Y-199.244
X36.213 Y-199.427
X34.555 Y-199.72
X34.348 Y-199.756
X34.141 Y-199.785
X33.727 Y-199.814
X33.52 Y-199.824
X32.277
X31.655 Y-199.82
X31.448 Y-199.803
X31.034 Y-199.75
X29.583 Y-199.495
X28.962 Y-199.37
X28.755 Y-199.301
X28.34 Y-199.157
X27.462 Y-198.838
X27.097 Y-198.706
X26.903 Y-198.631
X26.476 Y-198.445
X26.431 Y-198.424
X26.269 Y-198.332
X24.992 Y-197.595
X24.611 Y-197.358
X24.329 Y-197.181
X24.197 Y-197.076
X23.197 Y-196.237
G3 X22.462 Y-196.204 I-0.391 J-0.5
G1 X22.378 Y-196.258 Z-4.752
X22.297 Y-196.31 Z-4.729
X22.219 Y-196.36 Z-4.691
X22.148 Y-196.406 Z-4.639
X22.084 Y-196.447 Z-4.574
X22.03 Y-196.483 Z-4.498
X21.986 Y-196.511 Z-4.413
X21.954 Y-196.531 Z-4.321
X21.935 Y-196.544 Z-4.224
X21.928 Y-196.548 Z-4.125
G0 Z5
X51.896 Y-143.668
Z-3.49
G1 Z-4.125 F200
X51.903 Y-143.666 Z-4.224
X51.926 Y-143.66 Z-4.321
X51.963 Y-143.651 Z-4.413
X52.013 Y-143.638 Z-4.498
X52.076 Y-143.622 Z-4.574
X52.149 Y-143.603 Z-4.639
X52.232 Y-143.582 Z-4.691
X52.321 Y-143.559 Z-4.729
X52.415 Y-143.536 Z-4.752
X52.511 Y-143.511 Z-4.76
G3 X53.2 Y-143.135 I-0.39 J1.534
G1 X61.073 Y-135.262
X61.684 Y-134.586
X62.234 Y-133.858
X62.691 Y-133.07
X63.073 Y-132.242
X63.394 Y-131.388
X63.668 Y-130.519
X63.906 Y-129.638
X64.113 Y-128.75
X64.297 Y-127.857
X64.461 Y-126.96
X64.607 Y-126.06
X64.738 Y-125.158
X64.854 Y-124.254
X64.958 Y-123.348
X65.051 Y-122.441
X65.132 Y-121.532
X65.203 Y-120.623
X65.265 Y-119.714
X65.318 Y-118.803
X65.364 Y-117.893
X65.402 Y-116.982
X65.435 Y-116.071
X65.462 Y-115.159
X65.484 Y-114.248
X65.502 Y-113.336
X65.517 Y-112.424
X65.528 Y-111.513
X65.538 Y-110.601
X65.545 Y-109.689
X65.55 Y-108.777
X65.554 Y-107.865
X65.555 Y-106.954
X65.554 Y-106.042
X65.55 Y-105.13
X65.542 Y-104.218
X65.53 Y-103.306
X65.513 Y-102.395
X65.49 Y-101.483
X65.461 Y-100.572
X65.423 Y-99.661
X65.378 Y-98.75
X65.325 Y-97.84
X65.262 Y-96.93
X65.189 Y-96.021
X65.107 Y-95.113
X65.014 Y-94.206
X64.91 Y-93.3
X64.795 Y-92.396
X64.669 Y-91.493
X64.531 Y-90.591
X64.381 Y-89.692
X64.22 Y-88.795
X64.046 Y-87.9
X63.86 Y-87.007
X63.661 Y-86.117
X63.451 Y-85.23
X63.267 Y-84.501
X63.229 Y-84.394
X63.173 Y-84.295
X63.1 Y-84.207
X55.091 Y-76.198
G3 X54.361 Y-76.101 I-0.433 J-0.464
G1 X54.273 Y-76.147 Z-4.752
X54.187 Y-76.193 Z-4.729
X54.106 Y-76.236 Z-4.691
X54.031 Y-76.275 Z-4.639
X53.964 Y-76.311 Z-4.574
X53.907 Y-76.341 Z-4.498
X53.861 Y-76.365 Z-4.413
X53.827 Y-76.383 Z-4.321
X53.806 Y-76.394 Z-4.224
X53.799 Y-76.398 Z-4.125
G0 Z5
X59.768 Y-135.795
Z-3.49
G1 Z-4.125 F200
X59.776 Y-135.793 Z-4.224
X59.798 Y-135.788 Z-4.321
X59.835 Y-135.778 Z-4.413
X59.885 Y-135.765 Z-4.498
X59.948 Y-135.749 Z-4.574
X60.022 Y-135.731 Z-4.639
X60.104 Y-135.71 Z-4.691
X60.193 Y-135.687 Z-4.729
X60.287 Y-135.663 Z-4.752
X60.383 Y-135.639 Z-4.76
G3 X61.073 Y-135.262 I-0.39 J1.534
G1 X67.312 Y-129.023
X67.924 Y-128.347
X68.451 Y-127.603
X68.871 Y-126.794
X69.202 Y-125.944
X69.461 Y-125.07
X69.666 Y-124.182
X69.829 Y-123.284
X69.96 Y-122.382
X70.067 Y-121.477
X70.155 Y-120.569
X70.228 Y-119.66
X70.289 Y-118.75
X70.34 Y-117.84
X70.382 Y-116.929
X70.418 Y-116.018
X70.447 Y-115.107
X70.471 Y-114.195
X70.491 Y-113.284
X70.507 Y-112.372
X70.52 Y-111.46
X70.531 Y-110.548
X70.539 Y-109.637
X70.544 Y-108.725
X70.548 Y-107.813
X70.549 Y-106.901
X70.547 Y-105.989
X70.542 Y-105.078
X70.532 Y-104.166
X70.519 Y-103.254
X70.5 Y-102.343
X70.476 Y-101.431
X70.445 Y-100.52
X70.408 Y-99.609
X70.362 Y-98.698
X70.309 Y-97.788
X70.248 Y-96.878
X70.178 Y-95.969
X70.098 Y-95.061
X70.009 Y-94.153
X69.91 Y-93.247
X69.801 Y-92.341
X69.682 Y-91.437
X69.603 Y-90.889
X69.57 Y-90.758
X69.509 Y-90.636
X69.424 Y-90.531
X63.1 Y-84.207
G3 X62.37 Y-84.11 I-0.433 J-0.464
G1 X62.282 Y-84.157 Z-4.752
X62.197 Y-84.202 Z-4.729
X62.115 Y-84.245 Z-4.691
X62.04 Y-84.285 Z-4.639
X61.973 Y-84.32 Z-4.574
X61.916 Y-84.35 Z-4.498
X61.87 Y-84.375 Z-4.413
X61.836 Y-84.393 Z-4.321
X61.816 Y-84.403 Z-4.224
X61.809 Y-84.407 Z-4.125
G0 Z5
X66.007 Y-129.556
Z-3.49
G1 Z-4.125 F200
X66.015 Y-129.554 Z-4.224
X66.037 Y-129.548 Z-4.321
X66.074 Y-129.539 Z-4.413
X66.125 Y-129.526 Z-4.498
X66.187 Y-129.51 Z-4.574
X66.261 Y-129.492 Z-4.639
X66.343 Y-129.471 Z-4.691
X66.432 Y-129.448 Z-4.729
X66.526 Y-129.424 Z-4.752
X66.623 Y-129.4 Z-4.76
G3 X67.312 Y-129.023 I-0.39 J1.534
G1 X72.881 Y-123.454
X73.493 Y-122.778
X73.998 Y-122.019
X74.389 Y-121.195
X74.684 Y-120.332
X74.904 Y-119.447
X75.067 Y-118.55
X75.188 Y-117.647
X75.278 Y-116.739
X75.346 Y-115.83
X75.397 Y-114.92
X75.436 Y-114.009
X75.466 Y-113.097
X75.489 Y-112.186
X75.506 Y-111.274
X75.52 Y-110.362
X75.53 Y-109.451
X75.536 Y-108.539
X75.54 Y-107.627
Y-106.715
X75.537 Y-105.803
X75.531 Y-104.892
X75.52 Y-103.98
X75.505 Y-103.068
X75.484 Y-102.157
X75.458 Y-101.245
X75.426 Y-100.334
X75.387 Y-99.423
X75.341 Y-98.512
X75.287 Y-97.602
X75.226 Y-96.692
X75.214 Y-96.538
X75.185 Y-96.391
X75.123 Y-96.255
X75.03 Y-96.137
X69.424 Y-90.531
G3 X68.694 Y-90.434 I-0.433 J-0.464
G1 X68.606 Y-90.48 Z-4.752
X68.52 Y-90.525 Z-4.729
X68.439 Y-90.569 Z-4.691
X68.364 Y-90.608 Z-4.639
X68.297 Y-90.644 Z-4.574
X68.24 Y-90.674 Z-4.498
X68.194 Y-90.698 Z-4.413
X68.16 Y-90.716 Z-4.321
X68.139 Y-90.727 Z-4.224
X68.132 Y-90.731 Z-4.125
G0 Z5
X71.576 Y-123.987
Z-3.49
G1 Z-4.125 F200
X71.584 Y-123.985 Z-4.224
X71.607 Y-123.979 Z-4.321
X71.644 Y-123.97 Z-4.413
X71.694 Y-123.957 Z-4.498
X71.757 Y-123.941 Z-4.574
X71.83 Y-123.922 Z-4.639
X71.912 Y-123.901 Z-4.691
X72.002 Y-123.879 Z-4.729
X72.096 Y-123.855 Z-4.752
X72.192 Y-123.83 Z-4.76
G3 X72.881 Y-123.454 I-0.39 J1.534
G1 X78.06 Y-118.275
X78.672 Y-117.599
X79.178 Y-116.84
X79.563 Y-116.014
X79.849 Y-115.148
X80.057 Y-114.26
X80.205 Y-113.361
X80.311 Y-112.455
X80.384 Y-111.546
X80.436 Y-110.636
X80.471 Y-109.725
X80.495 Y-108.813
X80.51 Y-107.901
X80.519 Y-106.99
X80.521 Y-106.078
X80.518 Y-105.166
X80.51 Y-104.254
X80.496 Y-103.342
X80.478 Y-102.431
X80.461 Y-101.815
X80.437 Y-101.657
X80.374 Y-101.509
X80.276 Y-101.383
X75.03 Y-96.137
G3 X74.133 Y-96.168 Z-4.56 I-0.433 J-0.464
X73.968 Y-96.691 I0.464 J-0.433
G1 X76.999 Y-117.9
G3 X77.163 Y-118.244 I0.629 J0.09
X78.06 Y-118.275 Z-4.76 I0.464 J0.433
G1 X80.571 Y-115.765
X80.761 Y-115.557
X80.946 Y-115.35
X81.641 Y-114.522
X81.79 Y-114.314
X82.081 Y-113.9
X82.204 Y-113.691
X82.442 Y-113.279
X82.553 Y-113.071
X82.849 Y-112.45
X82.929 Y-112.243
X83.24 Y-111.389
X83.304 Y-111.207
X83.344 Y-111
X83.454 Y-110.378
X83.49 Y-110.171
X83.585 Y-109.55
X83.599 Y-109.342
Y-108.1
X83.585 Y-107.892
X83.49 Y-107.271
X83.381 Y-106.649
X83.344 Y-106.442
X83.304 Y-106.235
X83.23 Y-106.028
X82.929 Y-105.199
X82.849 Y-104.992
X82.553 Y-104.371
X82.442 Y-104.163
X81.963 Y-103.335
X81.899 Y-103.231
X81.815 Y-103.128
X80.946 Y-102.092
X80.754 Y-101.876
X80.57 Y-101.677
X80.276 Y-101.383
G3 X79.546 Y-101.286 I-0.433 J-0.464
G1 X79.458 Y-101.332 Z-4.752
X79.372 Y-101.377 Z-4.729
X79.291 Y-101.421 Z-4.691
X79.216 Y-101.46 Z-4.639
X79.149 Y-101.496 Z-4.574
X79.092 Y-101.526 Z-4.498
X79.046 Y-101.55 Z-4.413
X79.012 Y-101.568 Z-4.321
X78.991 Y-101.579 Z-4.224
X78.984 Y-101.583 Z-4.125
G0 Z5
X73.153 Y-51.274
Z-3.49
G1 Z-4.125 F200
X73.155 Y-51.282 Z-4.224
X73.161 Y-51.304 Z-4.321
X73.17 Y-51.341 Z-4.413
X73.183 Y-51.392 Z-4.498
X73.199 Y-51.454 Z-4.574
X73.218 Y-51.528 Z-4.639
X73.239 Y-51.61 Z-4.691
X73.261 Y-51.699 Z-4.729
X73.285 Y-51.793 Z-4.752
X73.31 Y-51.89 Z-4.76
G3 X73.686 Y-52.579 I1.534 J0.39
G1 X81.558 Y-60.451
X82.235 Y-61.063
X82.978 Y-61.591
X83.777 Y-62.03
X84.612 Y-62.397
X85.469 Y-62.707
X86.341 Y-62.973
X87.224 Y-63.203
X88.113 Y-63.406
X89.007 Y-63.586
X89.904 Y-63.746
X90.805 Y-63.889
X91.708 Y-64.017
X92.612 Y-64.131
X93.518 Y-64.233
X94.426 Y-64.323
X95.334 Y-64.402
X96.243 Y-64.472
X97.153 Y-64.532
X98.063 Y-64.584
X98.974 Y-64.628
X99.885 Y-64.665
X100.796 Y-64.696
X101.708 Y-64.722
X102.619 Y-64.744
X103.531 Y-64.761
X104.443 Y-64.775
X105.355 Y-64.786
X106.266 Y-64.795
X107.178 Y-64.802
X108.09 Y-64.806
X109.002 Y-64.808
X109.914 Y-64.807
X110.825 Y-64.803
X111.737 Y-64.795
X112.649 Y-64.783
X113.56 Y-64.765
X114.472 Y-64.741
X115.383 Y-64.711
X116.294 Y-64.672
X117.205 Y-64.625
X118.115 Y-64.57
X119.024 Y-64.505
X119.933 Y-64.43
X120.841 Y-64.345
X121.748 Y-64.25
X122.653 Y-64.143
X123.558 Y-64.025
X124.46 Y-63.896
X125.361 Y-63.755
X126.26 Y-63.602
X127.157 Y-63.438
X128.051 Y-63.261
X128.943 Y-63.072
X129.833 Y-62.87
X130.719 Y-62.656
X131.602 Y-62.43
X132.483 Y-62.192
X133.359 Y-61.942
X134.233 Y-61.68
X134.702 Y-61.532
X134.796 Y-61.493
X134.883 Y-61.441
X134.96 Y-61.375
X144.423 Y-51.912
G3 X144.52 Y-51.182 I-0.464 J0.433
G1 X144.473 Y-51.095 Z-4.752
X144.428 Y-51.009 Z-4.729
X144.385 Y-50.927 Z-4.691
X144.345 Y-50.852 Z-4.639
X144.31 Y-50.785 Z-4.574
X144.28 Y-50.728 Z-4.498
X144.255 Y-50.682 Z-4.413
X144.238 Y-50.648 Z-4.321
X144.227 Y-50.628 Z-4.224
X144.223 Y-50.621 Z-4.125
G0 Z5
X81.026 Y-59.146
Z-3.49
G1 Z-4.125 F200
X81.027 Y-59.154 Z-4.224
X81.033 Y-59.177 Z-4.321
X81.043 Y-59.214 Z-4.413
X81.055 Y-59.264 Z-4.498
X81.071 Y-59.327 Z-4.574
X81.09 Y-59.4 Z-4.639
X81.111 Y-59.482 Z-4.691
X81.134 Y-59.572 Z-4.729
X81.158 Y-59.666 Z-4.752
X81.182 Y-59.762 Z-4.76
G3 X81.558 Y-60.451 I1.534 J0.39
G1 X87.773 Y-66.666
X88.45 Y-67.278
X89.207 Y-67.785
X90.025 Y-68.188
X90.88 Y-68.505
X91.757 Y-68.754
X92.648 Y-68.951
X93.546 Y-69.108
X94.449 Y-69.235
X95.355 Y-69.338
X96.262 Y-69.424
X97.172 Y-69.495
X98.081 Y-69.554
X98.992 Y-69.603
X99.903 Y-69.644
X100.814 Y-69.678
X101.725 Y-69.707
X102.637 Y-69.73
X103.548 Y-69.75
X104.46 Y-69.765
X105.372 Y-69.778
X106.284 Y-69.788
X107.195 Y-69.795
X108.107 Y-69.799
X109.019 Y-69.801
X109.931 Y-69.799
X110.843 Y-69.794
X111.754 Y-69.785
X112.666 Y-69.771
X113.578 Y-69.752
X114.489 Y-69.728
X115.4 Y-69.696
X116.311 Y-69.657
X117.222 Y-69.611
X118.132 Y-69.557
X119.042 Y-69.494
X119.951 Y-69.422
X120.859 Y-69.341
X121.766 Y-69.25
X122.673 Y-69.149
X123.578 Y-69.037
X124.481 Y-68.916
X125.383 Y-68.784
X126.284 Y-68.64
X127.183 Y-68.486
X127.807 Y-68.37
X127.929 Y-68.335
X128.042 Y-68.276
X128.14 Y-68.195
X134.96 Y-61.375
G3 X135.057 Y-60.645 I-0.464 J0.433
G1 X135.011 Y-60.557 Z-4.752
X134.965 Y-60.472 Z-4.729
X134.922 Y-60.39 Z-4.691
X134.883 Y-60.315 Z-4.639
X134.847 Y-60.248 Z-4.574
X134.817 Y-60.191 Z-4.498
X134.793 Y-60.145 Z-4.413
X134.775 Y-60.111 Z-4.321
X134.764 Y-60.091 Z-4.224
X134.76 Y-60.084 Z-4.125
G0 Z5
X87.241 Y-65.361
Z-3.49
G1 Z-4.125 F200
X87.242 Y-65.369 Z-4.224
X87.248 Y-65.392 Z-4.321
X87.258 Y-65.429 Z-4.413
X87.27 Y-65.479 Z-4.498
X87.286 Y-65.542 Z-4.574
X87.305 Y-65.615 Z-4.639
X87.326 Y-65.697 Z-4.691
X87.349 Y-65.787 Z-4.729
X87.373 Y-65.881 Z-4.752
X87.397 Y-65.977 Z-4.76
G3 X87.773 Y-66.666 I1.534 J0.39
G1 X93.184 Y-72.076
X93.86 Y-72.688
X94.609 Y-73.207
X95.428 Y-73.609
X96.287 Y-73.913
X97.17 Y-74.14
X98.066 Y-74.309
X98.97 Y-74.434
X99.877 Y-74.527
X100.786 Y-74.597
X101.696 Y-74.649
X102.607 Y-74.689
X103.518 Y-74.719
X104.43 Y-74.743
X105.342 Y-74.76
X106.253 Y-74.774
X107.165 Y-74.783
X108.077 Y-74.789
X108.989 Y-74.791
X109.901 Y-74.79
X110.812 Y-74.784
X111.724 Y-74.775
X112.636 Y-74.76
X113.547 Y-74.741
X114.459 Y-74.716
X115.37 Y-74.684
X116.281 Y-74.646
X117.192 Y-74.601
X118.102 Y-74.548
X119.012 Y-74.487
X119.921 Y-74.418
X120.83 Y-74.341
X121.737 Y-74.254
X121.898 Y-74.237
X122.038 Y-74.206
X122.168 Y-74.144
X122.281 Y-74.055
X128.14 Y-68.195
G3 X128.237 Y-67.465 I-0.464 J0.433
G1 X128.191 Y-67.377 Z-4.752
X128.145 Y-67.292 Z-4.729
X128.102 Y-67.21 Z-4.691
X128.063 Y-67.135 Z-4.639
X128.027 Y-67.068 Z-4.574
X127.997 Y-67.011 Z-4.498
X127.973 Y-66.965 Z-4.413
X127.955 Y-66.931 Z-4.321
X127.944 Y-66.911 Z-4.224
X127.94 Y-66.904 Z-4.125
G0 Z5
X92.651 Y-70.772
Z-3.49
G1 Z-4.125 F200
X92.653 Y-70.779 Z-4.224
X92.658 Y-70.802 Z-4.321
X92.668 Y-70.839 Z-4.413
X92.681 Y-70.889 Z-4.498
X92.697 Y-70.952 Z-4.574
X92.715 Y-71.025 Z-4.639
X92.736 Y-71.108 Z-4.691
X92.759 Y-71.197 Z-4.729
X92.783 Y-71.291 Z-4.752
X92.807 Y-71.387 Z-4.76
G3 X93.184 Y-72.076 I1.534 J0.39
G1 X98.546 Y-77.439
X99.222 Y-78.051
X99.999 Y-78.528
X100.836 Y-78.89
X101.708 Y-79.156
X102.599 Y-79.349
X103.5 Y-79.487
X104.407 Y-79.584
X105.316 Y-79.652
X106.227 Y-79.699
X107.138 Y-79.731
X108.05 Y-79.751
X108.962 Y-79.763
X109.873 Y-79.768
X110.785 Y-79.766
X111.697 Y-79.759
X112.609 Y-79.746
X113.52 Y-79.727
X114.432 Y-79.703
X115.343 Y-79.672
X116.254 Y-79.634
X116.479 Y-79.624
X116.632 Y-79.597
X116.774 Y-79.534
X116.897 Y-79.438
X122.281 Y-74.055
G3 X122.25 Y-73.158 Z-4.56 I-0.464 J0.433
X121.723 Y-72.994 I-0.433 J-0.464
G1 X98.917 Y-76.378
G3 X98.577 Y-76.542 I0.093 J-0.628
X98.375 Y-77.005 Z-4.664 I0.433 J-0.464
G1 Y-77.006
G3 X98.546 Y-77.439 Z-4.76 I0.635 J0
G1 X101.677 Y-80.57
X101.885 Y-80.761
X102.092 Y-80.946
X103.128 Y-81.815
X103.231 Y-81.899
X103.335 Y-81.963
X104.163 Y-82.442
X104.371 Y-82.553
X104.992 Y-82.849
X105.199 Y-82.929
X106.053 Y-83.24
X106.235 Y-83.304
X106.442 Y-83.344
X107.064 Y-83.454
X107.271 Y-83.49
X107.892 Y-83.585
X108.1 Y-83.599
X109.342
X109.55 Y-83.585
X110.171 Y-83.49
X110.793 Y-83.381
X111 Y-83.344
X111.207 Y-83.304
X111.414 Y-83.23
X112.243 Y-82.929
X112.45 Y-82.849
X113.071 Y-82.553
X113.279 Y-82.442
X113.693 Y-82.202
X113.9 Y-82.081
X114.315 Y-81.789
X114.522 Y-81.641
X115.35 Y-80.946
X115.566 Y-80.754
X115.765 Y-80.571
X116.897 Y-79.438
G3 X116.994 Y-78.708 I-0.464 J0.433
G1 X116.948 Y-78.621 Z-4.752
X116.902 Y-78.535 Z-4.729
X116.859 Y-78.454 Z-4.691
X116.82 Y-78.379 Z-4.639
X116.784 Y-78.312 Z-4.574
X116.754 Y-78.254 Z-4.498
X116.73 Y-78.208 Z-4.413
X116.712 Y-78.175 Z-4.321
X116.701 Y-78.154 Z-4.224
X116.697 Y-78.147 Z-4.125
G0 Z5
X165.546 Y-73.775
Z-3.49
G1 Z-4.125 F200
X165.539 Y-73.777 Z-4.224
X165.516 Y-73.783 Z-4.321
X165.479 Y-73.792 Z-4.413
X165.429 Y-73.805 Z-4.498
X165.366 Y-73.821 Z-4.574
X165.293 Y-73.839 Z-4.639
X165.21 Y-73.86 Z-4.691
X165.121 Y-73.883 Z-4.729
X165.027 Y-73.907 Z-4.752
X164.931 Y-73.931 Z-4.76
G3 X164.242 Y-74.308 I0.39 J-1.534
G1 X156.369 Y-82.18
X155.758 Y-82.856
X155.217 Y-83.591
X154.767 Y-84.384
X154.391 Y-85.214
X154.074 Y-86.069
X153.804 Y-86.94
X153.569 Y-87.821
X153.363 Y-88.709
X153.18 Y-89.603
X153.018 Y-90.5
X152.873 Y-91.4
X152.744 Y-92.303
X152.628 Y-93.207
X152.525 Y-94.113
X152.434 Y-95.021
X152.354 Y-95.929
X152.284 Y-96.838
X152.223 Y-97.748
X152.17 Y-98.658
X152.125 Y-99.569
X152.087 Y-100.48
X152.055 Y-101.391
X152.029 Y-102.302
X152.007 Y-103.214
X151.989 Y-104.126
X151.974 Y-105.037
X151.963 Y-105.949
X151.953 Y-106.861
X151.946 Y-107.773
X151.941 Y-108.684
X151.938 Y-109.596
X151.936 Y-110.508
X151.937 Y-111.42
X151.941 Y-112.332
X151.949 Y-113.243
X151.96 Y-114.155
X151.977 Y-115.067
X152 Y-115.978
X152.029 Y-116.89
X152.065 Y-117.801
X152.11 Y-118.712
X152.164 Y-119.622
X152.226 Y-120.531
X152.299 Y-121.44
X152.381 Y-122.348
X152.474 Y-123.255
X152.578 Y-124.161
X152.693 Y-125.066
X152.819 Y-125.969
X152.957 Y-126.87
X153.106 Y-127.77
X153.267 Y-128.667
X153.44 Y-129.563
X153.625 Y-130.455
X153.823 Y-131.345
X154.034 Y-132.233
X154.224 Y-132.99
X154.262 Y-133.097
X154.318 Y-133.196
X154.391 Y-133.284
X162.398 Y-141.291
G3 X163.128 Y-141.388 I0.433 J0.464
G1 X163.215 Y-141.341 Z-4.752
X163.301 Y-141.296 Z-4.729
X163.382 Y-141.253 Z-4.691
X163.458 Y-141.213 Z-4.639
X163.525 Y-141.178 Z-4.574
X163.582 Y-141.147 Z-4.498
X163.628 Y-141.123 Z-4.413
X163.661 Y-141.105 Z-4.321
X163.682 Y-141.094 Z-4.224
X163.689 Y-141.091 Z-4.125
G0 Z5
X157.674 Y-81.647
Z-3.49
G1 Z-4.125 F200
X157.666 Y-81.649 Z-4.224
X157.644 Y-81.655 Z-4.321
X157.607 Y-81.664 Z-4.413
X157.557 Y-81.677 Z-4.498
X157.494 Y-81.693 Z-4.574
X157.42 Y-81.712 Z-4.639
X157.338 Y-81.733 Z-4.691
X157.249 Y-81.755 Z-4.729
X157.155 Y-81.779 Z-4.752
X157.059 Y-81.804 Z-4.76
G3 X156.369 Y-82.18 I0.39 J-1.534
G1 X150.154 Y-88.395
X149.543 Y-89.071
X149.02 Y-89.819
X148.605 Y-90.63
X148.278 Y-91.482
X148.021 Y-92.356
X147.818 Y-93.245
X147.657 Y-94.143
X147.527 Y-95.045
X147.421 Y-95.951
X147.333 Y-96.859
X147.261 Y-97.768
X147.201 Y-98.677
X147.15 Y-99.588
X147.108 Y-100.499
X147.073 Y-101.41
X147.044 Y-102.321
X147.02 Y-103.233
X147 Y-104.144
X146.984 Y-105.056
X146.971 Y-105.968
X146.961 Y-106.879
X146.953 Y-107.791
X146.947 Y-108.703
X146.944 Y-109.615
X146.943 Y-110.527
X146.944 Y-111.438
X146.949 Y-112.35
X146.958 Y-113.262
X146.971 Y-114.174
X146.989 Y-115.085
X147.013 Y-115.997
X147.043 Y-116.908
X147.08 Y-117.819
X147.124 Y-118.73
X147.177 Y-119.64
X147.238 Y-120.55
X147.308 Y-121.459
X147.387 Y-122.367
X147.476 Y-123.275
X147.574 Y-124.181
X147.683 Y-125.087
X147.801 Y-125.991
X147.889 Y-126.602
X147.922 Y-126.734
X147.983 Y-126.855
X148.068 Y-126.961
X154.391 Y-133.284
G3 X155.121 Y-133.381 I0.433 J0.464
G1 X155.209 Y-133.334 Z-4.752
X155.294 Y-133.289 Z-4.729
X155.376 Y-133.246 Z-4.691
X155.451 Y-133.206 Z-4.639
X155.518 Y-133.171 Z-4.574
X155.575 Y-133.141 Z-4.498
X155.621 Y-133.116 Z-4.413
X155.655 Y-133.098 Z-4.321
X155.675 Y-133.088 Z-4.224
X155.682 Y-133.084 Z-4.125
G0 Z5
X151.459 Y-87.862
Z-3.49
G1 Z-4.125 F200
X151.451 Y-87.864 Z-4.224
X151.429 Y-87.87 Z-4.321
X151.392 Y-87.879 Z-4.413
X151.342 Y-87.892 Z-4.498
X151.279 Y-87.908 Z-4.574
X151.205 Y-87.927 Z-4.639
X151.123 Y-87.948 Z-4.691
X151.034 Y-87.971 Z-4.729
X150.94 Y-87.994 Z-4.752
X150.844 Y-88.019 Z-4.76
G3 X150.154 Y-88.395 I0.39 J-1.534
G1 X144.561 Y-93.989
X143.949 Y-94.665
X143.455 Y-95.431
X143.074 Y-96.26
X142.786 Y-97.125
X142.572 Y-98.011
X142.413 Y-98.909
X142.295 Y-99.813
X142.207 Y-100.721
X142.141 Y-101.63
X142.092 Y-102.541
X142.054 Y-103.452
X142.024 Y-104.363
X142.002 Y-105.274
X141.984 Y-106.186
X141.971 Y-107.098
X141.962 Y-108.01
X141.955 Y-108.921
X141.951 Y-109.833
Y-110.745
X141.954 Y-111.657
X141.96 Y-112.569
X141.971 Y-113.48
X141.986 Y-114.392
X142.006 Y-115.304
X142.032 Y-116.215
X142.064 Y-117.126
X142.102 Y-118.037
X142.148 Y-118.948
X142.201 Y-119.858
X142.262 Y-120.768
X142.277 Y-120.953
X142.305 Y-121.1
X142.368 Y-121.236
X142.461 Y-121.354
X148.068 Y-126.961
G3 X148.798 Y-127.058 I0.433 J0.464
G1 X148.886 Y-127.012 Z-4.752
X148.972 Y-126.967 Z-4.729
X149.053 Y-126.923 Z-4.691
X149.128 Y-126.884 Z-4.639
X149.195 Y-126.848 Z-4.574
X149.252 Y-126.818 Z-4.498
X149.298 Y-126.794 Z-4.413
X149.332 Y-126.776 Z-4.321
X149.353 Y-126.765 Z-4.224
X149.36 Y-126.761 Z-4.125
G0 Z5
X145.866 Y-93.456
Z-3.49
G1 Z-4.125 F200
X145.858 Y-93.458 Z-4.224
X145.835 Y-93.464 Z-4.321
X145.798 Y-93.473 Z-4.413
X145.748 Y-93.486 Z-4.498
X145.685 Y-93.502 Z-4.574
X145.612 Y-93.52 Z-4.639
X145.53 Y-93.541 Z-4.691
X145.44 Y-93.564 Z-4.729
X145.346 Y-93.588 Z-4.752
X145.25 Y-93.612 Z-4.76
G3 X144.561 Y-93.989 I0.39 J-1.534
G1 X139.382 Y-99.168
X138.77 Y-99.844
X138.275 Y-100.61
X137.9 Y-101.441
X137.622 Y-102.309
X137.42 Y-103.199
X137.276 Y-104.099
X137.174 Y-105.005
X137.102 Y-105.914
X137.052 Y-106.825
X137.018 Y-107.736
X136.995 Y-108.647
X136.98 Y-109.559
X136.972 Y-110.471
X136.97 Y-111.382
X136.973 Y-112.294
X136.981 Y-113.206
X136.994 Y-114.118
X137.012 Y-115.029
X137.029 Y-115.676
X137.054 Y-115.834
X137.117 Y-115.981
X137.215 Y-116.108
X142.461 Y-121.354
G3 X143.358 Y-121.323 Z-4.56 I0.433 J0.464
X143.522 Y-120.798 I-0.464 J0.433
G1 X140.443 Y-99.541
G3 X140.279 Y-99.199 I-0.628 J-0.091
X139.382 Y-99.168 Z-4.76 I-0.464 J-0.433
G1 X136.872 Y-101.677
X136.681 Y-101.885
X136.496 Y-102.092
X135.627 Y-103.128
X135.543 Y-103.231
X135.479 Y-103.335
X135.001 Y-104.163
X134.889 Y-104.371
X134.593 Y-104.992
X134.514 Y-105.199
X134.202 Y-106.054
X134.138 Y-106.235
X134.098 Y-106.442
X133.879 Y-107.685
X133.845 Y-107.892
X133.843 Y-108.1
Y-109.342
X133.845 Y-109.55
X133.879 Y-109.757
X134.098 Y-111
X134.138 Y-111.207
X134.212 Y-111.414
X134.514 Y-112.243
X134.593 Y-112.45
X134.889 Y-113.071
X135.001 Y-113.279
X135.479 Y-114.107
X135.543 Y-114.211
X135.627 Y-114.314
X136.496 Y-115.35
X136.688 Y-115.566
X136.872 Y-115.765
X137.215 Y-116.108
G3 X137.945 Y-116.205 I0.433 J0.464
G1 X138.033 Y-116.158 Z-4.752
X138.118 Y-116.113 Z-4.729
X138.2 Y-116.07 Z-4.691
X138.275 Y-116.03 Z-4.639
X138.342 Y-115.995 Z-4.574
X138.399 Y-115.965 Z-4.498
X138.445 Y-115.94 Z-4.413
X138.479 Y-115.923 Z-4.321
X138.499 Y-115.912 Z-4.224
X138.506 Y-115.908 Z-4.125
G0 Z5
X138.902 Y-160.782
Z-3.49
G1 Z-4.125 F200
X138.901 Y-160.774 Z-4.224
X138.895 Y-160.751 Z-4.321
X138.885 Y-160.714 Z-4.413
X138.873 Y-160.664 Z-4.498
X138.857 Y-160.601 Z-4.574
X138.838 Y-160.528 Z-4.639
X138.817 Y-160.446 Z-4.691
X138.794 Y-160.356 Z-4.729
X138.77 Y-160.262 Z-4.752
X138.746 Y-160.166 Z-4.76
G3 X138.37 Y-159.477 I-1.534 J-0.39
G1 X130.497 Y-151.604
X129.821 Y-150.993
X129.077 Y-150.466
X128.277 Y-150.028
X127.442 Y-149.662
X126.584 Y-149.353
X125.712 Y-149.088
X124.829 Y-148.857
X123.94 Y-148.655
X123.046 Y-148.475
X122.149 Y-148.315
X121.248 Y-148.172
X120.345 Y-148.044
X119.441 Y-147.93
X118.535 Y-147.829
X117.627 Y-147.739
X116.719 Y-147.66
X115.81 Y-147.591
X114.9 Y-147.531
X113.99 Y-147.48
X113.079 Y-147.437
X112.168 Y-147.402
X111.256 Y-147.374
X110.345 Y-147.353
X109.433 Y-147.339
X108.521 Y-147.333
X107.609
X106.698 Y-147.342
X105.786 Y-147.358
X104.874 Y-147.384
X103.963 Y-147.418
X103.052 Y-147.461
X102.142 Y-147.515
X101.233 Y-147.578
X100.324 Y-147.653
X99.416 Y-147.738
X98.509 Y-147.834
X97.604 Y-147.941
X96.7 Y-148.06
X95.797 Y-148.19
X94.897 Y-148.332
X93.998 Y-148.486
X93.101 Y-148.651
X92.207 Y-148.829
X91.315 Y-149.019
X90.426 Y-149.222
X89.54 Y-149.436
X89.133 Y-149.541
X89.027 Y-149.579
X88.929 Y-149.635
X88.842 Y-149.707
X80.838 Y-157.712
G3 X80.741 Y-158.442 I0.464 J-0.433
G1 X80.787 Y-158.529 Z-4.752
X80.832 Y-158.615 Z-4.729
X80.876 Y-158.696 Z-4.691
X80.915 Y-158.772 Z-4.639
X80.951 Y-158.839 Z-4.574
X80.981 Y-158.896 Z-4.498
X81.005 Y-158.942 Z-4.413
X81.023 Y-158.976 Z-4.321
X81.034 Y-158.996 Z-4.224
X81.038 Y-159.003 Z-4.125
G0 Z5
X131.03 Y-152.909
Z-3.49
G1 Z-4.125 F200
X131.028 Y-152.902 Z-4.224
X131.022 Y-152.879 Z-4.321
X131.013 Y-152.842 Z-4.413
X131 Y-152.792 Z-4.498
X130.984 Y-152.729 Z-4.574
X130.966 Y-152.656 Z-4.639
X130.945 Y-152.573 Z-4.691
X130.922 Y-152.484 Z-4.729
X130.898 Y-152.39 Z-4.752
X130.874 Y-152.294 Z-4.76
G3 X130.497 Y-151.604 I-1.534 J-0.39
G1 X124.282 Y-145.389
X123.606 Y-144.778
X122.847 Y-144.272
X122.029 Y-143.87
X121.174 Y-143.554
X120.296 Y-143.306
X119.406 Y-143.11
X118.508 Y-142.953
X117.605 Y-142.827
X116.699 Y-142.724
X115.791 Y-142.639
X114.882 Y-142.569
X113.972 Y-142.511
X113.061 Y-142.464
X112.15 Y-142.425
X111.239 Y-142.396
X110.327 Y-142.374
X109.415 Y-142.36
X108.504 Y-142.353
X107.592 Y-142.354
X106.68 Y-142.363
X105.768 Y-142.379
X104.857 Y-142.404
X103.946 Y-142.438
X103.035 Y-142.48
X102.125 Y-142.532
X101.215 Y-142.593
X100.306 Y-142.663
X99.398 Y-142.744
X98.49 Y-142.835
X97.584 Y-142.936
X96.679 Y-143.048
X95.775 Y-143.17
X95.519 Y-143.208
X95.388 Y-143.242
X95.268 Y-143.302
X95.163 Y-143.387
X88.842 Y-149.707
G3 X88.746 Y-150.437 I0.464 J-0.433
G1 X88.792 Y-150.525 Z-4.752
X88.837 Y-150.61 Z-4.729
X88.88 Y-150.692 Z-4.691
X88.92 Y-150.767 Z-4.639
X88.955 Y-150.834 Z-4.574
X88.986 Y-150.891 Z-4.498
X89.01 Y-150.937 Z-4.413
X89.028 Y-150.971 Z-4.321
X89.039 Y-150.991 Z-4.224
X89.042 Y-150.998 Z-4.125
G0 Z5
X124.815 Y-146.694
Z-3.49
G1 Z-4.125 F200
X124.813 Y-146.687 Z-4.224
X124.808 Y-146.664 Z-4.321
X124.798 Y-146.627 Z-4.413
X124.785 Y-146.577 Z-4.498
X124.769 Y-146.514 Z-4.574
X124.751 Y-146.441 Z-4.639
X124.73 Y-146.358 Z-4.691
X124.707 Y-146.269 Z-4.729
X124.683 Y-146.175 Z-4.752
X124.659 Y-146.079 Z-4.76
G3 X124.282 Y-145.389 I-1.534 J-0.39
G1 X118.872 Y-139.979
X118.196 Y-139.368
X117.445 Y-138.85
X116.626 Y-138.45
X115.765 Y-138.148
X114.882 Y-137.923
X113.985 Y-137.757
X113.082 Y-137.635
X112.174 Y-137.546
X111.265 Y-137.482
X110.354 Y-137.438
X109.443 Y-137.409
X108.531 Y-137.392
X107.619 Y-137.386
X106.707 Y-137.391
X105.796 Y-137.404
X104.884 Y-137.426
X103.973 Y-137.457
X103.062 Y-137.497
X102.151 Y-137.546
X101.241 Y-137.604
X101.158 Y-137.61
X101.01 Y-137.639
X100.873 Y-137.701
X100.755 Y-137.794
X95.163 Y-143.387
G3 X95.194 Y-144.284 Z-4.56 I0.464 J-0.433
X95.721 Y-144.448 I0.433 J0.464
G1 X118.502 Y-141.04
G3 X118.841 Y-140.876 I-0.094 J0.628
X118.872 Y-139.979 Z-4.76 I-0.433 J0.464
G1 X115.765 Y-136.872
X115.557 Y-136.681
X115.35 Y-136.496
X114.314 Y-135.627
X114.211 Y-135.543
X114.107 Y-135.479
X113.279 Y-135.001
X113.071 Y-134.889
X112.45 Y-134.593
X112.243 Y-134.514
X111.388 Y-134.202
X111.207 Y-134.138
X111 Y-134.098
X109.757 Y-133.879
X109.55 Y-133.845
X109.342 Y-133.843
X108.1
X107.892 Y-133.845
X107.685 Y-133.879
X106.442 Y-134.098
X106.235 Y-134.138
X106.028 Y-134.212
X105.199 Y-134.514
X104.992 Y-134.593
X104.371 Y-134.889
X104.163 Y-135.001
X103.335 Y-135.479
X103.231 Y-135.543
X103.128 Y-135.627
X102.092 Y-136.496
X101.877 Y-136.688
X101.677 Y-136.872
X100.755 Y-137.794
G3 X100.658 Y-138.524 I0.464 J-0.433
G1 X100.705 Y-138.612 Z-4.752
X100.75 Y-138.698 Z-4.729
X100.793 Y-138.779 Z-4.691
X100.833 Y-138.854 Z-4.639
X100.868 Y-138.921 Z-4.574
X100.898 Y-138.978 Z-4.498
X100.923 Y-139.024 Z-4.413
X100.941 Y-139.058 Z-4.321
X100.952 Y-139.079 Z-4.224
X100.955 Y-139.086 Z-4.125
G0 Z15
G28 G91 Z0
G90
G28 G91 X0 Y0
G90
M5
M30
