(1001)
(T39  D=6.35 CR=0 - ZMIN=-4.76 - flat end mill)
G90 G94
G17
G21
G28 G91 Z0
G90

(2D Adaptive1)
T39
S18000 M3
G54
G0 X-7.297 Y-89.345
Z15
Z5
Z-3.49
G1 Z-4.125 F150
X-7.29 Y-89.347 Z-4.224
X-7.267 Y-89.353 Z-4.321
X-7.23 Y-89.362 Z-4.413
X-7.18 Y-89.375 Z-4.498
X-7.117 Y-89.391 Z-4.574
X-7.044 Y-89.41 Z-4.639
X-6.961 Y-89.431 Z-4.691
X-6.872 Y-89.454 Z-4.729
X-6.778 Y-89.478 Z-4.752
X-6.682 Y-89.503 Z-4.76
G3 X-3.225 Y-90 I4.023 J15.704
G1 X-3.111
X-2.847 Y-90.1
X-2.705 Y-90.15
X-2.56 Y-90.187
X-2.412 Y-90.211
X-2.263 Y-90.225
X-2.113 Y-90.228
X-1.963 Y-90.222
X-1.814 Y-90.206
X-1.666 Y-90.181
X-1.519 Y-90.149
X-1.375 Y-90.108
X-1.233 Y-90.06
X-1.093 Y-90.006
X-0.956 Y-89.945
X-0.822 Y-89.877
X-0.691 Y-89.804
X-0.564 Y-89.725
X-0.439 Y-89.641
X-0.318 Y-89.553
X-0.201 Y-89.459
X-0.087 Y-89.362
X0.023 Y-89.26
X0.13 Y-89.154
X0.233 Y-89.046
X0.333 Y-88.933
X0.429 Y-88.818
X0.521 Y-88.7
X0.61 Y-88.579
X0.695 Y-88.456
X0.777 Y-88.33
X0.856 Y-88.202
X0.931 Y-88.073
X1.003 Y-87.941
X1.072 Y-87.808
X1.138 Y-87.673
X1.201 Y-87.537
X1.262 Y-87.397
X1.322 Y-87.251
X1.381 Y-87.097
X1.44 Y-86.934
X1.499 Y-86.763
X1.557 Y-86.58
X1.614 Y-86.386
X1.67 Y-86.179
X1.726 Y-85.956
X1.781 Y-85.715
X1.835 Y-85.452
X1.889 Y-85.163
X1.941 Y-84.84
X1.993 Y-84.476
X2.044 Y-84.054
X2.094 Y-83.553
X2.143 Y-82.931
X2.191 Y-82.1
X2.225 Y-81.189
X2.245 Y-80.277
X2.257 Y-79.366
X2.265 Y-78.454
X2.269 Y-77.542
X2.271 Y-76.63
X2.274 Y-74.807
X2.275 Y-68.424
Y-42.893
Y-41.981
X2.106 Y-41.085
X2.003 Y-40.179
X1.939 Y-39.27
X1.898 Y-38.359
X1.872 Y-37.447
X1.856 Y-36.536
X1.845 Y-35.624
X1.838 Y-34.712
X1.833 Y-33.8
X1.83 Y-32.889
X1.827 Y-31.065
X1.825 Y-27.418
Y-2.571
X1.865 Y-2.464
X1.941 Y-2.379
X2.142 Y-2.272
X3.038 Y-2.104
X3.944 Y-2.002
X4.854 Y-1.938
X5.765 Y-1.898
X6.676 Y-1.872
X7.588 Y-1.855
X8.5 Y-1.845
X9.411 Y-1.838
X10.323 Y-1.833
X11.235 Y-1.83
X12.147 Y-1.828
X14.882 Y-1.826
X26.736 Y-1.825
X62.297
X112.446
X162.596
X212.746
X227.449
X227.555 Y-1.865
X227.641 Y-1.941
X227.748 Y-2.142
X227.908 Y-3.04
X228.005 Y-3.946
X228.066 Y-4.856
X228.105 Y-5.767
X228.13 Y-6.678
X228.146 Y-7.59
X228.156 Y-8.502
X228.163 Y-9.414
X228.167 Y-10.325
X228.172 Y-12.149
X228.174 Y-14.884
X228.175 Y-27.65
Y-37.68
Y-87.488
X228.135 Y-87.594
X228.059 Y-87.68
X227.858 Y-87.787
X226.958 Y-87.931
X226.05 Y-88.02
X225.14 Y-88.075
X224.229 Y-88.111
X223.318 Y-88.134
X222.406 Y-88.148
X221.494 Y-88.158
X220.582 Y-88.164
X219.67 Y-88.168
X217.847 Y-88.172
X215.111 Y-88.174
X199.611 Y-88.175
X177.727
X127.577
X77.428
X27.278
X26.366
X26.142 Y-88.133
X25.834 Y-88.08
X25.488 Y-88.028
X25.091 Y-87.976
X24.626 Y-87.926
X24.059 Y-87.877
X23.327 Y-87.828
X22.416 Y-87.787
X21.505 Y-87.762
X20.593 Y-87.747
X19.681 Y-87.738
X18.769 Y-87.733
X17.858 Y-87.729
X16.034 Y-87.727
X11.475 Y-87.725
X5.662
X5.556 Y-87.685
X5.47 Y-87.609
X5.417 Y-87.509
X5.402 Y-87.396
X5.429 Y-87.285
X6.023 Y-86.405
X6.104 Y-86.279
X6.182 Y-86.15
X6.256 Y-86.02
X6.328 Y-85.889
X6.397 Y-85.756
X6.466 Y-85.616
X6.534 Y-85.469
X6.603 Y-85.314
X6.671 Y-85.15
X6.736 Y-84.984
X6.801 Y-84.809
X6.865 Y-84.622
X6.929 Y-84.423
X6.994 Y-84.209
X7.057 Y-83.979
X7.118 Y-83.742
X7.178 Y-83.483
X7.238 Y-83.199
X7.297 Y-82.884
X7.354 Y-82.546
X7.41 Y-82.16
X7.466 Y-81.715
X7.52 Y-81.198
X7.573 Y-80.56
X7.625 Y-79.731
X7.663 Y-78.82
X7.687 Y-77.909
X7.702 Y-76.997
X7.711 Y-76.085
X7.716 Y-75.173
X7.72 Y-74.261
X7.723 Y-72.438
X7.725 Y-68.791
Y-59.672
Y-58.761
X7.556 Y-57.865
X7.453 Y-56.959
X7.389 Y-56.049
X7.348 Y-55.138
X7.322 Y-54.227
X7.306 Y-53.315
X7.295 Y-52.403
X7.288 Y-51.492
X7.283 Y-50.58
X7.28 Y-49.668
X7.277 Y-47.844
X7.275 Y-44.197
X7.268 Y-43.285
X7.211 Y-42.375
X7.133 Y-41.467
X7.06 Y-40.558
X7 Y-39.648
X6.953 Y-38.737
X6.917 Y-37.826
X6.89 Y-36.915
X6.871 Y-36.003
X6.857 Y-35.092
X6.848 Y-34.18
X6.841 Y-33.268
X6.836 Y-32.356
X6.832 Y-31.444
X6.829 Y-29.621
X6.826 Y-26.885
X6.825 Y-16.855
Y-9.561
Y-7.623
X6.865 Y-7.517
X6.941 Y-7.431
X7.343 Y-7.217
X8.244 Y-7.076
X9.152 Y-6.987
X10.062 Y-6.931
X10.973 Y-6.894
X11.884 Y-6.87
X12.796 Y-6.855
X13.708 Y-6.845
X14.619 Y-6.838
X15.531 Y-6.833
X17.355 Y-6.829
X20.09 Y-6.826
X31.032 Y-6.825
X54.739
X104.889
X155.039
X205.188
X222.399
X222.505 Y-6.865
X222.591 Y-6.941
X222.805 Y-7.343
X222.938 Y-8.245
X223.021 Y-9.153
X223.075 Y-10.064
X223.109 Y-10.975
X223.132 Y-11.886
X223.147 Y-12.798
X223.156 Y-13.71
X223.163 Y-14.621
X223.167 Y-15.533
X223.172 Y-17.357
X223.174 Y-20.092
X223.175 Y-31.946
Y-40.152
Y-82.324
X223.135 Y-82.43
X223.059 Y-82.516
X222.657 Y-82.73
X221.76 Y-82.892
X220.853 Y-82.993
X219.944 Y-83.057
X219.033 Y-83.098
X218.121 Y-83.125
X217.21 Y-83.142
X216.298 Y-83.154
X215.386 Y-83.161
X214.475 Y-83.166
X213.563 Y-83.169
X211.739 Y-83.172
X208.092 Y-83.175
X165.237
X115.087
X64.937
X28.465
X27.554 Y-83.128
X26.645 Y-83.061
X25.735 Y-82.992
X24.826 Y-82.93
X23.915 Y-82.878
X23.005 Y-82.836
X22.093 Y-82.804
X21.182 Y-82.781
X20.27 Y-82.764
X19.358 Y-82.751
X18.447 Y-82.743
X17.535 Y-82.737
X16.623 Y-82.733
X14.799 Y-82.729
X12.748 Y-82.727
X12.641 Y-82.686
X12.556 Y-82.611
X12.502 Y-82.51
X12.387 Y-81.606
X12.481 Y-80.699
X12.551 Y-79.79
X12.603 Y-78.879
X12.64 Y-77.968
X12.666 Y-77.057
X12.684 Y-76.145
X12.697 Y-75.233
X12.706 Y-74.322
X12.712 Y-73.41
X12.716 Y-72.498
X12.721 Y-70.674
X12.724 Y-67.939
Y-64.858
X12.722 Y-64.821
X12.585 Y-63.246
X12.577 Y-62.708
X12.575 Y-62.501
X12.576 Y-62.087
X12.579 Y-61.88
X12.585 Y-61.809
X12.636 Y-59.986
X12.6 Y-59.075
X12.482 Y-57.255
X12.431 Y-56.345
X12.39 Y-55.434
X12.358 Y-54.522
X12.335 Y-53.611
X12.317 Y-52.699
X12.305 Y-51.787
X12.296 Y-50.876
X12.29 Y-49.964
X12.285 Y-49.052
X12.28 Y-47.229
X12.276 Y-45.405
X12.265 Y-44.493
X12.237 Y-43.582
X12.193 Y-42.671
X12.139 Y-41.761
X12.084 Y-40.851
X12.032 Y-39.94
X11.987 Y-39.03
X11.95 Y-38.119
X11.92 Y-37.207
X11.896 Y-36.296
X11.878 Y-35.384
X11.864 Y-34.472
X11.853 Y-33.561
X11.846 Y-32.649
X11.84 Y-31.737
X11.836 Y-30.825
X11.83 Y-29.002
X11.827 Y-26.266
X11.825 Y-20.795
Y-12.703
X11.865 Y-12.596
X11.941 Y-12.511
X12.343 Y-12.297
X13.239 Y-12.125
X14.144 Y-12.018
X15.053 Y-11.95
X15.964 Y-11.907
X16.876 Y-11.879
X17.787 Y-11.86
X18.699 Y-11.848
X19.611 Y-11.84
X20.523 Y-11.835
X21.434 Y-11.832
X23.258 Y-11.828
X26.905 Y-11.826
X63.378 Y-11.825
X113.527
X163.677
X213.827
X217.36
X217.467 Y-11.865
X217.552 Y-11.941
X217.766 Y-12.343
X217.914 Y-13.243
X218.006 Y-14.15
X218.065 Y-15.06
X218.103 Y-15.971
X218.128 Y-16.883
X218.144 Y-17.794
X218.155 Y-18.706
X218.162 Y-19.618
X218.166 Y-20.53
X218.169 Y-21.441
X218.172 Y-23.265
X218.175 Y-26.912
Y-58.826
Y-77.29
X218.135 Y-77.397
X218.059 Y-77.482
X217.657 Y-77.696
X216.762 Y-77.871
X215.856 Y-77.979
X214.947 Y-78.048
X214.037 Y-78.092
X213.125 Y-78.12
X212.214 Y-78.139
X211.302 Y-78.151
X210.39 Y-78.16
X209.478 Y-78.165
X208.566 Y-78.168
X206.743 Y-78.172
X203.096 Y-78.174
X186.683 Y-78.175
X136.533
X86.383
X36.234
X30.763
X29.851 Y-78.168
X28.94 Y-78.142
X28.029 Y-78.101
X27.118 Y-78.051
X26.208 Y-78
X25.297 Y-77.95
X24.387 Y-77.905
X23.476 Y-77.867
X22.565 Y-77.834
X21.653 Y-77.808
X20.742 Y-77.787
X19.83 Y-77.771
X18.918 Y-77.76
X18.348 Y-77.754
X18.242 Y-77.713
X18.157 Y-77.636
X18.052 Y-77.434
X17.921 Y-76.532
X17.844 Y-75.623
X17.798 Y-74.713
X17.786 Y-74.349
X17.756 Y-74.174
X17.677 Y-74.016
X17.555 Y-73.886
X17.346 Y-73.686
X16.31 Y-72.65
X16.114 Y-72.443
X15.691 Y-71.915
X15.619 Y-71.822
X14.749 Y-70.579
X14.656 Y-70.441
X14.612 Y-70.372
X14.483 Y-70.165
X14.378 Y-69.958
X14.279 Y-69.75
X13.603 Y-68.301
X13.511 Y-68.093
X13.429 Y-67.886
X13.254 Y-67.265
X12.92 Y-66.022
X12.869 Y-65.815
X12.829 Y-65.608
G3 X12.729 Y-65.368 Z-4.707 I-0.623 J-0.12
G2 X12.63 Y-65.135 Z-4.656 I0.523 J0.36
G1 X12.579 Y-64.887 Z-4.606
X12.534 Y-64.665 Z-4.56
X12.202 Y-63.035
G2 X12.217 Y-62.725 I0.622 J0.127
G1 X12.24 Y-62.661 Z-4.574
X12.27 Y-62.6 Z-4.587
X12.306 Y-62.543 Z-4.601
X12.319 Y-62.523 Z-4.606
G3 X12.585 Y-61.809 Z-4.76 I-1.307 J0.893
G1 X12.628 Y-61.259
X12.736 Y-60.016
X12.76 Y-59.809
X12.824 Y-59.395
X12.864 Y-59.187
X13.253 Y-57.738
X13.365 Y-57.323
X13.413 Y-57.175
X13.512 Y-56.909
X13.602 Y-56.702
X14.242 Y-55.329
X14.279 Y-55.252
X14.496 Y-54.838
X14.605 Y-54.631
X14.893 Y-54.217
X15.473 Y-53.388
X15.958 Y-52.616
X16.359 Y-51.797
X16.65 Y-50.933
X16.855 Y-50.045
X16.997 Y-49.144
X17.092 Y-48.237
X17.155 Y-47.328
X17.194 Y-46.417
X17.212 Y-45.505
X17.21 Y-44.593
X17.193 Y-43.681
X17.162 Y-42.77
X17.124 Y-41.859
X17.041 Y-40.037
X17.002 Y-39.126
X16.981 Y-38.56
X16.955 Y-38.404
X16.892 Y-38.259
X16.795 Y-38.135
X16.308 Y-37.647
X16.104 Y-37.44
X15.932 Y-37.233
X15.623 Y-36.819
X15.473 Y-36.612
X14.863 Y-35.741
X14.605 Y-35.369
X14.387 Y-34.955
X14.279 Y-34.748
X14.242 Y-34.671
X13.602 Y-33.298
X13.512 Y-33.091
X13.413 Y-32.825
X13.365 Y-32.677
X13.142 Y-31.848
X12.864 Y-30.813
X12.824 Y-30.605
X12.76 Y-30.191
X12.736 Y-29.984
X12.628 Y-28.741
X12.579 Y-28.12
X12.576 Y-27.913
X12.575 Y-27.499
X12.577 Y-27.292
X12.585 Y-26.754
X12.755 Y-24.806
X12.792 Y-24.585
X12.869 Y-24.185
X12.92 Y-23.978
X13.254 Y-22.735
X13.429 Y-22.114
X13.511 Y-21.907
X13.603 Y-21.699
X14.279 Y-20.25
X14.378 Y-20.042
X14.483 Y-19.835
X14.612 Y-19.628
X14.656 Y-19.559
X14.749 Y-19.421
X15.619 Y-18.178
X15.691 Y-18.085
X16.114 Y-17.557
X16.313 Y-17.348
X17.348 Y-16.312
X17.555 Y-16.114
X18.084 Y-15.693
X18.177 Y-15.621
X19.419 Y-14.751
X19.557 Y-14.657
X19.627 Y-14.613
X19.834 Y-14.483
X20.041 Y-14.379
X20.248 Y-14.28
X21.698 Y-13.604
X21.905 Y-13.511
X22.112 Y-13.43
X22.526 Y-13.313
X22.733 Y-13.254
X23.976 Y-12.921
X24.183 Y-12.868
X24.597 Y-12.79
X24.804 Y-12.755
X26.74 Y-12.586
X26.875 Y-12.582
X27.29 Y-12.577
X27.497 Y-12.575
X202.503
X202.918 Y-12.579
X203.125 Y-12.582
X203.26 Y-12.586
X205.196 Y-12.755
X205.423 Y-12.793
X205.817 Y-12.868
X206.024 Y-12.921
X207.267 Y-13.254
X207.837 Y-13.415
X207.888 Y-13.43
X208.095 Y-13.511
X208.341 Y-13.622
X209.752 Y-14.28
X209.959 Y-14.379
X210.166 Y-14.483
X210.373 Y-14.613
X210.443 Y-14.657
X210.581 Y-14.751
X211.823 Y-15.621
X211.916 Y-15.693
X212.445 Y-16.114
X212.654 Y-16.314
X213.689 Y-17.35
X213.886 Y-17.557
X214.309 Y-18.085
X214.381 Y-18.178
X215.251 Y-19.421
X215.344 Y-19.569
X215.616 Y-20.042
X215.721 Y-20.25
X216.397 Y-21.699
X216.49 Y-21.907
X216.571 Y-22.114
X216.747 Y-22.735
X217.08 Y-23.978
X217.131 Y-24.185
X217.211 Y-24.599
X217.245 Y-24.806
X217.415 Y-26.755
X217.423 Y-27.292
X217.425 Y-27.499
X217.424 Y-27.913
X217.421 Y-28.12
X217.372 Y-28.741
X217.263 Y-29.984
X217.239 Y-30.191
X217.176 Y-30.605
X217.136 Y-30.813
X216.747 Y-32.262
X216.636 Y-32.677
X216.587 Y-32.826
X216.488 Y-33.091
X216.399 Y-33.298
X215.758 Y-34.671
X215.721 Y-34.748
X215.504 Y-35.162
X215.395 Y-35.369
X215.108 Y-35.783
X214.963 Y-35.99
X214.478 Y-36.763
X214.083 Y-37.585
X213.797 Y-38.45
X213.595 Y-39.339
X213.455 Y-40.241
X213.36 Y-41.147
X213.297 Y-42.057
X213.255 Y-42.968
X213.227 Y-43.879
X213.209 Y-44.791
X213.197 Y-45.703
X213.189 Y-46.614
X213.184 Y-47.526
X213.181 Y-48.438
X213.178 Y-50.262
X213.176 Y-51.574
X213.198 Y-51.738
X213.261 Y-51.891
X213.362 Y-52.023
X213.692 Y-52.353
X213.896 Y-52.56
X214.068 Y-52.767
X214.377 Y-53.181
X214.527 Y-53.388
X215.137 Y-54.259
X215.395 Y-54.631
X215.613 Y-55.045
X215.721 Y-55.252
X215.758 Y-55.329
X216.399 Y-56.702
X216.488 Y-56.909
X216.587 Y-57.174
X216.636 Y-57.323
X216.859 Y-58.152
X217.136 Y-59.187
X217.176 Y-59.395
X217.239 Y-59.809
X217.263 Y-60.016
X217.372 Y-61.259
X217.421 Y-61.88
X217.424 Y-62.087
X217.425 Y-62.501
X217.423 Y-62.708
X217.415 Y-63.245
X217.245 Y-65.194
X217.208 Y-65.414
X217.131 Y-65.815
X217.08 Y-66.022
X216.747 Y-67.265
X216.571 Y-67.886
X216.49 Y-68.093
X216.397 Y-68.301
X215.721 Y-69.75
X215.616 Y-69.958
X215.344 Y-70.431
X215.251 Y-70.579
X214.381 Y-71.822
X214.309 Y-71.915
X213.886 Y-72.443
X213.687 Y-72.652
X212.652 Y-73.688
X212.445 Y-73.886
X211.916 Y-74.307
X211.823 Y-74.379
X210.581 Y-75.249
X210.443 Y-75.343
X210.373 Y-75.387
X210.166 Y-75.517
X209.959 Y-75.621
X209.752 Y-75.72
X208.302 Y-76.396
X208.095 Y-76.489
X207.888 Y-76.57
X207.474 Y-76.687
X207.267 Y-76.746
X206.024 Y-77.079
X205.817 Y-77.132
X205.403 Y-77.21
X205.196 Y-77.245
X203.26 Y-77.414
X203.125 Y-77.418
X202.71 Y-77.423
X202.503 Y-77.425
X27.497
X27.082 Y-77.421
X26.875 Y-77.418
X26.74 Y-77.414
X24.804 Y-77.245
X24.577 Y-77.207
X24.183 Y-77.132
X23.976 Y-77.079
X22.733 Y-76.746
X22.163 Y-76.585
X22.112 Y-76.57
X21.905 Y-76.489
X21.659 Y-76.378
X20.248 Y-75.72
X20.041 Y-75.621
X19.834 Y-75.517
X19.627 Y-75.387
X19.557 Y-75.343
X19.419 Y-75.249
X18.177 Y-74.379
X18.084 Y-74.307
X17.555 Y-73.886
G3 X16.819 Y-73.872 I-0.378 J-0.51
G1 X16.737 Y-73.928 Z-4.752
X16.657 Y-73.982 Z-4.729
X16.581 Y-74.034 Z-4.691
X16.511 Y-74.082 Z-4.639
X16.448 Y-74.125 Z-4.574
X16.395 Y-74.161 Z-4.498
X16.352 Y-74.191 Z-4.413
X16.321 Y-74.212 Z-4.321
X16.301 Y-74.225 Z-4.224
X16.295 Y-74.23 Z-4.125
G0 Z5
X14.28 Y-54.14
Z-3.49
G1 Z-4.125 F150
X14.287 Y-54.136 Z-4.224
X14.309 Y-54.127 Z-4.321
X14.343 Y-54.111 Z-4.413
X14.391 Y-54.09 Z-4.498
X14.45 Y-54.063 Z-4.574
X14.519 Y-54.032 Z-4.639
X14.596 Y-53.997 Z-4.691
X14.68 Y-53.959 Z-4.729
X14.769 Y-53.919 Z-4.752
X14.859 Y-53.879 Z-4.76
G3 X15.473 Y-53.388 I-0.65 J1.443
G1 X15.623 Y-53.181
X15.932 Y-52.767
X16.106 Y-52.558
X16.313 Y-52.348
X17.348 Y-51.312
X17.56 Y-51.11
X18.073 Y-50.696
X18.177 Y-50.621
X19.419 Y-49.751
X20.051 Y-49.272
X20.648 Y-48.583
X21.109 Y-47.796
X21.449 Y-46.95
X21.69 Y-46.071
X21.851 Y-45.173
X21.952 Y-44.267
X22.007 Y-43.357
X22.031 Y-42.446
Y-41.948
X22.004 Y-41.768
X21.927 Y-41.603
X21.806 Y-41.467
X21.651 Y-41.37
X21.491 Y-41.3
X20.248 Y-40.72
X20.041 Y-40.622
X19.834 Y-40.516
X19.627 Y-40.388
X19.552 Y-40.34
X19.419 Y-40.249
X18.177 Y-39.379
X18.073 Y-39.304
X17.555 Y-38.887
X17.343 Y-38.683
X16.795 Y-38.135
G3 X15.898 Y-38.166 Z-4.56 I-0.433 J-0.464
X15.747 Y-38.757 I0.464 J-0.433
G1 X18.465 Y-49.371
X18.497 Y-49.466
X18.544 Y-49.554
G3 X19.419 Y-49.751 Z-4.76 I0.536 J0.34
G1 X19.552 Y-49.66
X19.627 Y-49.612
X19.834 Y-49.484
X20.041 Y-49.378
X20.32 Y-49.246
X21.491 Y-48.7
X21.698 Y-48.61
X22.112 Y-48.432
X22.154 Y-48.417
X22.733 Y-48.254
X22.94 Y-48.198
X23.706 Y-47.952
X24.39 Y-47.561
X25.072 Y-46.955
X25.617 Y-46.224
X26.036 Y-45.415
X26.347 Y-44.557
X26.562 Y-43.671
X26.634 Y-43.061
X26.625 Y-42.859
X26.553 Y-42.67
X26.425 Y-42.513
X26.254 Y-42.404
X26.058 Y-42.355
X24.804 Y-42.245
X24.597 Y-42.21
X24.183 Y-42.13
X23.976 Y-42.079
X22.733 Y-41.746
X22.526 Y-41.687
G3 X21.759 Y-42.153 Z-4.56 I-0.151 J-0.617
G1 X21.746 Y-42.22
X21.741 Y-42.287
X21.742 Y-42.355
X22.164 Y-47.63
X22.179 Y-47.723
G3 X22.94 Y-48.198 Z-4.76 I0.619 J0.143
G1 X23.976 Y-47.921
X24.183 Y-47.87
X24.597 Y-47.79
X24.804 Y-47.755
X26.709 Y-47.589
X26.875 Y-47.582
X27.467 Y-47.545
X28.149 Y-47.356
X28.87 Y-46.983
X29.577 Y-46.407
X30.153 Y-45.7
X30.587 Y-44.898
X30.865 Y-44.03
X30.979 Y-43.125
X30.973 Y-43.021
X30.932 Y-42.834
X30.838 Y-42.668
X30.699 Y-42.537
X30.528 Y-42.454
X30.339 Y-42.425
X27.497
X27.082 Y-42.421
X26.875 Y-42.418
X26.709 Y-42.411
X26.058 Y-42.355
G3 X25.391 Y-42.956 Z-4.56 I-0.033 J-0.634
G1 X25.392 Y-43.04
X25.405 Y-43.124
X26.237 Y-46.936
X26.269 Y-47.083 Z-4.59
G3 X26.875 Y-47.582 Z-4.76 I0.62 J0.135
G1 X27.29 Y-47.577
X27.497 Y-47.575
X31.225
X31.801 Y-47.546
X32.488 Y-47.365
X33.174 Y-47.022
X33.888 Y-46.454
X34.472 Y-45.754
X34.91 Y-44.955
X35.19 Y-44.087
X35.304 Y-43.182
X35.294 Y-43.022
X35.254 Y-42.835
X35.16 Y-42.669
X35.021 Y-42.538
X34.849 Y-42.454
X34.66 Y-42.425
X30.339
G3 X29.726 Y-43.081 Z-4.56 I0.022 J-0.635
G1 X29.731 Y-43.141
X29.742 Y-43.201
X30.591 Y-46.922
X30.628 Y-47.082 Z-4.593
G3 X31.225 Y-47.575 Z-4.76 I0.619 J0.141
G1 X35.574
X36.145 Y-47.546
X36.823 Y-47.368
X37.506 Y-47.026
X38.219 Y-46.459
X38.802 Y-45.757
X39.238 Y-44.956
X39.517 Y-44.088
X39.629 Y-43.184
X39.619 Y-43.022
X39.579 Y-42.835
X39.486 Y-42.668
X39.346 Y-42.537
X39.175 Y-42.454
X38.986 Y-42.425
X34.66
G3 X34.048 Y-43.081 Z-4.56 I0.022 J-0.635
G1 X34.053 Y-43.144
X34.064 Y-43.205
X34.939 Y-46.922
X34.978 Y-47.086 Z-4.594
G3 X35.574 Y-47.575 Z-4.76 I0.618 J0.146
G1 X39.923
X40.472 Y-47.548
X41.149 Y-47.369
X41.832 Y-47.027
X42.545 Y-46.46
X43.128 Y-45.759
X43.564 Y-44.958
X43.843 Y-44.09
X43.955 Y-43.185
X43.945 Y-43.022
X43.905 Y-42.835
X43.811 Y-42.668
X43.672 Y-42.537
X43.5 Y-42.454
X43.311 Y-42.425
X38.986
G3 X38.373 Y-43.081 Z-4.56 I0.022 J-0.635
G1 X38.379 Y-43.145
X38.391 Y-43.209
X39.288 Y-46.922
X39.328 Y-47.09 Z-4.595
G3 X39.923 Y-47.575 Z-4.76 I0.617 J0.149
G1 X44.065
X44.801 Y-47.538
X45.477 Y-47.36
X46.159 Y-47.019
X46.872 Y-46.451
X47.455 Y-45.75
X47.89 Y-44.949
X48.168 Y-44.08
X48.279 Y-43.175
X48.27 Y-43.021
X48.23 Y-42.834
X48.136 Y-42.668
X47.997 Y-42.537
X47.825 Y-42.454
X47.636 Y-42.425
X43.311
G3 X42.699 Y-43.081 Z-4.56 I0.022 J-0.635
G1 X42.71 Y-43.181
X43.437 Y-46.921
X43.464 Y-47.061 Z-4.589
G3 X44.065 Y-47.575 Z-4.76 I0.623 J0.121
G1 X48.415
X49.123 Y-47.54
X49.801 Y-47.361
X50.482 Y-47.02
X51.196 Y-46.452
X51.779 Y-45.751
X52.214 Y-44.95
X52.493 Y-44.082
X52.604 Y-43.177
X52.594 Y-43.021
X52.554 Y-42.834
X52.46 Y-42.668
X52.321 Y-42.537
X52.149 Y-42.454
X51.961 Y-42.425
X47.636
G3 X47.024 Y-43.081 Z-4.56 I0.022 J-0.635
G1 X47.028 Y-43.133
X47.036 Y-43.185
X47.785 Y-46.921
X47.814 Y-47.065 Z-4.59
G3 X48.415 Y-47.575 Z-4.76 I0.623 J0.125
G1 X52.764
X53.447 Y-47.541
X54.125 Y-47.363
X54.807 Y-47.021
X55.52 Y-46.454
X56.103 Y-45.752
X56.539 Y-44.951
X56.817 Y-44.083
X56.929 Y-43.178
X56.919 Y-43.021
X56.879 Y-42.835
X56.785 Y-42.668
X56.646 Y-42.537
X56.474 Y-42.454
X56.285 Y-42.425
X51.961
G3 X51.348 Y-43.081 Z-4.56 I0.022 J-0.635
G1 X51.352 Y-43.135
X51.361 Y-43.188
X52.134 Y-46.921
X52.164 Y-47.069 Z-4.59
G3 X52.764 Y-47.575 Z-4.76 I0.622 J0.129
G1 X57.113
X57.772 Y-47.542
X58.45 Y-47.364
X59.131 Y-47.022
X59.845 Y-46.455
X60.428 Y-45.753
X60.863 Y-44.952
X61.142 Y-44.084
X61.254 Y-43.179
X61.244 Y-43.021
X61.204 Y-42.835
X61.11 Y-42.668
X60.971 Y-42.537
X60.799 Y-42.454
X60.61 Y-42.425
X56.285
G3 X55.673 Y-43.081 Z-4.56 I0.022 J-0.635
G1 X55.677 Y-43.137
X55.686 Y-43.192
X56.482 Y-46.921
X56.514 Y-47.073 Z-4.591
G3 X57.113 Y-47.575 Z-4.76 I0.621 J0.132
G1 X61.462
X62.097 Y-47.543
X62.774 Y-47.365
X63.456 Y-47.023
X64.17 Y-46.456
X64.753 Y-45.755
X65.188 Y-44.954
X65.467 Y-44.085
X65.579 Y-43.181
X65.569 Y-43.021
X65.529 Y-42.835
X65.435 Y-42.668
X65.296 Y-42.537
X65.124 Y-42.454
X64.935 Y-42.425
X60.61
G3 X59.998 Y-43.081 Z-4.56 I0.022 J-0.635
G1 X60.002 Y-43.139
X60.012 Y-43.196
X60.83 Y-46.921
X60.864 Y-47.077 Z-4.592
G3 X61.462 Y-47.575 Z-4.76 I0.62 J0.136
G1 X65.812
X66.422 Y-47.544
X67.099 Y-47.366
X67.781 Y-47.025
X68.495 Y-46.457
X69.078 Y-45.756
X69.514 Y-44.955
X69.792 Y-44.087
X69.904 Y-43.182
X69.894 Y-43.022
X69.854 Y-42.835
X69.76 Y-42.668
X69.621 Y-42.537
X69.449 Y-42.454
X69.261 Y-42.425
X64.935
G3 X64.323 Y-43.081 Z-4.56 I0.022 J-0.635
G1 X64.328 Y-43.141
X64.338 Y-43.2
X65.179 Y-46.922
X65.215 Y-47.08 Z-4.593
G3 X65.812 Y-47.575 Z-4.76 I0.619 J0.14
G1 X70.161
X70.747 Y-47.546
X71.425 Y-47.367
X72.107 Y-47.026
X72.82 Y-46.458
X73.403 Y-45.757
X73.839 Y-44.956
X74.118 Y-44.088
X74.23 Y-43.183
X74.22 Y-43.022
X74.18 Y-42.835
X74.086 Y-42.668
X73.947 Y-42.537
X73.775 Y-42.454
X73.586 Y-42.425
X69.261
G3 X68.648 Y-43.081 Z-4.56 I0.022 J-0.635
G1 X68.653 Y-43.143
X68.664 Y-43.203
X69.527 Y-46.922
X69.565 Y-47.084 Z-4.593
G3 X70.161 Y-47.575 Z-4.76 I0.619 J0.144
G1 X74.51
X75.072 Y-47.547
X75.75 Y-47.369
X76.432 Y-47.027
X77.146 Y-46.459
X77.729 Y-45.758
X78.164 Y-44.957
X78.443 Y-44.089
X78.556 Y-43.184
X78.546 Y-43.022
X78.506 Y-42.835
X78.412 Y-42.668
X78.273 Y-42.537
X78.101 Y-42.454
X77.912 Y-42.425
X73.586
G3 X72.974 Y-43.081 Z-4.56 I0.022 J-0.635
G1 X72.979 Y-43.144
X72.991 Y-43.207
X73.875 Y-46.922
X73.915 Y-47.087 Z-4.594
G3 X74.51 Y-47.575 Z-4.76 I0.618 J0.147
G1 X78.652
X79.401 Y-47.538
X80.077 Y-47.36
X80.759 Y-47.018
X81.473 Y-46.451
X82.055 Y-45.749
X82.491 Y-44.948
X82.769 Y-44.08
X82.88 Y-43.175
X82.87 Y-43.021
X82.83 Y-42.834
X82.736 Y-42.668
X82.597 Y-42.537
X82.425 Y-42.454
X82.236 Y-42.425
X77.912
G3 X77.299 Y-43.081 Z-4.56 I0.022 J-0.635
G1 X77.31 Y-43.179
X78.024 Y-46.921
X78.051 Y-47.059 Z-4.588
G3 X78.652 Y-47.575 Z-4.76 I0.624 J0.119
G1 X83.002
X83.723 Y-47.539
X84.401 Y-47.361
X85.083 Y-47.019
X85.796 Y-46.452
X86.379 Y-45.75
X86.814 Y-44.949
X87.093 Y-44.081
X87.204 Y-43.176
X87.195 Y-43.021
X87.154 Y-42.834
X87.06 Y-42.668
X86.921 Y-42.537
X86.75 Y-42.454
X86.561 Y-42.425
X82.236
G3 X81.624 Y-43.081 Z-4.56 I0.022 J-0.635
G1 X81.628 Y-43.132
X81.636 Y-43.182
X82.373 Y-46.921
X82.401 Y-47.063 Z-4.589
G3 X83.002 Y-47.575 Z-4.76 I0.623 J0.123
G1 X87.351
X88.048 Y-47.54
X88.725 Y-47.362
X89.407 Y-47.02
X90.121 Y-46.453
X90.703 Y-45.752
X91.139 Y-44.951
X91.417 Y-44.082
X91.529 Y-43.177
X91.519 Y-43.021
X91.479 Y-42.834
X91.385 Y-42.668
X91.246 Y-42.537
X91.074 Y-42.454
X90.885 Y-42.425
X86.561
G3 X85.948 Y-43.081 Z-4.56 I0.022 J-0.635
G1 X85.952 Y-43.134
X85.961 Y-43.186
X86.721 Y-46.921
X86.751 Y-47.067 Z-4.59
G3 X87.351 Y-47.575 Z-4.76 I0.622 J0.127
G1 X91.7
X92.372 Y-47.541
X93.05 Y-47.363
X93.731 Y-47.022
X94.445 Y-46.454
X95.028 Y-45.753
X95.463 Y-44.952
X95.742 Y-44.084
X95.854 Y-43.179
X95.844 Y-43.021
X95.804 Y-42.835
X95.71 Y-42.668
X95.571 Y-42.537
X95.399 Y-42.454
X95.21 Y-42.425
X90.885
G3 X90.273 Y-43.081 Z-4.56 I0.022 J-0.635
G1 X90.277 Y-43.136
X90.286 Y-43.19
X91.07 Y-46.921
X91.101 Y-47.071 Z-4.591
G3 X91.7 Y-47.575 Z-4.76 I0.621 J0.131
G1 X96.05
X96.697 Y-47.543
X97.374 Y-47.364
X98.056 Y-47.023
X98.77 Y-46.455
X99.353 Y-45.754
X99.788 Y-44.953
X100.067 Y-44.085
X100.179 Y-43.18
X100.169 Y-43.021
X100.129 Y-42.835
X100.035 Y-42.668
X99.896 Y-42.537
X99.724 Y-42.454
X99.535 Y-42.425
X95.21
G3 X94.598 Y-43.081 Z-4.56 I0.022 J-0.635
G1 X94.602 Y-43.138
X94.612 Y-43.194
X95.418 Y-46.921
X95.451 Y-47.075 Z-4.591
G3 X96.05 Y-47.575 Z-4.76 I0.621 J0.134
G1 X100.399
X101.022 Y-47.544
X101.699 Y-47.366
X102.381 Y-47.024
X103.095 Y-46.456
X103.678 Y-45.755
X104.113 Y-44.954
X104.392 Y-44.086
X104.504 Y-43.181
X104.494 Y-43.022
X104.454 Y-42.835
X104.36 Y-42.668
X104.221 Y-42.537
X104.049 Y-42.454
X103.86 Y-42.425
X99.535
G3 X98.923 Y-43.081 Z-4.56 I0.022 J-0.635
G1 X98.927 Y-43.14
X98.937 Y-43.198
X99.766 Y-46.921
X99.801 Y-47.078 Z-4.592
G3 X100.399 Y-47.575 Z-4.76 I0.62 J0.138
G1 X104.748
X105.347 Y-47.545
X106.024 Y-47.367
X106.706 Y-47.025
X107.42 Y-46.458
X108.003 Y-45.756
X108.439 Y-44.955
X108.717 Y-44.087
X108.829 Y-43.182
X108.82 Y-43.022
X108.779 Y-42.835
X108.686 Y-42.668
X108.546 Y-42.537
X108.375 Y-42.454
X108.186 Y-42.425
X103.86
G3 X103.248 Y-43.081 Z-4.56 I0.022 J-0.635
G1 X103.253 Y-43.142
X103.263 Y-43.201
X104.115 Y-46.922
X104.151 Y-47.082 Z-4.593
G3 X104.748 Y-47.575 Z-4.76 I0.619 J0.142
G1 X109.097
X109.672 Y-47.546
X110.35 Y-47.368
X111.032 Y-47.026
X111.746 Y-46.459
X112.328 Y-45.758
X112.764 Y-44.957
X113.043 Y-44.088
X113.155 Y-43.184
X113.145 Y-43.022
X113.105 Y-42.835
X113.011 Y-42.668
X112.872 Y-42.537
X112.7 Y-42.454
X112.511 Y-42.425
X108.186
G3 X107.573 Y-43.081 Z-4.56 I0.022 J-0.635
G1 X107.578 Y-43.143
X107.59 Y-43.205
X108.463 Y-46.922
X108.501 Y-47.086 Z-4.594
G3 X109.097 Y-47.575 Z-4.76 I0.618 J0.145
G1 X113.447
X113.998 Y-47.547
X114.675 Y-47.369
X115.357 Y-47.027
X116.071 Y-46.46
X116.654 Y-45.759
X117.09 Y-44.958
X117.369 Y-44.09
X117.481 Y-43.185
X117.471 Y-43.022
X117.431 Y-42.835
X117.337 Y-42.668
X117.198 Y-42.537
X117.026 Y-42.454
X116.837 Y-42.425
X112.511
G3 X111.899 Y-43.081 Z-4.56 I0.022 J-0.635
G1 X111.904 Y-43.145
X111.916 Y-43.208
X112.811 Y-46.922
X112.852 Y-47.089 Z-4.594
G3 X113.447 Y-47.575 Z-4.76 I0.617 J0.149
G1 X117.589
X118.327 Y-47.538
X119.003 Y-47.36
X119.685 Y-47.019
X120.398 Y-46.451
X120.981 Y-45.75
X121.416 Y-44.949
X121.694 Y-44.08
X121.805 Y-43.175
X121.796 Y-43.021
X121.755 Y-42.834
X121.661 Y-42.668
X121.522 Y-42.537
X121.351 Y-42.454
X121.162 Y-42.425
X116.837
G3 X116.225 Y-43.081 Z-4.56 I0.022 J-0.635
G1 X116.236 Y-43.18
X116.96 Y-46.921
X116.988 Y-47.061 Z-4.589
G3 X117.589 Y-47.575 Z-4.76 I0.623 J0.121
G1 X121.938
X122.649 Y-47.539
X123.327 Y-47.361
X124.008 Y-47.02
X124.722 Y-46.452
X125.304 Y-45.751
X125.74 Y-44.95
X126.018 Y-44.082
X126.13 Y-43.177
X126.12 Y-43.021
X126.08 Y-42.834
X125.986 Y-42.668
X125.847 Y-42.537
X125.675 Y-42.454
X125.486 Y-42.425
X121.162
G3 X120.549 Y-43.081 Z-4.56 I0.022 J-0.635
G1 X120.553 Y-43.133
X120.561 Y-43.184
X121.309 Y-46.921
X121.338 Y-47.065 Z-4.589
G3 X121.938 Y-47.575 Z-4.76 I0.623 J0.125
G1 X126.287
X126.973 Y-47.541
X127.651 Y-47.362
X128.332 Y-47.021
X129.046 Y-46.453
X129.629 Y-45.752
X130.064 Y-44.951
X130.343 Y-44.083
X130.454 Y-43.178
X130.445 Y-43.021
X130.405 Y-42.835
X130.311 Y-42.668
X130.172 Y-42.537
X130 Y-42.454
X129.811 Y-42.425
X125.486
G3 X124.874 Y-43.081 Z-4.56 I0.022 J-0.635
G1 X124.878 Y-43.135
X124.887 Y-43.188
X125.657 Y-46.921
X125.688 Y-47.069 Z-4.59
G3 X126.287 Y-47.575 Z-4.76 I0.622 J0.128
G1 X130.637
X131.298 Y-47.542
X131.975 Y-47.364
X132.657 Y-47.022
X133.371 Y-46.455
X133.953 Y-45.753
X134.389 Y-44.952
X134.668 Y-44.084
X134.779 Y-43.179
X134.77 Y-43.021
X134.729 Y-42.835
X134.636 Y-42.668
X134.496 Y-42.537
X134.325 Y-42.454
X134.136 Y-42.425
X129.811
G3 X129.198 Y-43.081 Z-4.56 I0.022 J-0.635
G1 X129.203 Y-43.137
X129.212 Y-43.192
X130.006 Y-46.921
X130.038 Y-47.073 Z-4.591
G3 X130.637 Y-47.575 Z-4.76 I0.621 J0.132
G1 X134.986
X135.622 Y-47.543
X136.3 Y-47.365
X136.982 Y-47.023
X137.696 Y-46.456
X138.278 Y-45.754
X138.714 Y-44.954
X138.993 Y-44.085
X139.104 Y-43.18
X139.095 Y-43.021
X139.055 Y-42.835
X138.961 Y-42.668
X138.822 Y-42.537
X138.65 Y-42.454
X138.461 Y-42.425
X134.136
G3 X133.523 Y-43.081 Z-4.56 I0.022 J-0.635
G1 X133.528 Y-43.139
X133.538 Y-43.195
X134.354 Y-46.921
X134.388 Y-47.076 Z-4.592
G3 X134.986 Y-47.575 Z-4.76 I0.62 J0.136
G1 X139.335
X139.947 Y-47.544
X140.625 Y-47.366
X141.307 Y-47.024
X142.021 Y-46.457
X142.603 Y-45.756
X143.039 Y-44.955
X143.318 Y-44.087
X143.43 Y-43.182
X143.42 Y-43.022
X143.38 Y-42.835
X143.286 Y-42.668
X143.147 Y-42.537
X142.975 Y-42.454
X142.786 Y-42.425
X138.461
G3 X137.848 Y-43.081 Z-4.56 I0.022 J-0.635
G1 X137.853 Y-43.141
X137.864 Y-43.199
X138.702 Y-46.922
X138.738 Y-47.08 Z-4.593
G3 X139.335 Y-47.575 Z-4.76 I0.619 J0.14
G1 X143.685
X144.273 Y-47.546
X144.95 Y-47.367
X145.632 Y-47.026
X146.346 Y-46.458
X146.929 Y-45.757
X147.365 Y-44.956
X147.643 Y-44.088
X147.755 Y-43.183
X147.746 Y-43.022
X147.706 Y-42.835
X147.612 Y-42.668
X147.472 Y-42.537
X147.301 Y-42.454
X147.112 Y-42.425
X142.786
G3 X142.174 Y-43.081 Z-4.56 I0.022 J-0.635
G1 X142.179 Y-43.142
X142.19 Y-43.203
X143.051 Y-46.922
X143.088 Y-47.084 Z-4.593
G3 X143.685 Y-47.575 Z-4.76 I0.619 J0.143
G1 X148.034
X148.598 Y-47.547
X149.276 Y-47.368
X149.958 Y-47.027
X150.672 Y-46.459
X151.254 Y-45.758
X151.69 Y-44.957
X151.969 Y-44.089
X152.081 Y-43.184
X152.071 Y-43.022
X152.031 Y-42.835
X151.937 Y-42.668
X151.798 Y-42.537
X151.626 Y-42.454
X151.437 Y-42.425
X147.112
G3 X146.499 Y-43.081 Z-4.56 I0.022 J-0.635
G1 X146.505 Y-43.144
X146.516 Y-43.206
X147.399 Y-46.922
X147.438 Y-47.087 Z-4.594
G3 X148.034 Y-47.575 Z-4.76 I0.618 J0.147
G1 X152.176
X152.927 Y-47.537
X153.603 Y-47.36
X154.285 Y-47.018
X154.998 Y-46.451
X155.581 Y-45.749
X156.016 Y-44.948
X156.294 Y-44.08
X156.405 Y-43.174
X156.396 Y-43.021
X156.355 Y-42.834
X156.262 Y-42.668
X156.122 Y-42.537
X155.951 Y-42.454
X155.762 Y-42.425
X151.437
G3 X150.825 Y-43.081 Z-4.56 I0.022 J-0.635
G1 X150.836 Y-43.178
X151.548 Y-46.921
X151.574 Y-47.059 Z-4.588
G3 X152.176 Y-47.575 Z-4.76 I0.624 J0.119
G1 X156.525
X157.249 Y-47.539
X157.927 Y-47.36
X158.608 Y-47.019
X159.322 Y-46.452
X159.905 Y-45.75
X160.34 Y-44.949
X160.618 Y-44.081
X160.73 Y-43.176
X160.72 Y-43.021
X160.68 Y-42.834
X160.586 Y-42.668
X160.447 Y-42.537
X160.275 Y-42.454
X160.086 Y-42.425
X155.762
G3 X155.15 Y-43.081 Z-4.56 I0.022 J-0.635
G1 X155.153 Y-43.132
X155.161 Y-43.182
X155.896 Y-46.921
X155.924 Y-47.063 Z-4.589
G3 X156.525 Y-47.575 Z-4.76 I0.623 J0.123
G1 X160.875
X161.573 Y-47.54
X162.251 Y-47.362
X162.932 Y-47.02
X163.646 Y-46.453
X164.229 Y-45.751
X164.664 Y-44.95
X164.943 Y-44.082
X165.054 Y-43.177
X165.045 Y-43.021
X165.004 Y-42.834
X164.911 Y-42.668
X164.771 Y-42.537
X164.6 Y-42.454
X164.411 Y-42.425
X160.086
G3 X159.474 Y-43.081 Z-4.56 I0.022 J-0.635
G1 X159.478 Y-43.134
X159.486 Y-43.186
X160.245 Y-46.921
X160.274 Y-47.067 Z-4.59
G3 X160.875 Y-47.575 Z-4.76 I0.622 J0.126
G1 X165.224
X165.898 Y-47.541
X166.575 Y-47.363
X167.257 Y-47.021
X167.971 Y-46.454
X168.553 Y-45.753
X168.989 Y-44.952
X169.268 Y-44.083
X169.379 Y-43.178
X169.369 Y-43.021
X169.329 Y-42.835
X169.235 Y-42.668
X169.096 Y-42.537
X168.924 Y-42.454
X168.736 Y-42.425
X164.411
G3 X163.798 Y-43.081 Z-4.56 I0.022 J-0.635
G1 X163.803 Y-43.136
X163.812 Y-43.19
X164.593 Y-46.921
X164.624 Y-47.071 Z-4.591
G3 X165.224 Y-47.575 Z-4.76 I0.622 J0.13
G1 X169.573
X170.222 Y-47.542
X170.9 Y-47.364
X171.582 Y-47.023
X172.295 Y-46.455
X172.878 Y-45.754
X173.314 Y-44.953
X173.592 Y-44.085
X173.704 Y-43.18
X173.694 Y-43.021
X173.654 Y-42.835
X173.56 Y-42.668
X173.421 Y-42.537
X173.249 Y-42.454
X173.061 Y-42.425
X168.736
G3 X168.123 Y-43.081 Z-4.56 I0.022 J-0.635
G1 X168.128 Y-43.138
X168.137 Y-43.194
X168.941 Y-46.921
X168.975 Y-47.074 Z-4.591
X168.993 Y-47.142 Z-4.606
G3 X169.573 Y-47.575 Z-4.76 I0.602 J0.202
G1 X173.922
X174.547 Y-47.544
X175.225 Y-47.365
X175.907 Y-47.024
X176.62 Y-46.456
X177.203 Y-45.755
X177.639 Y-44.954
X177.918 Y-44.086
X178.029 Y-43.181
X178.02 Y-43.022
X177.979 Y-42.835
X177.886 Y-42.668
X177.746 Y-42.537
X177.575 Y-42.454
X177.386 Y-42.425
X173.061
G3 X172.448 Y-43.081 Z-4.56 I0.022 J-0.635
G1 X172.453 Y-43.14
X172.463 Y-43.197
X173.29 Y-46.921
X173.325 Y-47.078 Z-4.592
G3 X173.922 Y-47.575 Z-4.76 I0.62 J0.138
G1 X178.272
X178.872 Y-47.545
X179.55 Y-47.367
X180.232 Y-47.025
X180.946 Y-46.458
X181.528 Y-45.756
X181.964 Y-44.955
X182.243 Y-44.087
X182.355 Y-43.182
X182.345 Y-43.022
X182.305 Y-42.835
X182.211 Y-42.668
X182.072 Y-42.537
X181.9 Y-42.454
X181.711 Y-42.425
X177.386
G3 X176.773 Y-43.081 Z-4.56 I0.022 J-0.635
G1 X176.778 Y-43.141
X176.789 Y-43.201
X177.638 Y-46.922
X177.675 Y-47.082 Z-4.593
G3 X178.272 Y-47.575 Z-4.76 I0.619 J0.141
G1 X182.621
X183.198 Y-47.546
X183.875 Y-47.368
X184.557 Y-47.026
X185.271 Y-46.459
X185.854 Y-45.757
X186.29 Y-44.956
X186.568 Y-44.088
X186.68 Y-43.183
X186.671 Y-43.022
X186.631 Y-42.835
X186.537 Y-42.668
X186.398 Y-42.537
X186.226 Y-42.454
X186.037 Y-42.425
X181.711
G3 X181.099 Y-43.081 Z-4.56 I0.022 J-0.635
G1 X181.104 Y-43.143
X181.115 Y-43.205
X181.987 Y-46.922
X182.025 Y-47.085 Z-4.594
G3 X182.621 Y-47.575 Z-4.76 I0.618 J0.145
G1 X186.97
X187.523 Y-47.547
X188.201 Y-47.369
X188.883 Y-47.027
X189.597 Y-46.46
X190.179 Y-45.759
X190.615 Y-44.958
X190.894 Y-44.09
X191.006 Y-43.185
X190.997 Y-43.022
X190.956 Y-42.835
X190.863 Y-42.668
X190.723 Y-42.537
X190.552 Y-42.454
X190.363 Y-42.425
X186.037
G3 X185.424 Y-43.081 Z-4.56 I0.022 J-0.635
G1 X185.43 Y-43.145
X185.442 Y-43.208
X186.335 Y-46.922
X186.375 Y-47.089 Z-4.594
X186.39 Y-47.142 Z-4.606
G3 X186.97 Y-47.575 Z-4.76 I0.602 J0.202
G1 X191.112
X191.852 Y-47.538
X192.528 Y-47.36
X193.21 Y-47.019
X193.924 Y-46.451
X194.506 Y-45.75
X194.941 Y-44.948
X195.22 Y-44.08
X195.331 Y-43.175
X195.321 Y-43.021
X195.281 Y-42.834
X195.187 Y-42.668
X195.048 Y-42.537
X194.876 Y-42.454
X194.687 Y-42.425
X190.363
G3 X189.75 Y-43.081 Z-4.56 I0.022 J-0.635
G1 X189.761 Y-43.18
X190.484 Y-46.921
X190.511 Y-47.061 Z-4.589
G3 X191.112 Y-47.575 Z-4.76 I0.623 J0.12
G1 X195.462
X196.174 Y-47.539
X196.852 Y-47.361
X197.533 Y-47.02
X198.247 Y-46.452
X198.83 Y-45.751
X199.265 Y-44.95
X199.544 Y-44.082
X199.655 Y-43.176
X199.646 Y-43.021
X199.605 Y-42.834
X199.511 Y-42.668
X199.372 Y-42.537
X199.201 Y-42.454
X199.012 Y-42.425
X194.687
G3 X194.075 Y-43.081 Z-4.56 I0.022 J-0.635
G1 X194.079 Y-43.133
X194.087 Y-43.184
X194.832 Y-46.921
X194.861 Y-47.065 Z-4.589
G3 X195.462 Y-47.575 Z-4.76 I0.623 J0.124
G1 X199.811
X200.498 Y-47.541
X201.176 Y-47.362
X201.858 Y-47.021
X202.572 Y-46.453
X203.154 Y-45.752
X203.59 Y-44.951
X203.868 Y-44.083
X203.98 Y-43.178
X203.969 Y-42.996
X203.925 Y-42.802
X203.823 Y-42.631
X203.673 Y-42.502
X203.489 Y-42.426
X203.291 Y-42.411
X203.125 Y-42.418
X202.71 Y-42.423
X202.503 Y-42.425
X199.012
G3 X198.399 Y-43.081 Z-4.56 I0.022 J-0.635
G1 X198.403 Y-43.135
X198.412 Y-43.188
X199.181 Y-46.921
X199.211 Y-47.068 Z-4.59
X199.231 Y-47.142 Z-4.606
G3 X199.811 Y-47.575 Z-4.76 I0.602 J0.202
G1 X202.503
X202.918 Y-47.579
X203.125 Y-47.582
X203.291 Y-47.589
X203.953 Y-47.646
X204.519 Y-47.667
X204.669 Y-47.67
X204.819 Y-47.665
X204.968 Y-47.652
X205.117 Y-47.633
X205.265 Y-47.607
X205.411 Y-47.575
X205.556 Y-47.536
X205.699 Y-47.491
X205.84 Y-47.439
X205.979 Y-47.382
X206.115 Y-47.319
X206.248 Y-47.25
X206.379 Y-47.176
X206.506 Y-47.098
X206.631 Y-47.014
X206.753 Y-46.926
X206.871 Y-46.834
X206.986 Y-46.738
X207.098 Y-46.639
X207.207 Y-46.535
X207.313 Y-46.429
X207.415 Y-46.319
X207.514 Y-46.206
X207.608 Y-46.09
X207.7 Y-45.971
X207.787 Y-45.849
X207.871 Y-45.724
X207.95 Y-45.597
X208.026 Y-45.468
X208.098 Y-45.336
X208.166 Y-45.202
X208.23 Y-45.067
X208.29 Y-44.929
X208.346 Y-44.79
X208.398 Y-44.649
X208.445 Y-44.507
X208.489 Y-44.363
X208.528 Y-44.219
X208.564 Y-44.073
X208.594 Y-43.926
X208.621 Y-43.778
X208.643 Y-43.63
X208.661 Y-43.481
X208.674 Y-43.332
X208.683 Y-43.182
X208.688 Y-43.032
X208.689 Y-42.882
X208.685 Y-42.732
X208.677 Y-42.582
X208.665 Y-42.433
X208.648 Y-42.284
X208.627 Y-42.135
X208.62 Y-42.094
X208.551 Y-41.894
X208.419 Y-41.728
X208.24 Y-41.615
X208.033 Y-41.567
X207.822 Y-41.589
X207.267 Y-41.746
X206.024 Y-42.079
X205.817 Y-42.13
X205.403 Y-42.21
X205.196 Y-42.245
X203.291 Y-42.411
G3 X202.737 Y-43.118 Z-4.56 I0.077 J-0.63
G1 X202.741 Y-43.146
X203.374 Y-46.941
X203.404 Y-47.12 Z-4.597
G3 X203.953 Y-47.646 Z-4.76 I0.626 J0.104
G1 X205.196 Y-47.755
X205.403 Y-47.79
X205.817 Y-47.87
X206.024 Y-47.921
X207.267 Y-48.254
X207.846 Y-48.417
X207.888 Y-48.431
X208.337 Y-48.625
X208.509 Y-48.7
X209.752 Y-49.28
X209.959 Y-49.378
X210.166 Y-49.484
X210.373 Y-49.612
X210.448 Y-49.66
X210.581 Y-49.751
X211.823 Y-50.621
X211.927 Y-50.696
X212.445 Y-51.114
X212.656 Y-51.317
X213.362 Y-52.023
G3 X214.26 Y-51.992 Z-4.56 I0.433 J0.464
X214.427 Y-51.628 I-0.464 J0.433
G1 X216.101 Y-36.442
G3 X215.851 Y-35.865 I-0.631 J0.07
X214.963 Y-35.99 Z-4.76 I-0.382 J-0.507
G1 X214.516 Y-36.629
X214.377 Y-36.819
X214.068 Y-37.233
X213.894 Y-37.442
X213.687 Y-37.652
X212.652 Y-38.688
X212.44 Y-38.89
X211.927 Y-39.304
X211.823 Y-39.379
X210.581 Y-40.249
X210.448 Y-40.34
X210.373 Y-40.388
X210.166 Y-40.516
X209.959 Y-40.622
X209.68 Y-40.754
X208.509 Y-41.3
X208.302 Y-41.39
X207.888 Y-41.569
X207.846 Y-41.583
X207.822 Y-41.589
G3 X207.381 Y-42.179 I0.193 J-0.605
G1 X207.378 Y-42.278 Z-4.752
X207.376 Y-42.375 Z-4.729
X207.374 Y-42.467 Z-4.691
X207.372 Y-42.552 Z-4.639
X207.37 Y-42.627 Z-4.574
X207.368 Y-42.692 Z-4.498
X207.367 Y-42.744 Z-4.413
X207.366 Y-42.782 Z-4.321
X207.365 Y-42.806 Z-4.224
Y-42.813 Z-4.125
G0 Z15
G28 G91 Z0
G90
G28 G91 X0 Y0
G90
M5
M30
