(1001)
(T39  D=6.35 CR=0 - ZMIN=-4.76 - flat end mill)
G90 G94
G17
G21
G28 G91 Z0
G90

(2D Adaptive2)
T39
S18000 M3
G54
G0 X-0.611 Y13.957
Z15
Z5
Z-3.49
G1 Z-4.125 F250
X-0.609 Y13.964 Z-4.224
X-0.603 Y13.987 Z-4.321
X-0.594 Y14.024 Z-4.413
X-0.581 Y14.074 Z-4.498
X-0.565 Y14.137 Z-4.574
X-0.546 Y14.21 Z-4.639
X-0.525 Y14.293 Z-4.691
X-0.502 Y14.382 Z-4.729
X-0.478 Y14.476 Z-4.752
X-0.453 Y14.572 Z-4.76
G3 X0.044 Y18.029 I-15.704 J4.023
G1 Y18.143
X0.084 Y18.25
X0.687 Y18.934
X1.157 Y19.227
X1.641 Y19.692
X2.1 Y20.365
X2.447 Y21.208
X2.633 Y22.101
X2.7 Y23.01
X2.689 Y23.922
X2.621 Y24.831
X2.513 Y25.736
X2.391 Y26.64
X2.278 Y27.545
X2.171 Y28.45
X2.069 Y29.356
X1.997 Y30.265
X1.951 Y31.176
X1.922 Y32.087
X1.914 Y32.999
X1.945 Y33.91
X1.999 Y34.821
X2.068 Y35.73
X2.177 Y36.635
X2.316 Y37.536
X2.474 Y38.434
X2.656 Y39.328
X2.877 Y40.212
X3.119 Y41.091
X3.376 Y41.966
X3.674 Y42.828
X4 Y43.68
X4.342 Y44.525
X4.71 Y45.359
X5.111 Y46.178
X5.533 Y46.986
X5.967 Y47.788
X6.441 Y48.567
X6.938 Y49.331
X7.45 Y50.086
X7.987 Y50.823
X8.552 Y51.539
X9.134 Y52.241
X9.727 Y52.933
X10.34 Y53.608
X10.964 Y54.273
X11.596 Y54.93
X12.233 Y55.583
X12.872 Y56.233
X13.513 Y56.881
X14.156 Y57.528
X15.443 Y58.82
X18.02 Y61.401
X18.665 Y62.046
X27.047 Y70.428
X27.685 Y71.078
X28.314 Y71.739
X28.935 Y72.407
X29.551 Y73.078
X30.147 Y73.769
X30.721 Y74.477
X31.279 Y75.198
X31.827 Y75.927
X32.346 Y76.677
X32.839 Y77.444
X33.315 Y78.221
X33.779 Y79.006
X34.209 Y79.811
X34.612 Y80.628
X34.997 Y81.455
X35.369 Y82.288
X35.702 Y83.136
X36.009 Y83.995
X36.298 Y84.86
X36.57 Y85.73
X36.804 Y86.611
X37.01 Y87.499
X37.199 Y88.391
X37.368 Y89.287
X37.499 Y90.19
X37.603 Y91.096
X37.69 Y92.003
X37.758 Y92.913
X37.804 Y93.823
X37.834 Y94.735
X37.854 Y95.646
X37.867 Y96.558
X37.875 Y97.47
X37.881 Y98.382
X37.884 Y99.293
X37.888 Y101.117
X37.89 Y104.764
X37.891 Y105.676
Y121.177
X37.876 Y122.089
X37.848 Y123
X37.813 Y123.911
X37.769 Y124.822
X37.689 Y125.73
X37.585 Y126.636
X37.464 Y127.54
X37.326 Y128.441
X37.15 Y129.336
X36.948 Y130.225
X36.729 Y131.11
X36.488 Y131.989
X36.212 Y132.858
X35.911 Y133.719
X35.593 Y134.574
X35.253 Y135.42
X34.879 Y136.251
X34.482 Y137.072
X34.07 Y137.885
X33.633 Y138.686
X33.166 Y139.469
X32.678 Y140.239
X32.177 Y141.001
X31.65 Y141.745
X31.096 Y142.469
X30.523 Y143.179
X29.938 Y143.879
X29.337 Y144.564
X28.721 Y145.236
X28.094 Y145.898
X27.462 Y146.555
X26.825 Y147.207
X26.185 Y147.857
X25.544 Y148.505
X24.901 Y149.152
X23.614 Y150.444
X22.97 Y151.089
X18.458 Y155.604
X12.01 Y162.051
X11.375 Y162.705
X10.748 Y163.368
X10.128 Y164.036
X9.515 Y164.711
X8.931 Y165.411
X8.364 Y166.125
X7.808 Y166.848
X7.28 Y167.591
X6.778 Y168.353
X6.292 Y169.124
X5.825 Y169.907
X5.393 Y170.71
X4.983 Y171.525
X4.588 Y172.346
X4.227 Y173.184
X3.895 Y174.033
X3.582 Y174.889
X3.291 Y175.754
X3.038 Y176.63
X2.808 Y177.512
X2.592 Y178.398
X2.417 Y179.293
X2.272 Y180.193
X2.144 Y181.096
X2.044 Y182.002
X1.981 Y182.912
X1.941 Y183.823
X1.915 Y184.734
X1.934 Y185.646
X1.981 Y186.556
X2.046 Y187.466
X2.14 Y188.373
X2.271 Y189.275
X2.423 Y190.174
X2.59 Y191.07
X2.801 Y191.957
X3.039 Y192.838
X3.292 Y193.714
X3.577 Y194.58
X3.894 Y195.435
X4.231 Y196.282
X4.585 Y197.122
X4.979 Y197.945
X5.395 Y198.756
X5.826 Y199.559
X6.288 Y200.346
X6.778 Y201.114
X7.286 Y201.872
X7.81 Y202.618
X8.368 Y203.339
X8.946 Y204.045
X9.535 Y204.74
X10.142 Y205.421
X10.773 Y206.079
X11.422 Y206.72
X12.081 Y207.35
X12.753 Y207.966
X13.451 Y208.553
X14.163 Y209.122
X14.885 Y209.679
X15.63 Y210.205
X16.392 Y210.706
X17.164 Y211.191
X17.949 Y211.655
X18.753 Y212.085
X19.568 Y212.493
X20.39 Y212.888
X21.229 Y213.245
X22.079 Y213.575
X22.936 Y213.887
X23.801 Y214.174
X24.678 Y214.425
X25.561 Y214.654
X26.447 Y214.868
X27.342 Y215.039
X28.243 Y215.183
X29.146 Y215.308
X30.053 Y215.405
X30.963 Y215.465
X31.874 Y215.504
X32.785 Y215.527
X33.697 Y215.505
X34.607 Y215.455
X35.517 Y215.39
X36.423 Y215.291
X37.325 Y215.159
X38.224 Y215.006
X39.12 Y214.834
X40.006 Y214.621
X40.886 Y214.382
X41.762 Y214.128
X42.627 Y213.839
X43.481 Y213.52
X44.327 Y213.181
X45.166 Y212.823
X45.987 Y212.428
X46.798 Y212.01
X47.601 Y211.578
X48.385 Y211.113
X49.153 Y210.621
X49.91 Y210.112
X50.653 Y209.584
X51.373 Y209.024
X52.078 Y208.446
X52.773 Y207.856
X53.451 Y207.247
X54.118 Y206.625
X54.777 Y205.994
X55.431 Y205.359
X56.081 Y204.72
X56.73 Y204.079
X57.377 Y203.437
X58.669 Y202.15
X61.25 Y199.573
X70.277 Y190.546
X70.924 Y189.905
X71.583 Y189.275
X72.25 Y188.652
X72.921 Y188.035
X73.605 Y187.432
X74.31 Y186.854
X75.029 Y186.293
X75.756 Y185.743
X76.501 Y185.216
X77.264 Y184.717
X78.039 Y184.238
X78.822 Y183.771
X79.622 Y183.333
X80.437 Y182.924
X81.262 Y182.535
X82.093 Y182.159
X82.938 Y181.817
X83.794 Y181.504
X84.658 Y181.211
X85.526 Y180.932
X86.405 Y180.691
X87.292 Y180.478
X88.183 Y180.286
X89.077 Y180.107
X89.978 Y179.969
X90.884 Y179.86
X91.791 Y179.771
X92.7 Y179.696
X93.61 Y179.646
X94.522 Y179.613
X95.433 Y179.591
X96.345 Y179.577
X97.257 Y179.568
X98.168 Y179.562
X99.08 Y179.558
X100.904 Y179.554
X103.639 Y179.552
X119.14 Y179.551
X120.964
X121.875 Y179.562
X122.787 Y179.587
X123.698 Y179.621
X124.609 Y179.66
X125.518 Y179.733
X126.424 Y179.832
X127.329 Y179.949
X128.231 Y180.078
X129.127 Y180.247
X130.017 Y180.445
X130.903 Y180.661
X131.785 Y180.892
X132.656 Y181.162
X133.519 Y181.458
X134.374 Y181.773
X135.224 Y182.104
X136.058 Y182.472
X136.881 Y182.865
X137.696 Y183.274
X138.501 Y183.702
X139.287 Y184.164
X140.06 Y184.648
X140.823 Y185.147
X141.573 Y185.665
X142.301 Y186.214
X143.014 Y186.783
X143.715 Y187.366
X144.405 Y187.963
X145.079 Y188.576
X145.744 Y189.2
X146.401 Y189.832
X147.055 Y190.468
X147.705 Y191.107
X148.353 Y191.748
X149.001 Y192.39
X150.293 Y193.677
X152.873 Y196.255
X161.9 Y205.281
X162.551 Y205.919
X163.212 Y206.548
X163.879 Y207.169
X164.55 Y207.787
X165.245 Y208.377
X165.957 Y208.947
X166.678 Y209.505
X167.415 Y210.042
X168.173 Y210.549
X168.943 Y211.037
X169.72 Y211.514
X170.52 Y211.952
X171.332 Y212.365
X172.153 Y212.763
X172.986 Y213.133
X173.833 Y213.471
X174.688 Y213.788
X175.548 Y214.09
X176.423 Y214.349
X177.304 Y214.583
X178.189 Y214.801
X179.082 Y214.986
X179.981 Y215.137
X180.884 Y215.269
X181.789 Y215.38
X182.698 Y215.45
X183.608 Y215.494
X184.52 Y215.522
X185.432 Y215.513
X186.342 Y215.472
X187.252 Y215.411
X188.16 Y215.328
X189.064 Y215.205
X189.963 Y215.057
X190.861 Y214.894
X191.75 Y214.692
X192.632 Y214.46
X193.508 Y214.21
X194.378 Y213.936
X195.235 Y213.625
X196.084 Y213.291
X196.927 Y212.944
X197.753 Y212.558
X198.566 Y212.146
X199.372 Y211.718
X200.163 Y211.265
X200.935 Y210.781
X201.695 Y210.277
X202.447 Y209.761
X203.173 Y209.209
X203.881 Y208.634
X204.578 Y208.047
X205.262 Y207.444
X205.926 Y206.819
X206.57 Y206.174
X207.202 Y205.516
X207.827 Y204.852
X208.419 Y204.158
X208.99 Y203.448
X209.55 Y202.728
X210.084 Y201.989
X210.59 Y201.231
X211.078 Y200.46
X211.552 Y199.681
X211.987 Y198.88
X212.399 Y198.067
X212.797 Y197.246
X213.163 Y196.411
X213.499 Y195.563
X213.815 Y194.708
X214.112 Y193.846
X214.37 Y192.971
X214.602 Y192.09
X214.819 Y191.204
X215 Y190.31
X215.149 Y189.411
X215.279 Y188.508
X215.387 Y187.603
X215.454 Y186.694
X215.496 Y185.783
X215.524 Y184.871
X215.511 Y183.96
X215.468 Y183.049
X215.406 Y182.139
X215.318 Y181.232
X215.192 Y180.329
X215.043 Y179.429
X214.879 Y178.532
X214.674 Y177.644
X214.44 Y176.762
X214.188 Y175.886
X213.91 Y175.018
X213.597 Y174.161
X213.262 Y173.313
X212.914 Y172.47
X212.525 Y171.646
X212.11 Y170.834
X211.681 Y170.029
X211.224 Y169.24
X210.738 Y168.469
X210.233 Y167.71
X209.714 Y166.96
X209.159 Y166.236
X208.584 Y165.529
X207.996 Y164.832
X207.391 Y164.15
X206.772 Y163.48
X206.143 Y162.82
X205.509 Y162.165
X204.87 Y161.514
X204.23 Y160.865
X203.588 Y160.217
X202.301 Y158.925
X200.369 Y156.989
X197.146 Y153.765
X190.054 Y146.672
X189.421 Y146.015
X188.798 Y145.35
X188.179 Y144.68
X187.57 Y144.001
X186.988 Y143.3
X186.423 Y142.584
X185.871 Y141.858
X185.337 Y141.119
X184.833 Y140.36
X184.349 Y139.587
X183.88 Y138.805
X183.433 Y138.01
X183.018 Y137.198
X182.625 Y136.375
X182.247 Y135.545
X181.896 Y134.704
X181.576 Y133.85
X181.279 Y132.988
X180.997 Y132.121
X180.746 Y131.244
X180.527 Y130.359
X180.33 Y129.469
X180.149 Y128.575
X180.001 Y127.675
X179.885 Y126.771
X179.791 Y125.864
X179.712 Y124.956
X179.657 Y124.046
X179.62 Y123.134
X179.596 Y122.223
X179.58 Y121.311
X179.57 Y120.4
X179.563 Y119.488
X179.559 Y118.576
X179.554 Y116.752
X179.552 Y114.017
X179.551 Y109.458
Y96.692
X179.558 Y95.781
X179.58 Y94.869
X179.612 Y93.958
X179.651 Y93.047
X179.714 Y92.137
X179.807 Y91.23
X179.921 Y90.325
X180.048 Y89.423
X180.207 Y88.525
X180.398 Y87.633
X180.61 Y86.746
X180.835 Y85.863
X181.097 Y84.989
X181.388 Y84.125
X181.698 Y83.268
X182.022 Y82.415
X182.383 Y81.578
X182.771 Y80.753
X183.177 Y79.937
X183.596 Y79.127
X184.052 Y78.337
X184.532 Y77.562
X185.028 Y76.797
X185.539 Y76.041
X186.082 Y75.309
X186.648 Y74.594
X187.227 Y73.89
X187.82 Y73.197
X188.43 Y72.52
X189.053 Y71.853
X189.683 Y71.194
X190.318 Y70.54
X190.957 Y69.889
X191.597 Y69.241
X192.24 Y68.593
X193.526 Y67.301
X196.104 Y64.72
X205.13 Y55.694
X205.771 Y55.045
X206.401 Y54.386
X207.024 Y53.721
X207.643 Y53.051
X208.239 Y52.361
X208.814 Y51.653
X209.374 Y50.934
X209.92 Y50.203
X210.432 Y49.449
X210.924 Y48.681
X211.403 Y47.905
X211.85 Y47.11
X212.268 Y46.3
X212.67 Y45.482
X213.05 Y44.653
X213.394 Y43.808
X213.715 Y42.955
X214.022 Y42.097
X214.29 Y41.225
X214.529 Y40.345
X214.751 Y39.461
X214.946 Y38.57
X215.104 Y37.672
X215.239 Y36.77
X215.36 Y35.866
X215.437 Y34.958
X215.486 Y34.047
X215.517 Y33.136
X215.518 Y32.224
X215.484 Y31.313
X215.427 Y30.403
X215.355 Y29.494
X215.238 Y28.59
X215.094 Y27.689
X214.934 Y26.792
X214.742 Y25.9
X214.516 Y25.017
X214.27 Y24.139
X214.006 Y23.266
X213.701 Y22.407
X213.372 Y21.557
X213.027 Y20.712
X212.65 Y19.882
X212.244 Y19.066
X211.819 Y18.259
X211.376 Y17.462
X210.897 Y16.686
X210.396 Y15.924
X209.883 Y15.171
X209.339 Y14.439
X208.769 Y13.727
X208.185 Y13.027
X207.587 Y12.339
X206.968 Y11.669
X206.326 Y11.022
X205.671 Y10.387
X205.008 Y9.761
X204.321 Y9.162
X203.614 Y8.586
X202.896 Y8.024
X202.164 Y7.48
X201.409 Y6.969
X200.641 Y6.477
X199.865 Y5.999
X199.069 Y5.555
X198.258 Y5.138
X197.438 Y4.738
X196.608 Y4.361
X195.762 Y4.02
X194.909 Y3.7
X194.05 Y3.394
X193.177 Y3.13
X192.297 Y2.893
X191.412 Y2.673
X190.52 Y2.481
X189.622 Y2.326
X188.72 Y2.192
X187.816 Y2.073
X186.907 Y1.999
X185.996 Y1.953
X185.085 Y1.923
X184.173 Y1.925
X183.262 Y1.962
X182.352 Y2.021
X181.444 Y2.097
X180.54 Y2.216
X179.639 Y2.362
X178.742 Y2.523
X177.851 Y2.719
X176.969 Y2.947
X176.091 Y3.195
X175.219 Y3.462
X174.361 Y3.769
X173.511 Y4.1
X172.667 Y4.445
X171.839 Y4.826
X171.024 Y5.234
X170.217 Y5.661
X169.423 Y6.107
X168.648 Y6.589
X167.887 Y7.09
X167.134 Y7.604
X166.404 Y8.152
X165.694 Y8.723
X164.995 Y9.309
X164.308 Y9.908
X163.636 Y10.525
X162.974 Y11.152
X162.318 Y11.785
X161.666 Y12.422
X161.017 Y13.062
X160.369 Y13.704
X159.076 Y14.99
X157.14 Y16.923
X148.113 Y25.948
X146.823 Y27.238
X146.169 Y27.873
X145.506 Y28.499
X144.837 Y29.118
X144.164 Y29.734
X143.466 Y30.321
X142.753 Y30.889
X142.029 Y31.443
X141.296 Y31.985
X140.54 Y32.495
X139.769 Y32.982
X138.989 Y33.454
X138.199 Y33.909
X137.39 Y34.33
X136.569 Y34.727
X135.741 Y35.108
X134.903 Y35.468
X134.051 Y35.794
X133.191 Y36.095
X132.324 Y36.38
X131.451 Y36.64
X130.567 Y36.866
X129.678 Y37.067
X128.785 Y37.252
X127.887 Y37.409
X126.983 Y37.531
X126.077 Y37.63
X125.169 Y37.712
X124.259 Y37.773
X123.348 Y37.814
X122.437 Y37.841
X121.525 Y37.858
X120.613 Y37.87
X119.701 Y37.877
X118.79 Y37.882
X117.878 Y37.885
X116.054 Y37.888
X112.407 Y37.89
X96.906 Y37.891
X95.994 Y37.888
X95.083 Y37.869
X94.171 Y37.839
X93.26 Y37.801
X92.35 Y37.746
X91.442 Y37.659
X90.537 Y37.549
X89.634 Y37.425
X88.735 Y37.275
X87.842 Y37.091
X86.954 Y36.883
X86.07 Y36.66
X85.193 Y36.408
X84.327 Y36.124
X83.468 Y35.818
X82.615 Y35.497
X81.774 Y35.145
X80.946 Y34.763
X80.127 Y34.361
X79.316 Y33.945
X78.521 Y33.498
X77.742 Y33.023
X76.975 Y32.53
X76.216 Y32.026
X75.479 Y31.489
X74.76 Y30.928
X74.054 Y30.351
X73.357 Y29.763
X72.676 Y29.156
X72.008 Y28.536
X71.348 Y27.907
X70.693 Y27.273
X70.041 Y26.635
X69.392 Y25.995
X68.744 Y25.353
X67.452 Y24.066
X65.516 Y22.134
X55.844 Y12.463
X55.199 Y11.819
X54.541 Y11.187
X53.877 Y10.563
X53.207 Y9.944
X52.524 Y9.34
X51.819 Y8.762
X51.102 Y8.198
X50.378 Y7.644
X49.628 Y7.126
X48.862 Y6.631
X48.088 Y6.15
X47.298 Y5.694
X46.491 Y5.27
X45.674 Y4.865
X44.85 Y4.475
X44.008 Y4.125
X43.156 Y3.8
X42.298 Y3.49
X41.429 Y3.213
X40.551 Y2.967
X39.668 Y2.742
X38.779 Y2.536
X37.883 Y2.372
X36.981 Y2.232
X36.078 Y2.109
X35.17 Y2.022
X34.26 Y1.967
X33.349 Y1.932
X32.437 Y1.919
X31.526 Y1.947
X30.616 Y2
X29.706 Y2.068
X28.801 Y2.176
X27.9 Y2.314
X27.001 Y2.47
X26.108 Y2.652
X25.223 Y2.871
X24.344 Y3.114
X23.469 Y3.37
X22.607 Y3.667
X21.755 Y3.992
X20.909 Y4.333
X20.075 Y4.701
X19.256 Y5.102
X18.447 Y5.523
X17.645 Y5.957
X16.866 Y6.43
X16.101 Y6.927
X15.346 Y7.438
X14.608 Y7.974
X13.892 Y8.538
X13.19 Y9.12
X12.497 Y9.713
X11.822 Y10.326
X11.171 Y10.964
X10.534 Y11.616
X9.907 Y12.278
X9.3 Y12.959
X8.719 Y13.661
X8.154 Y14.377
X7.602 Y15.103
X7.085 Y15.854
X6.9 Y16.141
X6.778 Y16.334
X6.685 Y16.78
X6.805 Y17.684
X6.996 Y18.576
X7.185 Y19.468
X7.342 Y20.366
X7.461 Y21.27
X7.539 Y22.178
X7.57 Y23.09
X7.561 Y24.001
X7.517 Y24.912
X7.448 Y25.821
X7.364 Y26.729
X7.183 Y28.544
X7.104 Y29.452
X7.041 Y30.362
X6.996 Y31.273
X6.978 Y32.184
X6.988 Y33.096
X7.026 Y34.007
X7.096 Y34.916
X7.196 Y35.822
X7.326 Y36.725
X7.492 Y37.622
X7.689 Y38.512
X7.916 Y39.395
X8.177 Y40.268
X8.468 Y41.133
X8.791 Y41.985
X9.147 Y42.825
X9.53 Y43.652
X9.943 Y44.465
X10.388 Y45.261
X10.86 Y46.042
X11.361 Y46.803
X11.89 Y47.546
X12.442 Y48.271
X13.016 Y48.98
X13.609 Y49.673
X14.216 Y50.353
X14.835 Y51.023
X15.461 Y51.686
X16.092 Y52.343
X16.728 Y52.997
X17.366 Y53.648
X18.007 Y54.297
X18.648 Y54.945
X19.934 Y56.238
X21.866 Y58.174
X27.024 Y63.333
X28.958 Y65.268
X29.602 Y65.913
X30.243 Y66.561
X30.879 Y67.214
X31.51 Y67.873
X32.136 Y68.536
X32.751 Y69.209
X33.353 Y69.894
X33.942 Y70.59
X34.518 Y71.297
X35.079 Y72.016
X35.623 Y72.748
X36.149 Y73.492
X36.658 Y74.249
X37.151 Y75.016
X37.624 Y75.795
X38.076 Y76.587
X38.508 Y77.39
X38.923 Y78.202
X39.318 Y79.024
X39.692 Y79.856
X40.043 Y80.697
X40.374 Y81.547
X40.686 Y82.404
X40.975 Y83.268
X41.241 Y84.14
X41.485 Y85.019
X41.709 Y85.903
X41.913 Y86.791
X42.093 Y87.685
X42.248 Y88.584
X42.382 Y89.486
X42.496 Y90.391
X42.59 Y91.297
X42.666 Y92.206
X42.725 Y93.116
X42.771 Y94.027
X42.804 Y94.938
X42.829 Y95.849
X42.847 Y96.761
X42.86 Y97.673
X42.87 Y98.584
X42.876 Y99.496
X42.881 Y100.408
X42.886 Y102.232
X42.889 Y104.967
X42.891 Y111.35
Y119.556
X42.885 Y120.468
X42.872 Y121.38
X42.852 Y122.291
X42.824 Y123.203
X42.781 Y124.113
X42.72 Y125.023
X42.642 Y125.932
X42.547 Y126.838
X42.434 Y127.743
X42.299 Y128.645
X42.141 Y129.543
X41.964 Y130.437
X41.766 Y131.328
X41.546 Y132.213
X41.303 Y133.091
X41.039 Y133.964
X40.755 Y134.831
X40.452 Y135.691
X40.125 Y136.542
X39.775 Y137.384
X39.406 Y138.217
X39.017 Y139.042
X38.608 Y139.857
X38.178 Y140.661
X37.728 Y141.454
X37.26 Y142.237
X36.772 Y143.007
X36.264 Y143.764
X35.737 Y144.508
X35.192 Y145.239
X34.631 Y145.958
X34.055 Y146.665
X33.465 Y147.36
X32.863 Y148.044
X32.249 Y148.719
X31.628 Y149.387
X31.001 Y150.048
X30.368 Y150.705
X29.732 Y151.359
X29.094 Y152.01
X28.453 Y152.659
X27.812 Y153.307
X26.526 Y154.6
X25.238 Y155.891
X22.016 Y159.116
X16.858 Y164.274
X16.216 Y164.922
X15.579 Y165.574
X14.948 Y166.232
X14.325 Y166.898
X13.717 Y167.578
X13.125 Y168.271
X12.552 Y168.98
X12.001 Y169.707
X11.473 Y170.45
X10.969 Y171.21
X10.494 Y171.989
X10.046 Y172.782
X9.625 Y173.591
X9.235 Y174.415
X8.874 Y175.253
X8.544 Y176.103
X8.246 Y176.965
X7.977 Y177.836
X7.74 Y178.716
X7.539 Y179.606
X7.368 Y180.501
X7.23 Y181.403
X7.126 Y182.309
X7.05 Y183.217
X7.012 Y184.128
X7.008 Y185.04
X7.036 Y185.951
X7.097 Y186.861
X7.192 Y187.768
X7.317 Y188.671
X7.478 Y189.569
X7.671 Y190.46
X7.895 Y191.344
X8.153 Y192.218
X8.442 Y193.083
X8.761 Y193.937
X9.114 Y194.778
X9.494 Y195.607
X9.905 Y196.421
X10.348 Y197.218
X10.817 Y198
X11.315 Y198.764
X11.841 Y199.508
X12.391 Y200.235
X12.965 Y200.944
X13.563 Y201.633
X14.182 Y202.302
X14.819 Y202.954
X15.477 Y203.586
X16.156 Y204.194
X16.854 Y204.781
X17.572 Y205.342
X18.31 Y205.878
X19.065 Y206.389
X19.839 Y206.871
X20.63 Y207.325
X21.436 Y207.752
X22.258 Y208.147
X23.093 Y208.513
X23.94 Y208.849
X24.801 Y209.152
X25.671 Y209.425
X26.55 Y209.666
X27.438 Y209.874
X28.332 Y210.05
X29.233 Y210.193
X30.138 Y210.302
X31.046 Y210.381
X31.957 Y210.426
X32.869 Y210.435
X33.78 Y210.413
X34.69 Y210.356
X35.598 Y210.266
X36.502 Y210.147
X37.4 Y209.992
X38.292 Y209.803
X39.177 Y209.584
X40.053 Y209.331
X40.92 Y209.047
X41.776 Y208.733
X42.619 Y208.386
X43.449 Y208.009
X44.266 Y207.603
X45.066 Y207.166
X45.85 Y206.701
X46.617 Y206.207
X47.364 Y205.685
X48.094 Y205.138
X48.807 Y204.57
X49.503 Y203.981
X50.186 Y203.377
X50.858 Y202.761
X51.523 Y202.136
X52.182 Y201.506
X52.836 Y200.871
X53.488 Y200.234
X54.138 Y199.594
X54.786 Y198.952
X55.433 Y198.31
X56.725 Y197.023
X59.306 Y194.446
X65.754 Y187.999
X66.401 Y187.357
X67.053 Y186.719
X67.71 Y186.087
X68.372 Y185.46
X69.042 Y184.842
X69.724 Y184.236
X70.418 Y183.644
X71.122 Y183.066
X71.838 Y182.501
X72.567 Y181.953
X73.308 Y181.422
X74.062 Y180.909
X74.826 Y180.412
X75.603 Y179.934
X76.392 Y179.477
X77.192 Y179.04
X78.002 Y178.621
X78.821 Y178.221
X79.651 Y177.842
X80.49 Y177.485
X81.337 Y177.149
X82.192 Y176.832
X83.055 Y176.537
X83.925 Y176.265
X84.802 Y176.015
X85.685 Y175.786
X86.572 Y175.576
X87.465 Y175.39
X88.362 Y175.229
X89.263 Y175.09
X90.168 Y174.972
X91.074 Y174.872
X91.982 Y174.792
X92.892 Y174.729
X93.802 Y174.681
X94.713 Y174.644
X95.625 Y174.618
X96.536 Y174.598
X97.448 Y174.584
X98.36 Y174.574
X99.272 Y174.567
X100.183 Y174.562
X101.095 Y174.559
X102.919 Y174.555
X105.654 Y174.552
X115.684 Y174.551
X119.332
X120.243 Y174.555
X121.155 Y174.566
X122.067 Y174.585
X122.978 Y174.611
X123.889 Y174.65
X124.799 Y174.706
X125.708 Y174.78
X126.615 Y174.871
X127.521 Y174.978
X128.423 Y175.107
X129.322 Y175.259
X130.218 Y175.432
X131.109 Y175.624
X131.995 Y175.838
X132.876 Y176.075
X133.75 Y176.335
X134.618 Y176.614
X135.48 Y176.912
X136.333 Y177.233
X137.177 Y177.578
X138.013 Y177.943
X138.84 Y178.326
X139.658 Y178.73
X140.464 Y179.155
X141.26 Y179.601
X142.045 Y180.065
X142.818 Y180.547
X143.579 Y181.05
X144.326 Y181.573
X145.06 Y182.114
X145.782 Y182.671
X146.492 Y183.243
X147.19 Y183.83
X147.877 Y184.43
X148.554 Y185.04
X149.223 Y185.66
X149.885 Y186.286
X150.543 Y186.918
X151.198 Y187.553
X151.849 Y188.191
X152.499 Y188.831
X153.147 Y189.472
X153.794 Y190.114
X155.086 Y191.401
X157.667 Y193.978
X164.115 Y200.425
X164.762 Y201.068
X165.413 Y201.706
X166.07 Y202.339
X166.732 Y202.965
X167.408 Y203.577
X168.099 Y204.173
X168.803 Y204.751
X169.526 Y205.307
X170.265 Y205.841
X171.02 Y206.352
X171.794 Y206.834
X172.585 Y207.289
X173.39 Y207.717
X174.21 Y208.114
X175.045 Y208.482
X175.891 Y208.821
X176.75 Y209.126
X177.62 Y209.402
X178.498 Y209.647
X179.385 Y209.856
X180.279 Y210.035
X181.179 Y210.182
X182.084 Y210.293
X182.992 Y210.376
X183.903 Y210.423
X184.815 Y210.434
X185.726 Y210.415
X186.637 Y210.363
X187.544 Y210.276
X188.449 Y210.159
X189.348 Y210.006
X190.24 Y209.821
X191.126 Y209.605
X192.003 Y209.356
X192.87 Y209.074
X193.728 Y208.763
X194.572 Y208.418
X195.403 Y208.044
X196.221 Y207.642
X197.023 Y207.207
X197.808 Y206.744
X198.577 Y206.254
X199.327 Y205.734
X200.058 Y205.19
X200.771 Y204.622
X201.465 Y204.03
X202.138 Y203.415
X202.796 Y202.783
X203.433 Y202.131
X204.046 Y201.457
X204.639 Y200.763
X205.206 Y200.05
X205.748 Y199.316
X206.266 Y198.566
X206.756 Y197.797
X207.216 Y197.01
X207.649 Y196.207
X208.052 Y195.389
X208.424 Y194.557
X208.77 Y193.713
X209.08 Y192.856
X209.36 Y191.988
X209.609 Y191.111
X209.825 Y190.225
X210.009 Y189.332
X210.161 Y188.433
X210.278 Y187.528
X210.364 Y186.621
X210.417 Y185.71
X210.435 Y184.799
X210.421 Y183.887
X210.373 Y182.977
X210.291 Y182.068
X210.18 Y181.163
X210.034 Y180.263
X209.853 Y179.37
X209.641 Y178.483
X209.396 Y177.604
X209.12 Y176.736
X208.815 Y175.876
X208.476 Y175.03
X208.105 Y174.197
X207.707 Y173.377
X207.277 Y172.573
X206.818 Y171.784
X206.333 Y171.012
X205.817 Y170.26
X205.276 Y169.527
X204.712 Y168.81
X204.128 Y168.11
X203.527 Y167.424
X202.914 Y166.749
X202.291 Y166.083
X201.662 Y165.423
X201.029 Y164.768
X200.391 Y164.115
X199.752 Y163.465
X199.111 Y162.817
X198.469 Y162.17
X197.182 Y160.877
X195.25 Y158.941
X188.158 Y151.848
X187.515 Y151.202
X186.876 Y150.552
X186.242 Y149.896
X185.614 Y149.235
X184.993 Y148.568
X184.384 Y147.889
X183.789 Y147.198
X183.207 Y146.496
X182.639 Y145.783
X182.086 Y145.057
X181.551 Y144.319
X181.034 Y143.568
X180.533 Y142.806
X180.05 Y142.033
X179.588 Y141.247
X179.146 Y140.449
X178.723 Y139.641
X178.319 Y138.824
X177.934 Y137.997
X177.572 Y137.161
X177.231 Y136.315
X176.909 Y135.462
X176.609 Y134.601
X176.331 Y133.732
X176.076 Y132.857
X175.842 Y131.976
X175.628 Y131.09
X175.436 Y130.198
X175.268 Y129.302
X175.124 Y128.401
X175 Y127.498
X174.896 Y126.592
X174.811 Y125.684
X174.744 Y124.775
X174.692 Y123.865
X174.653 Y122.954
X174.624 Y122.042
X174.603 Y121.131
X174.587 Y120.219
X174.576 Y119.307
X174.569 Y118.396
X174.563 Y117.484
X174.559 Y116.572
X174.555 Y114.748
X174.552 Y112.013
X174.551 Y103.807
Y98.336
X174.554 Y97.424
X174.563 Y96.512
X174.58 Y95.601
X174.604 Y94.689
X174.64 Y93.778
X174.692 Y92.868
X174.761 Y91.958
X174.848 Y91.051
X174.951 Y90.145
X175.075 Y89.241
X175.221 Y88.341
X175.389 Y87.445
X175.576 Y86.553
X175.785 Y85.665
X176.016 Y84.783
X176.27 Y83.907
X176.544 Y83.038
X176.836 Y82.174
X177.151 Y81.319
X177.49 Y80.472
X177.851 Y79.634
X178.229 Y78.805
X178.627 Y77.985
X179.047 Y77.175
X179.488 Y76.377
X179.948 Y75.59
X180.425 Y74.813
X180.923 Y74.049
X181.441 Y73.299
X181.978 Y72.562
X182.531 Y71.837
X183.1 Y71.124
X183.683 Y70.423
X184.28 Y69.734
X184.888 Y69.055
X185.506 Y68.384
X186.131 Y67.72
X186.761 Y67.061
X187.395 Y66.406
X188.033 Y65.754
X188.672 Y65.104
X189.313 Y64.455
X189.955 Y63.808
X191.242 Y62.516
X193.174 Y60.58
X199.621 Y54.131
X200.266 Y53.487
X200.91 Y52.841
X201.549 Y52.191
X202.183 Y51.536
X202.811 Y50.875
X203.427 Y50.202
X204.026 Y49.515
X204.61 Y48.814
X205.172 Y48.097
X205.711 Y47.361
X206.228 Y46.61
X206.717 Y45.84
X207.178 Y45.054
X207.613 Y44.252
X208.018 Y43.435
X208.393 Y42.604
X208.74 Y41.761
X209.054 Y40.905
X209.336 Y40.038
X209.589 Y39.162
X209.807 Y38.276
X209.994 Y37.384
X210.149 Y36.485
X210.269 Y35.582
X210.358 Y34.674
X210.414 Y33.764
X210.434 Y32.852
X210.424 Y31.941
X210.38 Y31.03
X210.301 Y30.122
X210.192 Y29.216
X210.048 Y28.316
X209.869 Y27.422
X209.662 Y26.534
X209.421 Y25.654
X209.147 Y24.785
X208.843 Y23.925
X208.506 Y23.078
X208.138 Y22.243
X207.744 Y21.421
X207.317 Y20.616
X206.86 Y19.826
X206.377 Y19.053
X205.864 Y18.299
X205.325 Y17.564
X204.763 Y16.846
X204.178 Y16.147
X203.568 Y15.469
X202.94 Y14.807
X202.293 Y14.166
X201.624 Y13.546
X200.935 Y12.948
X200.227 Y12.374
X199.498 Y11.826
X198.752 Y11.302
X197.988 Y10.804
X197.205 Y10.337
X196.406 Y9.897
X195.592 Y9.487
X194.763 Y9.108
X193.922 Y8.754
X193.068 Y8.435
X192.203 Y8.148
X191.328 Y7.891
X190.444 Y7.668
X189.552 Y7.476
X188.655 Y7.314
X187.752 Y7.189
X186.845 Y7.096
X185.935 Y7.034
X185.024 Y7.008
X184.112 Y7.015
X183.201 Y7.053
X182.292 Y7.127
X181.386 Y7.232
X180.485 Y7.369
X179.59 Y7.542
X178.701 Y7.746
X177.82 Y7.982
X176.949 Y8.251
X176.087 Y8.549
X175.238 Y8.88
X174.401 Y9.244
X173.578 Y9.635
X172.77 Y10.057
X171.978 Y10.509
X171.201 Y10.987
X170.444 Y11.496
X169.706 Y12.031
X168.985 Y12.589
X168.281 Y13.169
X167.592 Y13.766
X166.915 Y14.376
X166.247 Y14.997
X165.586 Y15.625
X164.929 Y16.257
X164.276 Y16.894
X163.625 Y17.533
X162.977 Y18.173
X162.329 Y18.815
X161.036 Y20.102
X159.1 Y22.034
X152.652 Y28.48
X152.007 Y29.125
X151.361 Y29.769
X150.712 Y30.409
X150.058 Y31.044
X149.398 Y31.674
X148.734 Y32.298
X148.058 Y32.91
X147.37 Y33.508
X146.67 Y34.093
X145.96 Y34.666
X145.238 Y35.223
X144.503 Y35.762
X143.755 Y36.283
X142.996 Y36.788
X142.225 Y37.276
X141.442 Y37.743
X140.648 Y38.19
X139.842 Y38.617
X139.027 Y39.026
X138.203 Y39.416
X137.369 Y39.784
X136.525 Y40.13
X135.673 Y40.455
X134.814 Y40.761
X133.947 Y41.044
X133.074 Y41.305
X132.194 Y41.544
X131.309 Y41.763
X130.419 Y41.961
X129.523 Y42.134
X128.624 Y42.284
X127.721 Y42.412
X126.816 Y42.521
X125.909 Y42.611
X125 Y42.683
X124.089 Y42.738
X123.179 Y42.78
X122.267 Y42.811
X121.356 Y42.834
X120.444 Y42.851
X119.532 Y42.863
X118.621 Y42.871
X117.709 Y42.877
X116.797 Y42.882
X114.973 Y42.887
X112.238 Y42.89
X104.943 Y42.891
X103.12
X98.561
X97.649 Y42.89
X96.737 Y42.883
X95.825 Y42.868
X94.914 Y42.845
X94.003 Y42.813
X93.092 Y42.765
X92.183 Y42.7
X91.275 Y42.617
X90.368 Y42.518
X89.464 Y42.4
X88.563 Y42.259
X87.666 Y42.096
X86.773 Y41.913
X85.884 Y41.71
X85 Y41.484
X84.123 Y41.236
X83.252 Y40.967
X82.387 Y40.679
X81.529 Y40.369
X80.68 Y40.036
X79.841 Y39.681
X79.009 Y39.307
X78.186 Y38.913
X77.374 Y38.499
X76.573 Y38.063
X75.783 Y37.608
X75.003 Y37.136
X74.236 Y36.643
X73.482 Y36.13
X72.742 Y35.597
X72.014 Y35.048
X71.298 Y34.484
X70.594 Y33.905
X69.902 Y33.311
X69.221 Y32.705
X68.548 Y32.089
X67.882 Y31.466
X67.222 Y30.837
X66.567 Y30.203
X65.914 Y29.567
X65.264 Y28.928
X64.615 Y28.287
X63.967 Y27.645
X62.674 Y26.359
X60.738 Y24.426
X59.448 Y23.137
X53 Y16.691
X52.352 Y16.05
X51.698 Y15.414
X51.038 Y14.785
X50.369 Y14.165
X49.685 Y13.562
X48.988 Y12.974
X48.275 Y12.405
X47.544 Y11.861
X46.797 Y11.338
X46.032 Y10.842
X45.249 Y10.375
X44.451 Y9.933
X43.638 Y9.52
X42.811 Y9.138
X41.97 Y8.784
X41.117 Y8.463
X40.252 Y8.174
X39.378 Y7.912
X38.495 Y7.685
X37.604 Y7.491
X36.707 Y7.328
X35.805 Y7.2
X34.898 Y7.104
X33.988 Y7.038
X33.077 Y7.009
X32.165 Y7.013
X31.254 Y7.048
X30.345 Y7.119
X29.439 Y7.221
X28.537 Y7.356
X27.641 Y7.526
X26.752 Y7.727
X25.87 Y7.959
X24.998 Y8.225
X24.136 Y8.522
X23.285 Y8.851
X22.448 Y9.211
X21.622 Y9.598
X20.812 Y10.016
X20.019 Y10.466
X19.242 Y10.943
X18.483 Y11.449
X17.744 Y11.982
X17.021 Y12.538
X16.316 Y13.117
X15.633 Y13.721
X14.968 Y14.345
X14.321 Y14.988
X13.697 Y15.652
X13.094 Y16.336
X12.948 Y16.511
X12.73 Y16.911
X12.506 Y17.795
X12.453 Y18.706
X12.462 Y19.617
X12.518 Y21.44
X12.532 Y22.352
X12.528 Y23.264
X12.503 Y24.175
X12.46 Y25.086
X12.401 Y25.996
X12.332 Y26.905
X12.257 Y27.814
X12.184 Y28.723
X12.12 Y29.632
X12.07 Y30.543
X12.042 Y31.454
X12.04 Y32.366
X12.07 Y33.277
X12.133 Y34.187
X12.232 Y35.093
X12.369 Y35.995
X12.546 Y36.889
X12.761 Y37.775
X13.014 Y38.651
X13.308 Y39.514
X13.641 Y40.363
X14.011 Y41.197
X14.418 Y42.012
X14.864 Y42.808
X15.346 Y43.582
X15.859 Y44.336
X16.401 Y45.069
X16.968 Y45.783
X17.554 Y46.481
X18.156 Y47.167
X18.768 Y47.842
X19.39 Y48.509
X20.018 Y49.17
X20.65 Y49.827
X21.286 Y50.481
X21.924 Y51.132
X22.564 Y51.781
X23.206 Y52.429
X24.492 Y53.723
X26.423 Y55.659
X27.712 Y56.95
X31.58 Y60.819
X32.224 Y61.464
X32.866 Y62.111
X33.506 Y62.761
X34.142 Y63.415
X34.773 Y64.072
X35.398 Y64.736
X36.015 Y65.408
X36.622 Y66.088
X37.219 Y66.777
X37.804 Y67.477
X38.377 Y68.186
X38.936 Y68.907
X39.481 Y69.638
X40.012 Y70.379
X40.528 Y71.131
X41.029 Y71.893
X41.513 Y72.665
X41.98 Y73.449
X42.429 Y74.242
X42.863 Y75.044
X43.279 Y75.855
X43.677 Y76.676
X44.057 Y77.505
X44.419 Y78.341
X44.763 Y79.186
X45.089 Y80.037
X45.395 Y80.896
X45.682 Y81.762
X45.95 Y82.633
X46.199 Y83.511
X46.429 Y84.393
X46.641 Y85.28
X46.832 Y86.171
X47.004 Y87.067
X47.156 Y87.966
X47.289 Y88.868
X47.405 Y89.772
X47.503 Y90.679
X47.585 Y91.587
X47.653 Y92.496
X47.708 Y93.406
X47.752 Y94.317
X47.786 Y95.228
X47.813 Y96.14
X47.833 Y97.051
X47.848 Y97.963
X47.86 Y98.875
X47.868 Y99.786
X47.875 Y100.698
X47.879 Y101.61
X47.885 Y103.434
X47.889 Y106.169
X47.891 Y111.64
X47.89 Y118.023
X47.888 Y118.934
X47.882 Y119.846
X47.87 Y120.758
X47.853 Y121.67
X47.827 Y122.581
X47.789 Y123.492
X47.739 Y124.402
X47.675 Y125.312
X47.597 Y126.22
X47.503 Y127.127
X47.392 Y128.032
X47.263 Y128.935
X47.117 Y129.835
X46.953 Y130.732
X46.77 Y131.625
X46.568 Y132.515
X46.346 Y133.399
X46.106 Y134.279
X45.848 Y135.153
X45.572 Y136.022
X45.276 Y136.885
X44.962 Y137.741
X44.629 Y138.589
X44.277 Y139.431
X43.907 Y140.264
X43.519 Y141.089
X43.112 Y141.905
X42.689 Y142.713
X42.248 Y143.511
X41.79 Y144.299
X41.315 Y145.078
X40.822 Y145.845
X40.312 Y146.601
X39.786 Y147.345
X39.245 Y148.079
X38.689 Y148.802
X38.12 Y149.515
X37.538 Y150.217
X36.945 Y150.909
X36.342 Y151.593
X35.73 Y152.269
X35.111 Y152.938
X34.486 Y153.602
X33.856 Y154.262
X33.223 Y154.918
X32.587 Y155.571
X31.948 Y156.222
X31.308 Y156.871
X30.667 Y157.519
X29.381 Y158.813
X27.45 Y160.75
X23.583 Y164.62
X21.649 Y166.555
X21.005 Y167.2
X20.364 Y167.848
X19.726 Y168.5
X19.094 Y169.157
X18.471 Y169.823
X17.862 Y170.501
X17.269 Y171.194
X16.696 Y171.904
X16.147 Y172.631
X15.625 Y173.379
X15.134 Y174.147
X14.674 Y174.935
X14.248 Y175.741
X13.858 Y176.565
X13.505 Y177.406
X13.19 Y178.261
X12.914 Y179.13
X12.677 Y180.011
X12.482 Y180.902
X12.327 Y181.8
X12.212 Y182.705
X12.14 Y183.614
X12.111 Y184.525
X12.122 Y185.437
X12.174 Y186.347
X12.269 Y187.254
X12.406 Y188.156
X12.583 Y189.05
X12.801 Y189.935
X13.06 Y190.81
X13.358 Y191.671
X13.696 Y192.518
X14.071 Y193.349
X14.485 Y194.162
X14.936 Y194.954
X15.422 Y195.726
X15.94 Y196.476
X16.49 Y197.203
X17.07 Y197.907
X17.675 Y198.589
X18.307 Y199.246
X18.964 Y199.878
X19.648 Y200.482
X20.356 Y201.057
X21.087 Y201.601
X21.842 Y202.113
X22.618 Y202.591
X23.416 Y203.033
X24.232 Y203.439
X25.066 Y203.808
X25.916 Y204.138
X26.78 Y204.429
X27.656 Y204.681
X28.543 Y204.893
X29.439 Y205.062
X30.342 Y205.191
X31.249 Y205.279
X32.16 Y205.326
X33.072 Y205.329
X33.983 Y205.291
X34.891 Y205.213
X35.795 Y205.092
X36.692 Y204.929
X37.581 Y204.726
X38.46 Y204.483
X39.326 Y204.199
X40.179 Y203.875
X41.016 Y203.514
X41.836 Y203.114
X42.636 Y202.677
X43.415 Y202.204
X44.173 Y201.697
X44.911 Y201.161
X45.629 Y200.599
X46.331 Y200.017
X47.019 Y199.419
X47.696 Y198.808
X48.365 Y198.188
X49.027 Y197.562
X49.685 Y196.93
X50.339 Y196.295
X50.99 Y195.657
X51.64 Y195.017
X52.288 Y194.376
X52.936 Y193.734
X54.228 Y192.447
X56.164 Y190.515
X61.324 Y185.358
X61.97 Y184.715
X62.619 Y184.075
X63.272 Y183.438
X63.929 Y182.806
X64.591 Y182.179
X65.261 Y181.561
X65.939 Y180.951
X66.627 Y180.352
X67.324 Y179.765
X68.031 Y179.189
X68.749 Y178.627
X69.478 Y178.079
X70.217 Y177.546
X70.967 Y177.026
X71.727 Y176.522
X72.497 Y176.035
X73.278 Y175.564
X74.069 Y175.11
X74.869 Y174.673
X75.679 Y174.254
X76.497 Y173.852
X77.324 Y173.468
X78.16 Y173.102
X79.002 Y172.754
X79.852 Y172.423
X80.709 Y172.113
X81.573 Y171.821
X82.444 Y171.549
X83.32 Y171.296
X84.201 Y171.061
X85.087 Y170.845
X85.977 Y170.649
X86.872 Y170.473
X87.77 Y170.317
X88.671 Y170.179
X89.575 Y170.06
X90.481 Y169.958
X91.389 Y169.872
X92.298 Y169.802
X93.208 Y169.744
X94.119 Y169.698
X95.03 Y169.662
X95.941 Y169.634
X96.853 Y169.613
X97.765 Y169.596
X98.676 Y169.584
X99.588 Y169.575
X100.5 Y169.568
X101.412 Y169.563
X103.235 Y169.557
X105.971 Y169.553
X111.442 Y169.551
X117.824
X118.736 Y169.553
X119.648 Y169.559
X120.56 Y169.569
X121.471 Y169.585
X122.383 Y169.609
X123.294 Y169.644
X124.205 Y169.691
X125.114 Y169.752
X126.023 Y169.827
X126.93 Y169.917
X127.836 Y170.024
X128.739 Y170.149
X129.64 Y170.291
X130.538 Y170.451
X131.432 Y170.629
X132.322 Y170.827
X133.207 Y171.045
X134.088 Y171.281
X134.964 Y171.535
X135.834 Y171.807
X136.698 Y172.099
X137.555 Y172.409
X138.406 Y172.738
X139.249 Y173.086
X140.084 Y173.452
X140.911 Y173.836
X141.729 Y174.239
X142.538 Y174.659
X143.338 Y175.096
X144.129 Y175.551
X144.909 Y176.022
X145.679 Y176.511
X146.437 Y177.017
X147.184 Y177.54
X147.92 Y178.078
X148.646 Y178.63
X149.36 Y179.197
X150.065 Y179.776
X150.759 Y180.367
X151.445 Y180.968
X152.122 Y181.578
X152.793 Y182.196
X153.458 Y182.82
X154.118 Y183.448
X154.775 Y184.081
X155.429 Y184.717
X156.08 Y185.355
X156.73 Y185.994
X157.378 Y186.636
X158.026 Y187.278
X159.318 Y188.564
X161.255 Y190.496
X165.769 Y195.008
X167.059 Y196.297
X167.707 Y196.939
X168.357 Y197.578
X169.013 Y198.212
X169.677 Y198.837
X170.352 Y199.449
X171.042 Y200.046
X171.747 Y200.623
X172.471 Y201.178
X173.214 Y201.707
X173.978 Y202.205
X174.761 Y202.671
X175.563 Y203.105
X176.383 Y203.503
X177.221 Y203.864
X178.073 Y204.187
X178.94 Y204.472
X179.818 Y204.717
X180.707 Y204.921
X181.604 Y205.084
X182.507 Y205.208
X183.415 Y205.289
X184.326 Y205.328
X185.238 Y205.325
X186.149 Y205.282
X187.057 Y205.197
X187.959 Y205.069
X188.856 Y204.901
X189.743 Y204.692
X190.62 Y204.442
X191.484 Y204.152
X192.335 Y203.823
X193.17 Y203.456
X193.986 Y203.051
X194.783 Y202.608
X195.56 Y202.13
X196.315 Y201.619
X197.047 Y201.075
X197.756 Y200.502
X198.442 Y199.902
X199.105 Y199.276
X199.743 Y198.624
X200.353 Y197.946
X200.934 Y197.243
X201.486 Y196.517
X202.005 Y195.768
X202.49 Y194.996
X202.939 Y194.202
X203.354 Y193.39
X203.731 Y192.56
X204.07 Y191.713
X204.369 Y190.852
X204.629 Y189.978
X204.85 Y189.094
X205.028 Y188.199
X205.166 Y187.298
X205.263 Y186.391
X205.319 Y185.481
X205.331 Y184.57
X205.302 Y183.658
X205.233 Y182.749
X205.122 Y181.844
X204.968 Y180.945
X204.773 Y180.055
X204.54 Y179.173
X204.265 Y178.304
X203.95 Y177.448
X203.596 Y176.608
X203.205 Y175.784
X202.776 Y174.979
X202.31 Y174.195
X201.811 Y173.433
X201.281 Y172.691
X200.724 Y171.968
X200.146 Y171.264
X199.55 Y170.573
X198.942 Y169.894
X198.324 Y169.223
X197.699 Y168.56
X197.068 Y167.901
X196.434 Y167.246
X195.797 Y166.594
X195.157 Y165.944
X194.516 Y165.295
X193.874 Y164.648
X192.588 Y163.355
X190.656 Y161.419
X185.499 Y156.26
X184.856 Y155.614
X184.214 Y154.965
X183.577 Y154.314
X182.943 Y153.658
X182.315 Y152.997
X181.695 Y152.329
X181.083 Y151.652
X180.482 Y150.967
X179.891 Y150.272
X179.313 Y149.567
X178.748 Y148.851
X178.197 Y148.125
X177.661 Y147.388
X177.138 Y146.64
X176.631 Y145.882
X176.14 Y145.114
X175.665 Y144.336
X175.208 Y143.547
X174.768 Y142.748
X174.344 Y141.941
X173.939 Y141.124
X173.551 Y140.299
X173.181 Y139.465
X172.829 Y138.624
X172.495 Y137.776
X172.18 Y136.92
X171.885 Y136.058
X171.608 Y135.189
X171.351 Y134.314
X171.112 Y133.434
X170.892 Y132.549
X170.692 Y131.66
X170.512 Y130.766
X170.351 Y129.868
X170.209 Y128.967
X170.085 Y128.064
X169.98 Y127.158
X169.891 Y126.251
X169.817 Y125.342
X169.756 Y124.432
X169.708 Y123.522
X169.67 Y122.611
X169.64 Y121.699
X169.617 Y120.788
X169.6 Y119.876
X169.587 Y118.965
X169.577 Y118.053
X169.57 Y117.141
X169.564 Y116.229
X169.561 Y115.317
X169.556 Y113.494
X169.553 Y110.758
X169.551 Y104.376
Y99.817
X169.553 Y98.905
X169.557 Y97.993
X169.566 Y97.081
X169.581 Y96.17
X169.603 Y95.258
X169.636 Y94.347
X169.68 Y93.436
X169.738 Y92.526
X169.81 Y91.617
X169.897 Y90.709
X170.001 Y89.804
X170.122 Y88.9
X170.26 Y87.999
X170.416 Y87.1
X170.59 Y86.205
X170.784 Y85.314
X170.997 Y84.428
X171.229 Y83.546
X171.479 Y82.669
X171.747 Y81.797
X172.034 Y80.932
X172.34 Y80.073
X172.665 Y79.221
X173.008 Y78.376
X173.37 Y77.539
X173.75 Y76.71
X174.149 Y75.89
X174.565 Y75.079
X174.999 Y74.277
X175.449 Y73.484
X175.917 Y72.702
X176.402 Y71.929
X176.904 Y71.169
X177.424 Y70.419
X177.958 Y69.681
X178.508 Y68.953
X179.071 Y68.236
X179.648 Y67.53
X180.236 Y66.833
X180.836 Y66.146
X181.444 Y65.467
X182.06 Y64.795
X182.683 Y64.129
X183.311 Y63.467
X183.943 Y62.81
X184.578 Y62.156
X185.215 Y61.504
X185.855 Y60.854
X186.496 Y60.205
X187.137 Y59.558
X188.423 Y58.265
X190.355 Y56.328
X194.868 Y51.814
X196.157 Y50.524
X196.799 Y49.877
X197.439 Y49.227
X198.074 Y48.573
X198.701 Y47.911
X199.316 Y47.238
X199.917 Y46.552
X200.499 Y45.85
X201.059 Y45.131
X201.593 Y44.392
X202.098 Y43.632
X202.572 Y42.853
X203.013 Y42.055
X203.419 Y41.239
X203.788 Y40.405
X204.119 Y39.556
X204.413 Y38.692
X204.667 Y37.817
X204.88 Y36.93
X205.052 Y36.035
X205.185 Y35.132
X205.275 Y34.225
X205.323 Y33.315
X205.33 Y32.403
X205.296 Y31.492
X205.219 Y30.583
X205.1 Y29.679
X204.941 Y28.781
X204.741 Y27.892
X204.5 Y27.012
X204.218 Y26.145
X203.898 Y25.291
X203.54 Y24.453
X203.142 Y23.632
X202.707 Y22.831
X202.236 Y22.05
X201.732 Y21.29
X201.195 Y20.553
X200.628 Y19.839
X200.034 Y19.148
X199.413 Y18.48
X198.767 Y17.836
X198.095 Y17.22
X197.398 Y16.633
X196.677 Y16.074
X195.933 Y15.548
X195.165 Y15.055
X194.376 Y14.598
X193.568 Y14.175
X192.742 Y13.789
X191.899 Y13.443
X191.041 Y13.135
X190.169 Y12.866
X189.287 Y12.636
X188.395 Y12.448
X187.495 Y12.302
X186.589 Y12.196
X185.68 Y12.131
X184.768 Y12.109
X183.856 Y12.129
X182.947 Y12.19
X182.041 Y12.293
X181.14 Y12.437
X180.248 Y12.623
X179.364 Y12.848
X178.492 Y13.114
X177.633 Y13.421
X176.789 Y13.766
X175.962 Y14.149
X175.153 Y14.57
X174.364 Y15.028
X173.597 Y15.521
X172.851 Y16.044
X172.124 Y16.595
X171.416 Y17.169
X170.722 Y17.761
X170.041 Y18.367
X169.369 Y18.983
X168.704 Y19.607
X168.044 Y20.236
X167.388 Y20.87
X166.736 Y21.507
X166.085 Y22.146
X165.437 Y22.787
X164.789 Y23.428
X163.496 Y24.714
X161.559 Y26.646
X156.4 Y31.803
X155.754 Y32.447
X155.106 Y33.088
X154.455 Y33.727
X153.801 Y34.361
X153.141 Y34.991
X152.475 Y35.614
X151.8 Y36.227
X151.117 Y36.831
X150.425 Y37.424
X149.722 Y38.005
X149.009 Y38.573
X148.285 Y39.127
X147.55 Y39.667
X146.804 Y40.193
X146.049 Y40.703
X145.283 Y41.198
X144.507 Y41.676
X143.72 Y42.137
X142.924 Y42.581
X142.118 Y43.008
X141.303 Y43.417
X140.48 Y43.809
X139.648 Y44.183
X138.808 Y44.538
X137.962 Y44.876
X137.107 Y45.195
X136.246 Y45.495
X135.379 Y45.775
X134.505 Y46.037
X133.626 Y46.28
X132.742 Y46.503
X131.854 Y46.708
X130.961 Y46.892
X130.064 Y47.057
X129.164 Y47.203
X128.261 Y47.331
X127.356 Y47.44
X126.449 Y47.533
X125.54 Y47.61
X124.631 Y47.673
X123.72 Y47.724
X122.809 Y47.764
X121.898 Y47.796
X120.986 Y47.82
X120.075 Y47.839
X119.163 Y47.853
X118.251 Y47.863
X117.34 Y47.871
X116.428 Y47.876
X115.516 Y47.881
X113.692 Y47.886
X110.957 Y47.889
X104.574 Y47.891
X100.015
X99.103 Y47.89
X98.192 Y47.886
X97.28 Y47.878
X96.368 Y47.865
X95.456 Y47.844
X94.545 Y47.815
X93.634 Y47.773
X92.724 Y47.718
X91.815 Y47.649
X90.907 Y47.565
X90.001 Y47.465
X89.096 Y47.348
X88.195 Y47.213
X87.296 Y47.061
X86.4 Y46.89
X85.508 Y46.701
X84.62 Y46.493
X83.737 Y46.265
X82.859 Y46.018
X81.987 Y45.754
X81.12 Y45.471
X80.26 Y45.169
X79.406 Y44.848
X78.56 Y44.509
X77.721 Y44.151
X76.891 Y43.775
X76.068 Y43.38
X75.255 Y42.968
X74.451 Y42.538
X73.656 Y42.091
X72.871 Y41.628
X72.097 Y41.147
X71.333 Y40.648
X70.581 Y40.132
X69.84 Y39.601
X69.11 Y39.055
X68.391 Y38.495
X67.682 Y37.921
X66.984 Y37.335
X66.294 Y36.738
X65.614 Y36.131
X64.94 Y35.517
X64.273 Y34.895
X63.61 Y34.268
X62.952 Y33.637
X62.297 Y33.003
X61.645 Y32.366
X60.995 Y31.727
X60.346 Y31.086
X59.698 Y30.444
X58.405 Y29.159
X56.468 Y27.227
X52.599 Y23.359
X50.664 Y21.425
X50.018 Y20.782
X49.369 Y20.142
X48.716 Y19.506
X48.056 Y18.877
X47.385 Y18.258
X46.702 Y17.654
X46.004 Y17.068
X45.289 Y16.502
X44.554 Y15.962
X43.799 Y15.451
X43.024 Y14.97
X42.23 Y14.522
X41.418 Y14.108
X40.588 Y13.731
X39.742 Y13.392
X38.881 Y13.089
X38.008 Y12.827
X37.124 Y12.605
X36.23 Y12.424
X35.329 Y12.283
X34.423 Y12.183
X33.513 Y12.126
X32.601 Y12.11
X31.69 Y12.136
X30.78 Y12.203
X29.875 Y12.313
X28.976 Y12.463
X28.084 Y12.654
X27.202 Y12.886
X26.332 Y13.159
X25.476 Y13.471
X24.634 Y13.821
X23.809 Y14.21
X23.003 Y14.637
X22.218 Y15.101
X21.454 Y15.598
X20.711 Y16.127
X19.992 Y16.688
X19.296 Y17.276
X18.623 Y17.891
X18.359 Y18.263
X17.994 Y19.099
X17.813 Y19.993
X17.711 Y20.899
X17.644 Y21.808
X17.593 Y22.718
X17.544 Y23.629
X17.493 Y24.539
X17.435 Y25.449
X17.372 Y26.359
X17.239 Y28.178
X17.178 Y29.087
X17.129 Y29.998
X17.1 Y30.909
X17.098 Y31.821
X17.128 Y32.732
X17.195 Y33.642
X17.308 Y34.546
X17.467 Y35.444
X17.674 Y36.332
X17.932 Y37.207
X18.242 Y38.064
X18.601 Y38.903
X19.011 Y39.717
X19.467 Y40.506
X19.964 Y41.271
X20.495 Y42.012
X21.053 Y42.733
X21.633 Y43.437
X22.229 Y44.127
X22.838 Y44.806
X23.456 Y45.476
X24.081 Y46.14
X24.711 Y46.799
X25.345 Y47.455
X25.981 Y48.107
X26.62 Y48.758
X27.261 Y49.407
X27.902 Y50.055
X29.188 Y51.348
X31.12 Y53.285
X34.342 Y56.51
X34.986 Y57.155
X35.629 Y57.802
X36.27 Y58.451
X36.908 Y59.102
X37.543 Y59.756
X38.173 Y60.416
X38.797 Y61.08
X39.414 Y61.752
X40.023 Y62.43
X40.623 Y63.117
X41.214 Y63.811
X41.794 Y64.515
X42.362 Y65.228
X42.918 Y65.951
X43.461 Y66.683
X43.992 Y67.424
X44.51 Y68.175
X45.014 Y68.935
X45.503 Y69.704
X45.978 Y70.483
X46.438 Y71.27
X46.884 Y72.065
X47.313 Y72.87
X47.727 Y73.682
X48.125 Y74.503
X48.507 Y75.331
X48.873 Y76.166
X49.223 Y77.008
X49.556 Y77.856
X49.873 Y78.712
X50.173 Y79.573
X50.455 Y80.44
X50.721 Y81.312
X50.969 Y82.189
X51.201 Y83.071
X51.415 Y83.957
X51.612 Y84.848
X51.791 Y85.742
X51.954 Y86.639
X52.1 Y87.539
X52.23 Y88.441
X52.343 Y89.346
X52.442 Y90.253
X52.526 Y91.161
X52.597 Y92.07
X52.657 Y92.979
X52.706 Y93.89
X52.747 Y94.801
X52.779 Y95.712
X52.805 Y96.623
X52.825 Y97.535
X52.841 Y98.447
X52.854 Y99.358
X52.863 Y100.27
X52.87 Y101.182
X52.876 Y102.094
X52.88 Y103.006
X52.885 Y104.829
X52.889 Y107.565
X52.891 Y113.036
X52.89 Y116.683
X52.889 Y117.595
X52.885 Y118.506
X52.878 Y119.418
X52.866 Y120.33
X52.849 Y121.242
X52.824 Y122.153
X52.789 Y123.064
X52.745 Y123.975
X52.689 Y124.885
X52.62 Y125.794
X52.538 Y126.702
X52.441 Y127.609
X52.33 Y128.514
X52.203 Y129.417
X52.061 Y130.318
X51.903 Y131.216
X51.729 Y132.111
X51.538 Y133.002
X51.33 Y133.89
X51.105 Y134.774
X50.864 Y135.653
X50.605 Y136.528
X50.331 Y137.397
X50.039 Y138.261
X49.731 Y139.119
X49.406 Y139.971
X49.065 Y140.817
X48.707 Y141.655
X48.333 Y142.487
X47.942 Y143.311
X47.536 Y144.127
X47.114 Y144.935
X46.676 Y145.735
X46.223 Y146.526
X45.754 Y147.308
X45.27 Y148.081
X44.771 Y148.844
X44.258 Y149.598
X43.73 Y150.341
X43.189 Y151.075
X42.634 Y151.799
X42.068 Y152.514
X41.49 Y153.219
X40.902 Y153.916
X40.305 Y154.605
X39.699 Y155.287
X39.087 Y155.962
X38.468 Y156.631
X37.843 Y157.296
X37.215 Y157.956
X36.583 Y158.613
X35.948 Y159.268
X35.31 Y159.92
X34.671 Y160.57
X34.031 Y161.219
X33.389 Y161.867
X32.104 Y163.161
X30.173 Y165.098
X29.528 Y165.744
X25.662 Y169.614
X25.018 Y170.26
X24.378 Y170.909
X23.74 Y171.561
X23.11 Y172.22
X22.489 Y172.888
X21.882 Y173.568
X21.293 Y174.264
X20.727 Y174.979
X20.191 Y175.717
X19.689 Y176.478
X19.224 Y177.262
X18.802 Y178.07
X18.427 Y178.901
X18.098 Y179.752
X17.822 Y180.621
X17.598 Y181.505
X17.427 Y182.4
X17.312 Y183.305
X17.252 Y184.215
X17.248 Y185.126
X17.301 Y186.037
X17.41 Y186.942
X17.573 Y187.839
X17.793 Y188.724
X18.067 Y189.594
X18.393 Y190.445
X18.772 Y191.274
X19.201 Y192.079
X19.675 Y192.858
X20.193 Y193.608
X20.752 Y194.329
X21.346 Y195.021
X21.976 Y195.679
X22.642 Y196.303
X23.34 Y196.889
X24.07 Y197.436
X24.831 Y197.938
X25.619 Y198.396
X26.434 Y198.806
X27.272 Y199.165
X28.13 Y199.473
X29.005 Y199.728
X29.895 Y199.928
X30.795 Y200.075
X31.702 Y200.164
X32.614 Y200.197
X33.525 Y200.176
X34.434 Y200.097
X35.335 Y199.962
X36.227 Y199.773
X37.105 Y199.527
X37.967 Y199.228
X38.809 Y198.878
X39.627 Y198.475
X40.42 Y198.025
X41.188 Y197.533
X41.932 Y197.006
X42.655 Y196.451
X43.36 Y195.873
X44.051 Y195.279
X44.732 Y194.671
X45.403 Y194.054
X46.068 Y193.43
X46.727 Y192.801
X47.383 Y192.167
X48.036 Y191.531
X48.687 Y190.892
X49.336 Y190.252
X49.984 Y189.61
X51.277 Y188.325
X53.214 Y186.393
X57.085 Y182.526
X57.731 Y181.883
X58.379 Y181.242
X59.03 Y180.604
X59.684 Y179.968
X60.343 Y179.338
X61.007 Y178.713
X61.678 Y178.095
X62.356 Y177.485
X63.041 Y176.884
X63.735 Y176.293
X64.438 Y175.712
X65.15 Y175.143
X65.872 Y174.585
X66.603 Y174.04
X67.343 Y173.508
X68.093 Y172.989
X68.852 Y172.484
X69.62 Y171.993
X70.398 Y171.516
X71.184 Y171.055
X71.979 Y170.608
X72.782 Y170.176
X73.594 Y169.761
X74.413 Y169.361
X75.24 Y168.977
X76.075 Y168.61
X76.916 Y168.258
X77.764 Y167.923
X78.618 Y167.604
X79.479 Y167.303
X80.345 Y167.018
X81.216 Y166.749
X82.093 Y166.499
X82.975 Y166.265
X83.86 Y166.049
X84.75 Y165.85
X85.644 Y165.669
X86.541 Y165.504
X87.44 Y165.357
X88.343 Y165.225
X89.247 Y165.11
X90.154 Y165.009
X91.061 Y164.924
X91.97 Y164.851
X92.88 Y164.79
X93.79 Y164.74
X94.701 Y164.699
X95.612 Y164.665
X96.524 Y164.639
X97.436 Y164.618
X98.347 Y164.602
X99.259 Y164.589
X100.171 Y164.58
X101.082 Y164.572
X101.994 Y164.567
X102.906 Y164.563
X104.73 Y164.557
X107.465 Y164.553
X112.936 Y164.551
X116.583 Y164.552
X117.495 Y164.553
X118.407 Y164.557
X119.319 Y164.564
X120.23 Y164.575
X121.142 Y164.591
X122.054 Y164.616
X122.965 Y164.649
X123.876 Y164.693
X124.786 Y164.747
X125.695 Y164.814
X126.603 Y164.894
X127.51 Y164.989
X128.415 Y165.099
X129.319 Y165.224
X130.22 Y165.364
X131.118 Y165.52
X132.013 Y165.693
X132.905 Y165.882
X133.793 Y166.088
X134.678 Y166.31
X135.558 Y166.55
X136.433 Y166.806
X137.303 Y167.079
X138.167 Y167.369
X139.026 Y167.676
X139.878 Y167.999
X140.725 Y168.338
X141.564 Y168.694
X142.396 Y169.066
X143.221 Y169.455
X144.038 Y169.86
X144.847 Y170.281
X145.648 Y170.717
X146.44 Y171.168
X147.223 Y171.636
X147.997 Y172.118
X148.761 Y172.616
X149.516 Y173.127
X150.26 Y173.653
X150.995 Y174.193
X151.72 Y174.746
X152.436 Y175.311
X153.142 Y175.888
X153.84 Y176.475
X154.53 Y177.071
X155.212 Y177.676
X155.888 Y178.288
X156.558 Y178.906
X157.223 Y179.53
X157.884 Y180.158
X158.541 Y180.79
X159.196 Y181.425
X159.848 Y182.062
X160.499 Y182.701
X161.148 Y183.341
X161.796 Y183.983
X163.09 Y185.268
X165.027 Y187.199
X166.318 Y188.487
X169.543 Y191.71
X170.189 Y192.353
X170.837 Y192.994
X171.489 Y193.632
X172.147 Y194.263
X172.814 Y194.885
X173.492 Y195.494
X174.186 Y196.086
X174.899 Y196.654
X175.634 Y197.194
X176.393 Y197.7
X177.174 Y198.17
X177.98 Y198.596
X178.808 Y198.977
X179.657 Y199.311
X180.524 Y199.593
X181.407 Y199.822
X182.301 Y200
X183.205 Y200.12
X184.114 Y200.186
X185.026 Y200.197
X185.937 Y200.149
X186.843 Y200.047
X187.741 Y199.889
X188.627 Y199.675
X189.499 Y199.408
X190.353 Y199.088
X191.184 Y198.714
X191.992 Y198.291
X192.774 Y197.822
X193.527 Y197.308
X194.251 Y196.754
X194.947 Y196.164
X195.609 Y195.537
X196.236 Y194.876
X196.828 Y194.182
X197.378 Y193.455
X197.885 Y192.697
X198.349 Y191.912
X198.763 Y191.1
X199.128 Y190.264
X199.442 Y189.408
X199.702 Y188.534
X199.908 Y187.646
X200.061 Y186.747
X200.157 Y185.84
X200.196 Y184.929
X200.181 Y184.018
X200.108 Y183.109
X199.979 Y182.206
X199.797 Y181.313
X199.557 Y180.433
X199.264 Y179.569
X198.92 Y178.725
X198.522 Y177.905
X198.077 Y177.109
X197.59 Y176.338
X197.066 Y175.591
X196.513 Y174.867
X195.938 Y174.159
X195.345 Y173.467
X194.739 Y172.785
X194.123 Y172.113
X193.499 Y171.448
X192.87 Y170.787
X192.237 Y170.131
X191.601 Y169.478
X190.963 Y168.827
X190.322 Y168.178
X189.681 Y167.53
X188.396 Y166.236
X186.464 Y164.299
X182.597 Y160.429
X181.954 Y159.783
X181.313 Y159.135
X180.674 Y158.484
X180.038 Y157.831
X179.407 Y157.173
X178.781 Y156.509
X178.163 Y155.839
X177.552 Y155.162
X176.95 Y154.477
X176.358 Y153.784
X175.776 Y153.082
X175.205 Y152.371
X174.646 Y151.651
X174.099 Y150.921
X173.565 Y150.182
X173.045 Y149.433
X172.539 Y148.675
X172.046 Y147.907
X171.568 Y147.131
X171.105 Y146.345
X170.657 Y145.551
X170.224 Y144.749
X169.806 Y143.938
X169.405 Y143.12
X169.019 Y142.293
X168.65 Y141.46
X168.297 Y140.619
X167.96 Y139.772
X167.64 Y138.918
X167.336 Y138.058
X167.05 Y137.193
X166.78 Y136.322
X166.527 Y135.446
X166.291 Y134.565
X166.073 Y133.679
X165.873 Y132.79
X165.689 Y131.897
X165.523 Y131
X165.374 Y130.101
X165.241 Y129.199
X165.123 Y128.294
X165.021 Y127.388
X164.933 Y126.481
X164.859 Y125.572
X164.797 Y124.662
X164.745 Y123.752
X164.703 Y122.841
X164.669 Y121.93
X164.642 Y121.019
X164.62 Y120.107
X164.604 Y119.195
X164.591 Y118.284
X164.581 Y117.372
X164.573 Y116.46
X164.567 Y115.548
X164.563 Y114.636
X164.557 Y112.813
X164.553 Y110.077
X164.551 Y104.607
Y100.959
X164.553 Y100.047
X164.556 Y99.136
X164.563 Y98.224
X164.573 Y97.312
X164.59 Y96.4
X164.613 Y95.489
X164.646 Y94.578
X164.688 Y93.667
X164.742 Y92.757
X164.807 Y91.847
X164.886 Y90.939
X164.979 Y90.032
X165.087 Y89.126
X165.21 Y88.223
X165.349 Y87.322
X165.503 Y86.423
X165.674 Y85.527
X165.862 Y84.635
X166.066 Y83.746
X166.286 Y82.862
X166.523 Y81.981
X166.777 Y81.105
X167.048 Y80.235
X167.337 Y79.37
X167.641 Y78.51
X167.963 Y77.657
X168.3 Y76.81
X168.654 Y75.97
X169.025 Y75.137
X169.411 Y74.311
X169.814 Y73.493
X170.232 Y72.683
X170.667 Y71.881
X171.117 Y71.088
X171.582 Y70.304
X172.063 Y69.529
X172.559 Y68.764
X173.07 Y68.009
X173.594 Y67.263
X174.132 Y66.526
X174.683 Y65.8
X175.247 Y65.084
X175.823 Y64.376
X176.409 Y63.678
X177.004 Y62.987
X177.608 Y62.304
X178.22 Y61.628
X178.838 Y60.957
X179.461 Y60.292
X180.089 Y59.631
X180.72 Y58.973
X181.355 Y58.318
X181.992 Y57.665
X182.63 Y57.015
X183.271 Y56.365
X183.912 Y55.717
X185.197 Y54.423
X187.128 Y52.486
X189.061 Y50.551
X191.639 Y47.971
X192.283 Y47.325
X192.924 Y46.676
X193.562 Y46.025
X194.194 Y45.368
X194.817 Y44.702
X195.428 Y44.025
X196.022 Y43.333
X196.593 Y42.622
X197.135 Y41.89
X197.646 Y41.134
X198.12 Y40.355
X198.551 Y39.552
X198.937 Y38.726
X199.277 Y37.879
X199.564 Y37.014
X199.8 Y36.133
X199.983 Y35.24
X200.11 Y34.337
X200.181 Y33.428
X200.198 Y32.516
X200.157 Y31.606
X200.061 Y30.699
X199.909 Y29.8
X199.701 Y28.912
X199.44 Y28.038
X199.125 Y27.183
X198.757 Y26.348
X198.34 Y25.538
X197.875 Y24.753
X197.366 Y23.997
X196.816 Y23.269
X196.23 Y22.571
X195.607 Y21.905
X194.949 Y21.274
X194.259 Y20.678
X193.536 Y20.123
X192.781 Y19.611
X191.999 Y19.142
X191.19 Y18.722
X190.356 Y18.352
X189.503 Y18.031
X188.631 Y17.765
X187.744 Y17.553
X186.846 Y17.394
X185.94 Y17.293
X185.029 Y17.247
X184.118 Y17.256
X183.208 Y17.324
X182.305 Y17.446
X181.41 Y17.623
X180.529 Y17.857
X179.663 Y18.144
X178.817 Y18.483
X177.994 Y18.875
X177.195 Y19.315
X176.421 Y19.797
X175.673 Y20.318
X174.945 Y20.868
X174.236 Y21.441
X173.542 Y22.032
X172.86 Y22.637
X172.186 Y23.252
X171.52 Y23.874
X170.86 Y24.503
X170.203 Y25.135
X169.55 Y25.771
X168.898 Y26.41
X168.249 Y27.05
X167.601 Y27.691
X166.307 Y28.976
X164.37 Y30.908
X160.5 Y34.774
X159.853 Y35.418
X159.206 Y36.059
X158.556 Y36.699
X157.902 Y37.335
X157.245 Y37.967
X156.582 Y38.593
X155.913 Y39.212
X155.237 Y39.824
X154.553 Y40.427
X153.861 Y41.021
X153.16 Y41.604
X152.45 Y42.176
X151.731 Y42.736
X151.002 Y43.285
X150.264 Y43.82
X149.516 Y44.342
X148.759 Y44.85
X147.993 Y45.344
X147.217 Y45.823
X146.432 Y46.288
X145.639 Y46.737
X144.838 Y47.172
X144.028 Y47.591
X143.21 Y47.995
X142.385 Y48.382
X141.552 Y48.753
X140.712 Y49.108
X139.865 Y49.447
X139.012 Y49.768
X138.153 Y50.073
X137.288 Y50.362
X136.417 Y50.633
X135.542 Y50.888
X134.662 Y51.126
X133.777 Y51.346
X132.888 Y51.548
X131.995 Y51.733
X131.099 Y51.901
X130.199 Y52.052
X129.298 Y52.187
X128.394 Y52.306
X127.488 Y52.41
X126.58 Y52.499
X125.672 Y52.575
X124.762 Y52.639
X123.852 Y52.691
X122.941 Y52.735
X122.03 Y52.769
X121.118 Y52.797
X120.207 Y52.819
X119.295 Y52.837
X118.384 Y52.85
X117.472 Y52.86
X116.56 Y52.868
X115.648 Y52.874
X114.736 Y52.878
X112.913 Y52.884
X110.177 Y52.888
X104.707 Y52.891
X101.059
X100.147 Y52.889
X99.236 Y52.886
X98.324 Y52.88
X97.412 Y52.87
X96.5 Y52.855
X95.589 Y52.832
X94.678 Y52.801
X93.767 Y52.759
X92.856 Y52.707
X91.947 Y52.642
X91.038 Y52.565
X90.131 Y52.474
X89.226 Y52.368
X88.322 Y52.246
X87.42 Y52.109
X86.521 Y51.956
X85.626 Y51.787
X84.733 Y51.601
X83.844 Y51.399
X82.959 Y51.18
X82.078 Y50.944
X81.201 Y50.692
X80.33 Y50.423
X79.465 Y50.137
X78.604 Y49.834
X77.75 Y49.515
X76.903 Y49.178
X76.062 Y48.826
X75.228 Y48.457
X74.401 Y48.072
X73.582 Y47.672
X72.771 Y47.255
X71.968 Y46.823
X71.174 Y46.375
X70.389 Y45.911
X69.614 Y45.431
X68.848 Y44.937
X68.091 Y44.428
X67.344 Y43.905
X66.607 Y43.369
X65.879 Y42.819
X65.161 Y42.257
X64.453 Y41.683
X63.753 Y41.098
X63.062 Y40.504
X62.378 Y39.9
X61.701 Y39.29
X61.03 Y38.672
X60.364 Y38.05
X59.702 Y37.422
X59.044 Y36.791
X58.389 Y36.157
X57.736 Y35.52
X57.086 Y34.882
X56.436 Y34.242
X55.788 Y33.6
X54.494 Y32.315
X52.556 Y30.385
X49.976 Y27.807
X48.041 Y25.873
X47.395 Y25.23
X46.747 Y24.588
X46.096 Y23.95
X45.44 Y23.317
X44.776 Y22.692
X44.1 Y22.08
X43.41 Y21.484
X42.701 Y20.91
X41.971 Y20.364
X41.218 Y19.85
X40.442 Y19.372
X39.641 Y18.936
X38.817 Y18.545
X37.973 Y18.2
X37.109 Y17.907
X36.23 Y17.665
X35.338 Y17.477
X34.436 Y17.344
X33.528 Y17.266
X32.616 Y17.244
X31.705 Y17.278
X30.797 Y17.368
X29.897 Y17.514
X29.008 Y17.716
X28.133 Y17.971
X27.275 Y18.28
X26.438 Y18.643
X25.625 Y19.054
X24.837 Y19.514
X24.078 Y20.019
X23.753 Y20.339
X23.308 Y21.069
X23.269 Y21.126
X23.224 Y21.178
X23.174 Y21.225
X22.747 Y21.584
X22.603 Y21.711
X22.333 Y21.974
X21.974 Y22.333
X21.711 Y22.603
X21.584 Y22.747
X21.235 Y23.161
X20.367 Y24.197
X20.261 Y24.33
X19.955 Y24.819
X19.847 Y24.993
X19.11 Y26.269
X19.018 Y26.431
X18.997 Y26.476
X18.811 Y26.903
X18.737 Y27.097
X18.36 Y28.133
X18.285 Y28.34
X18.142 Y28.755
X18.072 Y28.962
X17.947 Y29.583
X17.691 Y31.034
X17.639 Y31.448
X17.622 Y31.655
X17.618 Y32.277
Y33.52
X17.628 Y33.727
X17.657 Y34.141
X17.685 Y34.348
X17.982 Y36.028
X18.015 Y36.213
X18.198 Y36.834
X18.272 Y37.041
X18.649 Y38.077
X18.727 Y38.284
X18.89 Y38.699
X18.977 Y38.906
X19.018 Y38.982
X19.432 Y39.704
X19.81 Y40.356
X20.054 Y40.776
X20.189 Y40.978
X20.261 Y41.078
X20.34 Y41.185
X21.208 Y42.221
X21.557 Y42.635
X21.711 Y42.814
X21.943 Y43.049
X22.564 Y43.671
X51.75 Y72.857
X52.362 Y73.534
X52.921 Y74.254
X53.412 Y75.022
X53.847 Y75.823
X54.238 Y76.647
X54.592 Y77.488
X54.916 Y78.34
X55.215 Y79.201
X55.491 Y80.07
X55.747 Y80.946
X55.984 Y81.826
X56.203 Y82.711
X56.406 Y83.6
X56.592 Y84.493
X56.763 Y85.388
X56.918 Y86.287
X57.058 Y87.188
X57.184 Y88.091
X57.295 Y88.996
X57.393 Y89.902
X57.478 Y90.81
X57.551 Y91.719
X57.614 Y92.629
X57.667 Y93.539
X57.711 Y94.45
X57.748 Y95.361
X57.778 Y96.272
X57.802 Y97.184
X57.822 Y98.095
X57.837 Y99.007
X57.85 Y99.919
X57.86 Y100.83
X57.867 Y101.742
X57.873 Y102.654
X57.877 Y103.566
X57.883 Y105.389
X57.888 Y108.125
X57.89 Y112.684
Y115.419
X57.889 Y116.331
X57.886 Y117.243
X57.882 Y118.155
X57.874 Y119.067
X57.861 Y119.978
X57.844 Y120.89
X57.819 Y121.801
X57.787 Y122.713
X57.746 Y123.624
X57.695 Y124.534
X57.633 Y125.444
X57.56 Y126.353
X57.474 Y127.26
X57.375 Y128.167
X57.262 Y129.072
X57.136 Y129.975
X56.996 Y130.876
X56.842 Y131.774
X56.673 Y132.67
X56.49 Y133.563
X56.291 Y134.453
X56.078 Y135.34
X55.849 Y136.223
X55.605 Y137.101
X55.345 Y137.975
X55.071 Y138.845
X54.781 Y139.709
X54.476 Y140.569
X54.157 Y141.423
X53.823 Y142.271
X53.701 Y142.566
X53.664 Y142.641
X53.618 Y142.71
X53.563 Y142.772
X22.125 Y174.209
X21.738 Y174.6
X21.711 Y174.628
X21.504 Y174.871
X20.86 Y175.636
X20.34 Y176.257
X20.261 Y176.364
X20.189 Y176.464
X20.051 Y176.672
X19.639 Y177.38
X19.212 Y178.122
X19.018 Y178.46
X18.978 Y178.536
X18.89 Y178.743
X18.727 Y179.158
X18.649 Y179.365
X18.272 Y180.401
X18.198 Y180.608
X18.015 Y181.229
X17.722 Y182.887
X17.685 Y183.094
X17.657 Y183.301
X17.628 Y183.715
X17.618 Y183.922
Y185.165
X17.622 Y185.787
X17.639 Y185.994
X17.691 Y186.408
X17.947 Y187.859
X18.072 Y188.48
X18.142 Y188.687
X18.285 Y189.102
X18.604 Y189.98
X18.736 Y190.345
X18.811 Y190.54
X18.997 Y190.966
X19.018 Y191.011
X19.11 Y191.173
X19.847 Y192.449
X20.084 Y192.831
X20.261 Y193.113
X20.367 Y193.245
X21.409 Y194.488
X21.584 Y194.695
X21.711 Y194.839
X21.974 Y195.109
X22.333 Y195.468
X22.603 Y195.731
X22.747 Y195.858
X23.161 Y196.207
X24.197 Y197.076
X24.329 Y197.181
X24.819 Y197.488
X24.992 Y197.595
X26.269 Y198.332
X26.431 Y198.424
X26.476 Y198.445
X26.903 Y198.631
X27.097 Y198.706
X28.133 Y199.083
X28.34 Y199.157
X28.755 Y199.301
X28.962 Y199.37
X29.583 Y199.495
X31.034 Y199.75
X31.448 Y199.803
X31.655 Y199.82
X32.277 Y199.824
X33.52
X33.727 Y199.814
X34.141 Y199.785
X34.348 Y199.756
X36.029 Y199.46
X36.213 Y199.427
X36.834 Y199.244
X37.041 Y199.17
X38.077 Y198.793
X38.284 Y198.715
X38.699 Y198.552
X38.906 Y198.465
X38.982 Y198.424
X39.704 Y198.01
X40.356 Y197.633
X40.776 Y197.388
X40.978 Y197.253
X41.078 Y197.181
X41.185 Y197.103
X42.221 Y196.234
X42.635 Y195.885
X42.814 Y195.731
X43.049 Y195.499
X43.671 Y194.879
X72.858 Y165.692
X73.534 Y165.08
X74.254 Y164.521
X75.023 Y164.03
X75.824 Y163.595
X76.648 Y163.205
X77.488 Y162.851
X78.341 Y162.527
X79.202 Y162.228
X80.071 Y161.951
X80.946 Y161.695
X81.826 Y161.457
X82.711 Y161.238
X83.6 Y161.035
X84.493 Y160.849
X85.389 Y160.679
X86.287 Y160.523
X87.188 Y160.383
X88.091 Y160.258
X88.996 Y160.147
X89.903 Y160.049
X90.811 Y159.963
X91.719 Y159.89
X92.629 Y159.827
X93.539 Y159.774
X94.45 Y159.73
X95.361 Y159.694
X96.273 Y159.664
X97.184 Y159.639
X98.096 Y159.62
X99.007 Y159.604
X99.919 Y159.592
X100.831 Y159.582
X101.743 Y159.575
X102.654 Y159.569
X103.566 Y159.564
X105.39 Y159.558
X108.125 Y159.554
X112.684 Y159.552
X115.42
X116.332 Y159.553
X117.243 Y159.556
X118.155 Y159.561
X119.067 Y159.569
X119.979 Y159.581
X120.89 Y159.599
X121.802 Y159.623
X122.713 Y159.656
X123.624 Y159.697
X124.534 Y159.748
X125.444 Y159.809
X126.353 Y159.882
X127.261 Y159.968
X128.167 Y160.067
X129.072 Y160.179
X129.975 Y160.305
X130.876 Y160.445
X131.775 Y160.599
X132.671 Y160.768
X133.564 Y160.952
X134.454 Y161.15
X135.34 Y161.364
X136.223 Y161.592
X137.102 Y161.836
X137.976 Y162.095
X138.845 Y162.37
X139.71 Y162.66
X140.569 Y162.964
X141.423 Y163.284
X142.271 Y163.618
X142.565 Y163.74
X142.639 Y163.777
X142.708 Y163.823
X142.77 Y163.878
X174.209 Y195.317
X174.6 Y195.704
X174.628 Y195.731
X174.87 Y195.938
X175.636 Y196.582
X176.257 Y197.103
X176.364 Y197.181
X176.464 Y197.253
X176.672 Y197.392
X177.379 Y197.803
X178.122 Y198.23
X178.46 Y198.424
X178.536 Y198.464
X178.743 Y198.552
X179.158 Y198.715
X179.365 Y198.793
X180.401 Y199.17
X180.608 Y199.244
X181.229 Y199.427
X182.887 Y199.72
X183.094 Y199.756
X183.301 Y199.785
X183.715 Y199.814
X183.922 Y199.824
X185.165
X185.787 Y199.82
X185.994 Y199.803
X186.408 Y199.75
X187.859 Y199.495
X188.48 Y199.37
X188.687 Y199.301
X189.102 Y199.158
X189.98 Y198.838
X190.345 Y198.706
X190.54 Y198.631
X190.966 Y198.445
X191.011 Y198.424
X191.173 Y198.332
X192.45 Y197.595
X192.831 Y197.358
X193.113 Y197.181
X193.245 Y197.076
X194.488 Y196.033
X194.695 Y195.858
X194.839 Y195.731
X195.109 Y195.468
X195.468 Y195.109
X195.731 Y194.839
X195.858 Y194.695
X196.207 Y194.281
X197.076 Y193.245
X197.181 Y193.113
X197.488 Y192.623
X197.595 Y192.45
X198.332 Y191.173
X198.424 Y191.011
X198.445 Y190.966
X198.631 Y190.54
X198.706 Y190.345
X199.083 Y189.309
X199.158 Y189.102
X199.301 Y188.687
X199.37 Y188.48
X199.495 Y187.859
X199.75 Y186.408
X199.803 Y185.994
X199.82 Y185.787
X199.824 Y185.165
Y183.922
X199.814 Y183.715
X199.785 Y183.301
X199.756 Y183.094
X199.46 Y181.412
X199.427 Y181.229
X199.244 Y180.608
X199.17 Y180.401
X198.793 Y179.365
X198.715 Y179.158
X198.552 Y178.743
X198.464 Y178.536
X198.424 Y178.46
X198.01 Y177.738
X197.633 Y177.086
X197.388 Y176.665
X197.253 Y176.464
X197.181 Y176.364
X197.103 Y176.257
X196.234 Y175.221
X195.885 Y174.807
X195.731 Y174.628
X195.499 Y174.393
X194.878 Y173.771
X165.692 Y144.585
X165.08 Y143.908
X164.521 Y143.188
X164.031 Y142.419
X163.596 Y141.618
X163.206 Y140.794
X162.852 Y139.953
X162.528 Y139.101
X162.229 Y138.239
X161.953 Y137.371
X161.696 Y136.496
X161.459 Y135.615
X161.239 Y134.73
X161.036 Y133.841
X160.85 Y132.949
X160.68 Y132.053
X160.525 Y131.154
X160.385 Y130.253
X160.26 Y129.35
X160.148 Y128.445
X160.05 Y127.539
X159.964 Y126.631
X159.891 Y125.722
X159.828 Y124.813
X159.775 Y123.902
X159.73 Y122.992
X159.694 Y122.08
X159.664 Y121.169
X159.639 Y120.258
X159.62 Y119.346
X159.604 Y118.434
X159.592 Y117.523
X159.582 Y116.611
X159.575 Y115.699
X159.569 Y114.787
X159.564 Y113.876
X159.558 Y112.052
X159.554 Y109.316
X159.552 Y104.757
Y102.022
X159.553 Y101.11
X159.556 Y100.198
X159.561 Y99.287
X159.569 Y98.375
X159.581 Y97.463
X159.599 Y96.551
X159.624 Y95.64
X159.656 Y94.729
X159.698 Y93.818
X159.749 Y92.907
X159.811 Y91.998
X159.884 Y91.089
X159.969 Y90.181
X160.068 Y89.275
X160.18 Y88.37
X160.306 Y87.467
X160.446 Y86.566
X160.6 Y85.667
X160.77 Y84.771
X160.953 Y83.878
X161.152 Y82.988
X161.365 Y82.102
X161.594 Y81.219
X161.837 Y80.34
X162.096 Y79.466
X162.37 Y78.596
X162.66 Y77.731
X162.964 Y76.872
X163.284 Y76.018
X163.619 Y75.17
X163.739 Y74.878
X163.776 Y74.804
X163.822 Y74.735
X163.877 Y74.672
X195.317 Y43.233
X195.704 Y42.842
X195.731 Y42.814
X195.938 Y42.572
X196.582 Y41.806
X197.103 Y41.185
X197.181 Y41.078
X197.253 Y40.978
X197.392 Y40.77
X197.803 Y40.063
X198.23 Y39.32
X198.424 Y38.982
X198.465 Y38.906
X198.552 Y38.699
X198.715 Y38.284
X198.793 Y38.077
X199.17 Y37.041
X199.244 Y36.834
X199.427 Y36.213
X199.72 Y34.555
X199.756 Y34.348
X199.785 Y34.141
X199.814 Y33.727
X199.824 Y33.52
Y32.277
X199.82 Y31.655
X199.803 Y31.448
X199.75 Y31.034
X199.495 Y29.583
X199.37 Y28.962
X199.301 Y28.755
X199.157 Y28.34
X198.838 Y27.462
X198.706 Y27.097
X198.631 Y26.903
X198.445 Y26.476
X198.424 Y26.431
X198.332 Y26.269
X197.595 Y24.992
X197.358 Y24.611
X197.181 Y24.329
X197.076 Y24.197
X196.033 Y22.954
X195.858 Y22.747
X195.731 Y22.603
X195.468 Y22.333
X195.109 Y21.974
X194.839 Y21.711
X194.695 Y21.584
X194.281 Y21.235
X193.245 Y20.367
X193.113 Y20.261
X192.623 Y19.955
X192.449 Y19.847
X191.173 Y19.11
X191.011 Y19.018
X190.966 Y18.997
X190.54 Y18.811
X190.345 Y18.736
X189.309 Y18.359
X189.102 Y18.285
X188.687 Y18.142
X188.48 Y18.072
X187.859 Y17.947
X186.408 Y17.691
X185.994 Y17.639
X185.787 Y17.622
X185.165 Y17.618
X183.922
X183.715 Y17.628
X183.301 Y17.657
X183.094 Y17.685
X181.414 Y17.982
X181.229 Y18.015
X180.608 Y18.198
X180.401 Y18.272
X179.365 Y18.649
X179.158 Y18.727
X178.743 Y18.89
X178.536 Y18.978
X178.46 Y19.018
X177.739 Y19.432
X177.086 Y19.81
X176.666 Y20.054
X176.464 Y20.189
X176.364 Y20.261
X176.257 Y20.34
X175.221 Y21.208
X174.807 Y21.557
X174.628 Y21.711
X174.393 Y21.943
X173.771 Y22.564
X144.585 Y51.75
X143.909 Y52.362
X143.188 Y52.921
X142.42 Y53.411
X141.618 Y53.847
X140.794 Y54.236
X139.954 Y54.59
X139.101 Y54.914
X138.24 Y55.212
X137.371 Y55.489
X136.496 Y55.745
X135.616 Y55.983
X134.731 Y56.203
X133.842 Y56.406
X132.949 Y56.592
X132.053 Y56.762
X131.155 Y56.917
X130.254 Y57.057
X129.35 Y57.182
X128.445 Y57.293
X127.539 Y57.391
X126.631 Y57.477
X125.722 Y57.55
X124.813 Y57.614
X123.902 Y57.667
X122.992 Y57.711
X122.081 Y57.748
X121.169 Y57.778
X120.258 Y57.803
X119.346 Y57.822
X118.435 Y57.838
X117.523 Y57.85
X116.611 Y57.86
X115.699 Y57.867
X114.788 Y57.873
X113.876 Y57.877
X112.052 Y57.883
X109.317 Y57.888
X104.758 Y57.89
X102.022
X101.11 Y57.889
X100.199 Y57.886
X99.287 Y57.882
X98.375 Y57.873
X97.463 Y57.861
X96.552 Y57.843
X95.64 Y57.818
X94.729 Y57.786
X93.818 Y57.744
X92.908 Y57.693
X91.998 Y57.631
X91.089 Y57.558
X90.181 Y57.472
X89.275 Y57.374
X88.37 Y57.262
X87.467 Y57.136
X86.566 Y56.996
X85.667 Y56.842
X84.771 Y56.672
X83.878 Y56.488
X82.988 Y56.289
X82.102 Y56.076
X81.219 Y55.847
X80.34 Y55.604
X79.466 Y55.345
X78.596 Y55.071
X77.732 Y54.782
X76.872 Y54.477
X76.018 Y54.157
X75.17 Y53.823
X74.876 Y53.7
X74.801 Y53.664
X74.732 Y53.617
X74.67 Y53.563
X43.233 Y22.125
X42.842 Y21.738
X42.814 Y21.711
X42.571 Y21.504
X41.806 Y20.86
X41.185 Y20.34
X41.078 Y20.261
X40.978 Y20.189
X40.77 Y20.051
X40.062 Y19.639
X39.32 Y19.212
X38.982 Y19.018
X38.906 Y18.977
X38.699 Y18.89
X38.284 Y18.727
X38.077 Y18.649
X37.041 Y18.272
X36.834 Y18.198
X36.213 Y18.015
X34.555 Y17.722
X34.348 Y17.685
X34.141 Y17.657
X33.727 Y17.628
X33.52 Y17.618
X32.277
X31.655 Y17.622
X31.448 Y17.639
X31.034 Y17.691
X29.583 Y17.947
X28.962 Y18.072
X28.755 Y18.142
X28.34 Y18.285
X27.463 Y18.604
X27.097 Y18.737
X26.903 Y18.811
X26.476 Y18.997
X26.431 Y19.018
X26.269 Y19.11
X24.993 Y19.847
X24.611 Y20.085
X24.33 Y20.261
X24.197 Y20.367
X23.174 Y21.225
G3 X22.438 Y21.258 I-0.391 J-0.5
G1 X22.355 Y21.204 Z-4.752
X22.273 Y21.151 Z-4.729
X22.196 Y21.101 Z-4.691
X22.125 Y21.055 Z-4.639
X22.061 Y21.014 Z-4.574
X22.007 Y20.979 Z-4.498
X21.963 Y20.951 Z-4.413
X21.931 Y20.93 Z-4.321
X21.911 Y20.917 Z-4.224
X21.905 Y20.913 Z-4.125
G0 Z5
X50.445 Y72.325
Z-3.49
G1 Z-4.125 F250
X50.453 Y72.327 Z-4.224
X50.476 Y72.332 Z-4.321
X50.513 Y72.342 Z-4.413
X50.563 Y72.354 Z-4.498
X50.626 Y72.37 Z-4.574
X50.699 Y72.389 Z-4.639
X50.781 Y72.41 Z-4.691
X50.871 Y72.433 Z-4.729
X50.965 Y72.457 Z-4.752
X51.061 Y72.481 Z-4.76
G3 X51.75 Y72.857 I-0.39 J1.534
G1 X59.208 Y80.315
X59.82 Y80.992
X60.33 Y81.747
X60.748 Y82.557
X61.09 Y83.403
X61.371 Y84.27
X61.605 Y85.152
X61.801 Y86.042
X61.967 Y86.939
X62.11 Y87.839
X62.233 Y88.743
X62.338 Y89.648
X62.429 Y90.556
X62.507 Y91.464
X62.574 Y92.374
X62.63 Y93.284
X62.678 Y94.194
X62.719 Y95.105
X62.752 Y96.016
X62.78 Y96.928
X62.803 Y97.839
X62.821 Y98.751
X62.836 Y99.662
X62.848 Y100.574
X62.858 Y101.486
X62.865 Y102.398
X62.871 Y103.31
X62.876 Y104.221
X62.882 Y106.045
X62.887 Y108.78
X62.89 Y112.428
Y114.251
X62.889 Y115.163
X62.887 Y116.075
X62.884 Y116.987
X62.878 Y117.898
X62.869 Y118.81
X62.856 Y119.722
X62.838 Y120.634
X62.813 Y121.545
X62.782 Y122.456
X62.743 Y123.367
X62.695 Y124.278
X62.638 Y125.188
X62.571 Y126.097
X62.492 Y127.006
X62.402 Y127.913
X62.3 Y128.819
X62.186 Y129.724
X62.059 Y130.627
X61.92 Y131.528
X61.767 Y132.427
X61.601 Y133.323
X61.422 Y134.217
X61.27 Y134.921
X61.234 Y135.037
X61.176 Y135.143
X61.099 Y135.236
X53.563 Y142.772
G3 X52.833 Y142.869 I-0.433 J-0.464
G1 X52.745 Y142.823 Z-4.752
X52.66 Y142.777 Z-4.729
X52.578 Y142.734 Z-4.691
X52.503 Y142.695 Z-4.639
X52.436 Y142.659 Z-4.574
X52.379 Y142.629 Z-4.498
X52.333 Y142.605 Z-4.413
X52.299 Y142.587 Z-4.321
X52.279 Y142.576 Z-4.224
X52.272 Y142.572 Z-4.125
G0 Z5
X57.903 Y79.783
Z-3.49
G1 Z-4.125 F250
X57.911 Y79.784 Z-4.224
X57.934 Y79.79 Z-4.321
X57.971 Y79.8 Z-4.413
X58.021 Y79.812 Z-4.498
X58.084 Y79.828 Z-4.574
X58.157 Y79.847 Z-4.639
X58.239 Y79.868 Z-4.691
X58.329 Y79.891 Z-4.729
X58.423 Y79.915 Z-4.752
X58.519 Y79.939 Z-4.76
G3 X59.208 Y80.315 I-0.39 J1.534
G1 X65.009 Y86.116
X65.621 Y86.792
X66.131 Y87.548
X66.53 Y88.368
X66.837 Y89.226
X67.073 Y90.107
X67.252 Y91.001
X67.389 Y91.903
X67.495 Y92.808
X67.578 Y93.716
X67.642 Y94.626
X67.693 Y95.536
X67.734 Y96.447
X67.767 Y97.358
X67.792 Y98.27
X67.813 Y99.181
X67.83 Y100.093
X67.843 Y101.005
X67.853 Y101.916
X67.862 Y102.828
X67.868 Y103.74
X67.873 Y104.652
X67.881 Y106.475
X67.885 Y108.299
X67.888 Y111.035
X67.889 Y113.77
X67.888 Y114.682
X67.886 Y115.594
X67.882 Y116.505
X67.876 Y117.417
X67.867 Y118.329
X67.855 Y119.241
X67.838 Y120.152
X67.815 Y121.064
X67.787 Y121.975
X67.752 Y122.886
X67.709 Y123.797
X67.657 Y124.708
X67.597 Y125.617
X67.527 Y126.526
X67.446 Y127.435
X67.356 Y128.342
X67.3 Y128.839
X67.268 Y128.978
X67.206 Y129.106
X67.118 Y129.218
X61.099 Y135.236
G3 X60.369 Y135.333 I-0.433 J-0.464
G1 X60.281 Y135.287 Z-4.752
X60.195 Y135.242 Z-4.729
X60.114 Y135.199 Z-4.691
X60.039 Y135.159 Z-4.639
X59.972 Y135.124 Z-4.574
X59.915 Y135.093 Z-4.498
X59.869 Y135.069 Z-4.413
X59.835 Y135.051 Z-4.321
X59.814 Y135.04 Z-4.224
X59.807 Y135.037 Z-4.125
G0 Z5
X63.704 Y85.583
Z-3.49
G1 Z-4.125 F250
X63.712 Y85.585 Z-4.224
X63.734 Y85.591 Z-4.321
X63.771 Y85.6 Z-4.413
X63.822 Y85.613 Z-4.498
X63.884 Y85.629 Z-4.574
X63.958 Y85.648 Z-4.639
X64.04 Y85.669 Z-4.691
X64.129 Y85.691 Z-4.729
X64.223 Y85.715 Z-4.752
X64.32 Y85.74 Z-4.76
G3 X65.009 Y86.116 I-0.39 J1.534
G1 X70.395 Y91.502
X71.007 Y92.179
X71.497 Y92.948
X71.87 Y93.78
X72.148 Y94.648
X72.352 Y95.537
X72.499 Y96.437
X72.605 Y97.342
X72.682 Y98.251
X72.737 Y99.161
X72.777 Y100.072
X72.806 Y100.983
X72.828 Y101.895
X72.843 Y102.806
X72.855 Y103.718
X72.864 Y104.63
X72.87 Y105.542
X72.875 Y106.453
X72.882 Y108.277
X72.886 Y110.101
X72.888 Y111.924
X72.887 Y113.748
X72.886 Y114.66
X72.883 Y115.572
X72.878 Y116.483
X72.871 Y117.395
X72.86 Y118.307
X72.846 Y119.219
X72.828 Y120.13
X72.805 Y121.042
X72.775 Y121.953
X72.74 Y122.864
X72.715 Y123.386
X72.689 Y123.54
X72.626 Y123.682
X72.53 Y123.805
X67.118 Y129.218
G3 X66.388 Y129.315 I-0.433 J-0.464
G1 X66.3 Y129.268 Z-4.752
X66.214 Y129.223 Z-4.729
X66.133 Y129.18 Z-4.691
X66.058 Y129.14 Z-4.639
X65.991 Y129.105 Z-4.574
X65.934 Y129.074 Z-4.498
X65.888 Y129.05 Z-4.413
X65.854 Y129.032 Z-4.321
X65.833 Y129.021 Z-4.224
X65.826 Y129.018 Z-4.125
G0 Z5
X69.09 Y90.97
Z-3.49
G1 Z-4.125 F250
X69.098 Y90.971 Z-4.224
X69.121 Y90.977 Z-4.321
X69.158 Y90.987 Z-4.413
X69.208 Y90.999 Z-4.498
X69.271 Y91.015 Z-4.574
X69.344 Y91.034 Z-4.639
X69.426 Y91.055 Z-4.691
X69.516 Y91.078 Z-4.729
X69.61 Y91.102 Z-4.752
X69.706 Y91.126 Z-4.76
G3 X70.395 Y91.502 I-0.39 J1.534
G1 X75.391 Y96.498
X76.003 Y97.174
X76.517 Y97.927
X76.909 Y98.751
X77.198 Y99.615
X77.406 Y100.503
X77.554 Y101.403
X77.657 Y102.309
X77.729 Y103.218
X77.778 Y104.128
X77.812 Y105.04
X77.836 Y105.951
X77.852 Y106.863
X77.864 Y107.774
X77.872 Y108.686
X77.877 Y109.598
X77.881 Y110.51
X77.883 Y111.422
X77.884 Y112.333
X77.885 Y113.245
X77.883 Y114.157
X77.881 Y115.069
X77.876 Y115.981
X77.869 Y116.892
X77.86 Y117.804
X77.854 Y118.228
X77.831 Y118.389
X77.767 Y118.539
X77.668 Y118.668
X72.53 Y123.805
G3 X71.633 Y123.774 Z-4.56 I-0.433 J-0.464
X71.466 Y123.272 I0.464 J-0.433
G1 X74.327 Y96.894
G3 X74.494 Y96.529 I0.631 J0.068
X75.391 Y96.498 Z-4.76 I0.464 J0.433
G1 X80.546 Y101.653
X80.57 Y101.677
X80.761 Y101.885
X80.946 Y102.092
X81.815 Y103.128
X81.899 Y103.231
X81.963 Y103.335
X82.442 Y104.163
X82.553 Y104.371
X82.849 Y104.992
X82.929 Y105.199
X83.24 Y106.053
X83.304 Y106.235
X83.344 Y106.442
X83.454 Y107.064
X83.49 Y107.271
X83.585 Y107.892
X83.599 Y108.1
Y109.342
X83.585 Y109.55
X83.49 Y110.171
X83.381 Y110.793
X83.344 Y111
X83.304 Y111.207
X83.23 Y111.414
X82.929 Y112.243
X82.849 Y112.45
X82.553 Y113.071
X82.442 Y113.279
X82.202 Y113.693
X82.081 Y113.9
X81.789 Y114.315
X81.641 Y114.522
X80.946 Y115.35
X80.754 Y115.566
X80.571 Y115.765
X77.668 Y118.668
G3 X76.938 Y118.765 I-0.433 J-0.464
G1 X76.85 Y118.718 Z-4.752
X76.764 Y118.673 Z-4.729
X76.683 Y118.63 Z-4.691
X76.608 Y118.59 Z-4.639
X76.541 Y118.555 Z-4.574
X76.484 Y118.524 Z-4.498
X76.438 Y118.5 Z-4.413
X76.404 Y118.482 Z-4.321
X76.383 Y118.471 Z-4.224
X76.377 Y118.468 Z-4.125
G0 Z5
X72.325 Y166.997
Z-3.49
G1 Z-4.125 F250
X72.327 Y166.989 Z-4.224
X72.332 Y166.966 Z-4.321
X72.342 Y166.929 Z-4.413
X72.355 Y166.879 Z-4.498
X72.371 Y166.816 Z-4.574
X72.389 Y166.743 Z-4.639
X72.41 Y166.661 Z-4.691
X72.433 Y166.571 Z-4.729
X72.457 Y166.477 Z-4.752
X72.481 Y166.381 Z-4.76
G3 X72.858 Y165.692 I1.534 J0.39
G1 X80.316 Y158.234
X80.992 Y157.622
X81.747 Y157.111
X82.558 Y156.693
X83.403 Y156.352
X84.27 Y156.071
X85.152 Y155.837
X86.042 Y155.641
X86.939 Y155.474
X87.839 Y155.331
X88.743 Y155.209
X89.648 Y155.103
X90.556 Y155.012
X91.464 Y154.934
X92.374 Y154.867
X93.284 Y154.811
X94.194 Y154.763
X95.105 Y154.723
X96.016 Y154.689
X96.928 Y154.661
X97.839 Y154.639
X98.751 Y154.62
X99.663 Y154.605
X100.574 Y154.593
X101.486 Y154.584
X102.398 Y154.576
X103.31 Y154.57
X104.221 Y154.566
X106.045 Y154.56
X108.78 Y154.555
X112.428 Y154.552
X114.251
X115.163 Y154.553
X116.075 Y154.555
X116.987 Y154.558
X117.899 Y154.564
X118.81 Y154.573
X119.722 Y154.587
X120.634 Y154.605
X121.545 Y154.629
X122.456 Y154.661
X123.367 Y154.7
X124.278 Y154.747
X125.188 Y154.804
X126.097 Y154.872
X127.006 Y154.95
X127.913 Y155.039
X128.819 Y155.141
X129.724 Y155.255
X130.627 Y155.382
X131.528 Y155.522
X132.427 Y155.674
X133.324 Y155.84
X134.218 Y156.019
X134.92 Y156.171
X135.036 Y156.207
X135.142 Y156.265
X135.235 Y156.342
X142.77 Y163.878
G3 X142.867 Y164.607 I-0.464 J0.433
G1 X142.821 Y164.695 Z-4.752
X142.776 Y164.781 Z-4.729
X142.733 Y164.862 Z-4.691
X142.693 Y164.937 Z-4.639
X142.658 Y165.004 Z-4.574
X142.627 Y165.062 Z-4.498
X142.603 Y165.108 Z-4.413
X142.585 Y165.141 Z-4.321
X142.574 Y165.162 Z-4.224
X142.571 Y165.169 Z-4.125
G0 Z5
X79.783 Y159.539
Z-3.49
G1 Z-4.125 F250
X79.785 Y159.531 Z-4.224
X79.791 Y159.508 Z-4.321
X79.8 Y159.471 Z-4.413
X79.813 Y159.421 Z-4.498
X79.829 Y159.358 Z-4.574
X79.847 Y159.285 Z-4.639
X79.868 Y159.203 Z-4.691
X79.891 Y159.113 Z-4.729
X79.915 Y159.019 Z-4.752
X79.939 Y158.923 Z-4.76
G3 X80.316 Y158.234 I1.534 J0.39
G1 X86.116 Y152.433
X86.793 Y151.821
X87.548 Y151.311
X88.368 Y150.912
X89.226 Y150.604
X90.107 Y150.369
X91.001 Y150.189
X91.903 Y150.052
X92.808 Y149.946
X93.716 Y149.864
X94.626 Y149.799
X95.536 Y149.748
X96.447 Y149.707
X97.358 Y149.675
X98.27 Y149.649
X99.181 Y149.628
X100.093 Y149.612
X101.005 Y149.599
X101.917 Y149.588
X102.828 Y149.58
X103.74 Y149.573
X104.652 Y149.568
X106.476 Y149.561
X108.299 Y149.557
X111.035 Y149.554
X113.77 Y149.553
X114.682 Y149.554
X115.594 Y149.556
X116.505 Y149.56
X117.417 Y149.566
X118.329 Y149.575
X119.241 Y149.588
X120.152 Y149.605
X121.064 Y149.627
X121.975 Y149.656
X122.886 Y149.691
X123.797 Y149.734
X124.708 Y149.785
X125.617 Y149.845
X126.527 Y149.915
X127.435 Y149.995
X128.342 Y150.086
X128.838 Y150.142
X128.977 Y150.173
X129.105 Y150.235
X129.217 Y150.324
X135.235 Y156.342
G3 X135.332 Y157.072 I-0.464 J0.433
G1 X135.286 Y157.16 Z-4.752
X135.24 Y157.246 Z-4.729
X135.197 Y157.327 Z-4.691
X135.158 Y157.402 Z-4.639
X135.122 Y157.469 Z-4.574
X135.092 Y157.526 Z-4.498
X135.068 Y157.572 Z-4.413
X135.05 Y157.606 Z-4.321
X135.039 Y157.627 Z-4.224
X135.035 Y157.634 Z-4.125
G0 Z5
X85.584 Y153.738
Z-3.49
G1 Z-4.125 F250
X85.585 Y153.73 Z-4.224
X85.591 Y153.708 Z-4.321
X85.601 Y153.671 Z-4.413
X85.613 Y153.62 Z-4.498
X85.629 Y153.558 Z-4.574
X85.648 Y153.484 Z-4.639
X85.669 Y153.402 Z-4.691
X85.692 Y153.313 Z-4.729
X85.716 Y153.219 Z-4.752
X85.74 Y153.122 Z-4.76
G3 X86.116 Y152.433 I1.534 J0.39
G1 X91.503 Y147.047
X92.179 Y146.435
X92.948 Y145.945
X93.78 Y145.572
X94.648 Y145.294
X95.537 Y145.09
X96.437 Y144.942
X97.342 Y144.836
X98.251 Y144.76
X99.161 Y144.704
X100.072 Y144.665
X100.983 Y144.635
X101.895 Y144.614
X102.807 Y144.598
X103.718 Y144.587
X104.63 Y144.578
X105.542 Y144.571
X106.454 Y144.566
X108.277 Y144.56
X110.101 Y144.556
X111.925 Y144.554
X113.748 Y144.555
X114.66 Y144.556
X115.572 Y144.559
X116.484 Y144.564
X117.395 Y144.572
X118.307 Y144.582
X119.219 Y144.596
X120.13 Y144.614
X121.042 Y144.638
X121.953 Y144.667
X122.864 Y144.703
X123.386 Y144.727
X123.54 Y144.754
X123.682 Y144.817
X123.805 Y144.912
X129.217 Y150.324
G3 X129.314 Y151.054 I-0.464 J0.433
G1 X129.267 Y151.141 Z-4.752
X129.222 Y151.227 Z-4.729
X129.179 Y151.309 Z-4.691
X129.139 Y151.384 Z-4.639
X129.104 Y151.451 Z-4.574
X129.074 Y151.508 Z-4.498
X129.049 Y151.554 Z-4.413
X129.031 Y151.588 Z-4.321
X129.02 Y151.608 Z-4.224
X129.017 Y151.615 Z-4.125
G0 Z5
X90.97 Y148.352
Z-3.49
G1 Z-4.125 F250
X90.972 Y148.344 Z-4.224
X90.978 Y148.321 Z-4.321
X90.987 Y148.284 Z-4.413
X91 Y148.234 Z-4.498
X91.016 Y148.171 Z-4.574
X91.034 Y148.098 Z-4.639
X91.055 Y148.016 Z-4.691
X91.078 Y147.926 Z-4.729
X91.102 Y147.832 Z-4.752
X91.126 Y147.736 Z-4.76
G3 X91.503 Y147.047 I1.534 J0.39
G1 X96.498 Y142.051
X97.174 Y141.44
X97.927 Y140.925
X98.75 Y140.533
X99.615 Y140.244
X100.503 Y140.036
X101.403 Y139.888
X102.309 Y139.785
X103.218 Y139.713
X104.128 Y139.664
X105.039 Y139.629
X105.951 Y139.606
X106.862 Y139.59
X107.774 Y139.578
X108.686 Y139.57
X109.598 Y139.565
X110.51 Y139.561
X111.421 Y139.559
X112.333 Y139.558
X113.245 Y139.557
X114.157 Y139.559
X115.069 Y139.561
X115.98 Y139.566
X116.892 Y139.573
X117.804 Y139.582
X118.227 Y139.589
X118.389 Y139.612
X118.538 Y139.675
X118.667 Y139.774
X123.805 Y144.912
G3 X123.774 Y145.81 Z-4.56 I-0.464 J0.433
X123.272 Y145.977 I-0.433 J-0.464
G1 X96.894 Y143.116
G3 X96.529 Y142.949 I0.068 J-0.631
X96.498 Y142.051 Z-4.76 I0.433 J-0.464
G1 X101.654 Y136.896
X101.677 Y136.872
X101.885 Y136.681
X102.092 Y136.496
X103.128 Y135.627
X103.231 Y135.543
X103.335 Y135.479
X104.163 Y135.001
X104.371 Y134.889
X104.992 Y134.593
X105.199 Y134.514
X106.054 Y134.202
X106.235 Y134.138
X106.442 Y134.098
X107.685 Y133.879
X107.892 Y133.845
X108.1 Y133.843
X109.342
X109.55 Y133.845
X109.757 Y133.879
X111 Y134.098
X111.207 Y134.138
X111.414 Y134.212
X112.243 Y134.514
X112.45 Y134.593
X113.071 Y134.889
X113.279 Y135.001
X114.107 Y135.479
X114.211 Y135.543
X114.314 Y135.627
X115.35 Y136.496
X115.566 Y136.688
X115.765 Y136.872
X118.667 Y139.774
G3 X118.764 Y140.504 I-0.464 J0.433
G1 X118.718 Y140.592 Z-4.752
X118.673 Y140.678 Z-4.729
X118.63 Y140.759 Z-4.691
X118.59 Y140.834 Z-4.639
X118.554 Y140.901 Z-4.574
X118.524 Y140.959 Z-4.498
X118.5 Y141.005 Z-4.413
X118.482 Y141.038 Z-4.321
X118.471 Y141.059 Z-4.224
X118.468 Y141.066 Z-4.125
G0 Z5
X166.997 Y145.117
Z-3.49
G1 Z-4.125 F250
X166.989 Y145.116 Z-4.224
X166.966 Y145.11 Z-4.321
X166.929 Y145.1 Z-4.413
X166.879 Y145.088 Z-4.498
X166.816 Y145.072 Z-4.574
X166.743 Y145.053 Z-4.639
X166.661 Y145.032 Z-4.691
X166.571 Y145.009 Z-4.729
X166.477 Y144.985 Z-4.752
X166.381 Y144.961 Z-4.76
G3 X165.692 Y144.585 I0.39 J-1.534
G1 X158.234 Y137.127
X157.622 Y136.45
X157.112 Y135.695
X156.694 Y134.884
X156.352 Y134.039
X156.072 Y133.171
X155.838 Y132.29
X155.642 Y131.4
X155.476 Y130.503
X155.333 Y129.602
X155.21 Y128.699
X155.104 Y127.793
X155.013 Y126.886
X154.935 Y125.978
X154.868 Y125.068
X154.811 Y124.158
X154.763 Y123.248
X154.723 Y122.337
X154.689 Y121.426
X154.662 Y120.514
X154.639 Y119.603
X154.62 Y118.691
X154.605 Y117.779
X154.593 Y116.868
X154.584 Y115.956
X154.576 Y115.044
X154.57 Y114.132
X154.566 Y113.22
X154.56 Y111.397
X154.555 Y108.661
X154.552 Y105.014
Y103.191
X154.553 Y102.279
X154.555 Y101.367
X154.558 Y100.455
X154.564 Y99.543
X154.574 Y98.632
X154.587 Y97.72
X154.605 Y96.808
X154.63 Y95.897
X154.661 Y94.985
X154.701 Y94.074
X154.748 Y93.164
X154.806 Y92.254
X154.873 Y91.345
X154.951 Y90.436
X155.041 Y89.529
X155.142 Y88.623
X155.256 Y87.718
X155.383 Y86.815
X155.523 Y85.914
X155.675 Y85.015
X155.841 Y84.118
X156.02 Y83.224
X156.172 Y82.52
X156.209 Y82.405
X156.267 Y82.299
X156.344 Y82.205
X163.877 Y74.672
G3 X164.607 Y74.575 I0.433 J0.464
G1 X164.695 Y74.622 Z-4.752
X164.78 Y74.667 Z-4.729
X164.862 Y74.71 Z-4.691
X164.937 Y74.75 Z-4.639
X165.004 Y74.785 Z-4.574
X165.061 Y74.816 Z-4.498
X165.107 Y74.84 Z-4.413
X165.141 Y74.858 Z-4.321
X165.161 Y74.869 Z-4.224
X165.168 Y74.872 Z-4.125
G0 Z5
X159.539 Y137.659
Z-3.49
G1 Z-4.125 F250
X159.531 Y137.658 Z-4.224
X159.508 Y137.652 Z-4.321
X159.471 Y137.642 Z-4.413
X159.421 Y137.63 Z-4.498
X159.358 Y137.614 Z-4.574
X159.285 Y137.595 Z-4.639
X159.203 Y137.574 Z-4.691
X159.113 Y137.551 Z-4.729
X159.019 Y137.527 Z-4.752
X158.923 Y137.503 Z-4.76
G3 X158.234 Y137.127 I0.39 J-1.534
G1 X152.433 Y131.326
X151.821 Y130.65
X151.311 Y129.894
X150.912 Y129.074
X150.605 Y128.216
X150.369 Y127.335
X150.19 Y126.441
X150.052 Y125.54
X149.946 Y124.634
X149.864 Y123.726
X149.799 Y122.816
X149.748 Y121.906
X149.708 Y120.995
X149.675 Y120.084
X149.649 Y119.172
X149.629 Y118.261
X149.612 Y117.349
X149.599 Y116.437
X149.588 Y115.526
X149.58 Y114.614
X149.574 Y113.702
X149.568 Y112.79
X149.561 Y110.967
X149.557 Y109.143
X149.554 Y106.408
X149.553 Y103.672
X149.554 Y102.76
X149.556 Y101.849
X149.56 Y100.937
X149.566 Y100.025
X149.575 Y99.113
X149.588 Y98.201
X149.605 Y97.29
X149.628 Y96.378
X149.656 Y95.467
X149.692 Y94.556
X149.735 Y93.645
X149.786 Y92.735
X149.847 Y91.825
X149.916 Y90.916
X149.996 Y90.007
X150.087 Y89.1
X150.143 Y88.603
X150.174 Y88.464
X150.236 Y88.336
X150.325 Y88.225
X156.344 Y82.205
G3 X157.074 Y82.108 I0.433 J0.464
G1 X157.162 Y82.155 Z-4.752
X157.247 Y82.2 Z-4.729
X157.329 Y82.243 Z-4.691
X157.404 Y82.283 Z-4.639
X157.471 Y82.318 Z-4.574
X157.528 Y82.349 Z-4.498
X157.574 Y82.373 Z-4.413
X157.608 Y82.391 Z-4.321
X157.628 Y82.402 Z-4.224
X157.635 Y82.405 Z-4.125
G0 Z5
X153.738 Y131.859
Z-3.49
G1 Z-4.125 F250
X153.73 Y131.857 Z-4.224
X153.708 Y131.851 Z-4.321
X153.671 Y131.842 Z-4.413
X153.62 Y131.829 Z-4.498
X153.558 Y131.813 Z-4.574
X153.484 Y131.794 Z-4.639
X153.402 Y131.773 Z-4.691
X153.313 Y131.751 Z-4.729
X153.219 Y131.727 Z-4.752
X153.122 Y131.702 Z-4.76
G3 X152.433 Y131.326 I0.39 J-1.534
G1 X147.047 Y125.94
X146.435 Y125.263
X145.945 Y124.494
X145.572 Y123.663
X145.294 Y122.794
X145.09 Y121.905
X144.943 Y121.006
X144.836 Y120.1
X144.76 Y119.191
X144.705 Y118.281
X144.665 Y117.37
X144.636 Y116.459
X144.614 Y115.547
X144.598 Y114.636
X144.587 Y113.724
X144.578 Y112.812
X144.571 Y111.9
X144.566 Y110.989
X144.56 Y109.165
X144.556 Y107.341
X144.554 Y105.518
X144.555 Y103.694
X144.556 Y102.782
X144.559 Y101.871
X144.564 Y100.959
X144.572 Y100.047
X144.582 Y99.135
X144.596 Y98.224
X144.615 Y97.312
X144.638 Y96.4
X144.668 Y95.489
X144.703 Y94.578
X144.728 Y94.055
X144.754 Y93.902
X144.817 Y93.759
X144.913 Y93.636
X150.325 Y88.225
G3 X151.055 Y88.128 I0.433 J0.464
G1 X151.143 Y88.174 Z-4.752
X151.228 Y88.219 Z-4.729
X151.31 Y88.262 Z-4.691
X151.385 Y88.302 Z-4.639
X151.452 Y88.338 Z-4.574
X151.509 Y88.368 Z-4.498
X151.555 Y88.392 Z-4.413
X151.589 Y88.41 Z-4.321
X151.609 Y88.421 Z-4.224
X151.616 Y88.425 Z-4.125
G0 Z5
X148.352 Y126.472
Z-3.49
G1 Z-4.125 F250
X148.344 Y126.471 Z-4.224
X148.321 Y126.465 Z-4.321
X148.284 Y126.455 Z-4.413
X148.234 Y126.443 Z-4.498
X148.171 Y126.427 Z-4.574
X148.098 Y126.408 Z-4.639
X148.016 Y126.387 Z-4.691
X147.926 Y126.364 Z-4.729
X147.832 Y126.341 Z-4.752
X147.736 Y126.316 Z-4.76
G3 X147.047 Y125.94 I0.39 J-1.534
G1 X142.051 Y120.944
X141.439 Y120.268
X140.925 Y119.515
X140.533 Y118.691
X140.244 Y117.827
X140.036 Y116.939
X139.888 Y116.039
X139.785 Y115.133
X139.713 Y114.224
X139.664 Y113.314
X139.629 Y112.403
X139.606 Y111.491
X139.59 Y110.579
X139.578 Y109.668
X139.57 Y108.756
X139.565 Y107.844
X139.561 Y106.932
X139.559 Y106.02
X139.558 Y105.109
X139.557 Y104.197
X139.559 Y103.285
X139.561 Y102.373
X139.566 Y101.461
X139.573 Y100.55
X139.583 Y99.638
X139.589 Y99.215
X139.612 Y99.054
X139.675 Y98.904
X139.775 Y98.775
X144.913 Y93.636
G3 X145.81 Y93.667 Z-4.56 I0.433 J0.464
X145.978 Y94.169 I-0.464 J0.433
G1 X143.115 Y120.548
G3 X142.948 Y120.913 I-0.631 J-0.069
X142.051 Y120.944 Z-4.76 I-0.464 J-0.433
G1 X136.896 Y115.789
X136.872 Y115.765
X136.681 Y115.557
X136.496 Y115.35
X135.627 Y114.314
X135.543 Y114.211
X135.479 Y114.107
X135.001 Y113.279
X134.889 Y113.071
X134.593 Y112.45
X134.514 Y112.243
X134.202 Y111.388
X134.138 Y111.207
X134.098 Y111
X133.879 Y109.757
X133.845 Y109.55
X133.843 Y109.342
Y108.1
X133.845 Y107.892
X133.879 Y107.685
X134.098 Y106.442
X134.138 Y106.235
X134.212 Y106.028
X134.514 Y105.199
X134.593 Y104.992
X134.889 Y104.371
X135.001 Y104.163
X135.479 Y103.335
X135.543 Y103.231
X135.627 Y103.128
X136.496 Y102.092
X136.688 Y101.877
X136.872 Y101.677
X139.775 Y98.775
G3 X140.505 Y98.678 I0.433 J0.464
G1 X140.592 Y98.724 Z-4.752
X140.678 Y98.77 Z-4.729
X140.759 Y98.813 Z-4.691
X140.835 Y98.852 Z-4.639
X140.902 Y98.888 Z-4.574
X140.959 Y98.918 Z-4.498
X141.005 Y98.942 Z-4.413
X141.038 Y98.96 Z-4.321
X141.059 Y98.971 Z-4.224
X141.066 Y98.975 Z-4.125
G0 Z5
X145.118 Y50.445
Z-3.49
G1 Z-4.125 F250
X145.116 Y50.453 Z-4.224
X145.11 Y50.476 Z-4.321
X145.101 Y50.513 Z-4.413
X145.088 Y50.563 Z-4.498
X145.072 Y50.626 Z-4.574
X145.053 Y50.699 Z-4.639
X145.032 Y50.781 Z-4.691
X145.01 Y50.871 Z-4.729
X144.986 Y50.965 Z-4.752
X144.961 Y51.061 Z-4.76
G3 X144.585 Y51.75 I-1.534 J-0.39
G1 X137.127 Y59.208
X136.451 Y59.82
X135.695 Y60.33
X134.885 Y60.748
X134.039 Y61.09
X133.172 Y61.37
X132.29 Y61.603
X131.4 Y61.799
X130.503 Y61.966
X129.603 Y62.108
X128.699 Y62.231
X127.793 Y62.337
X126.886 Y62.428
X125.978 Y62.507
X125.068 Y62.574
X124.158 Y62.631
X123.248 Y62.679
X122.337 Y62.719
X121.426 Y62.752
X120.514 Y62.78
X119.603 Y62.803
X118.691 Y62.822
X117.78 Y62.836
X116.868 Y62.848
X115.956 Y62.858
X115.044 Y62.866
X114.132 Y62.871
X113.221 Y62.876
X111.397 Y62.882
X108.662 Y62.887
X105.014 Y62.89
X103.191
X102.279 Y62.889
X101.367 Y62.887
X100.455 Y62.884
X99.543 Y62.878
X98.632 Y62.869
X97.72 Y62.855
X96.808 Y62.837
X95.897 Y62.812
X94.986 Y62.781
X94.075 Y62.741
X93.164 Y62.693
X92.254 Y62.636
X91.345 Y62.569
X90.436 Y62.491
X89.529 Y62.401
X88.623 Y62.3
X87.718 Y62.186
X86.815 Y62.059
X85.914 Y61.919
X85.015 Y61.766
X84.119 Y61.6
X83.225 Y61.421
X82.519 Y61.269
X82.404 Y61.232
X82.297 Y61.174
X82.204 Y61.097
X74.67 Y53.563
G3 X74.573 Y52.833 I0.464 J-0.433
G1 X74.619 Y52.745 Z-4.752
X74.665 Y52.659 Z-4.729
X74.708 Y52.578 Z-4.691
X74.747 Y52.503 Z-4.639
X74.783 Y52.436 Z-4.574
X74.813 Y52.379 Z-4.498
X74.837 Y52.333 Z-4.413
X74.855 Y52.299 Z-4.321
X74.866 Y52.278 Z-4.224
X74.87 Y52.272 Z-4.125
G0 Z5
X137.66 Y57.903
Z-3.49
G1 Z-4.125 F250
X137.658 Y57.911 Z-4.224
X137.652 Y57.934 Z-4.321
X137.643 Y57.971 Z-4.413
X137.63 Y58.021 Z-4.498
X137.614 Y58.084 Z-4.574
X137.595 Y58.157 Z-4.639
X137.574 Y58.239 Z-4.691
X137.552 Y58.329 Z-4.729
X137.528 Y58.423 Z-4.752
X137.503 Y58.519 Z-4.76
G3 X137.127 Y59.208 I-1.534 J-0.39
G1 X131.326 Y65.009
X130.65 Y65.621
X129.894 Y66.13
X129.074 Y66.529
X128.216 Y66.837
X127.335 Y67.072
X126.441 Y67.252
X125.54 Y67.389
X124.634 Y67.495
X123.726 Y67.578
X122.816 Y67.643
X121.906 Y67.694
X120.995 Y67.734
X120.084 Y67.767
X119.173 Y67.793
X118.261 Y67.813
X117.349 Y67.83
X116.438 Y67.843
X115.526 Y67.854
X114.614 Y67.862
X113.702 Y67.868
X112.79 Y67.874
X110.967 Y67.881
X109.143 Y67.885
X106.408 Y67.888
X103.672 Y67.889
X102.76 Y67.888
X101.849 Y67.886
X100.937 Y67.882
X100.025 Y67.876
X99.113 Y67.867
X98.202 Y67.854
X97.29 Y67.837
X96.378 Y67.814
X95.467 Y67.786
X94.556 Y67.75
X93.645 Y67.707
X92.735 Y67.656
X91.825 Y67.595
X90.916 Y67.525
X90.008 Y67.445
X89.1 Y67.355
X88.602 Y67.299
X88.464 Y67.267
X88.335 Y67.206
X88.224 Y67.117
X82.204 Y61.097
G3 X82.107 Y60.367 I0.464 J-0.433
G1 X82.154 Y60.279 Z-4.752
X82.199 Y60.194 Z-4.729
X82.242 Y60.112 Z-4.691
X82.282 Y60.037 Z-4.639
X82.317 Y59.97 Z-4.574
X82.347 Y59.913 Z-4.498
X82.372 Y59.867 Z-4.413
X82.389 Y59.833 Z-4.321
X82.4 Y59.813 Z-4.224
X82.404 Y59.806 Z-4.125
G0 Z5
X131.859 Y63.704
Z-3.49
G1 Z-4.125 F250
X131.857 Y63.712 Z-4.224
X131.852 Y63.734 Z-4.321
X131.842 Y63.771 Z-4.413
X131.829 Y63.822 Z-4.498
X131.813 Y63.884 Z-4.574
X131.795 Y63.958 Z-4.639
X131.774 Y64.04 Z-4.691
X131.751 Y64.129 Z-4.729
X131.727 Y64.223 Z-4.752
X131.703 Y64.32 Z-4.76
G3 X131.326 Y65.009 I-1.534 J-0.39
G1 X125.94 Y70.395
X125.264 Y71.007
X124.495 Y71.497
X123.663 Y71.87
X122.795 Y72.148
X121.906 Y72.352
X121.006 Y72.499
X120.1 Y72.606
X119.192 Y72.682
X118.282 Y72.737
X117.371 Y72.777
X116.459 Y72.806
X115.548 Y72.828
X114.636 Y72.843
X113.724 Y72.855
X112.813 Y72.864
X111.901 Y72.87
X110.989 Y72.875
X109.165 Y72.882
X107.342 Y72.886
X105.518 Y72.888
X103.695 Y72.887
X102.783 Y72.886
X101.871 Y72.883
X100.959 Y72.878
X100.047 Y72.87
X99.136 Y72.86
X98.224 Y72.846
X97.312 Y72.827
X96.401 Y72.804
X95.489 Y72.774
X94.578 Y72.738
X94.055 Y72.714
X93.901 Y72.687
X93.759 Y72.624
X93.636 Y72.529
X88.224 Y67.117
G3 X88.127 Y66.387 I0.464 J-0.433
G1 X88.173 Y66.299 Z-4.752
X88.219 Y66.214 Z-4.729
X88.262 Y66.132 Z-4.691
X88.302 Y66.057 Z-4.639
X88.337 Y65.99 Z-4.574
X88.367 Y65.933 Z-4.498
X88.392 Y65.887 Z-4.413
X88.409 Y65.853 Z-4.321
X88.42 Y65.833 Z-4.224
X88.424 Y65.826 Z-4.125
G0 Z5
X126.473 Y69.09
Z-3.49
G1 Z-4.125 F250
X126.471 Y69.098 Z-4.224
X126.465 Y69.121 Z-4.321
X126.456 Y69.158 Z-4.413
X126.443 Y69.208 Z-4.498
X126.427 Y69.271 Z-4.574
X126.408 Y69.344 Z-4.639
X126.387 Y69.426 Z-4.691
X126.365 Y69.516 Z-4.729
X126.341 Y69.61 Z-4.752
X126.316 Y69.706 Z-4.76
G3 X125.94 Y70.395 I-1.534 J-0.39
G1 X120.944 Y75.392
X120.268 Y76.003
X119.515 Y76.518
X118.691 Y76.909
X117.826 Y77.198
X116.939 Y77.406
X116.039 Y77.554
X115.133 Y77.657
X114.224 Y77.729
X113.314 Y77.778
X112.402 Y77.812
X111.491 Y77.836
X110.579 Y77.852
X109.667 Y77.864
X108.756 Y77.872
X107.844 Y77.877
X106.932 Y77.881
X106.02 Y77.883
X105.108 Y77.884
X104.197 Y77.885
X103.285 Y77.883
X102.373 Y77.881
X101.461 Y77.876
X100.549 Y77.869
X99.638 Y77.859
X99.214 Y77.853
X99.053 Y77.83
X98.903 Y77.767
X98.774 Y77.667
X93.636 Y72.529
G3 X93.667 Y71.631 Z-4.56 I0.464 J-0.433
X94.169 Y71.464 I0.433 J0.464
G1 X120.548 Y74.327
G3 X120.913 Y74.494 I-0.069 J0.631
X120.944 Y75.392 Z-4.76 I-0.433 J0.464
G1 X115.789 Y80.546
X115.765 Y80.571
X115.557 Y80.761
X115.35 Y80.946
X114.522 Y81.641
X114.314 Y81.79
X113.9 Y82.081
X113.691 Y82.204
X113.279 Y82.442
X113.071 Y82.553
X112.45 Y82.849
X112.243 Y82.929
X111.389 Y83.24
X111.207 Y83.304
X111 Y83.344
X110.378 Y83.454
X110.171 Y83.49
X109.55 Y83.585
X109.342 Y83.599
X108.1
X107.892 Y83.585
X107.271 Y83.49
X106.649 Y83.381
X106.442 Y83.344
X106.235 Y83.304
X106.028 Y83.23
X105.199 Y82.929
X104.992 Y82.849
X104.371 Y82.553
X104.163 Y82.442
X103.335 Y81.963
X103.231 Y81.899
X103.128 Y81.815
X102.092 Y80.946
X101.876 Y80.754
X101.677 Y80.57
X98.774 Y77.667
G3 X98.678 Y76.937 I0.464 J-0.433
G1 X98.724 Y76.85 Z-4.752
X98.769 Y76.764 Z-4.729
X98.812 Y76.683 Z-4.691
X98.852 Y76.608 Z-4.639
X98.887 Y76.541 Z-4.574
X98.918 Y76.483 Z-4.498
X98.942 Y76.437 Z-4.413
X98.96 Y76.404 Z-4.321
X98.971 Y76.383 Z-4.224
X98.974 Y76.376 Z-4.125
G0 Z15
G28 G91 Z0
G90
G28 G91 X0 Y0
G90
M5
M30
