(1001)
(T39  D=6.35 CR=0 - ZMIN=-8 - flat end mill)
G90 G94
G17
G21
G28 G91 Z0
G90

(2D Contour2)
T39
S18000 M3
G54
G0 X-5.08 Y-0.635
Z15
Z5
G1 Z1 F50
Z-7.365
G18 G2 X-4.445 Z-8 I0.635 K0 F150
G1 X-3.81
G17 G3 X-3.175 Y0 I0 J0.635
G2 X0 Y3.175 I3.175 J0
G1 X90
G2 X93.175 Y0 I0 J-3.175
G1 Y-240
G2 X90 Y-243.175 I-3.175 J0
G1 X0
G2 X-3.175 Y-240 I0 J3.175
G1 Y0
G3 X-3.81 Y0.635 I-0.635 J0
G1 X-4.445
G18 G3 X-5.08 Z-7.365 I0 K0.635
G0 Z15
G17
G28 G91 Z0
G90
G28 G91 X0 Y0
G90
M5
M30
