(plastic_pocketing_logo_X_v4)
(T39  D=6.35 CR=0 - ZMIN=-4.76 - flat end mill)
G90 G94
G17
G21
G28 G91 Z0
G90

(2D Adaptive2)
T39
S18000 M3
G54
G0 X10.734 Y-0.969
Z15
Z5
Z-3.49
G1 Z-4.125 F200
X10.732 Y-0.976 Z-4.224
X10.727 Y-0.999 Z-4.321
X10.717 Y-1.036 Z-4.413
X10.704 Y-1.086 Z-4.498
X10.688 Y-1.149 Z-4.574
X10.669 Y-1.222 Z-4.639
X10.648 Y-1.305 Z-4.691
X10.626 Y-1.394 Z-4.729
X10.601 Y-1.488 Z-4.752
X10.577 Y-1.584 Z-4.76
G3 X10.08 Y-5.041 I15.704 J-4.023
G1 Y-5.191
X10.164 Y-5.449
X10.353 Y-5.777
X10.675 Y-6.136
X11.15 Y-6.484
X11.799 Y-6.779
X12.648 Y-6.967
X13.56 Y-6.977
X14.463 Y-6.852
X15.346 Y-6.627
X16.208 Y-6.328
X17.05 Y-5.978
X17.884 Y-5.61
X19.551 Y-4.872
X20.385 Y-4.502
X21.231 Y-4.162
X22.085 Y-3.844
X22.945 Y-3.538
X23.812 Y-3.256
X24.689 Y-3.009
X25.573 Y-2.782
X26.459 Y-2.569
X27.355 Y-2.399
X28.256 Y-2.257
X29.159 Y-2.131
X30.065 Y-2.036
X30.975 Y-1.976
X31.886 Y-1.938
X32.798 Y-1.915
X33.709 Y-1.938
X34.62 Y-1.987
X35.529 Y-2.053
X36.436 Y-2.152
X37.338 Y-2.285
X38.237 Y-2.439
X39.132 Y-2.611
X40.018 Y-2.825
X40.898 Y-3.064
X41.774 Y-3.319
X42.639 Y-3.608
X43.492 Y-3.927
X44.339 Y-4.266
X45.178 Y-4.624
X45.999 Y-5.02
X46.809 Y-5.439
X47.612 Y-5.871
X48.396 Y-6.336
X49.163 Y-6.829
X49.92 Y-7.337
X50.663 Y-7.866
X51.383 Y-8.426
X52.087 Y-9.005
X52.782 Y-9.595
X53.461 Y-10.204
X54.127 Y-10.826
X54.786 Y-11.457
X55.44 Y-12.092
X56.09 Y-12.731
X56.739 Y-13.372
X57.386 Y-14.014
X58.678 Y-15.301
X61.259 Y-17.879
X70.286 Y-26.905
X70.934 Y-27.546
X71.593 Y-28.176
X72.259 Y-28.799
X72.93 Y-29.416
X73.615 Y-30.018
X74.32 Y-30.596
X75.039 Y-31.157
X75.766 Y-31.707
X76.511 Y-32.233
X77.275 Y-32.732
X78.05 Y-33.211
X78.834 Y-33.678
X79.634 Y-34.115
X80.449 Y-34.524
X81.273 Y-34.913
X82.104 Y-35.288
X82.95 Y-35.63
X83.806 Y-35.942
X84.67 Y-36.235
X85.538 Y-36.514
X86.417 Y-36.755
X87.304 Y-36.967
X88.196 Y-37.159
X89.09 Y-37.337
X89.991 Y-37.475
X90.897 Y-37.583
X91.804 Y-37.673
X92.713 Y-37.747
X93.623 Y-37.797
X94.534 Y-37.829
X95.446 Y-37.851
X96.358 Y-37.865
X97.269 Y-37.874
X98.181 Y-37.88
X99.093 Y-37.884
X100.917 Y-37.888
X103.652 Y-37.89
X119.153 Y-37.891
X120.977
X121.888 Y-37.88
X122.8 Y-37.855
X123.711 Y-37.821
X124.622 Y-37.781
X125.531 Y-37.708
X126.437 Y-37.609
X127.341 Y-37.491
X128.244 Y-37.362
X129.14 Y-37.192
X130.03 Y-36.995
X130.916 Y-36.778
X131.798 Y-36.547
X132.669 Y-36.277
X133.531 Y-35.98
X134.386 Y-35.665
X135.236 Y-35.333
X136.07 Y-34.964
X136.892 Y-34.571
X137.707 Y-34.162
X138.512 Y-33.733
X139.298 Y-33.272
X140.071 Y-32.787
X140.834 Y-32.288
X141.583 Y-31.769
X142.311 Y-31.22
X143.024 Y-30.651
X143.725 Y-30.068
X144.414 Y-29.471
X145.089 Y-28.857
X145.753 Y-28.233
X146.411 Y-27.601
X147.064 Y-26.965
X147.714 Y-26.326
X148.363 Y-25.685
X149.01 Y-25.043
X150.302 Y-23.756
X152.882 Y-21.178
X161.909 Y-12.152
X162.561 Y-11.514
X163.222 Y-10.886
X163.888 Y-10.264
X164.559 Y-9.646
X165.255 Y-9.057
X165.967 Y-8.487
X166.688 Y-7.929
X167.426 Y-7.393
X168.184 Y-6.887
X168.954 Y-6.398
X169.731 Y-5.922
X170.531 Y-5.484
X171.344 Y-5.071
X172.164 Y-4.673
X172.998 Y-4.304
X173.845 Y-3.967
X174.7 Y-3.65
X175.561 Y-3.349
X176.435 Y-3.09
X177.316 Y-2.856
X178.202 Y-2.638
X179.095 Y-2.454
X179.994 Y-2.303
X180.896 Y-2.172
X181.801 Y-2.061
X182.711 Y-1.991
X183.621 Y-1.948
X184.533 Y-1.92
X185.445 Y-1.929
X186.355 Y-1.97
X187.265 Y-2.032
X188.173 Y-2.115
X189.076 Y-2.239
X189.976 Y-2.388
X190.873 Y-2.551
X191.762 Y-2.753
X192.644 Y-2.985
X193.521 Y-3.236
X194.39 Y-3.511
X195.247 Y-3.822
X196.096 Y-4.156
X196.939 Y-4.503
X197.765 Y-4.889
X198.578 Y-5.302
X199.383 Y-5.73
X200.174 Y-6.184
X200.946 Y-6.669
X201.706 Y-7.173
X202.458 Y-7.689
X203.183 Y-8.242
X203.891 Y-8.816
X204.588 Y-9.404
X205.272 Y-10.007
X205.935 Y-10.633
X206.579 Y-11.278
X207.211 Y-11.935
X207.835 Y-12.6
X208.427 Y-13.294
X208.998 Y-14.004
X209.557 Y-14.725
X210.091 Y-15.464
X210.597 Y-16.223
X211.085 Y-16.993
X211.558 Y-17.772
X211.993 Y-18.574
X212.405 Y-19.387
X212.802 Y-20.208
X213.168 Y-21.043
X213.503 Y-21.891
X213.819 Y-22.746
X214.116 Y-23.608
X214.373 Y-24.483
X214.605 Y-25.365
X214.822 Y-26.251
X215.003 Y-27.145
X215.151 Y-28.044
X215.281 Y-28.947
X215.388 Y-29.852
X215.455 Y-30.762
X215.497 Y-31.672
X215.524 Y-32.584
X215.511 Y-33.495
X215.467 Y-34.406
X215.405 Y-35.316
X215.317 Y-36.223
X215.19 Y-37.127
X215.041 Y-38.026
X214.877 Y-38.923
X214.671 Y-39.811
X214.436 Y-40.692
X214.185 Y-41.569
X213.906 Y-42.437
X213.592 Y-43.293
X213.257 Y-44.141
X212.909 Y-44.984
X212.519 Y-45.808
X212.104 Y-46.62
X211.675 Y-47.424
X211.218 Y-48.213
X210.731 Y-48.984
X210.225 Y-49.743
X209.706 Y-50.493
X209.151 Y-51.216
X208.576 Y-51.923
X207.987 Y-52.62
X207.382 Y-53.302
X206.763 Y-53.971
X206.134 Y-54.632
X205.5 Y-55.287
X204.861 Y-55.938
X204.221 Y-56.587
X203.579 Y-57.234
X202.292 Y-58.527
X200.36 Y-60.462
X190.045 Y-70.779
X189.412 Y-71.436
X188.789 Y-72.102
X188.17 Y-72.772
X187.562 Y-73.451
X186.98 Y-74.153
X186.415 Y-74.869
X185.863 Y-75.595
X185.33 Y-76.334
X184.826 Y-77.094
X184.342 Y-77.867
X183.873 Y-78.649
X183.427 Y-79.444
X183.012 Y-80.256
X182.62 Y-81.079
X182.242 Y-81.909
X181.891 Y-82.75
X181.572 Y-83.604
X181.275 Y-84.467
X180.993 Y-85.334
X180.743 Y-86.21
X180.524 Y-87.096
X180.328 Y-87.986
X180.146 Y-88.88
X179.999 Y-89.78
X179.884 Y-90.684
X179.79 Y-91.591
X179.711 Y-92.499
X179.656 Y-93.41
X179.62 Y-94.321
X179.596 Y-95.232
X179.58 Y-96.144
X179.57 Y-97.056
X179.563 Y-97.967
X179.559 Y-98.879
X179.554 Y-100.703
X179.552 Y-103.438
X179.551 Y-116.204
Y-120.763
X179.558 Y-121.674
X179.58 Y-122.586
X179.612 Y-123.497
X179.651 Y-124.408
X179.715 Y-125.318
X179.809 Y-126.225
X179.922 Y-127.13
X180.049 Y-128.032
X180.21 Y-128.93
X180.401 Y-129.822
X180.613 Y-130.708
X180.839 Y-131.592
X181.101 Y-132.465
X181.392 Y-133.329
X181.703 Y-134.186
X182.027 Y-135.039
X182.388 Y-135.876
X182.776 Y-136.701
X183.183 Y-137.517
X183.603 Y-138.326
X184.059 Y-139.116
X184.539 Y-139.891
X185.035 Y-140.656
X185.546 Y-141.411
X186.09 Y-142.143
X186.656 Y-142.858
X187.236 Y-143.562
X187.829 Y-144.255
X188.439 Y-144.932
X189.062 Y-145.598
X189.692 Y-146.257
X190.327 Y-146.911
X190.966 Y-147.562
X191.607 Y-148.211
X192.249 Y-148.858
X193.535 Y-150.15
X196.113 Y-152.731
X205.139 Y-161.758
X205.78 Y-162.406
X206.41 Y-163.065
X207.033 Y-163.731
X207.651 Y-164.401
X208.247 Y-165.091
X208.822 Y-165.8
X209.382 Y-166.519
X209.927 Y-167.25
X210.439 Y-168.004
X210.931 Y-168.772
X211.41 Y-169.548
X211.856 Y-170.343
X212.274 Y-171.153
X212.676 Y-171.972
X213.055 Y-172.801
X213.399 Y-173.646
X213.72 Y-174.499
X214.027 Y-175.358
X214.294 Y-176.23
X214.533 Y-177.11
X214.754 Y-177.994
X214.948 Y-178.885
X215.106 Y-179.783
X215.241 Y-180.685
X215.362 Y-181.589
X215.438 Y-182.497
X215.486 Y-183.408
X215.517 Y-184.319
X215.518 Y-185.231
X215.483 Y-186.142
X215.426 Y-187.052
X215.353 Y-187.961
X215.236 Y-188.865
X215.092 Y-189.766
X214.931 Y-190.663
X214.739 Y-191.554
X214.513 Y-192.438
X214.266 Y-193.316
X214.002 Y-194.188
X213.697 Y-195.047
X213.367 Y-195.898
X213.022 Y-196.742
X212.645 Y-197.572
X212.238 Y-198.388
X211.813 Y-199.194
X211.369 Y-199.991
X210.89 Y-200.767
X210.389 Y-201.529
X209.876 Y-202.282
X209.331 Y-203.013
X208.761 Y-203.725
X208.176 Y-204.425
X207.578 Y-205.113
X206.959 Y-205.782
X206.317 Y-206.43
X205.662 Y-207.064
X204.999 Y-207.69
X204.311 Y-208.289
X203.604 Y-208.865
X202.886 Y-209.427
X202.154 Y-209.97
X201.399 Y-210.481
X200.63 Y-210.972
X199.854 Y-211.45
X199.057 Y-211.893
X198.246 Y-212.31
X197.427 Y-212.71
X196.596 Y-213.086
X195.75 Y-213.427
X194.896 Y-213.747
X194.038 Y-214.053
X193.165 Y-214.316
X192.284 Y-214.553
X191.399 Y-214.773
X190.508 Y-214.963
X189.609 Y-215.118
X188.707 Y-215.252
X187.803 Y-215.37
X186.894 Y-215.443
X185.983 Y-215.49
X185.072 Y-215.519
X184.16 Y-215.516
X183.249 Y-215.479
X182.339 Y-215.42
X181.431 Y-215.343
X180.527 Y-215.224
X179.627 Y-215.078
X178.729 Y-214.917
X177.839 Y-214.72
X176.956 Y-214.492
X176.079 Y-214.244
X175.207 Y-213.976
X174.349 Y-213.668
X173.499 Y-213.337
X172.655 Y-212.992
X171.827 Y-212.611
X171.012 Y-212.202
X170.206 Y-211.775
X169.411 Y-211.328
X168.637 Y-210.847
X167.876 Y-210.345
X167.123 Y-209.831
X166.394 Y-209.283
X165.684 Y-208.711
X164.985 Y-208.125
X164.298 Y-207.525
X163.627 Y-206.909
X162.965 Y-206.282
X162.309 Y-205.648
X161.657 Y-205.011
X161.007 Y-204.371
X160.359 Y-203.729
X159.713 Y-203.086
X158.421 Y-201.799
X155.196 Y-198.577
X146.814 Y-190.195
X146.16 Y-189.56
X145.496 Y-188.935
X144.827 Y-188.315
X144.154 Y-187.7
X143.456 Y-187.113
X142.743 Y-186.545
X142.019 Y-185.991
X141.285 Y-185.45
X140.529 Y-184.94
X139.758 Y-184.453
X138.978 Y-183.982
X138.187 Y-183.527
X137.378 Y-183.107
X136.557 Y-182.71
X135.729 Y-182.329
X134.891 Y-181.969
X134.039 Y-181.644
X133.178 Y-181.343
X132.312 Y-181.058
X131.438 Y-180.798
X130.555 Y-180.573
X129.665 Y-180.372
X128.772 Y-180.188
X127.874 Y-180.031
X126.97 Y-179.909
X126.064 Y-179.811
X125.156 Y-179.729
X124.246 Y-179.668
X123.335 Y-179.627
X122.424 Y-179.601
X121.512 Y-179.583
X120.6 Y-179.572
X119.688 Y-179.565
X118.777 Y-179.56
X117.865 Y-179.557
X116.041 Y-179.553
X112.394 Y-179.551
X96.893
X95.981 Y-179.554
X95.07 Y-179.573
X94.158 Y-179.604
X93.247 Y-179.641
X92.337 Y-179.697
X91.43 Y-179.785
X90.524 Y-179.894
X89.621 Y-180.019
X88.722 Y-180.17
X87.829 Y-180.354
X86.941 Y-180.562
X86.057 Y-180.785
X85.181 Y-181.038
X84.315 Y-181.322
X83.456 Y-181.629
X82.603 Y-181.95
X81.762 Y-182.303
X80.934 Y-182.685
X80.116 Y-183.087
X79.304 Y-183.503
X78.51 Y-183.951
X77.732 Y-184.426
X76.964 Y-184.919
X76.205 Y-185.424
X75.468 Y-185.961
X74.75 Y-186.522
X74.044 Y-187.099
X73.347 Y-187.687
X72.667 Y-188.295
X71.999 Y-188.915
X71.338 Y-189.544
X70.683 Y-190.178
X70.032 Y-190.816
X69.383 Y-191.456
X68.735 Y-192.098
X67.443 Y-193.385
X65.507 Y-195.318
X55.835 Y-204.988
X55.19 Y-205.632
X54.532 Y-206.264
X53.867 Y-206.888
X53.198 Y-207.507
X52.514 Y-208.11
X51.809 Y-208.689
X51.092 Y-209.252
X50.368 Y-209.806
X49.617 Y-210.323
X48.851 Y-210.818
X48.077 Y-211.299
X47.286 Y-211.754
X46.479 Y-212.178
X45.662 Y-212.583
X44.838 Y-212.973
X43.996 Y-213.322
X43.144 Y-213.647
X42.286 Y-213.956
X41.417 Y-214.233
X40.539 Y-214.478
X39.655 Y-214.703
X38.767 Y-214.908
X37.87 Y-215.073
X36.969 Y-215.211
X36.065 Y-215.335
X35.158 Y-215.421
X34.247 Y-215.476
X33.336 Y-215.51
X32.425 Y-215.522
X31.513 Y-215.494
X30.603 Y-215.441
X29.694 Y-215.373
X28.788 Y-215.265
X27.887 Y-215.126
X26.989 Y-214.97
X26.095 Y-214.788
X25.21 Y-214.568
X24.331 Y-214.325
X23.457 Y-214.068
X22.595 Y-213.771
X21.743 Y-213.446
X20.897 Y-213.104
X20.063 Y-212.736
X19.244 Y-212.335
X18.436 Y-211.913
X17.634 Y-211.479
X16.855 Y-211.006
X16.09 Y-210.509
X15.335 Y-209.997
X14.598 Y-209.461
X13.882 Y-208.896
X13.18 Y-208.314
X12.488 Y-207.721
X11.813 Y-207.108
X11.162 Y-206.469
X10.525 Y-205.817
X9.898 Y-205.155
X9.292 Y-204.474
X8.711 Y-203.771
X8.146 Y-203.055
X7.594 Y-202.329
X7.078 Y-201.578
X6.583 Y-200.812
X6.103 Y-200.037
X5.651 Y-199.245
X5.229 Y-198.437
X4.825 Y-197.619
X4.439 Y-196.793
X4.092 Y-195.95
X3.769 Y-195.097
X3.46 Y-194.239
X3.187 Y-193.369
X2.944 Y-192.49
X2.721 Y-191.606
X2.519 Y-190.717
X2.357 Y-189.82
X2.22 Y-188.918
X2.097 Y-188.015
X2.014 Y-187.107
X1.962 Y-186.196
X1.929 Y-185.285
X1.921 Y-184.374
X1.952 Y-183.462
X2.007 Y-182.552
X2.076 Y-181.643
X2.187 Y-180.738
X2.328 Y-179.837
X2.487 Y-178.939
X2.673 Y-178.046
X2.895 Y-177.162
X3.139 Y-176.284
X3.397 Y-175.409
X3.698 Y-174.548
X4.025 Y-173.697
X4.368 Y-172.852
X4.739 Y-172.02
X5.143 Y-171.202
X5.566 Y-170.394
X6.004 Y-169.594
X6.479 Y-168.817
X6.978 Y-168.053
X7.49 Y-167.299
X8.03 Y-166.564
X8.596 Y-165.849
X9.179 Y-165.148
X9.774 Y-164.457
X10.388 Y-163.783
X11.013 Y-163.119
X11.645 Y-162.462
X12.282 Y-161.809
X12.921 Y-161.159
X13.563 Y-160.511
X14.205 Y-159.864
X15.492 Y-158.572
X18.07 Y-155.992
X27.096 Y-146.965
X27.734 Y-146.313
X28.361 Y-145.652
X28.982 Y-144.984
X29.599 Y-144.312
X30.192 Y-143.62
X30.764 Y-142.91
X31.322 Y-142.188
X31.869 Y-141.459
X32.385 Y-140.707
X32.877 Y-139.939
X33.351 Y-139.161
X33.814 Y-138.375
X34.241 Y-137.57
X34.642 Y-136.751
X35.026 Y-135.924
X35.395 Y-135.09
X35.726 Y-134.24
X36.031 Y-133.381
X36.319 Y-132.516
X36.588 Y-131.645
X36.82 Y-130.763
X37.025 Y-129.874
X37.213 Y-128.982
X37.379 Y-128.085
X37.507 Y-127.183
X37.61 Y-126.277
X37.695 Y-125.369
X37.762 Y-124.46
X37.807 Y-123.549
X37.836 Y-122.637
X37.855 Y-121.726
X37.868 Y-120.814
X37.876 Y-119.902
X37.881 Y-118.991
X37.885 Y-118.079
X37.888 Y-116.255
X37.89 Y-112.608
X37.891 Y-96.195
X37.875 Y-95.284
X37.846 Y-94.372
X37.81 Y-93.461
X37.763 Y-92.551
X37.682 Y-91.642
X37.576 Y-90.737
X37.454 Y-89.833
X37.312 Y-88.932
X37.134 Y-88.038
X36.931 Y-87.149
X36.711 Y-86.264
X36.468 Y-85.386
X36.189 Y-84.517
X35.887 Y-83.657
X35.569 Y-82.803
X35.225 Y-81.958
X34.849 Y-81.127
X34.451 Y-80.307
X34.038 Y-79.494
X33.598 Y-78.695
X33.129 Y-77.913
X32.64 Y-77.144
X32.138 Y-76.383
X31.608 Y-75.641
X31.052 Y-74.918
X30.479 Y-74.209
X29.893 Y-73.51
X29.29 Y-72.826
X28.673 Y-72.155
X28.046 Y-71.493
X27.413 Y-70.837
X26.776 Y-70.185
X26.136 Y-69.535
X25.494 Y-68.887
X24.852 Y-68.24
X23.564 Y-66.948
X20.987 Y-64.368
X11.96 Y-55.341
X11.326 Y-54.686
X10.7 Y-54.023
X10.08 Y-53.355
X9.47 Y-52.677
X8.887 Y-51.976
X8.321 Y-51.261
X7.765 Y-50.538
X7.24 Y-49.793
X6.74 Y-49.031
X6.255 Y-48.258
X5.791 Y-47.473
X5.361 Y-46.669
X4.953 Y-45.854
X4.558 Y-45.032
X4.2 Y-44.193
X3.87 Y-43.343
X3.558 Y-42.487
X3.27 Y-41.621
X3.019 Y-40.745
X2.791 Y-39.862
X2.576 Y-38.976
X2.404 Y-38.081
X2.261 Y-37.18
X2.135 Y-36.277
X2.038 Y-35.37
X1.977 Y-34.461
X1.939 Y-33.55
X1.915 Y-32.638
X1.937 Y-31.727
X1.986 Y-30.816
X2.051 Y-29.907
X2.149 Y-29
X2.282 Y-28.098
X2.435 Y-27.199
X2.606 Y-26.303
X2.819 Y-25.417
X3.058 Y-24.537
X3.312 Y-23.661
X3.6 Y-22.796
X3.919 Y-21.942
X4.258 Y-21.095
X4.615 Y-20.256
X5.01 Y-19.435
X5.428 Y-18.624
X5.86 Y-17.821
X6.325 Y-17.037
X6.817 Y-16.269
X7.325 Y-15.512
X7.853 Y-14.768
X8.412 Y-14.048
X8.991 Y-13.344
X9.286 Y-12.996
X9.511 Y-12.739
X9.662 Y-12.568
X10.066 Y-12.357
X10.965 Y-12.205
X11.873 Y-12.122
X12.782 Y-12.043
X13.688 Y-11.945
X14.589 Y-11.805
X15.482 Y-11.622
X16.366 Y-11.396
X17.238 Y-11.129
X18.098 Y-10.828
X18.951 Y-10.504
X19.797 Y-10.165
X20.639 Y-9.815
X21.482 Y-9.467
X22.329 Y-9.129
X23.181 Y-8.805
X24.04 Y-8.499
X24.908 Y-8.219
X25.782 Y-7.96
X26.665 Y-7.731
X27.555 Y-7.533
X28.451 Y-7.364
X29.352 Y-7.229
X30.258 Y-7.126
X31.167 Y-7.051
X32.078 Y-7.012
X32.99 Y-7.007
X33.901 Y-7.034
X34.811 Y-7.095
X35.718 Y-7.189
X36.621 Y-7.313
X37.519 Y-7.474
X38.41 Y-7.666
X39.294 Y-7.89
X40.169 Y-8.147
X41.034 Y-8.435
X41.889 Y-8.754
X42.73 Y-9.105
X43.559 Y-9.485
X44.373 Y-9.895
X45.171 Y-10.337
X45.953 Y-10.806
X46.717 Y-11.303
X47.462 Y-11.829
X48.19 Y-12.378
X48.9 Y-12.95
X49.595 Y-13.541
X50.276 Y-14.147
X50.947 Y-14.764
X51.611 Y-15.389
X52.269 Y-16.02
X52.923 Y-16.656
X53.574 Y-17.294
X54.224 Y-17.934
X54.871 Y-18.575
X56.165 Y-19.861
X58.101 Y-21.793
X60.681 Y-24.371
X65.194 Y-28.884
X65.84 Y-29.529
X66.487 Y-30.17
X67.14 Y-30.807
X67.798 Y-31.439
X68.461 Y-32.064
X69.132 Y-32.681
X69.815 Y-33.285
X70.511 Y-33.875
X71.216 Y-34.453
X71.934 Y-35.015
X72.664 Y-35.561
X73.408 Y-36.089
X74.163 Y-36.6
X74.929 Y-37.095
X75.707 Y-37.571
X76.497 Y-38.025
X77.299 Y-38.459
X78.11 Y-38.876
X78.931 Y-39.273
X79.762 Y-39.649
X80.602 Y-40.003
X81.451 Y-40.336
X82.306 Y-40.651
X83.17 Y-40.943
X84.041 Y-41.212
X84.919 Y-41.458
X85.802 Y-41.685
X86.691 Y-41.891
X87.584 Y-42.075
X88.482 Y-42.233
X89.383 Y-42.369
X90.288 Y-42.485
X91.194 Y-42.582
X92.103 Y-42.66
X93.013 Y-42.72
X93.923 Y-42.767
X94.834 Y-42.802
X95.746 Y-42.827
X96.658 Y-42.846
X97.569 Y-42.859
X98.481 Y-42.869
X99.393 Y-42.876
X100.305 Y-42.88
X101.216 Y-42.884
X103.04 Y-42.887
X104.864 Y-42.889
X111.246 Y-42.891
X118.541
X119.453 Y-42.89
X120.364 Y-42.886
X121.276 Y-42.874
X122.188 Y-42.854
X123.099 Y-42.828
X124.01 Y-42.786
X124.92 Y-42.728
X125.829 Y-42.651
X126.736 Y-42.559
X127.641 Y-42.448
X128.543 Y-42.316
X129.442 Y-42.161
X130.336 Y-41.985
X131.227 Y-41.791
X132.113 Y-41.574
X132.992 Y-41.334
X133.866 Y-41.071
X134.733 Y-40.789
X135.593 Y-40.488
X136.446 Y-40.164
X137.289 Y-39.817
X138.123 Y-39.45
X138.949 Y-39.064
X139.765 Y-38.657
X140.57 Y-38.229
X141.364 Y-37.78
X142.148 Y-37.314
X142.92 Y-36.829
X143.679 Y-36.324
X144.424 Y-35.798
X145.157 Y-35.255
X145.877 Y-34.696
X146.585 Y-34.122
X147.281 Y-33.533
X147.967 Y-32.932
X148.643 Y-32.32
X149.311 Y-31.699
X149.973 Y-31.072
X150.63 Y-30.44
X151.284 Y-29.805
X151.935 Y-29.167
X152.585 Y-28.527
X153.233 Y-27.885
X154.526 Y-26.599
X156.463 Y-24.667
X160.977 Y-20.155
X164.201 Y-16.932
X164.848 Y-16.289
X165.5 Y-15.652
X166.157 Y-15.02
X166.821 Y-14.395
X167.499 Y-13.785
X168.192 Y-13.192
X168.898 Y-12.616
X169.623 Y-12.062
X170.365 Y-11.532
X171.122 Y-11.024
X171.898 Y-10.546
X172.691 Y-10.095
X173.498 Y-9.67
X174.321 Y-9.278
X175.157 Y-8.914
X176.005 Y-8.579
X176.865 Y-8.278
X177.736 Y-8.006
X178.615 Y-7.766
X179.504 Y-7.561
X180.399 Y-7.386
X181.299 Y-7.244
X182.205 Y-7.136
X183.113 Y-7.058
X184.024 Y-7.016
X184.936 Y-7.009
X185.848 Y-7.031
X186.758 Y-7.088
X187.665 Y-7.18
X188.568 Y-7.301
X189.467 Y-7.459
X190.358 Y-7.648
X191.243 Y-7.868
X192.119 Y-8.122
X192.985 Y-8.408
X193.841 Y-8.723
X194.683 Y-9.072
X195.513 Y-9.449
X196.329 Y-9.857
X197.128 Y-10.296
X197.912 Y-10.762
X198.678 Y-11.256
X199.425 Y-11.779
X200.154 Y-12.327
X200.864 Y-12.898
X201.555 Y-13.493
X202.227 Y-14.11
X202.882 Y-14.744
X203.516 Y-15.4
X204.127 Y-16.077
X204.716 Y-16.773
X205.28 Y-17.489
X205.818 Y-18.225
X206.334 Y-18.977
X206.819 Y-19.749
X207.275 Y-20.539
X207.704 Y-21.343
X208.103 Y-22.163
X208.472 Y-22.997
X208.813 Y-23.843
X209.119 Y-24.702
X209.395 Y-25.571
X209.64 Y-26.449
X209.851 Y-27.336
X210.031 Y-28.23
X210.178 Y-29.13
X210.291 Y-30.034
X210.373 Y-30.942
X210.422 Y-31.853
X210.435 Y-32.765
X210.416 Y-33.676
X210.364 Y-34.587
X210.278 Y-35.494
X210.163 Y-36.399
X210.012 Y-37.298
X209.826 Y-38.191
X209.611 Y-39.077
X209.362 Y-39.954
X209.081 Y-40.821
X208.772 Y-41.679
X208.428 Y-42.524
X208.054 Y-43.355
X207.652 Y-44.174
X207.218 Y-44.975
X206.755 Y-45.761
X206.266 Y-46.531
X205.747 Y-47.28
X205.203 Y-48.012
X204.636 Y-48.727
X204.049 Y-49.424
X203.447 Y-50.109
X202.832 Y-50.782
X202.208 Y-51.447
X201.578 Y-52.107
X200.944 Y-52.762
X200.307 Y-53.413
X199.667 Y-54.063
X199.026 Y-54.711
X198.383 Y-55.359
X197.097 Y-56.651
X194.519 Y-59.232
X188.072 Y-65.68
X187.43 Y-66.326
X186.791 Y-66.977
X186.158 Y-67.634
X185.531 Y-68.296
X184.911 Y-68.965
X184.304 Y-69.645
X183.711 Y-70.337
X183.131 Y-71.04
X182.564 Y-71.755
X182.014 Y-72.482
X181.482 Y-73.223
X180.967 Y-73.975
X180.468 Y-74.739
X179.987 Y-75.513
X179.528 Y-76.301
X179.089 Y-77.1
X178.668 Y-77.909
X178.266 Y-78.727
X177.885 Y-79.556
X177.526 Y-80.394
X177.187 Y-81.24
X176.868 Y-82.094
X176.57 Y-82.956
X176.296 Y-83.826
X176.044 Y-84.702
X175.813 Y-85.584
X175.601 Y-86.471
X175.412 Y-87.363
X175.248 Y-88.26
X175.107 Y-89.161
X174.985 Y-90.064
X174.883 Y-90.97
X174.801 Y-91.879
X174.736 Y-92.788
X174.686 Y-93.698
X174.648 Y-94.61
X174.621 Y-95.521
X174.6 Y-96.433
X174.586 Y-97.344
X174.575 Y-98.256
X174.568 Y-99.168
X174.563 Y-100.08
X174.559 Y-100.991
X174.555 Y-102.815
X174.552 Y-105.55
X174.551 Y-114.669
Y-119.228
X174.555 Y-120.139
X174.565 Y-121.051
X174.582 Y-121.963
X174.607 Y-122.874
X174.645 Y-123.785
X174.699 Y-124.696
X174.771 Y-125.604
X174.86 Y-126.512
X174.966 Y-127.418
X175.093 Y-128.32
X175.242 Y-129.22
X175.413 Y-130.116
X175.602 Y-131.008
X175.814 Y-131.895
X176.048 Y-132.776
X176.305 Y-133.651
X176.582 Y-134.519
X176.877 Y-135.382
X177.195 Y-136.237
X177.537 Y-137.082
X177.9 Y-137.919
X178.281 Y-138.747
X178.682 Y-139.566
X179.105 Y-140.374
X179.548 Y-141.17
X180.011 Y-141.956
X180.49 Y-142.732
X180.99 Y-143.494
X181.511 Y-144.242
X182.05 Y-144.978
X182.606 Y-145.701
X183.176 Y-146.412
X183.762 Y-147.111
X184.36 Y-147.799
X184.97 Y-148.477
X185.589 Y-149.147
X186.214 Y-149.81
X186.845 Y-150.469
X187.48 Y-151.123
X188.118 Y-151.775
X188.757 Y-152.425
X189.399 Y-153.073
X190.041 Y-153.72
X191.327 Y-155.012
X193.26 Y-156.948
X200.351 Y-164.041
X200.995 Y-164.687
X201.634 Y-165.338
X202.267 Y-165.994
X202.894 Y-166.656
X203.507 Y-167.331
X204.104 Y-168.02
X204.686 Y-168.723
X205.245 Y-169.442
X205.781 Y-170.18
X206.295 Y-170.934
X206.78 Y-171.706
X207.237 Y-172.494
X207.669 Y-173.298
X208.07 Y-174.116
X208.441 Y-174.949
X208.784 Y-175.794
X209.093 Y-176.652
X209.371 Y-177.52
X209.62 Y-178.397
X209.834 Y-179.284
X210.016 Y-180.177
X210.167 Y-181.077
X210.283 Y-181.981
X210.368 Y-182.889
X210.419 Y-183.799
X210.434 Y-184.711
X210.42 Y-185.623
X210.372 Y-186.533
X210.289 Y-187.441
X210.174 Y-188.346
X210.025 Y-189.245
X209.843 Y-190.139
X209.632 Y-191.026
X209.387 Y-191.904
X209.108 Y-192.772
X208.8 Y-193.63
X208.459 Y-194.476
X208.088 Y-195.309
X207.689 Y-196.129
X207.257 Y-196.932
X206.798 Y-197.72
X206.311 Y-198.49
X205.794 Y-199.242
X205.252 Y-199.975
X204.687 Y-200.69
X204.098 Y-201.386
X203.486 Y-202.062
X202.856 Y-202.721
X202.206 Y-203.361
X201.533 Y-203.977
X200.842 Y-204.572
X200.131 Y-205.143
X199.4 Y-205.687
X198.652 Y-206.209
X197.885 Y-206.701
X197.099 Y-207.165
X196.299 Y-207.601
X195.482 Y-208.007
X194.652 Y-208.383
X193.81 Y-208.732
X192.954 Y-209.047
X192.087 Y-209.33
X191.211 Y-209.583
X190.326 Y-209.802
X189.433 Y-209.989
X188.535 Y-210.146
X187.631 Y-210.267
X186.724 Y-210.356
X185.814 Y-210.414
X184.902 Y-210.435
X183.991 Y-210.424
X183.08 Y-210.381
X182.171 Y-210.303
X181.266 Y-210.195
X180.366 Y-210.052
X179.471 Y-209.874
X178.583 Y-209.667
X177.704 Y-209.426
X176.834 Y-209.153
X175.974 Y-208.851
X175.126 Y-208.515
X174.291 Y-208.148
X173.469 Y-207.753
X172.663 Y-207.327
X171.873 Y-206.871
X171.099 Y-206.389
X170.345 Y-205.877
X169.609 Y-205.338
X168.89 Y-204.777
X168.189 Y-204.195
X167.501 Y-203.596
X166.826 Y-202.984
X166.159 Y-202.362
X165.498 Y-201.734
X164.842 Y-201.101
X164.189 Y-200.464
X163.539 Y-199.825
X162.89 Y-199.184
X162.243 Y-198.542
X160.951 Y-197.255
X159.014 Y-195.323
X152.566 Y-188.876
X151.921 Y-188.231
X151.275 Y-187.588
X150.625 Y-186.948
X149.97 Y-186.314
X149.31 Y-185.685
X148.644 Y-185.063
X147.967 Y-184.452
X147.278 Y-183.855
X146.577 Y-183.272
X145.865 Y-182.701
X145.141 Y-182.147
X144.404 Y-181.61
X143.654 Y-181.091
X142.893 Y-180.589
X142.122 Y-180.103
X141.338 Y-179.638
X140.541 Y-179.194
X139.734 Y-178.77
X138.918 Y-178.363
X138.092 Y-177.977
X137.257 Y-177.612
X136.412 Y-177.268
X135.559 Y-176.945
X134.699 Y-176.642
X133.832 Y-176.361
X132.957 Y-176.104
X132.076 Y-175.868
X131.191 Y-175.652
X130.3 Y-175.457
X129.404 Y-175.287
X128.504 Y-175.14
X127.601 Y-175.014
X126.695 Y-174.907
X125.788 Y-174.82
X124.879 Y-174.751
X123.968 Y-174.698
X123.057 Y-174.657
X122.146 Y-174.627
X121.235 Y-174.605
X120.323 Y-174.589
X119.411 Y-174.578
X118.499 Y-174.57
X117.588 Y-174.564
X116.676 Y-174.56
X114.852 Y-174.555
X112.117 Y-174.552
X103.91 Y-174.551
X98.44
X97.528 Y-174.553
X96.616 Y-174.561
X95.704 Y-174.577
X94.793 Y-174.6
X93.882 Y-174.634
X92.971 Y-174.684
X92.062 Y-174.752
X91.154 Y-174.837
X90.248 Y-174.939
X89.344 Y-175.06
X88.444 Y-175.204
X87.547 Y-175.369
X86.654 Y-175.554
X85.766 Y-175.76
X84.883 Y-175.989
X84.007 Y-176.241
X83.137 Y-176.513
X82.273 Y-176.804
X81.416 Y-177.116
X80.568 Y-177.452
X79.73 Y-177.81
X78.899 Y-178.186
X78.078 Y-178.582
X77.267 Y-179
X76.468 Y-179.439
X75.679 Y-179.896
X74.9 Y-180.37
X74.135 Y-180.865
X73.383 Y-181.381
X72.644 Y-181.916
X71.918 Y-182.468
X71.204 Y-183.034
X70.502 Y-183.616
X69.811 Y-184.211
X69.131 Y-184.819
X68.459 Y-185.435
X67.794 Y-186.059
X67.135 Y-186.689
X66.48 Y-187.323
X65.827 Y-187.96
X65.177 Y-188.6
X64.529 Y-189.24
X63.881 Y-189.883
X62.589 Y-191.169
X60.653 Y-193.101
X54.204 Y-199.548
X52.915 Y-200.837
X52.265 Y-201.478
X51.611 Y-202.112
X50.95 Y-202.741
X50.279 Y-203.358
X49.593 Y-203.959
X48.895 Y-204.545
X48.18 Y-205.111
X47.446 Y-205.652
X46.696 Y-206.171
X45.929 Y-206.663
X45.143 Y-207.127
X44.344 Y-207.566
X43.53 Y-207.975
X42.7 Y-208.353
X41.857 Y-208.702
X41.002 Y-209.019
X40.137 Y-209.305
X39.262 Y-209.563
X38.378 Y-209.785
X37.486 Y-209.974
X36.588 Y-210.133
X35.684 Y-210.257
X34.777 Y-210.349
X33.867 Y-210.409
X32.956 Y-210.433
X32.044 Y-210.426
X31.133 Y-210.387
X30.224 Y-210.312
X29.319 Y-210.205
X28.418 Y-210.065
X27.523 Y-209.89
X26.634 Y-209.687
X25.753 Y-209.451
X24.883 Y-209.179
X24.022 Y-208.878
X23.173 Y-208.545
X22.338 Y-208.181
X21.513 Y-207.792
X20.706 Y-207.368
X19.915 Y-206.914
X19.14 Y-206.434
X18.384 Y-205.924
X17.646 Y-205.388
X16.926 Y-204.829
X16.225 Y-204.246
X15.544 Y-203.639
X14.881 Y-203.013
X14.237 Y-202.368
X13.615 Y-201.701
X13.015 Y-201.014
X12.437 Y-200.309
X11.886 Y-199.583
X11.36 Y-198.838
X10.859 Y-198.076
X10.39 Y-197.294
X9.946 Y-196.498
X9.532 Y-195.685
X9.149 Y-194.858
X8.793 Y-194.019
X8.47 Y-193.166
X8.18 Y-192.301
X7.919 Y-191.428
X7.691 Y-190.545
X7.496 Y-189.654
X7.332 Y-188.757
X7.202 Y-187.855
X7.106 Y-186.948
X7.04 Y-186.039
X7.01 Y-185.127
X7.013 Y-184.215
X7.047 Y-183.304
X7.117 Y-182.395
X7.218 Y-181.489
X7.352 Y-180.587
X7.522 Y-179.691
X7.721 Y-178.801
X7.952 Y-177.919
X8.218 Y-177.047
X8.513 Y-176.184
X8.841 Y-175.334
X9.201 Y-174.496
X9.588 Y-173.67
X10.006 Y-172.86
X10.455 Y-172.066
X10.931 Y-171.289
X11.437 Y-170.53
X11.969 Y-169.79
X12.525 Y-169.066
X13.102 Y-168.36
X13.697 Y-167.67
X14.306 Y-166.991
X14.926 Y-166.322
X15.553 Y-165.66
X16.185 Y-165.003
X16.821 Y-164.35
X17.46 Y-163.699
X18.1 Y-163.05
X18.742 Y-162.403
X20.028 Y-161.11
X21.961 Y-159.174
X26.473 Y-154.659
X29.052 Y-152.08
X29.696 Y-151.435
X30.336 Y-150.786
X30.972 Y-150.132
X31.602 Y-149.473
X32.226 Y-148.808
X32.84 Y-148.134
X33.44 Y-147.448
X34.027 Y-146.75
X34.601 Y-146.041
X35.16 Y-145.321
X35.701 Y-144.587
X36.224 Y-143.84
X36.731 Y-143.082
X37.222 Y-142.314
X37.692 Y-141.533
X38.141 Y-140.739
X38.57 Y-139.935
X38.982 Y-139.121
X39.374 Y-138.298
X39.744 Y-137.464
X40.092 Y-136.622
X40.42 Y-135.771
X40.729 Y-134.913
X41.015 Y-134.047
X41.278 Y-133.174
X41.519 Y-132.295
X41.739 Y-131.41
X41.94 Y-130.52
X42.116 Y-129.626
X42.269 Y-128.727
X42.399 Y-127.824
X42.51 Y-126.919
X42.602 Y-126.012
X42.676 Y-125.103
X42.733 Y-124.193
X42.776 Y-123.283
X42.808 Y-122.371
X42.832 Y-121.46
X42.849 Y-120.548
X42.862 Y-119.636
X42.871 Y-118.725
X42.877 Y-117.813
X42.881 Y-116.901
X42.886 Y-115.077
X42.889 Y-112.342
X42.89 Y-109.607
X42.891 Y-98.665
X42.89 Y-97.753
X42.884 Y-96.841
X42.87 Y-95.929
X42.849 Y-95.018
X42.818 Y-94.107
X42.773 Y-93.196
X42.709 Y-92.286
X42.629 Y-91.378
X42.531 Y-90.472
X42.415 Y-89.567
X42.276 Y-88.666
X42.116 Y-87.768
X41.936 Y-86.875
X41.735 Y-85.985
X41.512 Y-85.101
X41.266 Y-84.223
X40.999 Y-83.351
X40.712 Y-82.486
X40.405 Y-81.627
X40.075 Y-80.777
X39.722 Y-79.936
X39.35 Y-79.104
X38.959 Y-78.28
X38.547 Y-77.467
X38.113 Y-76.665
X37.66 Y-75.873
X37.19 Y-75.092
X36.7 Y-74.323
X36.189 Y-73.568
X35.658 Y-72.827
X35.111 Y-72.097
X34.548 Y-71.38
X33.97 Y-70.675
X33.378 Y-69.981
X32.774 Y-69.299
X32.159 Y-68.625
X31.537 Y-67.958
X30.909 Y-67.298
X30.276 Y-66.641
X29.639 Y-65.988
X29 Y-65.338
X28.36 Y-64.689
X27.718 Y-64.041
X26.432 Y-62.748
X24.5 Y-60.812
X19.343 Y-55.653
X16.764 Y-53.074
X16.122 Y-52.426
X15.486 Y-51.772
X14.856 Y-51.113
X14.235 Y-50.446
X13.63 Y-49.764
X13.04 Y-49.068
X12.47 Y-48.357
X11.922 Y-47.628
X11.398 Y-46.882
X10.898 Y-46.119
X10.428 Y-45.338
X9.982 Y-44.543
X9.565 Y-43.732
X9.18 Y-42.905
X8.824 Y-42.066
X8.498 Y-41.214
X8.205 Y-40.351
X7.94 Y-39.478
X7.709 Y-38.596
X7.512 Y-37.706
X7.345 Y-36.81
X7.213 Y-35.908
X7.113 Y-35.001
X7.043 Y-34.092
X7.01 Y-33.181
Y-32.269
X7.042 Y-31.358
X7.109 Y-30.448
X7.208 Y-29.542
X7.339 Y-28.64
X7.505 Y-27.743
X7.702 Y-26.853
X7.93 Y-25.97
X8.194 Y-25.097
X8.487 Y-24.234
X8.811 Y-23.382
X9.168 Y-22.542
X9.552 Y-21.715
X9.968 Y-20.904
X10.415 Y-20.109
X10.888 Y-19.33
X11.39 Y-18.569
X11.523 Y-18.383
X11.858 Y-18.074
X12.647 Y-17.617
X13.507 Y-17.314
X14.385 Y-17.068
X15.268 Y-16.841
X16.151 Y-16.612
X17.03 Y-16.37
X17.903 Y-16.109
X18.771 Y-15.828
X19.632 Y-15.529
X20.488 Y-15.215
X21.34 Y-14.888
X23.038 Y-14.224
X23.89 Y-13.9
X24.747 Y-13.588
X25.61 Y-13.294
X26.482 Y-13.026
X27.362 Y-12.787
X28.25 Y-12.58
X29.145 Y-12.408
X30.047 Y-12.273
X30.954 Y-12.177
X31.864 Y-12.121
X32.775 Y-12.106
X33.687 Y-12.131
X34.596 Y-12.198
X35.502 Y-12.306
X36.401 Y-12.455
X37.293 Y-12.645
X38.175 Y-12.876
X39.046 Y-13.147
X39.903 Y-13.457
X40.746 Y-13.806
X41.571 Y-14.194
X42.377 Y-14.619
X43.164 Y-15.081
X43.929 Y-15.576
X44.673 Y-16.104
X45.397 Y-16.658
X46.103 Y-17.234
X46.796 Y-17.828
X47.476 Y-18.435
X48.147 Y-19.052
X48.812 Y-19.676
X49.471 Y-20.306
X50.126 Y-20.94
X50.779 Y-21.577
X51.429 Y-22.217
X52.077 Y-22.857
X52.725 Y-23.499
X53.372 Y-24.142
X54.664 Y-25.429
X57.244 Y-28.007
X61.113 Y-31.874
X61.759 Y-32.518
X62.408 Y-33.159
X63.059 Y-33.797
X63.714 Y-34.431
X64.375 Y-35.06
X65.042 Y-35.681
X65.718 Y-36.293
X66.403 Y-36.895
X67.097 Y-37.487
X67.801 Y-38.067
X68.515 Y-38.633
X69.24 Y-39.186
X69.975 Y-39.725
X70.721 Y-40.249
X71.478 Y-40.758
X72.245 Y-41.251
X73.023 Y-41.726
X73.811 Y-42.185
X74.608 Y-42.628
X75.415 Y-43.054
X76.23 Y-43.462
X77.054 Y-43.852
X77.887 Y-44.224
X78.727 Y-44.578
X79.575 Y-44.913
X80.43 Y-45.23
X81.292 Y-45.527
X82.16 Y-45.806
X83.034 Y-46.066
X83.913 Y-46.308
X84.798 Y-46.53
X85.687 Y-46.732
X86.58 Y-46.913
X87.477 Y-47.076
X88.378 Y-47.219
X89.281 Y-47.345
X90.186 Y-47.453
X91.094 Y-47.544
X92.002 Y-47.619
X92.912 Y-47.681
X93.823 Y-47.731
X94.734 Y-47.769
X95.645 Y-47.8
X96.556 Y-47.823
X97.468 Y-47.841
X98.38 Y-47.854
X99.292 Y-47.864
X100.203 Y-47.872
X101.115 Y-47.877
X102.027 Y-47.881
X103.851 Y-47.886
X106.586 Y-47.889
X112.969 Y-47.891
X117.528
X118.44 Y-47.889
X119.351 Y-47.885
X120.263 Y-47.876
X121.175 Y-47.862
X122.086 Y-47.841
X122.998 Y-47.81
X123.908 Y-47.767
X124.819 Y-47.711
X125.728 Y-47.641
X126.636 Y-47.556
X127.542 Y-47.456
X128.446 Y-47.337
X129.347 Y-47.2
X130.246 Y-47.045
X131.141 Y-46.872
X132.033 Y-46.68
X132.92 Y-46.47
X133.802 Y-46.24
X134.68 Y-45.992
X135.552 Y-45.726
X136.418 Y-45.441
X137.277 Y-45.136
X138.13 Y-44.812
X138.975 Y-44.47
X139.813 Y-44.11
X140.642 Y-43.732
X141.464 Y-43.336
X142.276 Y-42.922
X143.079 Y-42.491
X143.873 Y-42.042
X144.656 Y-41.575
X145.429 Y-41.091
X146.191 Y-40.591
X146.942 Y-40.073
X147.682 Y-39.541
X148.411 Y-38.993
X149.13 Y-38.432
X149.837 Y-37.856
X150.534 Y-37.269
X151.223 Y-36.671
X151.902 Y-36.063
X152.575 Y-35.448
X153.242 Y-34.826
X153.904 Y-34.199
X154.562 Y-33.567
X155.216 Y-32.932
X155.868 Y-32.295
X156.519 Y-31.656
X157.167 Y-31.015
X157.815 Y-30.373
X159.108 Y-29.088
X161.045 Y-27.156
X165.559 Y-22.644
X166.849 Y-21.355
X167.496 Y-20.712
X168.146 Y-20.072
X168.799 Y-19.437
X169.46 Y-18.808
X170.131 Y-18.191
X170.815 Y-17.588
X171.515 Y-17.004
X172.234 Y-16.442
X172.971 Y-15.905
X173.727 Y-15.396
X174.504 Y-14.918
X175.3 Y-14.474
X176.115 Y-14.065
X176.947 Y-13.692
X177.794 Y-13.355
X178.656 Y-13.058
X179.531 Y-12.801
X180.417 Y-12.583
X181.311 Y-12.406
X182.213 Y-12.27
X183.12 Y-12.176
X184.03 Y-12.122
X184.942 Y-12.11
X185.853 Y-12.141
X186.762 Y-12.214
X187.666 Y-12.327
X188.565 Y-12.482
X189.455 Y-12.678
X190.336 Y-12.915
X191.205 Y-13.191
X192.06 Y-13.507
X192.9 Y-13.863
X193.722 Y-14.256
X194.527 Y-14.686
X195.31 Y-15.153
X196.071 Y-15.654
X196.811 Y-16.188
X197.528 Y-16.752
X198.222 Y-17.342
X198.893 Y-17.96
X199.538 Y-18.604
X200.157 Y-19.273
X200.749 Y-19.967
X201.31 Y-20.686
X201.839 Y-21.429
X202.335 Y-22.193
X202.798 Y-22.979
X203.223 Y-23.786
X203.612 Y-24.611
X203.963 Y-25.452
X204.277 Y-26.308
X204.549 Y-27.178
X204.782 Y-28.06
X204.974 Y-28.951
X205.127 Y-29.85
X205.237 Y-30.755
X205.305 Y-31.665
X205.332 Y-32.576
X205.317 Y-33.488
X205.261 Y-34.398
X205.162 Y-35.304
X205.023 Y-36.206
X204.842 Y-37.099
X204.62 Y-37.984
X204.358 Y-38.857
X204.057 Y-39.718
X203.716 Y-40.563
X203.336 Y-41.392
X202.919 Y-42.203
X202.466 Y-42.994
X201.977 Y-43.764
X201.456 Y-44.513
X200.908 Y-45.241
X200.336 Y-45.951
X199.745 Y-46.646
X199.141 Y-47.329
X198.526 Y-48.002
X197.903 Y-48.668
X197.274 Y-49.328
X196.641 Y-49.984
X196.004 Y-50.637
X195.365 Y-51.287
X194.725 Y-51.936
X194.083 Y-52.584
X192.797 Y-53.877
X190.865 Y-55.814
X186.353 Y-60.328
X185.064 Y-61.618
X184.422 Y-62.265
X183.783 Y-62.916
X183.148 Y-63.57
X182.518 Y-64.23
X181.895 Y-64.895
X181.281 Y-65.569
X180.677 Y-66.252
X180.083 Y-66.944
X179.501 Y-67.646
X178.931 Y-68.358
X178.375 Y-69.08
X177.833 Y-69.814
X177.306 Y-70.557
X176.794 Y-71.312
X176.298 Y-72.077
X175.818 Y-72.852
X175.356 Y-73.638
X174.91 Y-74.434
X174.48 Y-75.238
X174.068 Y-76.051
X173.674 Y-76.874
X173.298 Y-77.704
X172.941 Y-78.543
X172.602 Y-79.39
X172.281 Y-80.243
X171.979 Y-81.104
X171.697 Y-81.97
X171.433 Y-82.843
X171.187 Y-83.721
X170.96 Y-84.605
X170.754 Y-85.493
X170.568 Y-86.385
X170.402 Y-87.282
X170.254 Y-88.182
X170.124 Y-89.084
X170.013 Y-89.989
X169.918 Y-90.896
X169.839 Y-91.804
X169.774 Y-92.714
X169.722 Y-93.624
X169.681 Y-94.535
X169.648 Y-95.446
X169.624 Y-96.358
X169.605 Y-97.269
X169.59 Y-98.181
X169.58 Y-99.093
X169.572 Y-100.005
X169.566 Y-100.916
X169.562 Y-101.828
X169.556 Y-103.652
X169.553 Y-106.387
X169.551 Y-111.858
Y-117.329
X169.552 Y-118.241
X169.556 Y-119.153
X169.563 Y-120.064
X169.576 Y-120.976
X169.596 Y-121.888
X169.625 Y-122.799
X169.665 Y-123.71
X169.719 Y-124.62
X169.786 Y-125.53
X169.867 Y-126.438
X169.964 Y-127.344
X170.079 Y-128.249
X170.212 Y-129.151
X170.363 Y-130.05
X170.532 Y-130.946
X170.72 Y-131.839
X170.926 Y-132.727
X171.152 Y-133.61
X171.395 Y-134.489
X171.657 Y-135.362
X171.938 Y-136.23
X172.238 Y-137.091
X172.557 Y-137.945
X172.895 Y-138.792
X173.251 Y-139.631
X173.625 Y-140.463
X174.017 Y-141.286
X174.427 Y-142.101
X174.855 Y-142.906
X175.3 Y-143.702
X175.763 Y-144.487
X176.243 Y-145.263
X176.74 Y-146.027
X177.254 Y-146.78
X177.783 Y-147.522
X178.327 Y-148.254
X178.886 Y-148.975
X179.458 Y-149.684
X180.043 Y-150.384
X180.64 Y-151.074
X181.245 Y-151.755
X181.859 Y-152.429
X182.48 Y-153.097
X183.106 Y-153.76
X183.737 Y-154.419
X184.371 Y-155.074
X185.008 Y-155.726
X185.647 Y-156.377
X186.287 Y-157.026
X186.929 Y-157.674
X188.214 Y-158.967
X190.146 Y-160.904
X194.013 Y-164.774
X195.947 Y-166.708
X196.59 Y-167.355
X197.231 Y-168.004
X197.868 Y-168.656
X198.498 Y-169.315
X199.117 Y-169.984
X199.724 Y-170.665
X200.313 Y-171.361
X200.88 Y-172.076
X201.422 Y-172.808
X201.937 Y-173.561
X202.422 Y-174.333
X202.873 Y-175.125
X203.29 Y-175.936
X203.672 Y-176.764
X204.017 Y-177.608
X204.322 Y-178.468
X204.588 Y-179.34
X204.815 Y-180.223
X205.002 Y-181.115
X205.146 Y-182.016
X205.25 Y-182.922
X205.312 Y-183.831
X205.333 Y-184.743
X205.312 Y-185.654
X205.248 Y-186.564
X205.143 Y-187.47
X204.998 Y-188.37
X204.811 Y-189.262
X204.582 Y-190.145
X204.315 Y-191.017
X204.007 Y-191.875
X203.66 Y-192.718
X203.275 Y-193.545
X202.853 Y-194.353
X202.394 Y-195.141
X201.899 Y-195.907
X201.373 Y-196.651
X200.816 Y-197.373
X200.231 Y-198.073
X199.618 Y-198.748
X198.98 Y-199.399
X198.316 Y-200.024
X197.628 Y-200.622
X196.914 Y-201.19
X196.177 Y-201.726
X195.417 Y-202.23
X194.635 Y-202.7
X193.833 Y-203.134
X193.013 Y-203.531
X192.175 Y-203.89
X191.322 Y-204.213
X190.454 Y-204.494
X189.575 Y-204.735
X188.686 Y-204.936
X187.788 Y-205.098
X186.884 Y-205.217
X185.976 Y-205.294
X185.065 Y-205.33
X184.153 Y-205.324
X183.242 Y-205.277
X182.335 Y-205.187
X181.432 Y-205.056
X180.537 Y-204.885
X179.65 Y-204.672
X178.774 Y-204.418
X177.911 Y-204.125
X177.062 Y-203.793
X176.229 Y-203.422
X175.414 Y-203.013
X174.618 Y-202.567
X173.844 Y-202.086
X173.091 Y-201.572
X172.359 Y-201.029
X171.645 Y-200.461
X170.947 Y-199.875
X170.261 Y-199.273
X169.586 Y-198.66
X168.919 Y-198.039
X168.258 Y-197.411
X167.601 Y-196.779
X166.948 Y-196.143
X166.297 Y-195.504
X165.647 Y-194.864
X164.999 Y-194.223
X163.706 Y-192.937
X161.769 Y-191.005
X157.255 Y-186.493
X155.965 Y-185.204
X155.318 Y-184.562
X154.668 Y-183.922
X154.014 Y-183.286
X153.357 Y-182.655
X152.693 Y-182.03
X152.021 Y-181.413
X151.34 Y-180.807
X150.65 Y-180.21
X149.951 Y-179.626
X149.241 Y-179.053
X148.521 Y-178.494
X147.79 Y-177.949
X147.048 Y-177.418
X146.296 Y-176.903
X145.534 Y-176.403
X144.76 Y-175.92
X143.976 Y-175.454
X143.183 Y-175.005
X142.38 Y-174.572
X141.569 Y-174.156
X140.749 Y-173.758
X139.92 Y-173.378
X139.083 Y-173.017
X138.238 Y-172.674
X137.386 Y-172.349
X136.527 Y-172.043
X135.661 Y-171.757
X134.79 Y-171.489
X133.913 Y-171.239
X133.031 Y-171.008
X132.143 Y-170.798
X131.252 Y-170.607
X130.356 Y-170.437
X129.457 Y-170.285
X128.555 Y-170.152
X127.65 Y-170.036
X126.744 Y-169.938
X125.836 Y-169.855
X124.926 Y-169.788
X124.016 Y-169.733
X123.106 Y-169.689
X122.194 Y-169.655
X121.283 Y-169.629
X120.371 Y-169.609
X119.46 Y-169.593
X118.548 Y-169.582
X117.636 Y-169.573
X116.724 Y-169.567
X115.813 Y-169.563
X113.989 Y-169.557
X111.254 Y-169.553
X105.783 Y-169.551
X99.4 Y-169.552
X98.488 Y-169.554
X97.576 Y-169.561
X96.665 Y-169.572
X95.753 Y-169.59
X94.842 Y-169.617
X93.931 Y-169.655
X93.02 Y-169.706
X92.111 Y-169.77
X91.202 Y-169.848
X90.295 Y-169.942
X89.39 Y-170.053
X88.487 Y-170.182
X87.588 Y-170.329
X86.691 Y-170.494
X85.798 Y-170.678
X84.909 Y-170.88
X84.024 Y-171.102
X83.144 Y-171.342
X82.27 Y-171.6
X81.401 Y-171.876
X80.539 Y-172.172
X79.683 Y-172.488
X78.835 Y-172.822
X77.994 Y-173.174
X77.16 Y-173.544
X76.335 Y-173.932
X75.519 Y-174.338
X74.711 Y-174.762
X73.913 Y-175.203
X73.125 Y-175.661
X72.347 Y-176.137
X71.581 Y-176.631
X70.825 Y-177.141
X70.08 Y-177.667
X69.346 Y-178.208
X68.623 Y-178.763
X67.911 Y-179.333
X67.209 Y-179.915
X66.517 Y-180.509
X65.834 Y-181.112
X65.158 Y-181.725
X64.489 Y-182.344
X63.825 Y-182.969
X63.166 Y-183.599
X62.51 Y-184.233
X61.857 Y-184.869
X61.206 Y-185.508
X60.557 Y-186.148
X59.909 Y-186.789
X58.615 Y-188.074
X56.678 Y-190.006
X52.808 Y-193.873
X50.874 Y-195.807
X50.228 Y-196.451
X49.58 Y-197.092
X48.929 Y-197.73
X48.271 Y-198.362
X47.605 Y-198.984
X46.927 Y-199.594
X46.234 Y-200.187
X45.524 Y-200.759
X44.795 Y-201.307
X44.047 Y-201.828
X43.279 Y-202.32
X42.491 Y-202.779
X41.684 Y-203.203
X40.86 Y-203.592
X40.019 Y-203.945
X39.163 Y-204.259
X38.293 Y-204.534
X37.412 Y-204.769
X36.522 Y-204.964
X35.623 Y-205.118
X34.718 Y-205.23
X33.809 Y-205.302
X32.898 Y-205.332
X31.986 Y-205.319
X31.076 Y-205.265
X30.169 Y-205.169
X29.267 Y-205.033
X28.373 Y-204.855
X27.488 Y-204.635
X26.614 Y-204.376
X25.753 Y-204.077
X24.906 Y-203.739
X24.075 Y-203.362
X23.263 Y-202.949
X22.471 Y-202.497
X21.7 Y-202.01
X20.951 Y-201.49
X20.224 Y-200.94
X19.519 Y-200.361
X18.839 Y-199.754
X18.183 Y-199.121
X17.551 Y-198.463
X16.947 Y-197.78
X16.373 Y-197.072
X15.83 Y-196.34
X15.319 Y-195.584
X14.841 Y-194.808
X14.4 Y-194.01
X13.995 Y-193.193
X13.627 Y-192.358
X13.297 Y-191.508
X13.007 Y-190.644
X12.757 Y-189.767
X12.546 Y-188.88
X12.376 Y-187.984
X12.248 Y-187.081
X12.162 Y-186.174
X12.117 Y-185.263
X12.113 Y-184.351
X12.152 Y-183.44
X12.232 Y-182.532
X12.354 Y-181.628
X12.516 Y-180.731
X12.72 Y-179.842
X12.965 Y-178.964
X13.25 Y-178.098
X13.573 Y-177.245
X13.936 Y-176.409
X14.337 Y-175.59
X14.774 Y-174.79
X15.248 Y-174.011
X15.756 Y-173.253
X16.293 Y-172.517
X16.855 Y-171.799
X17.438 Y-171.098
X18.037 Y-170.41
X18.648 Y-169.733
X19.267 Y-169.064
X19.894 Y-168.402
X20.525 Y-167.744
X21.161 Y-167.09
X21.799 Y-166.438
X22.439 Y-165.789
X23.08 Y-165.14
X23.722 Y-164.493
X25.009 Y-163.201
X26.941 Y-161.265
X32.097 Y-156.105
X32.74 Y-155.459
X33.381 Y-154.809
X34.017 Y-154.157
X34.65 Y-153.5
X35.276 Y-152.837
X35.895 Y-152.167
X36.503 Y-151.489
X37.102 Y-150.801
X37.69 Y-150.103
X38.265 Y-149.396
X38.827 Y-148.678
X39.375 Y-147.95
X39.909 Y-147.21
X40.429 Y-146.461
X40.932 Y-145.701
X41.419 Y-144.93
X41.889 Y-144.148
X42.342 Y-143.357
X42.778 Y-142.557
X43.198 Y-141.747
X43.6 Y-140.929
X43.984 Y-140.102
X44.349 Y-139.266
X44.697 Y-138.423
X45.025 Y-137.573
X45.335 Y-136.715
X45.626 Y-135.851
X45.898 Y-134.98
X46.151 Y-134.104
X46.386 Y-133.223
X46.601 Y-132.337
X46.796 Y-131.447
X46.971 Y-130.552
X47.126 Y-129.653
X47.263 Y-128.752
X47.383 Y-127.848
X47.484 Y-126.942
X47.57 Y-126.034
X47.641 Y-125.125
X47.698 Y-124.215
X47.744 Y-123.304
X47.78 Y-122.393
X47.808 Y-121.482
X47.83 Y-120.57
X47.846 Y-119.659
X47.858 Y-118.747
X47.867 Y-117.835
X47.874 Y-116.923
X47.878 Y-116.011
X47.885 Y-114.188
X47.889 Y-111.452
X47.891 Y-105.982
Y-99.599
X47.889 Y-98.687
X47.883 Y-97.775
X47.873 Y-96.864
X47.856 Y-95.952
X47.832 Y-95.04
X47.797 Y-94.129
X47.749 Y-93.219
X47.688 Y-92.309
X47.613 Y-91.4
X47.522 Y-90.493
X47.415 Y-89.587
X47.29 Y-88.684
X47.147 Y-87.784
X46.986 Y-86.886
X46.806 Y-85.992
X46.608 Y-85.102
X46.391 Y-84.217
X46.155 Y-83.336
X45.9 Y-82.46
X45.628 Y-81.59
X45.336 Y-80.726
X45.025 Y-79.869
X44.695 Y-79.019
X44.347 Y-78.177
X43.98 Y-77.342
X43.596 Y-76.515
X43.194 Y-75.696
X42.774 Y-74.887
X42.337 Y-74.087
X41.882 Y-73.297
X41.409 Y-72.517
X40.919 Y-71.748
X40.413 Y-70.99
X39.89 Y-70.243
X39.352 Y-69.506
X38.8 Y-68.781
X38.234 Y-68.066
X37.654 Y-67.362
X37.063 Y-66.668
X36.461 Y-65.983
X35.851 Y-65.305
X35.233 Y-64.635
X34.609 Y-63.97
X33.98 Y-63.31
X33.348 Y-62.653
X32.712 Y-62
X32.074 Y-61.348
X31.434 Y-60.698
X30.793 Y-60.05
X30.151 Y-59.403
X28.865 Y-58.11
X26.932 Y-56.174
X23.065 Y-52.304
X21.776 Y-51.014
X21.131 Y-50.369
X20.489 Y-49.722
X19.851 Y-49.071
X19.218 Y-48.415
X18.593 Y-47.751
X17.98 Y-47.076
X17.383 Y-46.386
X16.807 Y-45.68
X16.253 Y-44.955
X15.726 Y-44.211
X15.227 Y-43.448
X14.761 Y-42.664
X14.329 Y-41.861
X13.932 Y-41.04
X13.571 Y-40.203
X13.248 Y-39.35
X12.965 Y-38.484
X12.721 Y-37.605
X12.516 Y-36.716
X12.354 Y-35.819
X12.232 Y-34.916
X12.152 Y-34.007
X12.112 Y-33.096
X12.116 Y-32.185
X12.161 Y-31.274
X12.248 Y-30.366
X12.375 Y-29.463
X12.545 Y-28.567
X12.756 Y-27.68
X13.006 Y-26.804
X13.296 Y-25.939
X13.626 Y-25.089
X13.995 Y-24.255
X14.401 Y-23.439
X14.993 Y-22.745
X15.778 Y-22.281
X16.611 Y-21.911
X17.463 Y-21.585
X18.322 Y-21.28
X19.183 Y-20.98
X20.043 Y-20.678
X20.902 Y-20.371
X21.758 Y-20.056
X22.611 Y-19.735
X23.464 Y-19.411
X24.316 Y-19.088
X25.171 Y-18.772
X26.031 Y-18.468
X26.897 Y-18.183
X27.772 Y-17.924
X28.655 Y-17.699
X29.548 Y-17.513
X30.448 Y-17.371
X31.355 Y-17.275
X32.266 Y-17.231
X33.178 Y-17.24
X34.088 Y-17.301
X34.992 Y-17.417
X35.887 Y-17.588
X36.771 Y-17.813
X37.639 Y-18.092
X38.489 Y-18.424
X39.316 Y-18.807
X40.119 Y-19.239
X40.896 Y-19.716
X41.649 Y-20.23
X42.38 Y-20.776
X43.091 Y-21.346
X43.788 Y-21.934
X44.472 Y-22.537
X45.146 Y-23.151
X45.814 Y-23.772
X46.475 Y-24.4
X47.132 Y-25.032
X47.786 Y-25.667
X48.438 Y-26.305
X49.087 Y-26.945
X49.736 Y-27.586
X50.383 Y-28.228
X51.676 Y-29.515
X53.612 Y-31.447
X56.837 Y-34.669
X57.483 Y-35.313
X58.131 Y-35.955
X58.78 Y-36.594
X59.433 Y-37.231
X60.09 Y-37.863
X60.752 Y-38.49
X61.42 Y-39.111
X62.095 Y-39.723
X62.778 Y-40.328
X63.469 Y-40.923
X64.168 Y-41.508
X64.876 Y-42.083
X65.594 Y-42.645
X66.321 Y-43.195
X67.058 Y-43.732
X67.804 Y-44.256
X68.56 Y-44.767
X69.325 Y-45.263
X70.099 Y-45.745
X70.882 Y-46.212
X71.673 Y-46.665
X72.473 Y-47.102
X73.282 Y-47.524
X74.098 Y-47.93
X74.922 Y-48.32
X75.754 Y-48.694
X76.593 Y-49.051
X77.438 Y-49.393
X78.29 Y-49.717
X79.149 Y-50.026
X80.012 Y-50.317
X80.882 Y-50.592
X81.756 Y-50.85
X82.636 Y-51.09
X83.52 Y-51.313
X84.409 Y-51.518
X85.301 Y-51.705
X86.197 Y-51.876
X87.095 Y-52.03
X87.997 Y-52.168
X88.9 Y-52.29
X89.806 Y-52.396
X90.713 Y-52.487
X91.622 Y-52.565
X92.531 Y-52.63
X93.441 Y-52.684
X94.352 Y-52.729
X95.263 Y-52.765
X96.175 Y-52.794
X97.086 Y-52.817
X97.998 Y-52.834
X98.909 Y-52.848
X99.821 Y-52.859
X100.733 Y-52.867
X101.645 Y-52.873
X102.557 Y-52.878
X104.38 Y-52.884
X107.116 Y-52.888
X111.675 Y-52.89
X116.234 Y-52.891
X117.146 Y-52.889
X118.057 Y-52.887
X118.969 Y-52.881
X119.881 Y-52.872
X120.793 Y-52.857
X121.704 Y-52.836
X122.616 Y-52.806
X123.527 Y-52.767
X124.437 Y-52.717
X125.347 Y-52.655
X126.255 Y-52.58
X127.163 Y-52.491
X128.069 Y-52.388
X128.973 Y-52.268
X129.875 Y-52.134
X130.774 Y-51.984
X131.67 Y-51.817
X132.564 Y-51.634
X133.453 Y-51.435
X134.339 Y-51.219
X135.221 Y-50.986
X136.098 Y-50.737
X136.97 Y-50.47
X137.836 Y-50.186
X138.697 Y-49.886
X139.552 Y-49.569
X140.401 Y-49.235
X141.243 Y-48.886
X142.078 Y-48.52
X142.906 Y-48.138
X143.726 Y-47.74
X144.538 Y-47.325
X145.342 Y-46.895
X146.138 Y-46.449
X146.924 Y-45.987
X147.701 Y-45.51
X148.469 Y-45.019
X149.227 Y-44.512
X149.976 Y-43.992
X150.715 Y-43.458
X151.444 Y-42.91
X152.163 Y-42.349
X152.873 Y-41.777
X153.574 Y-41.194
X154.266 Y-40.601
X154.951 Y-39.999
X155.63 Y-39.389
X156.302 Y-38.773
X156.969 Y-38.151
X157.631 Y-37.525
X158.29 Y-36.894
X158.945 Y-36.261
X159.599 Y-35.625
X160.25 Y-34.986
X160.9 Y-34.347
X161.548 Y-33.706
X162.195 Y-33.064
X162.842 Y-32.421
X164.134 Y-31.134
X166.716 Y-28.557
X169.296 Y-25.979
X169.941 Y-25.335
X170.589 Y-24.693
X171.239 Y-24.054
X171.894 Y-23.42
X172.557 Y-22.794
X173.231 Y-22.179
X173.918 Y-21.581
X174.624 Y-21.003
X175.35 Y-20.451
X176.099 Y-19.932
X176.872 Y-19.448
X177.669 Y-19.004
X178.489 Y-18.605
X179.33 Y-18.254
X180.19 Y-17.951
X181.067 Y-17.701
X181.957 Y-17.504
X182.858 Y-17.362
X183.765 Y-17.275
X184.677 Y-17.244
X185.588 Y-17.268
X186.496 Y-17.35
X187.398 Y-17.487
X188.289 Y-17.679
X189.167 Y-17.926
X190.028 Y-18.226
X190.869 Y-18.579
X191.686 Y-18.984
X192.478 Y-19.435
X193.242 Y-19.933
X193.978 Y-20.472
X194.684 Y-21.048
X195.359 Y-21.661
X196 Y-22.309
X196.605 Y-22.991
X197.173 Y-23.705
X197.697 Y-24.451
X198.177 Y-25.227
X198.611 Y-26.029
X198.994 Y-26.856
X199.328 Y-27.704
X199.609 Y-28.572
X199.836 Y-29.455
X200.009 Y-30.35
X200.127 Y-31.254
X200.188 Y-32.164
X200.193 Y-33.076
X200.143 Y-33.986
X200.035 Y-34.892
X199.873 Y-35.789
X199.655 Y-36.674
X199.382 Y-37.545
X199.057 Y-38.397
X198.68 Y-39.227
X198.253 Y-40.032
X197.781 Y-40.812
X197.27 Y-41.568
X196.728 Y-42.3
X196.16 Y-43.014
X195.573 Y-43.712
X194.972 Y-44.397
X194.36 Y-45.073
X193.739 Y-45.741
X193.112 Y-46.403
X192.48 Y-47.06
X191.845 Y-47.715
X191.207 Y-48.366
X190.568 Y-49.016
X189.927 Y-49.665
X189.284 Y-50.312
X187.998 Y-51.605
X186.066 Y-53.541
X182.844 Y-56.766
X182.2 Y-57.412
X181.558 Y-58.059
X180.918 Y-58.709
X180.281 Y-59.361
X179.648 Y-60.017
X179.02 Y-60.679
X178.399 Y-61.346
X177.785 Y-62.02
X177.18 Y-62.702
X176.584 Y-63.392
X175.997 Y-64.091
X175.422 Y-64.798
X174.858 Y-65.515
X174.307 Y-66.241
X173.768 Y-66.976
X173.242 Y-67.721
X172.731 Y-68.476
X172.233 Y-69.24
X171.75 Y-70.014
X171.281 Y-70.796
X170.827 Y-71.586
X170.388 Y-72.385
X169.964 Y-73.193
X169.556 Y-74.008
X169.164 Y-74.832
X168.789 Y-75.663
X168.43 Y-76.501
X168.087 Y-77.346
X167.761 Y-78.197
X167.451 Y-79.055
X167.158 Y-79.918
X166.881 Y-80.787
X166.621 Y-81.661
X166.379 Y-82.54
X166.154 Y-83.423
X165.947 Y-84.312
X165.758 Y-85.203
X165.585 Y-86.099
X165.429 Y-86.997
X165.29 Y-87.898
X165.166 Y-88.802
X165.058 Y-89.707
X164.965 Y-90.614
X164.886 Y-91.522
X164.819 Y-92.432
X164.763 Y-93.342
X164.718 Y-94.253
X164.681 Y-95.164
X164.651 Y-96.075
X164.628 Y-96.986
X164.609 Y-97.898
X164.595 Y-98.81
X164.584 Y-99.722
X164.576 Y-100.633
X164.569 Y-101.545
X164.564 Y-102.457
X164.558 Y-104.281
X164.554 Y-107.016
X164.552 Y-111.575
X164.551 Y-116.134
X164.552 Y-117.046
X164.555 Y-117.958
X164.56 Y-118.87
X164.569 Y-119.781
X164.583 Y-120.693
X164.604 Y-121.605
X164.633 Y-122.516
X164.671 Y-123.427
X164.72 Y-124.337
X164.781 Y-125.247
X164.854 Y-126.156
X164.941 Y-127.064
X165.043 Y-127.97
X165.161 Y-128.874
X165.294 Y-129.776
X165.442 Y-130.676
X165.607 Y-131.572
X165.788 Y-132.466
X165.986 Y-133.356
X166.2 Y-134.243
X166.43 Y-135.125
X166.678 Y-136.002
X166.942 Y-136.875
X167.224 Y-137.742
X167.523 Y-138.604
X167.838 Y-139.459
X168.169 Y-140.309
X168.517 Y-141.152
X168.881 Y-141.988
X169.261 Y-142.817
X169.657 Y-143.638
X170.07 Y-144.451
X170.499 Y-145.256
X170.943 Y-146.052
X171.403 Y-146.839
X171.878 Y-147.617
X172.368 Y-148.386
X172.873 Y-149.146
X173.392 Y-149.895
X173.925 Y-150.635
X174.471 Y-151.365
X175.03 Y-152.086
X175.601 Y-152.796
X176.183 Y-153.498
X176.775 Y-154.192
X177.376 Y-154.877
X177.985 Y-155.556
X178.601 Y-156.229
X179.222 Y-156.896
X179.848 Y-157.559
X180.478 Y-158.218
X181.112 Y-158.874
X181.748 Y-159.527
X182.386 Y-160.179
X183.026 Y-160.828
X183.666 Y-161.477
X184.308 Y-162.125
X185.594 Y-163.418
X187.526 Y-165.355
X191.393 Y-169.225
X192.036 Y-169.871
X192.679 Y-170.518
X193.318 Y-171.168
X193.953 Y-171.822
X194.58 Y-172.484
X195.196 Y-173.156
X195.797 Y-173.842
X196.377 Y-174.545
X196.931 Y-175.27
X197.455 Y-176.016
X197.943 Y-176.786
X198.391 Y-177.581
X198.795 Y-178.398
X199.152 Y-179.237
X199.46 Y-180.095
X199.716 Y-180.97
X199.919 Y-181.859
X200.068 Y-182.759
X200.16 Y-183.666
X200.198 Y-184.577
X200.179 Y-185.489
X200.104 Y-186.397
X199.974 Y-187.3
X199.787 Y-188.192
X199.546 Y-189.072
X199.252 Y-189.935
X198.904 Y-190.778
X198.505 Y-191.597
X198.059 Y-192.392
X197.565 Y-193.159
X197.031 Y-193.898
X196.459 Y-194.608
X195.849 Y-195.286
X195.205 Y-195.931
X194.527 Y-196.541
X193.816 Y-197.112
X193.073 Y-197.641
X192.301 Y-198.126
X191.502 Y-198.565
X190.678 Y-198.955
X189.831 Y-199.294
X188.966 Y-199.581
X188.084 Y-199.814
X187.19 Y-199.993
X186.287 Y-200.117
X185.378 Y-200.184
X184.466 Y-200.196
X183.555 Y-200.151
X182.649 Y-200.049
X181.751 Y-199.893
X180.864 Y-199.681
X179.992 Y-199.414
X179.138 Y-199.096
X178.305 Y-198.723
X177.497 Y-198.301
X176.714 Y-197.834
X175.956 Y-197.327
X175.221 Y-196.788
X174.505 Y-196.223
X173.806 Y-195.638
X173.119 Y-195.038
X172.443 Y-194.427
X171.774 Y-193.807
X171.111 Y-193.18
X170.453 Y-192.549
X169.799 Y-191.914
X169.147 Y-191.277
X168.497 Y-190.637
X167.848 Y-189.996
X167.201 Y-189.355
X165.908 Y-188.068
X163.971 Y-186.137
X160.746 Y-182.914
X160.101 Y-182.27
X159.454 Y-181.628
X158.805 Y-180.987
X158.153 Y-180.35
X157.497 Y-179.716
X156.836 Y-179.088
X156.17 Y-178.466
X155.496 Y-177.851
X154.815 Y-177.245
X154.126 Y-176.648
X153.429 Y-176.06
X152.722 Y-175.484
X152.007 Y-174.919
X151.282 Y-174.366
X150.547 Y-173.825
X149.803 Y-173.298
X149.05 Y-172.785
X148.287 Y-172.285
X147.514 Y-171.801
X146.733 Y-171.331
X145.943 Y-170.875
X145.145 Y-170.435
X144.338 Y-170.009
X143.524 Y-169.599
X142.701 Y-169.206
X141.871 Y-168.829
X141.034 Y-168.468
X140.19 Y-168.123
X139.339 Y-167.795
X138.482 Y-167.484
X137.619 Y-167.189
X136.751 Y-166.911
X135.877 Y-166.649
X134.999 Y-166.404
X134.116 Y-166.178
X133.228 Y-165.969
X132.337 Y-165.778
X131.442 Y-165.603
X130.543 Y-165.446
X129.643 Y-165.305
X128.739 Y-165.18
X127.834 Y-165.07
X126.927 Y-164.975
X126.019 Y-164.894
X125.11 Y-164.826
X124.2 Y-164.769
X123.289 Y-164.723
X122.378 Y-164.685
X121.467 Y-164.654
X120.555 Y-164.63
X119.644 Y-164.611
X118.732 Y-164.597
X117.82 Y-164.585
X116.909 Y-164.576
X115.997 Y-164.57
X115.085 Y-164.565
X113.261 Y-164.558
X110.526 Y-164.554
X105.967 Y-164.552
X101.408 Y-164.551
X100.496 Y-164.552
X99.584 Y-164.554
X98.672 Y-164.559
X97.761 Y-164.568
X96.849 Y-164.581
X95.937 Y-164.601
X95.026 Y-164.629
X94.115 Y-164.666
X93.204 Y-164.714
X92.294 Y-164.774
X91.385 Y-164.846
X90.478 Y-164.931
X89.571 Y-165.031
X88.667 Y-165.147
X87.765 Y-165.278
X86.865 Y-165.426
X85.968 Y-165.589
X85.074 Y-165.768
X84.183 Y-165.965
X83.297 Y-166.177
X82.414 Y-166.406
X81.536 Y-166.651
X80.662 Y-166.913
X79.795 Y-167.193
X78.933 Y-167.49
X78.076 Y-167.804
X77.226 Y-168.134
X76.383 Y-168.48
X75.546 Y-168.842
X74.716 Y-169.221
X73.894 Y-169.615
X73.08 Y-170.025
X72.274 Y-170.452
X71.477 Y-170.894
X70.688 Y-171.352
X69.909 Y-171.826
X69.139 Y-172.315
X68.379 Y-172.818
X67.628 Y-173.335
X66.887 Y-173.866
X66.156 Y-174.411
X65.434 Y-174.968
X64.722 Y-175.538
X64.019 Y-176.119
X63.325 Y-176.71
X62.639 Y-177.31
X61.959 Y-177.918
X61.286 Y-178.533
X60.618 Y-179.154
X59.955 Y-179.78
X59.296 Y-180.41
X58.639 Y-181.043
X57.986 Y-181.678
X57.334 Y-182.316
X56.684 Y-182.956
X56.036 Y-183.597
X55.388 Y-184.238
X54.095 Y-185.524
X53.449 Y-186.168
X51.513 Y-188.1
X48.288 Y-191.323
X47.642 Y-191.967
X46.995 Y-192.609
X46.346 Y-193.249
X45.692 Y-193.884
X45.031 Y-194.513
X44.36 Y-195.13
X43.676 Y-195.733
X42.975 Y-196.316
X42.253 Y-196.873
X41.509 Y-197.4
X40.741 Y-197.893
X39.95 Y-198.345
X39.135 Y-198.753
X38.298 Y-199.116
X37.442 Y-199.429
X36.568 Y-199.69
X35.681 Y-199.9
X34.782 Y-200.054
X33.875 Y-200.153
X32.965 Y-200.197
X32.053 Y-200.184
X31.144 Y-200.115
X30.24 Y-199.991
X29.347 Y-199.81
X28.466 Y-199.575
X27.601 Y-199.287
X26.755 Y-198.945
X25.933 Y-198.551
X25.135 Y-198.11
X24.365 Y-197.622
X23.623 Y-197.092
X22.91 Y-196.524
X22.228 Y-195.918
X21.579 Y-195.277
X20.966 Y-194.603
X20.391 Y-193.895
X19.857 Y-193.156
X19.367 Y-192.387
X18.923 Y-191.591
X18.528 Y-190.769
X18.183 Y-189.925
X17.89 Y-189.061
X17.651 Y-188.181
X17.466 Y-187.289
X17.336 Y-186.386
X17.263 Y-185.477
X17.244 Y-184.566
X17.284 Y-183.655
X17.379 Y-182.748
X17.528 Y-181.848
X17.735 Y-180.96
X17.995 Y-180.086
X18.308 Y-179.23
X18.675 Y-178.395
X19.092 Y-177.584
X19.554 Y-176.798
X20.058 Y-176.038
X20.594 Y-175.301
X21.157 Y-174.583
X21.739 Y-173.882
X22.338 Y-173.194
X22.948 Y-172.516
X23.567 Y-171.847
X24.193 Y-171.184
X24.824 Y-170.525
X25.458 Y-169.871
X26.095 Y-169.218
X26.735 Y-168.568
X27.375 Y-167.919
X28.017 Y-167.272
X29.303 Y-165.979
X31.235 Y-164.042
X34.457 Y-160.817
X35.101 Y-160.171
X35.744 Y-159.525
X36.385 Y-158.876
X37.023 Y-158.224
X37.657 Y-157.569
X38.286 Y-156.909
X38.908 Y-156.243
X39.524 Y-155.57
X40.131 Y-154.89
X40.729 Y-154.202
X41.317 Y-153.505
X41.895 Y-152.799
X42.461 Y-152.085
X43.016 Y-151.361
X43.558 Y-150.628
X44.087 Y-149.885
X44.603 Y-149.133
X45.103 Y-148.371
X45.59 Y-147.6
X46.061 Y-146.82
X46.518 Y-146.031
X46.961 Y-145.233
X47.388 Y-144.427
X47.799 Y-143.614
X48.195 Y-142.792
X48.574 Y-141.963
X48.937 Y-141.127
X49.284 Y-140.283
X49.613 Y-139.433
X49.926 Y-138.577
X50.223 Y-137.714
X50.502 Y-136.847
X50.766 Y-135.974
X51.012 Y-135.096
X51.241 Y-134.213
X51.452 Y-133.326
X51.645 Y-132.435
X51.821 Y-131.54
X51.98 Y-130.643
X52.123 Y-129.742
X52.249 Y-128.839
X52.36 Y-127.934
X52.457 Y-127.027
X52.539 Y-126.119
X52.609 Y-125.21
X52.667 Y-124.3
X52.715 Y-123.389
X52.754 Y-122.478
X52.785 Y-121.567
X52.81 Y-120.656
X52.829 Y-119.744
X52.844 Y-118.832
X52.856 Y-117.921
X52.865 Y-117.009
X52.871 Y-116.097
X52.877 Y-115.185
X52.883 Y-113.362
X52.887 Y-111.538
X52.89 Y-107.891
X52.891 Y-101.508
X52.89 Y-100.596
X52.888 Y-99.684
X52.884 Y-98.773
X52.876 Y-97.861
X52.863 Y-96.949
X52.844 Y-96.038
X52.817 Y-95.126
X52.781 Y-94.215
X52.734 Y-93.304
X52.676 Y-92.395
X52.605 Y-91.485
X52.521 Y-90.577
X52.423 Y-89.671
X52.309 Y-88.766
X52.18 Y-87.864
X52.034 Y-86.964
X51.873 Y-86.066
X51.695 Y-85.172
X51.5 Y-84.281
X51.289 Y-83.394
X51.062 Y-82.511
X50.819 Y-81.632
X50.558 Y-80.758
X50.281 Y-79.89
X49.986 Y-79.027
X49.674 Y-78.17
X49.346 Y-77.32
X49.001 Y-76.475
X48.64 Y-75.638
X48.263 Y-74.808
X47.87 Y-73.985
X47.462 Y-73.17
X47.038 Y-72.363
X46.597 Y-71.564
X46.14 Y-70.775
X45.668 Y-69.995
X45.181 Y-69.224
X44.679 Y-68.463
X44.163 Y-67.711
X43.633 Y-66.969
X43.09 Y-66.237
X42.534 Y-65.514
X41.966 Y-64.801
X41.387 Y-64.097
X40.797 Y-63.402
X40.198 Y-62.714
X39.591 Y-62.034
X38.976 Y-61.36
X38.356 Y-60.692
X37.731 Y-60.028
X37.102 Y-59.368
X36.469 Y-58.712
X35.834 Y-58.058
X35.196 Y-57.406
X34.557 Y-56.756
X33.916 Y-56.107
X33.274 Y-55.459
X31.989 Y-54.166
X30.701 Y-52.874
X28.124 Y-50.293
X26.19 Y-48.358
X25.546 Y-47.713
X24.904 Y-47.066
X24.263 Y-46.417
X23.627 Y-45.764
X22.998 Y-45.104
X22.379 Y-44.434
X21.774 Y-43.752
X21.19 Y-43.052
X20.63 Y-42.333
X20.099 Y-41.591
X19.602 Y-40.827
X19.145 Y-40.037
X18.732 Y-39.225
X18.363 Y-38.391
X18.045 Y-37.536
X17.778 Y-36.665
X17.562 Y-35.779
X17.402 Y-34.881
X17.297 Y-33.975
X17.246 Y-33.065
X17.254 Y-32.153
X17.316 Y-31.243
X17.435 Y-30.339
X17.609 Y-29.444
X17.839 Y-28.562
X17.98 Y-28.128
X18.183 Y-27.72
X18.656 Y-27.191
X18.704 Y-27.131
X18.744 Y-27.065
X18.776 Y-26.994
X18.811 Y-26.903
X18.997 Y-26.476
X19.018 Y-26.431
X19.11 Y-26.269
X19.847 Y-24.993
X20.085 Y-24.611
X20.261 Y-24.33
X20.367 Y-24.197
X21.409 Y-22.954
X21.584 Y-22.747
X21.711 Y-22.603
X21.974 Y-22.333
X22.333 Y-21.974
X22.603 Y-21.711
X22.747 Y-21.584
X23.161 Y-21.235
X24.197 Y-20.367
X24.33 Y-20.261
X24.819 Y-19.955
X24.993 Y-19.847
X26.269 Y-19.11
X26.431 Y-19.018
X26.476 Y-18.997
X26.903 Y-18.811
X27.097 Y-18.737
X28.133 Y-18.36
X28.34 Y-18.285
X28.755 Y-18.142
X28.962 Y-18.072
X29.583 Y-17.947
X31.034 Y-17.691
X31.448 Y-17.639
X31.655 Y-17.622
X32.277 Y-17.618
X33.52
X33.727 Y-17.628
X34.141 Y-17.657
X34.348 Y-17.685
X36.028 Y-17.982
X36.213 Y-18.015
X36.834 Y-18.198
X37.041 Y-18.272
X38.077 Y-18.649
X38.284 Y-18.727
X38.699 Y-18.89
X38.906 Y-18.977
X38.982 Y-19.018
X39.704 Y-19.432
X40.356 Y-19.81
X40.776 Y-20.054
X40.978 Y-20.189
X41.078 Y-20.261
X41.185 Y-20.34
X42.221 Y-21.208
X42.635 Y-21.557
X42.814 Y-21.711
X43.049 Y-21.943
X43.671 Y-22.564
X72.857 Y-51.75
X73.534 Y-52.362
X74.254 Y-52.92
X75.023 Y-53.411
X75.824 Y-53.847
X76.648 Y-54.237
X77.488 Y-54.591
X78.34 Y-54.915
X79.202 Y-55.214
X80.071 Y-55.49
X80.946 Y-55.746
X81.826 Y-55.984
X82.711 Y-56.204
X83.6 Y-56.407
X84.493 Y-56.594
X85.388 Y-56.764
X86.287 Y-56.919
X87.188 Y-57.059
X88.091 Y-57.184
X88.996 Y-57.295
X89.903 Y-57.393
X90.81 Y-57.478
X91.719 Y-57.552
X92.629 Y-57.614
X93.539 Y-57.667
X94.45 Y-57.712
X95.361 Y-57.748
X96.272 Y-57.778
X97.184 Y-57.803
X98.095 Y-57.822
X99.007 Y-57.838
X99.919 Y-57.85
X100.831 Y-57.86
X101.742 Y-57.867
X102.654 Y-57.873
X103.566 Y-57.878
X105.39 Y-57.884
X108.125 Y-57.888
X112.684 Y-57.89
X115.42
X116.331 Y-57.889
X117.243 Y-57.886
X118.155 Y-57.881
X119.067 Y-57.873
X119.978 Y-57.861
X120.89 Y-57.843
X121.802 Y-57.819
X122.713 Y-57.786
X123.624 Y-57.745
X124.534 Y-57.694
X125.444 Y-57.632
X126.353 Y-57.559
X127.26 Y-57.473
X128.167 Y-57.375
X129.072 Y-57.263
X129.975 Y-57.137
X130.876 Y-56.998
X131.775 Y-56.844
X132.671 Y-56.675
X133.564 Y-56.491
X134.454 Y-56.292
X135.34 Y-56.078
X136.223 Y-55.849
X137.101 Y-55.605
X137.975 Y-55.346
X138.845 Y-55.072
X139.71 Y-54.783
X140.569 Y-54.478
X141.423 Y-54.159
X142.272 Y-53.824
X142.564 Y-53.703
X142.638 Y-53.666
X142.707 Y-53.62
X142.77 Y-53.565
X174.209 Y-22.125
X174.6 Y-21.738
X174.628 Y-21.711
X174.871 Y-21.504
X175.636 Y-20.86
X176.257 Y-20.34
X176.364 Y-20.261
X176.464 Y-20.189
X176.672 Y-20.051
X177.38 Y-19.639
X178.122 Y-19.212
X178.46 Y-19.018
X178.536 Y-18.978
X178.743 Y-18.89
X179.158 Y-18.727
X179.365 Y-18.649
X180.401 Y-18.272
X180.608 Y-18.198
X181.229 Y-18.015
X182.887 Y-17.722
X183.094 Y-17.685
X183.301 Y-17.657
X183.715 Y-17.628
X183.922 Y-17.618
X185.165
X185.787 Y-17.622
X185.994 Y-17.639
X186.408 Y-17.691
X187.859 Y-17.947
X188.48 Y-18.072
X188.687 Y-18.142
X189.102 Y-18.285
X189.98 Y-18.604
X190.345 Y-18.736
X190.54 Y-18.811
X190.966 Y-18.997
X191.011 Y-19.018
X191.173 Y-19.11
X192.449 Y-19.847
X192.831 Y-20.084
X193.113 Y-20.261
X193.245 Y-20.367
X194.488 Y-21.409
X194.695 Y-21.584
X194.839 Y-21.711
X195.109 Y-21.974
X195.468 Y-22.333
X195.731 Y-22.603
X195.858 Y-22.747
X196.207 Y-23.161
X197.076 Y-24.197
X197.181 Y-24.329
X197.488 Y-24.819
X197.595 Y-24.992
X198.332 Y-26.269
X198.424 Y-26.431
X198.445 Y-26.476
X198.631 Y-26.903
X198.706 Y-27.097
X199.083 Y-28.133
X199.157 Y-28.34
X199.301 Y-28.755
X199.37 Y-28.962
X199.495 Y-29.583
X199.75 Y-31.034
X199.803 Y-31.448
X199.82 Y-31.655
X199.824 Y-32.277
Y-33.52
X199.814 Y-33.727
X199.785 Y-34.141
X199.756 Y-34.348
X199.46 Y-36.029
X199.427 Y-36.213
X199.244 Y-36.834
X199.17 Y-37.041
X198.793 Y-38.077
X198.715 Y-38.284
X198.552 Y-38.699
X198.465 Y-38.906
X198.424 Y-38.982
X198.01 Y-39.704
X197.633 Y-40.356
X197.388 Y-40.776
X197.253 Y-40.978
X197.181 Y-41.078
X197.103 Y-41.185
X196.234 Y-42.221
X195.885 Y-42.635
X195.731 Y-42.814
X195.499 Y-43.049
X194.879 Y-43.671
X165.692 Y-72.858
X165.08 Y-73.534
X164.522 Y-74.255
X164.031 Y-75.023
X163.596 Y-75.825
X163.206 Y-76.649
X162.852 Y-77.489
X162.527 Y-78.341
X162.229 Y-79.203
X161.953 Y-80.072
X161.697 Y-80.947
X161.459 Y-81.827
X161.24 Y-82.712
X161.037 Y-83.601
X160.85 Y-84.494
X160.679 Y-85.389
X160.524 Y-86.288
X160.384 Y-87.189
X160.259 Y-88.092
X160.148 Y-88.997
X160.05 Y-89.904
X159.965 Y-90.811
X159.891 Y-91.72
X159.828 Y-92.63
X159.775 Y-93.54
X159.731 Y-94.451
X159.694 Y-95.362
X159.664 Y-96.273
X159.639 Y-97.185
X159.62 Y-98.096
X159.604 Y-99.008
X159.592 Y-99.92
X159.582 Y-100.831
X159.575 Y-101.743
X159.569 Y-102.655
X159.564 Y-103.567
X159.558 Y-105.39
X159.554 Y-108.126
X159.552 Y-112.685
Y-115.42
X159.553 Y-116.332
X159.556 Y-117.244
X159.56 Y-118.156
X159.569 Y-119.068
X159.581 Y-119.979
X159.599 Y-120.891
X159.624 Y-121.802
X159.656 Y-122.714
X159.698 Y-123.625
X159.749 Y-124.535
X159.811 Y-125.445
X159.884 Y-126.354
X159.97 Y-127.261
X160.068 Y-128.168
X160.181 Y-129.073
X160.306 Y-129.976
X160.446 Y-130.877
X160.6 Y-131.775
X160.769 Y-132.672
X160.953 Y-133.565
X161.151 Y-134.455
X161.365 Y-135.341
X161.594 Y-136.224
X161.838 Y-137.102
X162.097 Y-137.976
X162.371 Y-138.846
X162.66 Y-139.711
X162.964 Y-140.57
X163.284 Y-141.424
X163.618 Y-142.273
X163.738 Y-142.563
X163.775 Y-142.637
X163.821 Y-142.706
X163.876 Y-142.769
X195.317 Y-174.209
X195.704 Y-174.6
X195.731 Y-174.628
X195.938 Y-174.87
X196.582 Y-175.636
X197.103 Y-176.257
X197.181 Y-176.364
X197.253 Y-176.464
X197.392 Y-176.672
X197.803 Y-177.379
X198.23 Y-178.122
X198.424 Y-178.46
X198.464 Y-178.536
X198.552 Y-178.743
X198.715 Y-179.158
X198.793 Y-179.365
X199.17 Y-180.401
X199.244 Y-180.608
X199.427 Y-181.229
X199.72 Y-182.887
X199.756 Y-183.094
X199.785 Y-183.301
X199.814 Y-183.715
X199.824 Y-183.922
Y-185.165
X199.82 Y-185.787
X199.803 Y-185.994
X199.75 Y-186.408
X199.495 Y-187.859
X199.37 Y-188.48
X199.301 Y-188.687
X199.158 Y-189.102
X198.838 Y-189.98
X198.706 Y-190.345
X198.631 Y-190.54
X198.445 Y-190.966
X198.424 Y-191.011
X198.332 Y-191.173
X197.595 Y-192.45
X197.358 Y-192.831
X197.181 Y-193.113
X197.076 Y-193.245
X196.033 Y-194.488
X195.858 Y-194.695
X195.731 Y-194.839
X195.468 Y-195.109
X195.109 Y-195.468
X194.839 Y-195.731
X194.695 Y-195.858
X194.281 Y-196.207
X193.245 Y-197.076
X193.113 Y-197.181
X192.623 Y-197.488
X192.45 Y-197.595
X191.173 Y-198.332
X191.011 Y-198.424
X190.966 Y-198.445
X190.54 Y-198.631
X190.345 Y-198.706
X189.309 Y-199.083
X189.102 Y-199.158
X188.687 Y-199.301
X188.48 Y-199.37
X187.859 Y-199.495
X186.408 Y-199.75
X185.994 Y-199.803
X185.787 Y-199.82
X185.165 Y-199.824
X183.922
X183.715 Y-199.814
X183.301 Y-199.785
X183.094 Y-199.756
X181.412 Y-199.46
X181.229 Y-199.427
X180.608 Y-199.244
X180.401 Y-199.17
X179.365 Y-198.793
X179.158 Y-198.715
X178.743 Y-198.552
X178.536 Y-198.464
X178.46 Y-198.424
X177.738 Y-198.01
X177.086 Y-197.633
X176.665 Y-197.388
X176.464 Y-197.253
X176.364 Y-197.181
X176.257 Y-197.103
X175.221 Y-196.234
X174.807 Y-195.885
X174.628 Y-195.731
X174.393 Y-195.499
X173.771 Y-194.878
X144.585 Y-165.692
X143.908 Y-165.08
X143.188 Y-164.522
X142.419 Y-164.031
X141.618 Y-163.596
X140.794 Y-163.206
X139.953 Y-162.852
X139.101 Y-162.528
X138.24 Y-162.229
X137.371 Y-161.953
X136.495 Y-161.697
X135.615 Y-161.459
X134.73 Y-161.24
X133.841 Y-161.037
X132.949 Y-160.851
X132.053 Y-160.68
X131.154 Y-160.525
X130.253 Y-160.385
X129.35 Y-160.26
X128.445 Y-160.148
X127.539 Y-160.05
X126.631 Y-159.965
X125.722 Y-159.891
X124.812 Y-159.829
X123.902 Y-159.775
X122.991 Y-159.731
X122.08 Y-159.694
X121.169 Y-159.664
X120.257 Y-159.64
X119.346 Y-159.62
X118.434 Y-159.604
X117.522 Y-159.592
X116.611 Y-159.582
X115.699 Y-159.575
X114.787 Y-159.569
X113.875 Y-159.564
X112.052 Y-159.558
X109.316 Y-159.554
X104.757 Y-159.552
X102.022
X101.11 Y-159.553
X100.198 Y-159.556
X99.286 Y-159.56
X98.375 Y-159.568
X97.463 Y-159.581
X96.551 Y-159.599
X95.64 Y-159.623
X94.729 Y-159.656
X93.818 Y-159.697
X92.907 Y-159.749
X91.998 Y-159.811
X91.089 Y-159.884
X90.181 Y-159.97
X89.274 Y-160.069
X88.37 Y-160.181
X87.467 Y-160.307
X86.566 Y-160.447
X85.667 Y-160.601
X84.771 Y-160.77
X83.878 Y-160.953
X82.988 Y-161.152
X82.101 Y-161.366
X81.219 Y-161.594
X80.34 Y-161.838
X79.466 Y-162.098
X78.596 Y-162.372
X77.732 Y-162.661
X76.872 Y-162.966
X76.018 Y-163.285
X75.17 Y-163.619
X74.877 Y-163.741
X74.803 Y-163.777
X74.734 Y-163.823
X74.671 Y-163.878
X43.233 Y-195.317
X42.842 Y-195.704
X42.814 Y-195.731
X42.572 Y-195.938
X41.806 Y-196.582
X41.185 Y-197.103
X41.078 Y-197.181
X40.978 Y-197.253
X40.77 Y-197.392
X40.063 Y-197.803
X39.32 Y-198.23
X38.982 Y-198.424
X38.906 Y-198.465
X38.699 Y-198.552
X38.284 Y-198.715
X38.077 Y-198.793
X37.041 Y-199.17
X36.834 Y-199.244
X36.213 Y-199.427
X34.555 Y-199.72
X34.348 Y-199.756
X34.141 Y-199.785
X33.727 Y-199.814
X33.52 Y-199.824
X32.277
X31.655 Y-199.82
X31.448 Y-199.803
X31.034 Y-199.75
X29.583 Y-199.495
X28.962 Y-199.37
X28.755 Y-199.301
X28.34 Y-199.157
X27.462 Y-198.838
X27.097 Y-198.706
X26.903 Y-198.631
X26.476 Y-198.445
X26.431 Y-198.424
X26.269 Y-198.332
X24.992 Y-197.595
X24.611 Y-197.358
X24.329 Y-197.181
X24.197 Y-197.076
X22.954 Y-196.033
X22.747 Y-195.858
X22.603 Y-195.731
X22.333 Y-195.468
X21.974 Y-195.109
X21.711 Y-194.839
X21.584 Y-194.695
X21.235 Y-194.281
X20.367 Y-193.245
X20.261 Y-193.113
X19.955 Y-192.623
X19.847 Y-192.449
X19.11 Y-191.173
X19.018 Y-191.011
X18.997 Y-190.966
X18.811 Y-190.54
X18.736 Y-190.345
X18.359 Y-189.309
X18.285 Y-189.102
X18.142 Y-188.687
X18.072 Y-188.48
X17.947 Y-187.859
X17.691 Y-186.408
X17.639 Y-185.994
X17.622 Y-185.787
X17.618 Y-185.165
Y-183.922
X17.628 Y-183.715
X17.657 Y-183.301
X17.685 Y-183.094
X17.982 Y-181.414
X18.015 Y-181.229
X18.198 Y-180.608
X18.272 Y-180.401
X18.649 Y-179.365
X18.727 Y-179.158
X18.89 Y-178.743
X18.978 Y-178.536
X19.018 Y-178.46
X19.432 Y-177.739
X19.81 Y-177.086
X20.054 Y-176.666
X20.189 Y-176.464
X20.261 Y-176.364
X20.34 Y-176.257
X21.208 Y-175.221
X21.557 Y-174.807
X21.711 Y-174.628
X21.943 Y-174.393
X22.564 Y-173.771
X51.75 Y-144.585
X52.362 Y-143.909
X52.921 Y-143.188
X53.412 Y-142.42
X53.846 Y-141.618
X54.237 Y-140.794
X54.591 Y-139.954
X54.915 Y-139.102
X55.214 Y-138.24
X55.49 Y-137.371
X55.746 Y-136.496
X55.984 Y-135.616
X56.203 Y-134.731
X56.406 Y-133.842
X56.592 Y-132.949
X56.763 Y-132.054
X56.918 Y-131.155
X57.058 Y-130.254
X57.183 Y-129.351
X57.294 Y-128.446
X57.392 Y-127.539
X57.477 Y-126.632
X57.551 Y-125.723
X57.614 Y-124.813
X57.667 Y-123.903
X57.711 Y-122.992
X57.748 Y-122.081
X57.778 Y-121.17
X57.802 Y-120.258
X57.822 Y-119.347
X57.838 Y-118.435
X57.85 Y-117.523
X57.86 Y-116.611
X57.867 Y-115.7
X57.873 Y-114.788
X57.878 Y-113.876
X57.883 Y-112.052
X57.888 Y-109.317
X57.89 Y-104.758
Y-102.023
X57.889 Y-101.111
X57.887 Y-100.199
X57.882 Y-99.287
X57.874 Y-98.375
X57.861 Y-97.464
X57.843 Y-96.552
X57.819 Y-95.64
X57.786 Y-94.729
X57.745 Y-93.818
X57.694 Y-92.908
X57.632 Y-91.998
X57.559 Y-91.089
X57.473 Y-90.182
X57.374 Y-89.275
X57.262 Y-88.37
X57.136 Y-87.467
X56.996 Y-86.566
X56.842 Y-85.668
X56.673 Y-84.772
X56.489 Y-83.878
X56.291 Y-82.989
X56.077 Y-82.102
X55.848 Y-81.219
X55.604 Y-80.341
X55.345 Y-79.467
X55.071 Y-78.597
X54.781 Y-77.733
X54.476 Y-76.873
X54.157 Y-76.019
X53.823 Y-75.171
X53.7 Y-74.876
X53.664 Y-74.801
X53.618 Y-74.732
X53.563 Y-74.67
X22.125 Y-43.233
X21.738 Y-42.842
X21.711 Y-42.814
X21.504 Y-42.571
X20.86 Y-41.806
X20.34 Y-41.185
X20.261 Y-41.078
X20.189 Y-40.978
X20.051 Y-40.77
X19.639 Y-40.062
X19.212 Y-39.32
X19.018 Y-38.982
X18.977 Y-38.906
X18.89 Y-38.699
X18.727 Y-38.284
X18.649 Y-38.077
X18.272 Y-37.041
X18.198 Y-36.834
X18.015 Y-36.213
X17.722 Y-34.555
X17.685 Y-34.348
X17.657 Y-34.141
X17.628 Y-33.727
X17.618 Y-33.52
Y-32.277
X17.622 Y-31.655
X17.639 Y-31.448
X17.691 Y-31.034
X17.947 Y-29.583
X18.072 Y-28.962
X18.142 Y-28.755
X18.285 Y-28.34
X18.604 Y-27.463
X18.748 Y-27.066
X18.776 Y-26.994
G3 X18.566 Y-26.289 I-0.601 J0.205
G1 X18.488 Y-26.227 Z-4.752
X18.411 Y-26.168 Z-4.729
X18.339 Y-26.111 Z-4.691
X18.272 Y-26.059 Z-4.639
X18.212 Y-26.012 Z-4.574
X18.161 Y-25.972 Z-4.498
X18.12 Y-25.94 Z-4.413
X18.09 Y-25.917 Z-4.321
X18.072 Y-25.902 Z-4.224
X18.065 Y-25.898 Z-4.125
G0 Z5
X72.325 Y-50.445
Z-3.49
G1 Z-4.125 F200
X72.327 Y-50.453 Z-4.224
X72.332 Y-50.476 Z-4.321
X72.342 Y-50.513 Z-4.413
X72.354 Y-50.563 Z-4.498
X72.37 Y-50.626 Z-4.574
X72.389 Y-50.699 Z-4.639
X72.41 Y-50.781 Z-4.691
X72.433 Y-50.871 Z-4.729
X72.457 Y-50.965 Z-4.752
X72.481 Y-51.061 Z-4.76
G3 X72.857 Y-51.75 I1.534 J0.39
G1 X80.315 Y-59.208
X80.992 Y-59.82
X81.747 Y-60.331
X82.557 Y-60.749
X83.402 Y-61.091
X84.27 Y-61.372
X85.151 Y-61.605
X86.042 Y-61.801
X86.938 Y-61.968
X87.839 Y-62.11
X88.742 Y-62.233
X89.648 Y-62.339
X90.555 Y-62.43
X91.464 Y-62.508
X92.373 Y-62.574
X93.283 Y-62.631
X94.194 Y-62.679
X95.105 Y-62.719
X96.016 Y-62.753
X96.927 Y-62.781
X97.839 Y-62.803
X98.75 Y-62.822
X99.662 Y-62.837
X100.574 Y-62.849
X101.486 Y-62.858
X102.397 Y-62.866
X103.309 Y-62.872
X104.221 Y-62.876
X106.045 Y-62.882
X108.78 Y-62.887
X112.427 Y-62.89
X114.251
X115.163 Y-62.889
X116.075 Y-62.887
X116.986 Y-62.884
X117.898 Y-62.878
X118.81 Y-62.869
X119.722 Y-62.855
X120.633 Y-62.837
X121.545 Y-62.813
X122.456 Y-62.781
X123.367 Y-62.742
X124.278 Y-62.694
X125.188 Y-62.637
X126.097 Y-62.57
X127.005 Y-62.492
X127.913 Y-62.402
X128.819 Y-62.3
X129.724 Y-62.187
X130.627 Y-62.06
X131.528 Y-61.921
X132.427 Y-61.768
X133.323 Y-61.603
X134.217 Y-61.423
X134.92 Y-61.272
X135.036 Y-61.235
X135.142 Y-61.177
X135.235 Y-61.1
X142.77 Y-53.565
G3 X142.867 Y-52.836 I-0.464 J0.433
G1 X142.82 Y-52.748 Z-4.752
X142.775 Y-52.662 Z-4.729
X142.732 Y-52.581 Z-4.691
X142.692 Y-52.506 Z-4.639
X142.657 Y-52.439 Z-4.574
X142.627 Y-52.381 Z-4.498
X142.602 Y-52.335 Z-4.413
X142.584 Y-52.302 Z-4.321
X142.573 Y-52.281 Z-4.224
X142.57 Y-52.274 Z-4.125
G0 Z5
X79.783 Y-57.903
Z-3.49
G1 Z-4.125 F200
X79.784 Y-57.911 Z-4.224
X79.79 Y-57.934 Z-4.321
X79.8 Y-57.971 Z-4.413
X79.812 Y-58.021 Z-4.498
X79.828 Y-58.084 Z-4.574
X79.847 Y-58.157 Z-4.639
X79.868 Y-58.239 Z-4.691
X79.891 Y-58.329 Z-4.729
X79.915 Y-58.423 Z-4.752
X79.939 Y-58.519 Z-4.76
G3 X80.315 Y-59.208 I1.534 J0.39
G1 X86.116 Y-65.009
X86.792 Y-65.621
X87.548 Y-66.131
X88.368 Y-66.53
X89.226 Y-66.838
X90.107 Y-67.073
X91.001 Y-67.253
X91.902 Y-67.39
X92.808 Y-67.496
X93.716 Y-67.578
X94.626 Y-67.643
X95.536 Y-67.694
X96.447 Y-67.735
X97.358 Y-67.767
X98.27 Y-67.793
X99.181 Y-67.814
X100.093 Y-67.83
X101.004 Y-67.843
X101.916 Y-67.854
X102.828 Y-67.862
X103.74 Y-67.869
X104.652 Y-67.874
X106.475 Y-67.881
X108.299 Y-67.885
X111.034 Y-67.888
X113.77 Y-67.889
X114.682 Y-67.888
X115.593 Y-67.886
X116.505 Y-67.882
X117.417 Y-67.876
X118.329 Y-67.867
X119.24 Y-67.854
X120.152 Y-67.837
X121.064 Y-67.815
X121.975 Y-67.786
X122.886 Y-67.751
X123.797 Y-67.708
X124.707 Y-67.656
X125.617 Y-67.596
X126.526 Y-67.526
X127.435 Y-67.446
X128.342 Y-67.356
X128.839 Y-67.3
X128.978 Y-67.268
X129.106 Y-67.207
X129.217 Y-67.118
X135.235 Y-61.1
G3 X135.332 Y-60.37 I-0.464 J0.433
G1 X135.286 Y-60.282 Z-4.752
X135.241 Y-60.196 Z-4.729
X135.198 Y-60.115 Z-4.691
X135.158 Y-60.04 Z-4.639
X135.122 Y-59.973 Z-4.574
X135.092 Y-59.916 Z-4.498
X135.068 Y-59.87 Z-4.413
X135.05 Y-59.836 Z-4.321
X135.039 Y-59.816 Z-4.224
X135.036 Y-59.809 Z-4.125
G0 Z5
X85.583 Y-63.704
Z-3.49
G1 Z-4.125 F200
X85.585 Y-63.712 Z-4.224
X85.591 Y-63.734 Z-4.321
X85.6 Y-63.771 Z-4.413
X85.613 Y-63.822 Z-4.498
X85.629 Y-63.884 Z-4.574
X85.648 Y-63.958 Z-4.639
X85.669 Y-64.04 Z-4.691
X85.691 Y-64.129 Z-4.729
X85.715 Y-64.223 Z-4.752
X85.74 Y-64.32 Z-4.76
G3 X86.116 Y-65.009 I1.534 J0.39
G1 X91.502 Y-70.395
X92.179 Y-71.007
X92.948 Y-71.497
X93.779 Y-71.87
X94.648 Y-72.148
X95.537 Y-72.352
X96.436 Y-72.5
X97.342 Y-72.606
X98.251 Y-72.682
X99.161 Y-72.738
X100.072 Y-72.777
X100.983 Y-72.807
X101.895 Y-72.828
X102.806 Y-72.844
X103.718 Y-72.855
X104.63 Y-72.864
X105.541 Y-72.871
X106.453 Y-72.876
X108.277 Y-72.882
X110.101 Y-72.886
X111.924 Y-72.888
X113.748 Y-72.887
X114.66 Y-72.886
X115.571 Y-72.883
X116.483 Y-72.878
X117.395 Y-72.87
X118.307 Y-72.86
X119.218 Y-72.846
X120.13 Y-72.828
X121.042 Y-72.804
X121.953 Y-72.775
X122.864 Y-72.739
X123.387 Y-72.715
X123.541 Y-72.688
X123.683 Y-72.625
X123.806 Y-72.529
X129.217 Y-67.118
G3 X129.314 Y-66.388 I-0.464 J0.433
G1 X129.268 Y-66.3 Z-4.752
X129.223 Y-66.215 Z-4.729
X129.18 Y-66.133 Z-4.691
X129.14 Y-66.058 Z-4.639
X129.104 Y-65.991 Z-4.574
X129.074 Y-65.934 Z-4.498
X129.05 Y-65.888 Z-4.413
X129.032 Y-65.854 Z-4.321
X129.021 Y-65.834 Z-4.224
X129.017 Y-65.827 Z-4.125
G0 Z5
X90.97 Y-69.09
Z-3.49
G1 Z-4.125 F200
X90.971 Y-69.098 Z-4.224
X90.977 Y-69.121 Z-4.321
X90.987 Y-69.158 Z-4.413
X90.999 Y-69.208 Z-4.498
X91.015 Y-69.271 Z-4.574
X91.034 Y-69.344 Z-4.639
X91.055 Y-69.426 Z-4.691
X91.078 Y-69.516 Z-4.729
X91.102 Y-69.61 Z-4.752
X91.126 Y-69.706 Z-4.76
G3 X91.502 Y-70.395 I1.534 J0.39
G1 X96.498 Y-75.391
X97.174 Y-76.003
X97.927 Y-76.517
X98.751 Y-76.909
X99.615 Y-77.198
X100.503 Y-77.406
X101.403 Y-77.554
X102.309 Y-77.657
X103.218 Y-77.729
X104.128 Y-77.778
X105.039 Y-77.813
X105.951 Y-77.836
X106.863 Y-77.852
X107.774 Y-77.864
X108.686 Y-77.872
X109.598 Y-77.877
X110.51 Y-77.881
X111.422 Y-77.883
X112.333 Y-77.884
X113.245 Y-77.885
X114.157 Y-77.883
X115.069 Y-77.881
X115.981 Y-77.876
X116.892 Y-77.869
X117.804 Y-77.859
X118.228 Y-77.853
X118.389 Y-77.83
X118.539 Y-77.767
X118.668 Y-77.667
X123.806 Y-72.529
G3 X123.775 Y-71.632 Z-4.56 I-0.464 J0.433
X123.273 Y-71.465 I-0.433 J-0.464
G1 X96.894 Y-74.327
G3 X96.529 Y-74.494 I0.068 J-0.631
X96.498 Y-75.391 Z-4.76 I0.433 J-0.464
G1 X101.653 Y-80.546
X101.677 Y-80.57
X101.885 Y-80.761
X102.092 Y-80.946
X103.128 Y-81.815
X103.231 Y-81.899
X103.335 Y-81.963
X104.163 Y-82.442
X104.371 Y-82.553
X104.992 Y-82.849
X105.199 Y-82.929
X106.053 Y-83.24
X106.235 Y-83.304
X106.442 Y-83.344
X107.064 Y-83.454
X107.271 Y-83.49
X107.892 Y-83.585
X108.1 Y-83.599
X109.342
X109.55 Y-83.585
X110.171 Y-83.49
X110.793 Y-83.381
X111 Y-83.344
X111.207 Y-83.304
X111.414 Y-83.23
X112.243 Y-82.929
X112.45 Y-82.849
X113.071 Y-82.553
X113.279 Y-82.442
X113.693 Y-82.202
X113.9 Y-82.081
X114.315 Y-81.789
X114.522 Y-81.641
X115.35 Y-80.946
X115.566 Y-80.754
X115.765 Y-80.571
X118.668 Y-77.667
G3 X118.765 Y-76.938 I-0.464 J0.433
G1 X118.718 Y-76.85 Z-4.752
X118.673 Y-76.764 Z-4.729
X118.63 Y-76.683 Z-4.691
X118.59 Y-76.608 Z-4.639
X118.555 Y-76.541 Z-4.574
X118.525 Y-76.483 Z-4.498
X118.5 Y-76.437 Z-4.413
X118.483 Y-76.404 Z-4.321
X118.472 Y-76.383 Z-4.224
X118.468 Y-76.376 Z-4.125
G0 Z5
X50.445 Y-145.118
Z-3.49
G1 Z-4.125 F200
X50.453 Y-145.116 Z-4.224
X50.476 Y-145.11 Z-4.321
X50.513 Y-145.101 Z-4.413
X50.563 Y-145.088 Z-4.498
X50.626 Y-145.072 Z-4.574
X50.699 Y-145.053 Z-4.639
X50.781 Y-145.032 Z-4.691
X50.871 Y-145.01 Z-4.729
X50.965 Y-144.986 Z-4.752
X51.061 Y-144.961 Z-4.76
G3 X51.75 Y-144.585 I-0.39 J1.534
G1 X59.208 Y-137.127
X59.82 Y-136.451
X60.33 Y-135.695
X60.748 Y-134.885
X61.09 Y-134.039
X61.371 Y-133.172
X61.604 Y-132.29
X61.8 Y-131.4
X61.967 Y-130.504
X62.109 Y-129.603
X62.232 Y-128.699
X62.338 Y-127.794
X62.429 Y-126.886
X62.507 Y-125.978
X62.574 Y-125.069
X62.631 Y-124.159
X62.679 Y-123.248
X62.719 Y-122.337
X62.752 Y-121.426
X62.78 Y-120.515
X62.803 Y-119.603
X62.821 Y-118.691
X62.836 Y-117.78
X62.848 Y-116.868
X62.858 Y-115.956
X62.866 Y-115.044
X62.871 Y-114.133
X62.876 Y-113.221
X62.882 Y-111.397
X62.887 Y-108.662
X62.89 Y-105.015
Y-103.191
X62.889 Y-102.279
X62.887 Y-101.367
X62.884 Y-100.456
X62.878 Y-99.544
X62.869 Y-98.632
X62.856 Y-97.72
X62.837 Y-96.809
X62.813 Y-95.897
X62.782 Y-94.986
X62.742 Y-94.075
X62.694 Y-93.164
X62.637 Y-92.254
X62.57 Y-91.345
X62.492 Y-90.437
X62.402 Y-89.529
X62.3 Y-88.623
X62.186 Y-87.718
X62.059 Y-86.815
X61.919 Y-85.914
X61.767 Y-85.015
X61.601 Y-84.119
X61.422 Y-83.225
X61.27 Y-82.52
X61.233 Y-82.405
X61.175 Y-82.299
X61.098 Y-82.205
X53.563 Y-74.67
G3 X52.833 Y-74.573 I-0.433 J-0.464
G1 X52.745 Y-74.619 Z-4.752
X52.659 Y-74.665 Z-4.729
X52.578 Y-74.708 Z-4.691
X52.503 Y-74.747 Z-4.639
X52.436 Y-74.783 Z-4.574
X52.379 Y-74.813 Z-4.498
X52.333 Y-74.837 Z-4.413
X52.299 Y-74.855 Z-4.321
X52.278 Y-74.866 Z-4.224
X52.272 Y-74.87 Z-4.125
G0 Z5
X57.903 Y-137.66
Z-3.49
G1 Z-4.125 F200
X57.911 Y-137.658 Z-4.224
X57.934 Y-137.652 Z-4.321
X57.971 Y-137.643 Z-4.413
X58.021 Y-137.63 Z-4.498
X58.084 Y-137.614 Z-4.574
X58.157 Y-137.595 Z-4.639
X58.239 Y-137.574 Z-4.691
X58.329 Y-137.552 Z-4.729
X58.423 Y-137.528 Z-4.752
X58.519 Y-137.503 Z-4.76
G3 X59.208 Y-137.127 I-0.39 J1.534
G1 X65.009 Y-131.326
X65.621 Y-130.65
X66.131 Y-129.894
X66.53 Y-129.074
X66.837 Y-128.216
X67.072 Y-127.335
X67.252 Y-126.441
X67.389 Y-125.54
X67.495 Y-124.634
X67.578 Y-123.726
X67.643 Y-122.817
X67.694 Y-121.906
X67.734 Y-120.995
X67.767 Y-120.084
X67.793 Y-119.173
X67.813 Y-118.261
X67.83 Y-117.349
X67.843 Y-116.438
X67.854 Y-115.526
X67.862 Y-114.614
X67.868 Y-113.702
X67.874 Y-112.791
X67.881 Y-110.967
X67.885 Y-109.143
X67.888 Y-106.408
X67.889 Y-103.672
X67.888 Y-102.761
X67.886 Y-101.849
X67.882 Y-100.937
X67.876 Y-100.025
X67.867 Y-99.113
X67.854 Y-98.202
X67.837 Y-97.29
X67.815 Y-96.378
X67.786 Y-95.467
X67.751 Y-94.556
X67.708 Y-93.645
X67.656 Y-92.735
X67.596 Y-91.825
X67.526 Y-90.916
X67.446 Y-90.008
X67.355 Y-89.1
X67.299 Y-88.603
X67.268 Y-88.464
X67.206 Y-88.336
X67.117 Y-88.224
X61.098 Y-82.205
G3 X60.368 Y-82.108 I-0.433 J-0.464
G1 X60.28 Y-82.155 Z-4.752
X60.195 Y-82.2 Z-4.729
X60.113 Y-82.243 Z-4.691
X60.038 Y-82.283 Z-4.639
X59.971 Y-82.318 Z-4.574
X59.914 Y-82.348 Z-4.498
X59.868 Y-82.373 Z-4.413
X59.834 Y-82.391 Z-4.321
X59.814 Y-82.401 Z-4.224
X59.807 Y-82.405 Z-4.125
G0 Z5
X63.704 Y-131.859
Z-3.49
G1 Z-4.125 F200
X63.712 Y-131.857 Z-4.224
X63.734 Y-131.852 Z-4.321
X63.771 Y-131.842 Z-4.413
X63.822 Y-131.829 Z-4.498
X63.884 Y-131.813 Z-4.574
X63.958 Y-131.795 Z-4.639
X64.04 Y-131.774 Z-4.691
X64.129 Y-131.751 Z-4.729
X64.223 Y-131.727 Z-4.752
X64.32 Y-131.703 Z-4.76
G3 X65.009 Y-131.326 I-0.39 J1.534
G1 X70.395 Y-125.94
X71.007 Y-125.264
X71.497 Y-124.495
X71.87 Y-123.663
X72.148 Y-122.795
X72.352 Y-121.906
X72.499 Y-121.006
X72.606 Y-120.1
X72.682 Y-119.192
X72.737 Y-118.282
X72.777 Y-117.371
X72.806 Y-116.459
X72.828 Y-115.548
X72.843 Y-114.636
X72.855 Y-113.724
X72.864 Y-112.813
X72.871 Y-111.901
X72.875 Y-110.989
X72.882 Y-109.165
X72.886 Y-107.342
X72.888 Y-105.518
X72.887 Y-103.695
X72.886 Y-102.783
X72.883 Y-101.871
X72.878 Y-100.959
X72.871 Y-100.047
X72.86 Y-99.136
X72.846 Y-98.224
X72.828 Y-97.312
X72.804 Y-96.401
X72.775 Y-95.489
X72.739 Y-94.578
X72.715 Y-94.056
X72.688 Y-93.902
X72.625 Y-93.759
X72.529 Y-93.636
X67.117 Y-88.224
G3 X66.387 Y-88.128 I-0.433 J-0.464
G1 X66.3 Y-88.174 Z-4.752
X66.214 Y-88.219 Z-4.729
X66.133 Y-88.262 Z-4.691
X66.057 Y-88.302 Z-4.639
X65.991 Y-88.337 Z-4.574
X65.933 Y-88.368 Z-4.498
X65.887 Y-88.392 Z-4.413
X65.854 Y-88.41 Z-4.321
X65.833 Y-88.421 Z-4.224
X65.826 Y-88.424 Z-4.125
G0 Z5
X69.09 Y-126.473
Z-3.49
G1 Z-4.125 F200
X69.098 Y-126.471 Z-4.224
X69.121 Y-126.465 Z-4.321
X69.158 Y-126.456 Z-4.413
X69.208 Y-126.443 Z-4.498
X69.271 Y-126.427 Z-4.574
X69.344 Y-126.408 Z-4.639
X69.426 Y-126.387 Z-4.691
X69.516 Y-126.365 Z-4.729
X69.61 Y-126.341 Z-4.752
X69.706 Y-126.316 Z-4.76
G3 X70.395 Y-125.94 I-0.39 J1.534
G1 X75.392 Y-120.944
X76.003 Y-120.268
X76.518 Y-119.515
X76.909 Y-118.691
X77.198 Y-117.826
X77.406 Y-116.939
X77.554 Y-116.039
X77.657 Y-115.133
X77.729 Y-114.224
X77.778 Y-113.314
X77.812 Y-112.402
X77.836 Y-111.491
X77.852 Y-110.579
X77.864 Y-109.667
X77.872 Y-108.756
X77.877 Y-107.844
X77.881 Y-106.932
X77.883 Y-106.02
X77.884 Y-105.108
X77.885 Y-104.197
X77.883 Y-103.285
X77.881 Y-102.373
X77.876 Y-101.461
X77.869 Y-100.549
X77.86 Y-99.638
X77.854 Y-99.215
X77.83 Y-99.054
X77.767 Y-98.904
X77.668 Y-98.775
X72.529 Y-93.636
G3 X71.632 Y-93.667 Z-4.56 I-0.433 J-0.464
X71.465 Y-94.169 I0.464 J-0.433
G1 X74.327 Y-120.548
G3 X74.494 Y-120.913 I0.631 J0.068
X75.392 Y-120.944 Z-4.76 I0.464 J0.433
G1 X80.546 Y-115.789
X80.571 Y-115.765
X80.761 Y-115.557
X80.946 Y-115.35
X81.641 Y-114.522
X81.79 Y-114.314
X82.081 Y-113.9
X82.204 Y-113.691
X82.442 Y-113.279
X82.553 Y-113.071
X82.849 Y-112.45
X82.929 Y-112.243
X83.24 Y-111.389
X83.304 Y-111.207
X83.344 Y-111
X83.454 Y-110.378
X83.49 Y-110.171
X83.585 Y-109.55
X83.599 Y-109.342
Y-108.1
X83.585 Y-107.892
X83.49 Y-107.271
X83.381 Y-106.649
X83.344 Y-106.442
X83.304 Y-106.235
X83.23 Y-106.028
X82.929 Y-105.199
X82.849 Y-104.992
X82.553 Y-104.371
X82.442 Y-104.163
X81.963 Y-103.335
X81.899 Y-103.231
X81.815 Y-103.128
X80.946 Y-102.092
X80.754 Y-101.876
X80.57 Y-101.677
X77.668 Y-98.775
G3 X76.938 Y-98.678 I-0.433 J-0.464
G1 X76.85 Y-98.724 Z-4.752
X76.764 Y-98.769 Z-4.729
X76.683 Y-98.813 Z-4.691
X76.608 Y-98.852 Z-4.639
X76.541 Y-98.888 Z-4.574
X76.484 Y-98.918 Z-4.498
X76.438 Y-98.942 Z-4.413
X76.404 Y-98.96 Z-4.321
X76.383 Y-98.971 Z-4.224
X76.376 Y-98.975 Z-4.125
G0 Z5
X166.997 Y-72.325
Z-3.49
G1 Z-4.125 F200
X166.989 Y-72.327 Z-4.224
X166.966 Y-72.332 Z-4.321
X166.929 Y-72.342 Z-4.413
X166.879 Y-72.355 Z-4.498
X166.816 Y-72.371 Z-4.574
X166.743 Y-72.389 Z-4.639
X166.661 Y-72.41 Z-4.691
X166.571 Y-72.433 Z-4.729
X166.477 Y-72.457 Z-4.752
X166.381 Y-72.481 Z-4.76
G3 X165.692 Y-72.858 I0.39 J-1.534
G1 X158.234 Y-80.316
X157.622 Y-80.992
X157.112 Y-81.747
X156.694 Y-82.558
X156.352 Y-83.403
X156.071 Y-84.271
X155.838 Y-85.152
X155.642 Y-86.043
X155.475 Y-86.939
X155.333 Y-87.84
X155.21 Y-88.743
X155.104 Y-89.649
X155.013 Y-90.556
X154.935 Y-91.465
X154.868 Y-92.374
X154.811 Y-93.284
X154.763 Y-94.195
X154.723 Y-95.105
X154.689 Y-96.017
X154.662 Y-96.928
X154.639 Y-97.84
X154.62 Y-98.751
X154.605 Y-99.663
X154.593 Y-100.575
X154.584 Y-101.486
X154.576 Y-102.398
X154.57 Y-103.31
X154.566 Y-104.222
X154.56 Y-106.045
X154.555 Y-108.781
X154.552 Y-112.428
Y-114.252
X154.553 Y-115.163
X154.555 Y-116.075
X154.558 Y-116.987
X154.564 Y-117.899
X154.573 Y-118.811
X154.587 Y-119.722
X154.605 Y-120.634
X154.63 Y-121.546
X154.661 Y-122.457
X154.7 Y-123.368
X154.748 Y-124.278
X154.806 Y-125.188
X154.873 Y-126.098
X154.951 Y-127.006
X155.041 Y-127.913
X155.143 Y-128.82
X155.257 Y-129.724
X155.383 Y-130.627
X155.523 Y-131.528
X155.675 Y-132.427
X155.841 Y-133.324
X156.02 Y-134.218
X156.172 Y-134.921
X156.209 Y-135.037
X156.266 Y-135.143
X156.343 Y-135.236
X163.876 Y-142.769
G3 X164.606 Y-142.866 I0.433 J0.464
G1 X164.693 Y-142.819 Z-4.752
X164.779 Y-142.774 Z-4.729
X164.86 Y-142.731 Z-4.691
X164.936 Y-142.691 Z-4.639
X165.003 Y-142.656 Z-4.574
X165.06 Y-142.625 Z-4.498
X165.106 Y-142.601 Z-4.413
X165.139 Y-142.583 Z-4.321
X165.16 Y-142.572 Z-4.224
X165.167 Y-142.569 Z-4.125
G0 Z5
X159.539 Y-79.783
Z-3.49
G1 Z-4.125 F200
X159.531 Y-79.785 Z-4.224
X159.508 Y-79.791 Z-4.321
X159.471 Y-79.8 Z-4.413
X159.421 Y-79.813 Z-4.498
X159.358 Y-79.829 Z-4.574
X159.285 Y-79.847 Z-4.639
X159.203 Y-79.868 Z-4.691
X159.113 Y-79.891 Z-4.729
X159.019 Y-79.915 Z-4.752
X158.923 Y-79.939 Z-4.76
G3 X158.234 Y-80.316 I0.39 J-1.534
G1 X152.433 Y-86.116
X151.821 Y-86.793
X151.311 Y-87.548
X150.912 Y-88.368
X150.605 Y-89.227
X150.369 Y-90.108
X150.19 Y-91.002
X150.052 Y-91.903
X149.946 Y-92.809
X149.864 Y-93.717
X149.799 Y-94.626
X149.748 Y-95.537
X149.708 Y-96.447
X149.675 Y-97.359
X149.649 Y-98.27
X149.629 Y-99.182
X149.612 Y-100.093
X149.599 Y-101.005
X149.588 Y-101.917
X149.58 Y-102.829
X149.573 Y-103.74
X149.568 Y-104.652
X149.561 Y-106.476
X149.557 Y-108.299
X149.554 Y-111.035
X149.553 Y-113.77
X149.554 Y-114.682
X149.556 Y-115.594
X149.56 Y-116.506
X149.566 Y-117.418
X149.575 Y-118.329
X149.588 Y-119.241
X149.605 Y-120.153
X149.628 Y-121.064
X149.656 Y-121.976
X149.692 Y-122.887
X149.735 Y-123.797
X149.786 Y-124.708
X149.847 Y-125.618
X149.917 Y-126.527
X149.997 Y-127.435
X150.087 Y-128.342
X150.143 Y-128.84
X150.175 Y-128.979
X150.237 Y-129.107
X150.325 Y-129.218
X156.343 Y-135.236
G3 X157.073 Y-135.333 I0.433 J0.464
G1 X157.161 Y-135.287 Z-4.752
X157.247 Y-135.242 Z-4.729
X157.328 Y-135.199 Z-4.691
X157.403 Y-135.159 Z-4.639
X157.47 Y-135.123 Z-4.574
X157.528 Y-135.093 Z-4.498
X157.574 Y-135.069 Z-4.413
X157.607 Y-135.051 Z-4.321
X157.628 Y-135.04 Z-4.224
X157.635 Y-135.036 Z-4.125
G0 Z5
X153.738 Y-85.584
Z-3.49
G1 Z-4.125 F200
X153.73 Y-85.585 Z-4.224
X153.708 Y-85.591 Z-4.321
X153.671 Y-85.601 Z-4.413
X153.62 Y-85.613 Z-4.498
X153.558 Y-85.629 Z-4.574
X153.484 Y-85.648 Z-4.639
X153.402 Y-85.669 Z-4.691
X153.313 Y-85.692 Z-4.729
X153.219 Y-85.716 Z-4.752
X153.122 Y-85.74 Z-4.76
G3 X152.433 Y-86.116 I0.39 J-1.534
G1 X147.047 Y-91.503
X146.435 Y-92.179
X145.945 Y-92.948
X145.572 Y-93.78
X145.294 Y-94.648
X145.09 Y-95.537
X144.943 Y-96.437
X144.836 Y-97.342
X144.76 Y-98.251
X144.705 Y-99.161
X144.665 Y-100.072
X144.636 Y-100.983
X144.614 Y-101.895
X144.598 Y-102.807
X144.587 Y-103.718
X144.578 Y-104.63
X144.571 Y-105.542
X144.566 Y-106.454
X144.56 Y-108.277
X144.556 Y-110.101
X144.554 Y-111.925
X144.555 Y-113.748
X144.556 Y-114.66
X144.559 Y-115.572
X144.564 Y-116.484
X144.572 Y-117.395
X144.582 Y-118.307
X144.596 Y-119.219
X144.615 Y-120.131
X144.638 Y-121.042
X144.668 Y-121.953
X144.703 Y-122.865
X144.728 Y-123.387
X144.754 Y-123.541
X144.817 Y-123.683
X144.913 Y-123.806
X150.325 Y-129.218
G3 X151.055 Y-129.315 I0.433 J0.464
G1 X151.143 Y-129.269 Z-4.752
X151.229 Y-129.223 Z-4.729
X151.31 Y-129.18 Z-4.691
X151.385 Y-129.141 Z-4.639
X151.452 Y-129.105 Z-4.574
X151.509 Y-129.075 Z-4.498
X151.555 Y-129.051 Z-4.413
X151.589 Y-129.033 Z-4.321
X151.61 Y-129.022 Z-4.224
X151.617 Y-129.018 Z-4.125
G0 Z5
X148.352 Y-90.97
Z-3.49
G1 Z-4.125 F200
X148.344 Y-90.972 Z-4.224
X148.321 Y-90.978 Z-4.321
X148.284 Y-90.987 Z-4.413
X148.234 Y-91 Z-4.498
X148.171 Y-91.016 Z-4.574
X148.098 Y-91.034 Z-4.639
X148.016 Y-91.055 Z-4.691
X147.926 Y-91.078 Z-4.729
X147.832 Y-91.102 Z-4.752
X147.736 Y-91.126 Z-4.76
G3 X147.047 Y-91.503 I0.39 J-1.534
G1 X142.051 Y-96.498
X141.44 Y-97.174
X140.925 Y-97.927
X140.533 Y-98.75
X140.244 Y-99.615
X140.036 Y-100.503
X139.888 Y-101.403
X139.785 Y-102.309
X139.713 Y-103.218
X139.664 Y-104.128
X139.629 Y-105.039
X139.606 Y-105.951
X139.59 Y-106.862
X139.578 Y-107.774
X139.57 Y-108.686
X139.565 Y-109.598
X139.561 Y-110.51
X139.559 Y-111.421
X139.557 Y-112.333
Y-113.245
X139.559 Y-114.157
X139.561 Y-115.069
X139.566 Y-115.98
X139.573 Y-116.892
X139.583 Y-117.804
X139.589 Y-118.228
X139.612 Y-118.389
X139.675 Y-118.539
X139.775 Y-118.667
X144.913 Y-123.806
G3 X145.81 Y-123.775 Z-4.56 I0.433 J0.464
X145.978 Y-123.273 I-0.464 J0.433
G1 X143.116 Y-96.894
G3 X142.949 Y-96.529 I-0.631 J-0.068
X142.051 Y-96.498 Z-4.76 I-0.464 J-0.433
G1 X136.896 Y-101.654
X136.872 Y-101.677
X136.681 Y-101.885
X136.496 Y-102.092
X135.627 Y-103.128
X135.543 Y-103.231
X135.479 Y-103.335
X135.001 Y-104.163
X134.889 Y-104.371
X134.593 Y-104.992
X134.514 Y-105.199
X134.202 Y-106.054
X134.138 Y-106.235
X134.098 Y-106.442
X133.879 Y-107.685
X133.845 Y-107.892
X133.843 Y-108.1
Y-109.342
X133.845 Y-109.55
X133.879 Y-109.757
X134.098 Y-111
X134.138 Y-111.207
X134.212 Y-111.414
X134.514 Y-112.243
X134.593 Y-112.45
X134.889 Y-113.071
X135.001 Y-113.279
X135.479 Y-114.107
X135.543 Y-114.211
X135.627 Y-114.314
X136.496 Y-115.35
X136.688 Y-115.566
X136.872 Y-115.765
X139.775 Y-118.667
G3 X140.504 Y-118.764 I0.433 J0.464
G1 X140.592 Y-118.718 Z-4.752
X140.678 Y-118.673 Z-4.729
X140.759 Y-118.63 Z-4.691
X140.834 Y-118.59 Z-4.639
X140.901 Y-118.555 Z-4.574
X140.959 Y-118.524 Z-4.498
X141.005 Y-118.5 Z-4.413
X141.038 Y-118.482 Z-4.321
X141.059 Y-118.471 Z-4.224
X141.066 Y-118.468 Z-4.125
G0 Z5
X145.117 Y-166.997
Z-3.49
G1 Z-4.125 F200
X145.116 Y-166.989 Z-4.224
X145.11 Y-166.966 Z-4.321
X145.1 Y-166.929 Z-4.413
X145.088 Y-166.879 Z-4.498
X145.072 Y-166.816 Z-4.574
X145.053 Y-166.743 Z-4.639
X145.032 Y-166.661 Z-4.691
X145.009 Y-166.571 Z-4.729
X144.985 Y-166.477 Z-4.752
X144.961 Y-166.381 Z-4.76
G3 X144.585 Y-165.692 I-1.534 J-0.39
G1 X137.127 Y-158.234
X136.45 Y-157.622
X135.695 Y-157.112
X134.884 Y-156.694
X134.039 Y-156.352
X133.171 Y-156.072
X132.29 Y-155.838
X131.4 Y-155.642
X130.503 Y-155.476
X129.602 Y-155.333
X128.699 Y-155.21
X127.793 Y-155.105
X126.886 Y-155.013
X125.978 Y-154.935
X125.068 Y-154.868
X124.158 Y-154.812
X123.248 Y-154.764
X122.337 Y-154.723
X121.425 Y-154.69
X120.514 Y-154.662
X119.603 Y-154.639
X118.691 Y-154.621
X117.779 Y-154.606
X116.868 Y-154.594
X115.956 Y-154.584
X115.044 Y-154.576
X114.132 Y-154.571
X113.22 Y-154.566
X111.397 Y-154.56
X108.661 Y-154.555
X105.014 Y-154.552
X103.19
X102.279 Y-154.553
X101.367 Y-154.555
X100.455 Y-154.558
X99.543 Y-154.564
X98.631 Y-154.573
X97.72 Y-154.587
X96.808 Y-154.605
X95.897 Y-154.629
X94.985 Y-154.661
X94.074 Y-154.7
X93.164 Y-154.748
X92.254 Y-154.806
X91.345 Y-154.873
X90.436 Y-154.951
X89.529 Y-155.041
X88.623 Y-155.143
X87.718 Y-155.257
X86.815 Y-155.384
X85.914 Y-155.523
X85.015 Y-155.676
X84.118 Y-155.841
X83.224 Y-156.021
X82.52 Y-156.173
X82.405 Y-156.209
X82.298 Y-156.267
X82.205 Y-156.344
X74.671 Y-163.878
G3 X74.574 Y-164.608 I0.464 J-0.433
G1 X74.621 Y-164.696 Z-4.752
X74.666 Y-164.781 Z-4.729
X74.709 Y-164.863 Z-4.691
X74.749 Y-164.938 Z-4.639
X74.784 Y-165.005 Z-4.574
X74.814 Y-165.062 Z-4.498
X74.839 Y-165.108 Z-4.413
X74.857 Y-165.142 Z-4.321
X74.867 Y-165.162 Z-4.224
X74.871 Y-165.169 Z-4.125
G0 Z5
X137.659 Y-159.539
Z-3.49
G1 Z-4.125 F200
X137.658 Y-159.531 Z-4.224
X137.652 Y-159.508 Z-4.321
X137.642 Y-159.471 Z-4.413
X137.63 Y-159.421 Z-4.498
X137.614 Y-159.358 Z-4.574
X137.595 Y-159.285 Z-4.639
X137.574 Y-159.203 Z-4.691
X137.551 Y-159.113 Z-4.729
X137.527 Y-159.019 Z-4.752
X137.503 Y-158.923 Z-4.76
G3 X137.127 Y-158.234 I-1.534 J-0.39
G1 X131.326 Y-152.433
X130.65 Y-151.821
X129.894 Y-151.312
X129.074 Y-150.913
X128.216 Y-150.605
X127.335 Y-150.37
X126.441 Y-150.19
X125.539 Y-150.053
X124.634 Y-149.947
X123.726 Y-149.864
X122.816 Y-149.8
X121.906 Y-149.748
X120.995 Y-149.708
X120.084 Y-149.675
X119.172 Y-149.649
X118.261 Y-149.629
X117.349 Y-149.612
X116.437 Y-149.599
X115.525 Y-149.588
X114.614 Y-149.58
X113.702 Y-149.574
X112.79 Y-149.568
X110.966 Y-149.561
X109.143 Y-149.557
X106.407 Y-149.554
X103.672 Y-149.553
X102.76 Y-149.554
X101.848 Y-149.556
X100.937 Y-149.56
X100.025 Y-149.566
X99.113 Y-149.575
X98.201 Y-149.588
X97.29 Y-149.605
X96.378 Y-149.627
X95.467 Y-149.656
X94.556 Y-149.692
X93.645 Y-149.735
X92.734 Y-149.786
X91.825 Y-149.847
X90.915 Y-149.917
X90.007 Y-149.997
X89.1 Y-150.088
X88.602 Y-150.143
X88.464 Y-150.175
X88.335 Y-150.237
X88.224 Y-150.325
X82.205 Y-156.344
G3 X82.108 Y-157.074 I0.464 J-0.433
G1 X82.155 Y-157.162 Z-4.752
X82.2 Y-157.248 Z-4.729
X82.243 Y-157.329 Z-4.691
X82.283 Y-157.404 Z-4.639
X82.318 Y-157.471 Z-4.574
X82.348 Y-157.528 Z-4.498
X82.373 Y-157.574 Z-4.413
X82.39 Y-157.608 Z-4.321
X82.401 Y-157.629 Z-4.224
X82.405 Y-157.636 Z-4.125
G0 Z5
X131.859 Y-153.738
Z-3.49
G1 Z-4.125 F200
X131.857 Y-153.73 Z-4.224
X131.851 Y-153.708 Z-4.321
X131.842 Y-153.671 Z-4.413
X131.829 Y-153.62 Z-4.498
X131.813 Y-153.558 Z-4.574
X131.794 Y-153.484 Z-4.639
X131.773 Y-153.402 Z-4.691
X131.751 Y-153.313 Z-4.729
X131.727 Y-153.219 Z-4.752
X131.702 Y-153.122 Z-4.76
G3 X131.326 Y-152.433 I-1.534 J-0.39
G1 X125.94 Y-147.047
X125.263 Y-146.435
X124.494 Y-145.945
X123.662 Y-145.572
X122.794 Y-145.294
X121.905 Y-145.09
X121.006 Y-144.943
X120.1 Y-144.836
X119.191 Y-144.76
X118.281 Y-144.705
X117.37 Y-144.665
X116.459 Y-144.636
X115.547 Y-144.614
X114.636 Y-144.599
X113.724 Y-144.587
X112.812 Y-144.578
X111.9 Y-144.571
X110.989 Y-144.566
X109.165 Y-144.56
X107.341 Y-144.556
X105.518 Y-144.554
X103.694 Y-144.555
X102.782 Y-144.556
X101.87 Y-144.559
X100.959 Y-144.564
X100.047 Y-144.571
X99.135 Y-144.582
X98.223 Y-144.596
X97.312 Y-144.614
X96.4 Y-144.638
X95.489 Y-144.667
X94.578 Y-144.703
X94.056 Y-144.728
X93.902 Y-144.754
X93.759 Y-144.817
X93.636 Y-144.913
X88.224 Y-150.325
G3 X88.127 Y-151.055 I0.464 J-0.433
G1 X88.174 Y-151.143 Z-4.752
X88.219 Y-151.229 Z-4.729
X88.262 Y-151.31 Z-4.691
X88.302 Y-151.385 Z-4.639
X88.337 Y-151.452 Z-4.574
X88.367 Y-151.509 Z-4.498
X88.392 Y-151.555 Z-4.413
X88.409 Y-151.589 Z-4.321
X88.42 Y-151.61 Z-4.224
X88.424 Y-151.617 Z-4.125
G0 Z5
X126.472 Y-148.352
Z-3.49
G1 Z-4.125 F200
X126.471 Y-148.344 Z-4.224
X126.465 Y-148.321 Z-4.321
X126.455 Y-148.284 Z-4.413
X126.443 Y-148.234 Z-4.498
X126.427 Y-148.171 Z-4.574
X126.408 Y-148.098 Z-4.639
X126.387 Y-148.016 Z-4.691
X126.364 Y-147.926 Z-4.729
X126.341 Y-147.832 Z-4.752
X126.316 Y-147.736 Z-4.76
G3 X125.94 Y-147.047 I-1.534 J-0.39
G1 X120.944 Y-142.051
X120.268 Y-141.439
X119.515 Y-140.925
X118.691 Y-140.533
X117.827 Y-140.244
X116.939 Y-140.036
X116.039 Y-139.888
X115.133 Y-139.785
X114.224 Y-139.713
X113.314 Y-139.664
X112.403 Y-139.63
X111.491 Y-139.606
X110.579 Y-139.59
X109.668 Y-139.578
X108.756 Y-139.57
X107.844 Y-139.565
X106.932 Y-139.561
X106.02 Y-139.559
X105.109 Y-139.557
X104.197
X103.285 Y-139.559
X102.373 Y-139.561
X101.461 Y-139.566
X100.55 Y-139.573
X99.638 Y-139.582
X99.215 Y-139.589
X99.054 Y-139.612
X98.904 Y-139.675
X98.775 Y-139.774
X93.636 Y-144.913
G3 X93.667 Y-145.81 Z-4.56 I0.464 J-0.433
X94.169 Y-145.977 I0.433 J0.464
G1 X120.548 Y-143.115
G3 X120.913 Y-142.948 I-0.069 J0.631
X120.944 Y-142.051 Z-4.76 I-0.433 J0.464
G1 X115.789 Y-136.896
X115.765 Y-136.872
X115.557 Y-136.681
X115.35 Y-136.496
X114.314 Y-135.627
X114.211 Y-135.543
X114.107 Y-135.479
X113.279 Y-135.001
X113.071 Y-134.889
X112.45 Y-134.593
X112.243 Y-134.514
X111.388 Y-134.202
X111.207 Y-134.138
X111 Y-134.098
X109.757 Y-133.879
X109.55 Y-133.845
X109.342 Y-133.843
X108.1
X107.892 Y-133.845
X107.685 Y-133.879
X106.442 Y-134.098
X106.235 Y-134.138
X106.028 Y-134.212
X105.199 Y-134.514
X104.992 Y-134.593
X104.371 Y-134.889
X104.163 Y-135.001
X103.335 Y-135.479
X103.231 Y-135.543
X103.128 Y-135.627
X102.092 Y-136.496
X101.877 Y-136.688
X101.677 Y-136.872
X98.775 Y-139.774
G3 X98.678 Y-140.504 I0.464 J-0.433
G1 X98.725 Y-140.592 Z-4.752
X98.77 Y-140.678 Z-4.729
X98.813 Y-140.759 Z-4.691
X98.853 Y-140.834 Z-4.639
X98.888 Y-140.901 Z-4.574
X98.918 Y-140.959 Z-4.498
X98.943 Y-141.005 Z-4.413
X98.96 Y-141.038 Z-4.321
X98.971 Y-141.059 Z-4.224
X98.975 Y-141.066 Z-4.125
G0 Z15
G28 G91 Z0
G90
G28 G91 X0 Y0
G90
M5
M30
