(1001)
(T39  D=6.35 CR=0 - ZMIN=-6.76 - flat end mill)
G90 G94
G17
G21
G28 G91 Z0
G90

(2D Contour5)
T39
S18000 M3
G54
G0 X-4.216 Y-40.692
Z15
Z5
G1 Z1 F50
Z-6.125
X-4.208 Y-40.69 Z-6.224 F150
X-4.185 Y-40.686 Z-6.321
X-4.148 Y-40.678 Z-6.413
X-4.097 Y-40.668 Z-6.498
X-4.033 Y-40.655 Z-6.574
X-3.959 Y-40.64 Z-6.639
X-3.876 Y-40.623 Z-6.691
X-3.786 Y-40.605 Z-6.729
X-3.691 Y-40.586 Z-6.752
X-3.593 Y-40.566 Z-6.76
X-2.971 Y-40.44
G3 X-2.475 Y-39.691 I-0.126 J0.622
G2 X7.128 Y-7.835 I34.475 J6.984
G1 X7.835 Y-7.128
G2 X57.58 Y-7.128 I24.872 J-24.872
G1 X75.079 Y-24.627
G3 X99.704 Y-34.827 I24.625 J24.625
G1 X115.277
G3 X138.308 Y-26.124 I0 J34.825
G1 X159.935 Y-7.055
G2 X209.606 Y-7.127 I24.8 J-24.945
G1 X210.314 Y-7.833
X210.315 Y-7.835
G2 X210.315 Y-57.58 I-24.873 J-24.872
G1 X192.121 Y-75.774
G3 X181.921 Y-100.399 I24.625 J-24.625
G1 Y-117.044
G3 X192.121 Y-141.669 I34.825 J0
G1 X210.315 Y-159.863
G2 X210.315 Y-209.607 I-24.873 J-24.872
G1 X209.607 Y-210.315
G2 X159.863 Y-210.315 I-24.872 J24.873
G1 X136.984 Y-187.436
G3 X112.359 Y-177.236 I-24.625 J-24.625
G1 X105.084
G3 X80.459 Y-187.436 I0 J-34.825
G1 X57.58 Y-210.315
G2 X7.835 Y-210.315 I-24.872 J24.873
G1 X7.833 Y-210.314
X7.127 Y-209.606
G2 X7.127 Y-159.863 I24.873 J24.871
G1 X25.371 Y-141.619
G3 X35.571 Y-116.994 I-24.625 J24.625
G1 Y-100.448
G3 X25.371 Y-75.823 I-34.825 J0
G1 X7.128 Y-57.58
G2 X-2.475 Y-39.691 I24.872 J24.872
G3 X-3.223 Y-39.195 I-0.622 J-0.126
G1 X-3.845 Y-39.321
X-3.943 Y-39.341 Z-6.752
X-4.038 Y-39.36 Z-6.729
X-4.128 Y-39.378 Z-6.691
X-4.211 Y-39.395 Z-6.639
X-4.285 Y-39.41 Z-6.574
X-4.349 Y-39.423 Z-6.498
X-4.4 Y-39.434 Z-6.413
X-4.437 Y-39.441 Z-6.321
X-4.46 Y-39.446 Z-6.224
X-4.468 Y-39.447 Z-6.125
G0 Z15
G28 G91 Z0
G90
G28 G91 X0 Y0
G90
M5
M30
