(1001)
(T39  D=6.35 CR=0 - ZMIN=-4.76 - flat end mill)
G90 G94
G17
G21
G28 G91 Z0
G90

(2D Adaptive1)
T39
S5000 M3
G54
M8
G0 X-0.655 Y-247.275
Z15
Z5
Z-3.49
G1 Z-4.125 F150
X-0.653 Y-247.267 Z-4.224
X-0.647 Y-247.245 Z-4.321
X-0.638 Y-247.208 Z-4.413
X-0.625 Y-247.158 Z-4.498
X-0.609 Y-247.095 Z-4.574
X-0.59 Y-247.021 Z-4.639
X-0.569 Y-246.939 Z-4.691
X-0.546 Y-246.85 Z-4.729
X-0.522 Y-246.756 Z-4.752
X-0.497 Y-246.66 Z-4.76
G3 X0 Y-243.203 I-15.704 J4.023
G1 Y-243.053
X-0.182 Y-242.16
X-0.313 Y-241.257
X-0.406 Y-240.35
X-0.473 Y-239.441
X-0.52 Y-238.53
X-0.554 Y-237.619
X-0.577 Y-236.707
X-0.594 Y-235.796
X-0.606 Y-234.884
X-0.615 Y-233.972
X-0.621 Y-233.06
X-0.625 Y-232.149
X-0.63 Y-230.325
X-0.633 Y-227.59
X-0.635 Y-221.207
Y-192.941
Y-142.791
Y-92.641
Y-42.492
Y-2.828
X-0.513 Y-2.388
X-0.062 Y-1.596
X0.619 Y-0.989
X1.411 Y-0.538
X2.261 Y-0.207
X3.14 Y0.033
X4.036 Y0.206
X4.939 Y0.33
X5.846 Y0.419
X6.756 Y0.482
X7.667 Y0.526
X8.578 Y0.558
X9.49 Y0.581
X10.401 Y0.597
X11.313 Y0.608
X12.225 Y0.616
X13.137 Y0.621
X14.048 Y0.625
X15.872 Y0.63
X18.607 Y0.633
X24.99 Y0.635
X58.727
X108.877
X117.083
X117.53 Y0.542
X118.339 Y0.123
X118.962 Y-0.543
X119.426 Y-1.328
X119.767 Y-2.174
X120.015 Y-3.051
X120.193 Y-3.945
X120.321 Y-4.848
X120.412 Y-5.755
X120.477 Y-6.665
X120.523 Y-7.576
X120.556 Y-8.487
X120.579 Y-9.398
X120.595 Y-10.31
X120.607 Y-11.222
X120.615 Y-12.133
X120.621 Y-13.045
X120.625 Y-13.957
X120.63 Y-15.781
X120.633 Y-18.516
X120.635 Y-24.899
Y-40.4
Y-90.549
Y-140.699
Y-190.849
Y-236.895
X120.633 Y-237.123
X120.596 Y-237.348
X120.453 Y-237.781
X119.942 Y-238.536
X119.233 Y-239.11
X118.427 Y-239.535
X117.57 Y-239.846
X116.686 Y-240.072
X115.789 Y-240.234
X114.884 Y-240.35
X113.976 Y-240.433
X113.066 Y-240.492
X112.156 Y-240.533
X111.244 Y-240.563
X110.333 Y-240.584
X109.421 Y-240.599
X108.509 Y-240.61
X107.597 Y-240.617
X106.686 Y-240.622
X105.774 Y-240.626
X103.95 Y-240.631
X101.215 Y-240.633
X93.92 Y-240.635
X67.478
X17.328
X5.474
X5.039 Y-240.501
X4.247 Y-240.048
X3.631 Y-239.376
X3.167 Y-238.591
X2.821 Y-237.747
X2.568 Y-236.871
X2.383 Y-235.979
X2.249 Y-235.077
X2.152 Y-234.17
X2.082 Y-233.261
X2.032 Y-232.35
X1.996 Y-231.439
X1.97 Y-230.528
X1.951 Y-229.616
X1.938 Y-228.705
X1.929 Y-227.793
X1.922 Y-226.881
X1.917 Y-225.969
X1.911 Y-224.146
X1.907 Y-221.41
X1.905 Y-215.939
Y-203.174
Y-153.024
Y-102.874
Y-52.725
Y-6.222
X1.99 Y-5.774
X2.319 Y-4.924
X2.891 Y-4.214
X3.606 Y-3.648
X4.406 Y-3.21
X5.254 Y-2.875
X6.13 Y-2.623
X7.022 Y-2.434
X7.923 Y-2.294
X8.829 Y-2.19
X9.738 Y-2.113
X10.648 Y-2.057
X11.559 Y-2.016
X12.47 Y-1.986
X13.382 Y-1.964
X14.293 Y-1.948
X15.205 Y-1.936
X16.117 Y-1.927
X17.028 Y-1.921
X17.94 Y-1.917
X19.764 Y-1.911
X22.499 Y-1.907
X27.97 Y-1.905
X54.413
X104.563
X113.681
X114.132 Y-1.97
X114.994 Y-2.267
X115.72 Y-2.819
X116.3 Y-3.523
X116.75 Y-4.315
X117.094 Y-5.16
X117.354 Y-6.034
X117.549 Y-6.925
X117.694 Y-7.825
X117.801 Y-8.73
X117.88 Y-9.639
X117.938 Y-10.549
X117.98 Y-11.46
X118.012 Y-12.371
X118.034 Y-13.282
X118.051 Y-14.194
X118.063 Y-15.106
X118.072 Y-16.017
X118.078 Y-16.929
X118.083 Y-17.841
X118.089 Y-19.665
X118.093 Y-22.4
X118.095 Y-27.871
Y-41.548
Y-91.698
Y-141.848
Y-191.997
Y-233.941
X117.863 Y-234.823
X117.352 Y-235.578
X116.674 Y-236.187
X115.896 Y-236.663
X115.06 Y-237.028
X114.191 Y-237.304
X113.303 Y-237.511
X112.405 Y-237.666
X111.5 Y-237.78
X110.592 Y-237.864
X109.683 Y-237.927
X108.772 Y-237.972
X107.861 Y-238.005
X106.949 Y-238.03
X106.038 Y-238.048
X105.126 Y-238.061
X104.214 Y-238.07
X103.302 Y-238.077
X102.391 Y-238.082
X100.567 Y-238.088
X97.831 Y-238.092
X93.272 Y-238.094
X61.359 Y-238.095
X11.209
X8.474
X7.614 Y-237.791
X6.885 Y-237.243
X6.3 Y-236.544
X5.842 Y-235.755
X5.49 Y-234.914
X5.223 Y-234.042
X5.022 Y-233.153
X4.871 Y-232.254
X4.759 Y-231.349
X4.676 Y-230.441
X4.615 Y-229.531
X4.569 Y-228.62
X4.536 Y-227.709
X4.512 Y-226.798
X4.494 Y-225.886
X4.481 Y-224.974
X4.471 Y-224.062
X4.464 Y-223.151
X4.459 Y-222.239
X4.455 Y-221.327
X4.45 Y-219.503
X4.447 Y-216.768
X4.445 Y-210.385
Y-192.149
Y-141.999
Y-91.85
Y-41.7
Y-8.875
X4.686 Y-7.995
X5.174 Y-7.225
X5.829 Y-6.591
X6.588 Y-6.085
X7.409 Y-5.689
X8.268 Y-5.383
X9.15 Y-5.149
X10.044 Y-4.972
X10.946 Y-4.838
X11.852 Y-4.738
X12.761 Y-4.662
X13.671 Y-4.606
X14.582 Y-4.564
X15.493 Y-4.533
X16.405 Y-4.51
X17.316 Y-4.493
X18.228 Y-4.48
X19.14 Y-4.471
X20.052 Y-4.464
X20.963 Y-4.459
X22.787 Y-4.453
X25.522 Y-4.448
X30.081 Y-4.446
X70.201 Y-4.445
X110.321
X111.233 Y-4.447
X112.102 Y-4.723
X112.855 Y-5.236
X113.474 Y-5.906
X113.966 Y-6.674
X114.351 Y-7.5
X114.648 Y-8.362
X114.874 Y-9.246
X115.046 Y-10.141
X115.175 Y-11.044
X115.273 Y-11.95
X115.345 Y-12.859
X115.4 Y-13.77
X115.44 Y-14.68
X115.47 Y-15.592
X115.492 Y-16.503
X115.509 Y-17.415
X115.521 Y-18.327
X115.53 Y-19.238
X115.536 Y-20.15
X115.541 Y-21.062
X115.548 Y-22.886
X115.552 Y-25.621
X115.554 Y-30.18
X115.555 Y-62.094
Y-112.243
Y-162.393
Y-212.543
Y-230.779
X115.437 Y-231.683
X115.034 Y-232.501
X114.434 Y-233.188
X113.709 Y-233.741
X112.908 Y-234.176
X112.061 Y-234.514
X111.187 Y-234.772
X110.296 Y-234.969
X109.397 Y-235.117
X108.492 Y-235.229
X107.584 Y-235.313
X106.674 Y-235.375
X105.764 Y-235.422
X104.852 Y-235.457
X103.941 Y-235.482
X103.029 Y-235.501
X102.118 Y-235.515
X101.206 Y-235.526
X100.294 Y-235.534
X99.382 Y-235.539
X98.471 Y-235.543
X96.647 Y-235.549
X93.911 Y-235.553
X88.441 Y-235.555
X85.705
X35.555
X11.848
X10.942 Y-235.453
X10.117 Y-235.066
X9.419 Y-234.478
X8.855 Y-233.762
X8.41 Y-232.966
X8.065 Y-232.122
X7.799 Y-231.25
X7.596 Y-230.361
X7.443 Y-229.462
X7.327 Y-228.558
X7.24 Y-227.65
X7.175 Y-226.741
X7.126 Y-225.83
X7.09 Y-224.919
X7.062 Y-224.008
X7.042 Y-223.096
X7.027 Y-222.184
X7.016 Y-221.272
X7.008 Y-220.361
X7.002 Y-219.449
X6.998 Y-218.537
X6.992 Y-216.713
X6.988 Y-213.978
X6.986 Y-211.243
X6.985 Y-197.565
Y-161.093
Y-110.943
Y-60.793
Y-11.556
X7.227 Y-10.676
X7.707 Y-9.901
X8.351 Y-9.256
X9.1 Y-8.735
X9.913 Y-8.324
X10.767 Y-8.003
X11.645 Y-7.757
X12.537 Y-7.568
X13.437 Y-7.424
X14.343 Y-7.315
X15.251 Y-7.232
X16.16 Y-7.17
X17.071 Y-7.123
X17.982 Y-7.088
X18.894 Y-7.062
X19.805 Y-7.043
X20.717 Y-7.028
X21.629 Y-7.017
X22.54 Y-7.009
X23.452 Y-7.003
X24.364 Y-6.998
X26.188 Y-6.992
X28.923 Y-6.988
X33.482 Y-6.986
X56.277 Y-6.985
X106.427
X108.251
X109.145 Y-7.162
X109.947 Y-7.596
X110.621 Y-8.21
X111.166 Y-8.941
X111.599 Y-9.744
X111.936 Y-10.591
X112.197 Y-11.464
X112.397 Y-12.354
X112.55 Y-13.253
X112.665 Y-14.157
X112.753 Y-15.065
X112.819 Y-15.974
X112.868 Y-16.885
X112.905 Y-17.796
X112.933 Y-18.707
X112.954 Y-19.619
X112.97 Y-20.531
X112.981 Y-21.442
X112.99 Y-22.354
X112.996 Y-23.266
X113.001 Y-24.178
X113.007 Y-26.001
X113.012 Y-28.737
X113.014 Y-33.296
X113.015 Y-53.356
Y-103.505
Y-153.655
Y-203.805
Y-227.512
X113.013 Y-228.424
X112.781 Y-229.306
X112.306 Y-230.084
X111.666 Y-230.733
X110.919 Y-231.256
X110.106 Y-231.669
X109.253 Y-231.991
X108.375 Y-232.239
X107.483 Y-232.429
X106.583 Y-232.574
X105.678 Y-232.683
X104.77 Y-232.766
X103.86 Y-232.829
X102.95 Y-232.876
X102.039 Y-232.911
X101.127 Y-232.937
X100.216 Y-232.957
X99.304 Y-232.972
X98.392 Y-232.983
X97.48 Y-232.991
X96.569 Y-232.997
X95.657 Y-233.002
X93.833 Y-233.008
X91.098 Y-233.012
X89.274 Y-233.013
X81.068 Y-233.015
X39.124
X14.505
X13.601 Y-232.898
X12.774 Y-232.515
X12.071 Y-231.934
X11.497 Y-231.226
X11.039 Y-230.437
X10.68 Y-229.599
X10.403 Y-228.73
X10.19 Y-227.844
X10.027 Y-226.947
X9.903 Y-226.043
X9.809 Y-225.136
X9.738 Y-224.227
X9.685 Y-223.317
X9.645 Y-222.406
X9.614 Y-221.495
X9.592 Y-220.583
X9.575 Y-219.672
X9.562 Y-218.76
X9.553 Y-217.848
X9.546 Y-216.936
X9.54 Y-216.025
X9.536 Y-215.113
X9.531 Y-213.289
X9.528 Y-210.554
X9.527 Y-209.642
X9.525 Y-202.347
Y-159.492
Y-109.342
Y-59.193
Y-14.514
X9.665 Y-13.613
X10.061 Y-12.792
X10.646 Y-12.092
X11.356 Y-11.52
X12.145 Y-11.063
X12.983 Y-10.703
X13.851 Y-10.424
X14.737 Y-10.208
X15.633 Y-10.043
X16.536 Y-9.917
X17.443 Y-9.821
X18.352 Y-9.748
X19.262 Y-9.693
X20.173 Y-9.651
X21.084 Y-9.62
X21.996 Y-9.596
X22.907 Y-9.578
X23.819 Y-9.565
X24.731 Y-9.555
X25.643 Y-9.547
X26.555 Y-9.542
X27.466 Y-9.538
X29.29 Y-9.532
X32.025 Y-9.528
X37.496 Y-9.525
X63.027
X104.97
X105.882 Y-9.535
X106.756 Y-9.794
X107.526 Y-10.282
X108.17 Y-10.928
X108.691 Y-11.677
X109.103 Y-12.49
X109.426 Y-13.343
X109.676 Y-14.219
X109.868 Y-15.111
X110.015 Y-16.011
X110.127 Y-16.916
X110.213 Y-17.823
X110.277 Y-18.733
X110.326 Y-19.643
X110.363 Y-20.554
X110.391 Y-21.466
X110.412 Y-22.377
X110.428 Y-23.289
X110.44 Y-24.201
X110.449 Y-25.113
X110.455 Y-26.024
X110.46 Y-26.936
X110.467 Y-28.76
X110.472 Y-31.495
X110.474 Y-36.054
X110.475 Y-62.497
Y-65.232
Y-115.382
Y-165.532
Y-215.681
Y-225.711
X110.267 Y-226.599
X109.818 Y-227.393
X109.196 Y-228.06
X108.463 Y-228.602
X107.66 Y-229.034
X106.814 Y-229.373
X105.94 Y-229.635
X105.051 Y-229.837
X104.153 Y-229.992
X103.249 Y-230.11
X102.341 Y-230.2
X101.432 Y-230.267
X100.521 Y-230.319
X99.61 Y-230.358
X98.699 Y-230.387
X97.788 Y-230.409
X96.876 Y-230.425
X95.964 Y-230.438
X95.052 Y-230.447
X94.141 Y-230.454
X93.229 Y-230.459
X91.405 Y-230.466
X89.582 Y-230.47
X85.934 Y-230.474
X76.816 Y-230.475
X72.257
X22.107
X17.548
X16.637 Y-230.458
X15.765 Y-230.19
X14.999 Y-229.696
X14.359 Y-229.046
X13.842 Y-228.295
X13.432 Y-227.481
X13.111 Y-226.627
X12.863 Y-225.75
X12.671 Y-224.858
X12.524 Y-223.958
X12.413 Y-223.053
X12.327 Y-222.146
X12.263 Y-221.236
X12.214 Y-220.326
X12.177 Y-219.415
X12.149 Y-218.503
X12.128 Y-217.592
X12.113 Y-216.68
X12.101 Y-215.768
X12.092 Y-214.856
X12.085 Y-213.945
X12.08 Y-213.033
X12.073 Y-211.209
X12.068 Y-208.474
X12.066 Y-203.915
X12.065 Y-187.502
Y-137.352
Y-87.203
Y-37.053
Y-16.993
X12.243 Y-16.099
X12.664 Y-15.29
X13.264 Y-14.603
X13.982 Y-14.041
X14.775 Y-13.592
X15.616 Y-13.238
X16.485 Y-12.962
X17.371 Y-12.749
X18.268 Y-12.586
X19.172 Y-12.46
X20.078 Y-12.364
X20.987 Y-12.292
X21.897 Y-12.236
X22.808 Y-12.194
X23.719 Y-12.163
X24.631 Y-12.139
X25.543 Y-12.12
X26.454 Y-12.107
X27.366 Y-12.096
X28.278 Y-12.089
X29.19 Y-12.083
X30.101 Y-12.078
X31.925 Y-12.072
X34.66 Y-12.068
X39.22 Y-12.066
X40.131
X90.281 Y-12.065
X102.135
X103.046 Y-12.066
X103.939 Y-12.251
X104.744 Y-12.68
X105.424 Y-13.287
X105.981 Y-14.009
X106.425 Y-14.805
X106.775 Y-15.647
X107.048 Y-16.518
X107.259 Y-17.405
X107.421 Y-18.302
X107.545 Y-19.205
X107.639 Y-20.112
X107.711 Y-21.021
X107.766 Y-21.931
X107.807 Y-22.842
X107.839 Y-23.753
X107.862 Y-24.665
X107.88 Y-25.577
X107.894 Y-26.488
X107.904 Y-27.4
X107.912 Y-28.312
X107.918 Y-29.224
X107.922 Y-30.135
X107.928 Y-31.959
X107.932 Y-34.695
X107.934 Y-39.254
X107.935 Y-47.46
Y-97.61
Y-147.759
Y-197.909
Y-222.528
X107.89 Y-223.439
X107.591 Y-224.3
X107.076 Y-225.053
X106.414 Y-225.68
X105.656 Y-226.186
X104.837 Y-226.587
X103.981 Y-226.902
X103.103 Y-227.146
X102.21 Y-227.334
X101.31 Y-227.478
X100.405 Y-227.589
X99.497 Y-227.673
X98.587 Y-227.737
X97.677 Y-227.785
X96.766 Y-227.822
X95.854 Y-227.85
X94.943 Y-227.871
X94.031 Y-227.887
X93.119 Y-227.899
X92.208 Y-227.908
X91.296 Y-227.914
X90.384 Y-227.92
X88.56 Y-227.926
X85.825 Y-227.931
X84.913 Y-227.932
X79.442 Y-227.935
X34.764
X20.174
X19.263 Y-227.922
X18.388 Y-227.664
X17.615 Y-227.181
X16.967 Y-226.54
X16.44 Y-225.795
X16.021 Y-224.986
X15.692 Y-224.135
X15.436 Y-223.26
X15.238 Y-222.37
X15.087 Y-221.471
X14.971 Y-220.566
X14.882 Y-219.659
X14.815 Y-218.75
X14.764 Y-217.839
X14.725 Y-216.928
X14.695 Y-216.017
X14.673 Y-215.105
X14.656 Y-214.194
X14.644 Y-213.282
X14.634 Y-212.37
X14.627 Y-211.458
X14.622 Y-210.547
X14.617 Y-209.635
X14.612 Y-207.811
X14.608 Y-205.076
X14.606 Y-199.605
X14.605 Y-195.046
Y-144.896
Y-94.746
Y-44.597
Y-19.978
X14.669 Y-19.068
X14.987 Y-18.213
X15.512 Y-17.468
X16.181 Y-16.849
X16.943 Y-16.348
X17.764 Y-15.95
X18.621 Y-15.639
X19.5 Y-15.396
X20.392 Y-15.209
X21.292 Y-15.065
X22.198 Y-14.955
X23.105 Y-14.871
X24.015 Y-14.806
X24.926 Y-14.758
X25.837 Y-14.721
X26.748 Y-14.692
X27.66 Y-14.671
X28.571 Y-14.655
X29.483 Y-14.643
X30.395 Y-14.633
X31.307 Y-14.626
X32.218 Y-14.621
X34.042 Y-14.614
X35.866 Y-14.61
X37.689 Y-14.608
X43.16 Y-14.606
X87.839 Y-14.605
X99.692
X100.604 Y-14.61
X101.487 Y-14.838
X102.275 Y-15.297
X102.94 Y-15.92
X103.484 Y-16.653
X103.917 Y-17.455
X104.258 Y-18.301
X104.524 Y-19.173
X104.729 Y-20.061
X104.888 Y-20.959
X105.009 Y-21.863
X105.102 Y-22.77
X105.173 Y-23.679
X105.226 Y-24.589
X105.267 Y-25.5
X105.298 Y-26.411
X105.322 Y-27.323
X105.34 Y-28.234
X105.353 Y-29.146
X105.364 Y-30.058
X105.371 Y-30.97
X105.377 Y-31.882
X105.382 Y-32.793
X105.387 Y-34.617
X105.392 Y-37.352
X105.394 Y-41.911
X105.395 Y-50.118
Y-100.267
Y-150.417
Y-200.567
Y-219.715
X105.39 Y-220.627
X105.156 Y-221.508
X104.694 Y-222.294
X104.066 Y-222.956
X103.331 Y-223.495
X102.527 Y-223.925
X101.681 Y-224.264
X100.808 Y-224.529
X99.92 Y-224.733
X99.022 Y-224.891
X98.118 Y-225.011
X97.211 Y-225.104
X96.302 Y-225.174
X95.391 Y-225.228
X94.48 Y-225.268
X93.569 Y-225.299
X92.658 Y-225.323
X91.746 Y-225.34
X90.834 Y-225.354
X89.923 Y-225.364
X89.011 Y-225.371
X88.099 Y-225.377
X87.187 Y-225.382
X85.364 Y-225.387
X82.628 Y-225.392
X78.069 Y-225.394
X77.157
X27.007 Y-225.395
X22.448
X21.54 Y-225.314
X20.692 Y-224.979
X19.957 Y-224.44
X19.346 Y-223.762
X18.854 Y-222.995
X18.464 Y-222.171
X18.158 Y-221.312
X17.921 Y-220.431
X17.737 Y-219.538
X17.596 Y-218.637
X17.488 Y-217.732
X17.406 Y-216.824
X17.343 Y-215.914
X17.295 Y-215.004
X17.258 Y-214.093
X17.231 Y-213.181
X17.21 Y-212.27
X17.194 Y-211.358
X17.182 Y-210.446
X17.173 Y-209.535
X17.166 Y-208.623
X17.161 Y-207.711
X17.154 Y-205.887
X17.15 Y-204.064
X17.147 Y-200.416
X17.145 Y-192.21
Y-182.18
Y-132.031
Y-81.881
Y-31.731
Y-22.613
X17.194 Y-21.702
X17.492 Y-20.841
X18.003 Y-20.085
X18.661 Y-19.454
X19.415 Y-18.942
X20.231 Y-18.534
X21.085 Y-18.214
X21.962 Y-17.964
X22.853 Y-17.771
X23.752 Y-17.623
X24.657 Y-17.509
X25.565 Y-17.422
X26.474 Y-17.355
X27.384 Y-17.305
X28.295 Y-17.266
X29.207 Y-17.237
X30.118 Y-17.215
X31.03 Y-17.198
X31.942 Y-17.185
X32.853 Y-17.175
X33.765 Y-17.168
X34.677 Y-17.162
X35.589 Y-17.158
X37.412 Y-17.152
X40.148 Y-17.148
X44.707 Y-17.146
X55.649 Y-17.145
X97.592
X98.499 Y-17.244
X99.34 Y-17.595
X100.07 Y-18.142
X100.673 Y-18.826
X101.16 Y-19.597
X101.546 Y-20.423
X101.848 Y-21.283
X102.084 Y-22.164
X102.266 Y-23.057
X102.405 Y-23.958
X102.513 Y-24.864
X102.595 Y-25.772
X102.657 Y-26.682
X102.705 Y-27.592
X102.741 Y-28.503
X102.769 Y-29.415
X102.79 Y-30.326
X102.805 Y-31.238
X102.818 Y-32.15
X102.827 Y-33.061
X102.834 Y-33.973
X102.839 Y-34.885
X102.846 Y-36.709
X102.85 Y-38.532
X102.853 Y-42.179
X102.855 Y-50.386
Y-73.181
Y-123.331
Y-173.481
Y-217.248
X102.837 Y-218.159
X102.576 Y-219.033
X102.094 Y-219.807
X101.455 Y-220.457
X100.713 Y-220.987
X99.905 Y-221.41
X99.056 Y-221.742
X98.182 Y-222.002
X97.292 Y-222.202
X96.394 Y-222.357
X95.49 Y-222.475
X94.582 Y-222.566
X93.673 Y-222.635
X92.763 Y-222.688
X91.852 Y-222.729
X90.941 Y-222.759
X90.029 Y-222.782
X89.118 Y-222.8
X88.206 Y-222.813
X87.294 Y-222.823
X86.382 Y-222.831
X85.471 Y-222.837
X84.559 Y-222.841
X82.735 Y-222.847
X80 Y-222.852
X75.441 Y-222.854
X49.91 Y-222.855
X48.998
X25.291
X24.379 Y-222.833
X23.506 Y-222.572
X22.732 Y-222.09
X22.082 Y-221.45
X21.553 Y-220.707
X21.131 Y-219.899
X20.799 Y-219.05
X20.54 Y-218.176
X20.339 Y-217.286
X20.184 Y-216.388
X20.065 Y-215.484
X19.975 Y-214.576
X19.905 Y-213.667
X19.852 Y-212.757
X19.812 Y-211.846
X19.781 Y-210.935
X19.758 Y-210.023
X19.74 Y-209.111
X19.727 Y-208.2
X19.717 Y-207.288
X19.709 Y-206.376
X19.703 Y-205.464
X19.699 Y-204.553
X19.693 Y-202.729
X19.688 Y-199.994
Y-199.082
X19.685 Y-193.611
Y-148.932
Y-98.782
Y-48.633
Y-24.925
X19.795 Y-24.02
X20.154 Y-23.182
X20.708 Y-22.458
X21.394 Y-21.858
X22.167 Y-21.374
X22.994 Y-20.99
X23.855 Y-20.689
X24.736 Y-20.455
X25.63 Y-20.274
X26.531 Y-20.135
X27.437 Y-20.028
X28.345 Y-19.946
X29.255 Y-19.884
X30.165 Y-19.836
X31.076 Y-19.8
X31.988 Y-19.772
X32.899 Y-19.751
X33.563 Y-19.739
X33.852 Y-19.706
X34.128 Y-19.617
X34.381 Y-19.476
X34.529 Y-19.374
X34.944 Y-19.154
X35.151 Y-19.05
X36.393 Y-18.471
X36.566 Y-18.393
X37.075 Y-18.186
X37.221 Y-18.135
X37.843 Y-17.967
X39.085 Y-17.634
X39.292 Y-17.584
X39.383 Y-17.564
X39.499 Y-17.542
X39.706 Y-17.516
X39.913 Y-17.495
X41.502 Y-17.357
X41.777 Y-17.334
X41.984 Y-17.33
X42.398 Y-17.326
X42.813
X43.02 Y-17.327
X43.227 Y-17.337
X43.848 Y-17.387
X45.09 Y-17.496
X45.297 Y-17.524
X45.712 Y-17.587
X45.919 Y-17.635
X47.202 Y-17.979
X47.575 Y-18.079
X47.782 Y-18.137
X48.404 Y-18.376
X48.611 Y-18.473
X49.361 Y-18.778
X50.081 Y-19.005
X50.97 Y-19.209
X51.871 Y-19.351
X52.777 Y-19.45
X53.686 Y-19.519
X54.597 Y-19.568
X55.508 Y-19.603
X56.419 Y-19.627
X57.331 Y-19.644
X58.243 Y-19.656
X59.155 Y-19.664
X60.066 Y-19.671
X60.978 Y-19.675
X62.802 Y-19.68
X65.537 Y-19.683
X68.624 Y-19.684
X68.918 Y-19.655
X69.2 Y-19.568
X69.459 Y-19.427
X69.526 Y-19.381
X69.733 Y-19.26
X69.94 Y-19.154
X70.147 Y-19.052
X71.596 Y-18.376
X72.218 Y-18.137
X72.425 Y-18.079
X73.874 Y-17.691
X74.081 Y-17.635
X74.288 Y-17.587
X74.703 Y-17.524
X74.91 Y-17.496
X76.152 Y-17.387
X76.773 Y-17.337
X76.98 Y-17.327
X77.395 Y-17.326
X77.602
X78.016 Y-17.33
X78.223 Y-17.334
X79.258 Y-17.423
X80.087 Y-17.495
X80.294 Y-17.516
X80.501 Y-17.542
X80.617 Y-17.564
X80.708 Y-17.584
X80.915 Y-17.634
X82.202 Y-17.979
X82.779 Y-18.135
X82.925 Y-18.186
X83.434 Y-18.393
X83.607 Y-18.471
X84.361 Y-18.777
X85.082 Y-19.005
X85.97 Y-19.209
X86.871 Y-19.351
X87.778 Y-19.45
X88.687 Y-19.519
X89.597 Y-19.568
X90.508 Y-19.603
X91.42 Y-19.627
X92.332 Y-19.644
X93.243 Y-19.656
X94.155 Y-19.664
X95.067 Y-19.671
X95.972 Y-19.782
X96.811 Y-20.14
X97.535 Y-20.693
X98.135 Y-21.38
X98.621 Y-22.152
X99.006 Y-22.978
X99.308 Y-23.839
X99.542 Y-24.72
X99.724 Y-25.613
X99.864 Y-26.514
X99.971 Y-27.42
X100.053 Y-28.328
X100.116 Y-29.237
X100.163 Y-30.148
X100.2 Y-31.059
X100.228 Y-31.97
X100.249 Y-32.882
X100.265 Y-33.794
X100.277 Y-34.705
X100.286 Y-35.617
X100.293 Y-36.529
X100.298 Y-37.441
X100.305 Y-39.264
X100.31 Y-41.088
X100.313 Y-44.735
X100.315 Y-52.942
Y-56.589
Y-106.739
Y-156.888
Y-207.038
Y-214.333
X100.314 Y-215.244
X100.157 Y-216.143
X99.757 Y-216.962
X99.174 Y-217.664
X98.468 Y-218.24
X97.683 Y-218.704
X96.849 Y-219.071
X95.983 Y-219.359
X95.099 Y-219.582
X94.204 Y-219.755
X93.302 Y-219.887
X92.396 Y-219.989
X91.487 Y-220.067
X90.577 Y-220.126
X89.667 Y-220.172
X88.756 Y-220.206
X87.844 Y-220.232
X86.933 Y-220.252
X86.437 Y-220.261
X86.149 Y-220.294
X85.872 Y-220.383
X85.619 Y-220.524
X85.471 Y-220.626
X85.056 Y-220.845
X84.849 Y-220.95
X83.607 Y-221.529
X83.433 Y-221.607
X82.924 Y-221.814
X82.779 Y-221.864
X82.157 Y-222.033
X80.915 Y-222.366
X80.708 Y-222.408
X80.294 Y-222.48
X80.087 Y-222.504
X78.637 Y-222.631
X78.223 Y-222.666
X78.016 Y-222.67
X77.602 Y-222.674
X77.187
X76.98 Y-222.673
X76.773 Y-222.663
X76.152 Y-222.613
X74.91 Y-222.504
X74.703 Y-222.475
X74.288 Y-222.413
X74.081 Y-222.364
X72.8 Y-222.021
X72.425 Y-221.921
X72.218 Y-221.863
X71.596 Y-221.624
X71.389 Y-221.527
X70.64 Y-221.222
X69.919 Y-220.995
X69.03 Y-220.791
X68.129 Y-220.649
X67.223 Y-220.55
X66.314 Y-220.481
X65.403 Y-220.432
X64.492 Y-220.397
X63.581 Y-220.373
X62.669 Y-220.356
X61.757 Y-220.344
X60.845 Y-220.336
X59.934 Y-220.329
X59.022 Y-220.325
X57.198 Y-220.32
X54.463 Y-220.317
X51.376 Y-220.316
X51.082 Y-220.345
X50.8 Y-220.432
X50.541 Y-220.573
X50.474 Y-220.618
X50.267 Y-220.739
X50.06 Y-220.846
X49.853 Y-220.948
X48.404 Y-221.624
X47.782 Y-221.863
X47.575 Y-221.921
X46.126 Y-222.309
X45.919 Y-222.364
X45.712 Y-222.413
X45.297 Y-222.475
X45.09 Y-222.504
X43.848 Y-222.613
X43.227 Y-222.663
X43.02 Y-222.673
X42.605 Y-222.674
X42.398
X41.984 Y-222.67
X41.777 Y-222.666
X40.742 Y-222.577
X39.913 Y-222.504
X39.706 Y-222.48
X39.292 Y-222.408
X39.085 Y-222.366
X37.799 Y-222.021
X37.221 Y-221.864
X37.076 Y-221.814
X36.567 Y-221.607
X36.393 Y-221.529
X35.639 Y-221.222
X34.918 Y-220.995
X34.03 Y-220.791
X33.129 Y-220.649
X32.222 Y-220.55
X31.313 Y-220.481
X30.403 Y-220.432
X29.492 Y-220.397
X28.58 Y-220.373
X27.669 Y-220.356
X26.759 Y-220.287
X25.902 Y-219.977
X25.152 Y-219.458
X24.526 Y-218.795
X24.017 Y-218.039
X23.612 Y-217.222
X23.294 Y-216.367
X23.046 Y-215.49
X22.853 Y-214.598
X22.705 Y-213.699
X22.591 Y-212.794
X22.504 Y-211.886
X22.438 Y-210.977
X22.387 Y-210.067
X22.348 Y-209.156
X22.318 Y-208.244
X22.296 Y-207.333
X22.279 Y-206.421
X22.266 Y-205.509
X22.256 Y-204.598
X22.248 Y-203.686
X22.243 Y-202.774
X22.238 Y-201.862
X22.233 Y-200.039
X22.228 Y-197.303
X22.226 Y-192.744
X22.225 Y-180.891
Y-130.741
Y-80.591
Y-30.441
Y-27.706
X22.278 Y-26.796
X22.579 Y-25.935
X23.089 Y-25.179
X23.747 Y-24.548
X24.501 Y-24.036
X25.316 Y-23.627
X26.17 Y-23.306
X27.046 Y-23.055
X27.937 Y-22.861
X28.837 Y-22.711
X29.741 Y-22.596
X30.288 Y-22.543
X30.539 Y-22.496
X30.779 Y-22.407
X30.999 Y-22.279
X31.194 Y-22.114
X32.252 Y-21.057
X32.459 Y-20.86
X32.666 Y-20.689
X32.969 Y-20.464
X33.08 Y-20.384
X33.908 Y-19.805
X34.381 Y-19.476
X34.45 Y-19.429 Z-4.743
X34.529 Y-19.374 Z-4.724
X34.944 Y-19.154 Z-4.63
X35.052 Y-19.1 Z-4.606
X35.151 Y-19.05 Z-4.583
X35.256 Y-19.001 Z-4.56
X36.393 Y-18.471
X36.566 Y-18.393
X37.075 Y-18.186
X37.221 Y-18.135
X37.798 Y-17.979
X39.085 Y-17.634
X39.292 Y-17.584
X39.383 Y-17.564
X39.499 Y-17.542
X39.706 Y-17.516
X39.913 Y-17.495
X41.156 Y-17.387
X41.777 Y-17.334
X41.984 Y-17.33
X42.398 Y-17.326
X42.605
X43.02 Y-17.327
X43.227 Y-17.337
X43.641 Y-17.37
X43.848 Y-17.387
X45.09 Y-17.496
X45.297 Y-17.524
X45.712 Y-17.587
X45.919 Y-17.635
X46.429 Y-17.771
X47.575 Y-18.079
X47.683 Y-18.109
X47.782 Y-18.137 Z-4.581
X47.898 Y-18.181 Z-4.606
X48.197 Y-18.296 Z-4.67
X48.404 Y-18.376 Z-4.714
X48.611 Y-18.473 Z-4.76
X49.853 Y-19.052
X50.06 Y-19.154
X50.267 Y-19.26
X50.474 Y-19.381
X50.889 Y-19.664
X51.147 Y-19.843
X51.924 Y-20.387
X52.032 Y-20.464
X52.423 Y-20.718
X52.836 Y-20.941
X53.362 Y-21.173
X54.056 Y-21.414
X54.939 Y-21.644
X55.836 Y-21.807
X56.74 Y-21.924
X57.648 Y-22.009
X58.558 Y-22.069
X59.469 Y-22.113
X60.38 Y-22.144
X61.291 Y-22.167
X62.203 Y-22.183
X63.115 Y-22.195
X64.027 Y-22.203
X64.938 Y-22.209
X65.475 Y-22.212
X65.766 Y-22.184
X66.046 Y-22.1
X66.304 Y-21.963
X66.53 Y-21.778
X67.248 Y-21.061
X67.455 Y-20.869
X67.662 Y-20.685
X67.968 Y-20.464
X68.076 Y-20.387
X68.904 Y-19.807
X69.203 Y-19.601
X69.459 Y-19.427
G3 X69.595 Y-18.539 Z-4.56 I-0.376 J0.512
X69.043 Y-18.281 I-0.512 J-0.376
G1 X52.382 Y-19.329
G3 X51.92 Y-19.574 I0.04 J-0.634
X52.032 Y-20.464 Z-4.76 I0.502 J-0.389
G1 X52.338 Y-20.685
X52.556 Y-20.879
X52.752 Y-21.061
X54.02 Y-22.329
X54.075 Y-22.389
X54.247 Y-22.561
X54.499 Y-22.775
X54.814 Y-23.001
X55.209 Y-23.239
X55.711 Y-23.49
X56.347 Y-23.745
X57.197 Y-24.009
X58.087 Y-24.209
X58.986 Y-24.356
X59.892 Y-24.464
X60.8 Y-24.543
X61.71 Y-24.602
X62.621 Y-24.645
X63.533 Y-24.674
X63.808 Y-24.641
X64.072 Y-24.558
X64.316 Y-24.427
X64.531 Y-24.253
X64.71 Y-24.043
X65.384 Y-23.081
X65.623 Y-22.743
X65.798 Y-22.53
X65.98 Y-22.329
X66.53 Y-21.778
G3 X66.499 Y-20.881 Z-4.56 I-0.464 J0.433
X66.031 Y-20.711 I-0.433 J-0.464
G1 X54.524 Y-21.345
G3 X54.149 Y-21.495 I0.035 J-0.634
X54.075 Y-22.389 Z-4.76 I0.411 J-0.484
G1 X54.207 Y-22.536
X54.377 Y-22.743
X54.616 Y-23.081
X55.444 Y-24.263
X55.679 Y-24.565
X55.878 Y-24.783
X56.125 Y-25.012
X56.439 Y-25.261
X56.817 Y-25.513
X57.295 Y-25.78
X57.901 Y-26.056
X58.675 Y-26.336
X59.554 Y-26.577
X60.448 Y-26.758
X61.35 Y-26.893
X61.992 Y-26.942
X62.28 Y-26.94
X62.611 Y-26.901
X62.926 Y-26.788
X63.207 Y-26.608
X63.44 Y-26.369
X63.615 Y-26.085
X64.11 Y-25.022
X64.326 Y-24.607
X64.349 Y-24.57
X64.46 Y-24.4
X64.71 Y-24.043
G3 X64.524 Y-23.164 Z-4.56 I-0.533 J0.346
X64.161 Y-23.062 I-0.346 J-0.532
G1 X55.96 Y-23.283
G3 X55.631 Y-23.385 I0.017 J-0.635
X55.444 Y-24.263 Z-4.76 I0.346 J-0.532
G1 X55.54 Y-24.4
X55.651 Y-24.57
X55.674 Y-24.607
X55.89 Y-25.022
X56.426 Y-26.171
X56.538 Y-26.383
X56.669 Y-26.589
X56.841 Y-26.817
X57.066 Y-27.07
X57.325 Y-27.317
X57.665 Y-27.594
X58.06 Y-27.866
X58.563 Y-28.155
X59.118 Y-28.417
X59.692 Y-28.634
X60.224 Y-28.788
X60.683 Y-28.881
X61.123 Y-28.934
X61.508 Y-28.95
X61.593 Y-28.946
X61.903 Y-28.901
X62.196 Y-28.791
X62.459 Y-28.623
X62.681 Y-28.403
X62.852 Y-28.141
X62.965 Y-27.849
X63.001 Y-27.715
X63.059 Y-27.507
X63.177 Y-27.093
X63.256 Y-26.886
X63.437 Y-26.472
X63.531 Y-26.265
X63.615 Y-26.085
G3 X63.279 Y-25.252 Z-4.56 I-0.585 J0.248
X63.021 Y-25.201 I-0.249 J-0.584
G1 X57.001 Y-25.288
X56.919 Y-25.295
X56.839 Y-25.312
X56.762 Y-25.339
G3 X56.426 Y-26.171 Z-4.76 I0.249 J-0.584
G1 X56.48 Y-26.287
X56.563 Y-26.472
X56.744 Y-26.886
X56.823 Y-27.093
X56.941 Y-27.507
X56.999 Y-27.715
X57.055 Y-27.922
X57.13 Y-28.157
X57.212 Y-28.353
X57.319 Y-28.564
X57.462 Y-28.795
X57.631 Y-29.025
X57.843 Y-29.27
X58.09 Y-29.513
X58.368 Y-29.746
X58.691 Y-29.974
X59.046 Y-30.185
X59.395 Y-30.356
X59.755 Y-30.498
X60.09 Y-30.6
X60.427 Y-30.673
X60.75 Y-30.717
X61.061 Y-30.734
X61.13 Y-30.732
X61.457 Y-30.686
X61.766 Y-30.569
X62.041 Y-30.387
X62.269 Y-30.148
X62.439 Y-29.864
X62.541 Y-29.55
X62.621 Y-29.165
X62.668 Y-28.958
X62.965 Y-27.849
G3 X62.489 Y-27.088 Z-4.56 I-0.619 J0.143
G1 X62.413 Y-27.075
X62.336 Y-27.072
X57.664 Y-27.144
X57.596 Y-27.149
X57.53 Y-27.16
G3 X57.055 Y-27.922 Z-4.76 I0.143 J-0.619
G1 X57.332 Y-28.958
X57.379 Y-29.165
X57.464 Y-29.579
X57.492 Y-29.786
X57.513 Y-29.935
X57.566 Y-30.114
X57.635 Y-30.296
X57.731 Y-30.497
X57.847 Y-30.697
X57.991 Y-30.905
X58.164 Y-31.116
X58.359 Y-31.319
X58.584 Y-31.518
X58.839 Y-31.71
X59.095 Y-31.871
X59.368 Y-32.014
X59.644 Y-32.132
X59.907 Y-32.22
X60.198 Y-32.292
X60.464 Y-32.335
X60.741 Y-32.358
X61.017
X61.041 Y-32.356
X61.333 Y-32.303
X61.609 Y-32.193
X61.857 Y-32.03
X62.067 Y-31.821
X62.232 Y-31.574
X62.344 Y-31.3
X62.4 Y-31.008
X62.499 Y-29.887
X62.508 Y-29.786
X62.536 Y-29.579
X62.541 Y-29.55
G3 X62.023 Y-28.818 Z-4.56 I-0.626 J0.107
G1 X61.944 Y-28.809
X61.864 Y-28.811
X58.091 Y-29.117
X58.075 Y-29.119 Z-4.563
G3 X57.492 Y-29.786 Z-4.76 I0.051 J-0.633
G1 X57.584 Y-30.822
X57.638 Y-31.443
X57.659 Y-31.592
X57.7 Y-31.759
X57.756 Y-31.931
X57.833 Y-32.112
X57.931 Y-32.302
X58.049 Y-32.49
X58.192 Y-32.681
X58.36 Y-32.873
X58.55 Y-33.057
X58.761 Y-33.232
X58.997 Y-33.396
X59.228 Y-33.532
X59.486 Y-33.656
X59.731 Y-33.75
X59.993 Y-33.828
X60.251 Y-33.882
X60.505 Y-33.915
X60.772 Y-33.927
X61.018 Y-33.919
X61.315 Y-33.853
X61.593 Y-33.728
X61.839 Y-33.548
X62.043 Y-33.321
X62.196 Y-33.057
X62.291 Y-32.768
X62.325 Y-32.465
X62.327 Y-32.272
X62.337 Y-31.858
X62.343 Y-31.65
X62.4 Y-31.008
G3 X61.799 Y-30.341 Z-4.56 I-0.634 J0.033
G1 X61.743 Y-30.34
X61.687 Y-30.345
X58.239 Y-30.774
X58.194 Y-30.78 Z-4.569
G3 X57.638 Y-31.443 Z-4.76 I0.079 J-0.63
G1 X57.657 Y-31.65
X57.663 Y-31.858
X57.673 Y-32.272
X57.675 Y-32.479
Y-32.893
X57.682 Y-33.043
X57.706 Y-33.196
X57.744 Y-33.355
X57.798 Y-33.524
X57.873 Y-33.704
X57.965 Y-33.883
X58.079 Y-34.068
X58.217 Y-34.255
X58.375 Y-34.438
X58.554 Y-34.614
X58.759 Y-34.785
X58.987 Y-34.946
X59.21 Y-35.078
X59.454 Y-35.197
X59.699 Y-35.293
X59.94 Y-35.366
X60.202 Y-35.423
X60.445 Y-35.455
X60.706 Y-35.469
X60.957 Y-35.462
X61.003 Y-35.457
X61.305 Y-35.392
X61.587 Y-35.266
X61.837 Y-35.084
X62.043 Y-34.854
X62.197 Y-34.586
X62.293 Y-34.292
X62.325 Y-33.984
Y-32.465
G3 X61.674 Y-31.847 Z-4.56 I-0.635 J-0.017
G1 X61.61 Y-31.852
X58.331 Y-32.273
X58.229 Y-32.286 Z-4.581
G3 X57.675 Y-32.893 Z-4.76 I0.081 J-0.63
G1 Y-34.457
X57.682 Y-34.607
X57.706 Y-34.759
X57.746 Y-34.921
X57.8 Y-35.088
X57.875 Y-35.266
X57.969 Y-35.447
X58.082 Y-35.627
X58.219 Y-35.812
X58.378 Y-35.994
X58.557 Y-36.168
X58.758 Y-36.335
X58.983 Y-36.492
X59.207 Y-36.623
X59.455 Y-36.743
X59.699 Y-36.838
X59.943 Y-36.91
X60.206 Y-36.966
X60.448 Y-36.998
X60.712 Y-37.01
X60.963 Y-37.002
X61.009 Y-36.997
X61.31 Y-36.931
X61.591 Y-36.804
X61.84 Y-36.621
X62.045 Y-36.392
X62.198 Y-36.124
X62.293 Y-35.831
X62.325 Y-35.525
Y-33.984
G3 X61.669 Y-33.372 Z-4.56 I-0.635 J-0.022
G1 X61.602 Y-33.378
X58.33 Y-33.835
X58.222 Y-33.851 Z-4.582
G3 X57.675 Y-34.457 Z-4.76 I0.088 J-0.629
G1 Y-36.001
X57.682 Y-36.15
X57.706 Y-36.302
X57.744 Y-36.461
X57.798 Y-36.627
X57.872 Y-36.805
X57.964 Y-36.984
X58.076 Y-37.164
X58.213 Y-37.349
X58.37 Y-37.53
X58.547 Y-37.703
X58.748 Y-37.87
X58.973 Y-38.028
X59.197 Y-38.161
X59.443 Y-38.28
X59.69 Y-38.376
X59.932 Y-38.449
X60.196 Y-38.506
X60.439 Y-38.538
X60.702 Y-38.552
X60.954 Y-38.544
X61.006 Y-38.539
X61.307 Y-38.473
X61.589 Y-38.346
X61.838 Y-38.164
X62.044 Y-37.934
X62.198 Y-37.666
X62.293 Y-37.373
X62.325 Y-37.066
Y-35.525
G3 X61.669 Y-34.912 Z-4.56 I-0.635 J-0.022
G1 X61.602 Y-34.918
X58.33 Y-35.379
X58.221 Y-35.394 Z-4.582
G3 X57.675 Y-36.001 Z-4.76 I0.089 J-0.629
G1 Y-37.451
X57.685 Y-37.655
X57.705 Y-37.804
X57.738 Y-37.958
X57.787 Y-38.123
X57.855 Y-38.298
X57.94 Y-38.473
X58.047 Y-38.654
X58.177 Y-38.839
X58.326 Y-39.019
X58.496 Y-39.193
X58.692 Y-39.364
X58.911 Y-39.526
X59.135 Y-39.665
X59.371 Y-39.787
X59.621 Y-39.892
X59.859 Y-39.969
X60.122 Y-40.032
X60.371 Y-40.071
X60.625 Y-40.09
X60.884 Y-40.088
X60.971 Y-40.081
X61.279 Y-40.021
X61.567 Y-39.898
X61.823 Y-39.716
X62.035 Y-39.485
X62.194 Y-39.215
X62.292 Y-38.917
X62.325 Y-38.605
Y-37.066
G3 X61.669 Y-36.453 Z-4.56 I-0.635 J-0.022
G1 X61.619 Y-36.457
X58.331 Y-36.831
X58.238 Y-36.842 Z-4.579
G3 X57.675 Y-37.451 Z-4.76 I0.072 J-0.631
G1 Y-39.015
X57.684 Y-39.195
X57.704 Y-39.343
X57.738 Y-39.503
X57.787 Y-39.665
X57.855 Y-39.84
X57.943 Y-40.02
X58.049 Y-40.198
X58.178 Y-40.381
X58.33 Y-40.564
X58.503 Y-40.74
X58.696 Y-40.908
X58.914 Y-41.068
X59.135 Y-41.205
X59.38 Y-41.331
X59.625 Y-41.433
X59.865 Y-41.511
X60.129 Y-41.573
X60.373 Y-41.611
X60.634 Y-41.63
X60.889 Y-41.628
X60.974 Y-41.62
X61.281 Y-41.56
X61.569 Y-41.436
X61.824 Y-41.255
X62.036 Y-41.024
X62.194 Y-40.753
X62.292 Y-40.456
X62.325 Y-40.144
Y-38.605
G3 X61.669 Y-37.992 Z-4.56 I-0.635 J-0.022
G1 X61.614 Y-37.997
X58.331 Y-38.395
X58.233 Y-38.406 Z-4.58
G3 X57.675 Y-39.015 Z-4.76 I0.076 J-0.63
G1 Y-40.558
X57.684 Y-40.734
X57.703 Y-40.883
X57.738 Y-41.043
X57.787 Y-41.205
X57.855 Y-41.38
X57.943 Y-41.559
X58.048 Y-41.738
X58.178 Y-41.921
X58.33 Y-42.103
X58.502 Y-42.279
X58.696 Y-42.447
X58.914 Y-42.608
X59.135 Y-42.745
X59.38 Y-42.87
X59.625 Y-42.972
X59.865 Y-43.05
X60.129 Y-43.113
X60.373 Y-43.15
X60.634 Y-43.169
X60.889 Y-43.167
X60.974 Y-43.16
X61.281 Y-43.099
X61.569 Y-42.975
X61.824 Y-42.794
X62.036 Y-42.563
X62.194 Y-42.293
X62.292 Y-41.995
X62.325 Y-41.684
Y-40.144
G3 X61.669 Y-39.532 Z-4.56 I-0.635 J-0.022
G1 X61.613 Y-39.536
X58.331 Y-39.938
X58.232 Y-39.95 Z-4.58
G3 X57.675 Y-40.558 Z-4.76 I0.077 J-0.63
G1 Y-42.122
X57.683 Y-42.273
X57.702 Y-42.422
X57.737 Y-42.581
X57.786 Y-42.744
X57.854 Y-42.919
X57.942 Y-43.098
X58.047 Y-43.277
X58.177 Y-43.46
X58.329 Y-43.643
X58.501 Y-43.818
X58.695 Y-43.987
X58.913 Y-44.147
X59.135 Y-44.285
X59.379 Y-44.41
X59.624 Y-44.512
X59.864 Y-44.59
X60.128 Y-44.652
X60.373 Y-44.69
X60.633 Y-44.709
X60.888 Y-44.707
X60.974 Y-44.699
X61.281 Y-44.639
X61.569 Y-44.515
X61.824 Y-44.334
X62.036 Y-44.103
X62.194 Y-43.832
X62.292 Y-43.535
X62.325 Y-43.223
Y-41.684
G3 X61.669 Y-41.071 Z-4.56 I-0.635 J-0.022
G1 X61.609 Y-41.076
X58.331 Y-41.501
X58.228 Y-41.514 Z-4.581
G3 X57.675 Y-42.122 Z-4.76 I0.082 J-0.63
G1 Y-43.665
X57.682 Y-43.815
X57.702 Y-43.964
X57.737 Y-44.123
X57.786 Y-44.286
X57.855 Y-44.46
X57.943 Y-44.64
X58.048 Y-44.819
X58.178 Y-45.002
X58.331 Y-45.185
X58.503 Y-45.36
X58.697 Y-45.528
X58.915 Y-45.689
X59.137 Y-45.826
X59.382 Y-45.951
X59.627 Y-46.053
X59.867 Y-46.13
X60.131 Y-46.193
X60.375 Y-46.23
X60.636 Y-46.249
X60.891 Y-46.247
X60.975 Y-46.239
X61.282 Y-46.178
X61.57 Y-46.055
X61.825 Y-45.873
X62.036 Y-45.642
X62.194 Y-45.372
X62.292 Y-45.074
X62.325 Y-44.763
Y-43.223
G3 X61.669 Y-42.611 Z-4.56 I-0.635 J-0.022
G1 X61.608 Y-42.616
X58.331 Y-43.044
X58.227 Y-43.058 Z-4.581
G3 X57.675 Y-43.665 Z-4.76 I0.082 J-0.63
G1 Y-45.229
X57.682 Y-45.379
X57.704 Y-45.527
X57.742 Y-45.689
X57.794 Y-45.854
X57.865 Y-46.028
X57.957 Y-46.21
X58.067 Y-46.389
X58.199 Y-46.571
X58.356 Y-46.753
X58.533 Y-46.93
X58.731 Y-47.096
X58.951 Y-47.254
X59.173 Y-47.387
X59.422 Y-47.51
X59.665 Y-47.607
X59.91 Y-47.683
X60.173 Y-47.741
X60.415 Y-47.775
X60.68 Y-47.79
X60.931 Y-47.785
X60.995 Y-47.778
X61.299 Y-47.714
X61.582 Y-47.588
X61.833 Y-47.406
X62.041 Y-47.176
X62.197 Y-46.908
X62.293 Y-46.613
X62.325 Y-46.304
Y-44.763
G3 X61.669 Y-44.151 Z-4.56 I-0.635 J-0.022
G1 X61.604 Y-44.156
X58.331 Y-44.607
X58.223 Y-44.622 Z-4.582
G3 X57.675 Y-45.229 Z-4.76 I0.087 J-0.629
G1 Y-46.772
X57.682 Y-46.922
X57.705 Y-47.071
X57.742 Y-47.231
X57.794 Y-47.395
X57.866 Y-47.572
X57.957 Y-47.751
X58.067 Y-47.93
X58.201 Y-48.114
X58.357 Y-48.296
X58.533 Y-48.47
X58.732 Y-48.637
X58.954 Y-48.796
X59.177 Y-48.93
X59.424 Y-49.052
X59.669 Y-49.149
X59.911 Y-49.224
X60.175 Y-49.282
X60.419 Y-49.316
X60.681 Y-49.331
X60.934 Y-49.325
X60.996 Y-49.319
X61.3 Y-49.255
X61.583 Y-49.129
X61.834 Y-48.947
X62.042 Y-48.717
X62.197 Y-48.448
X62.293 Y-48.153
X62.325 Y-47.845
Y-46.304
G3 X61.669 Y-45.692 Z-4.56 I-0.635 J-0.022
G1 X61.603 Y-45.697
X58.331 Y-46.151
X58.222 Y-46.166 Z-4.582
G3 X57.675 Y-46.772 Z-4.76 I0.087 J-0.629
G1 Y-48.222
X57.686 Y-48.436
X57.705 Y-48.584
X57.738 Y-48.74
X57.788 Y-48.903
X57.856 Y-49.079
X57.942 Y-49.255
X58.047 Y-49.434
X58.178 Y-49.619
X58.328 Y-49.8
X58.498 Y-49.974
X58.693 Y-50.144
X58.912 Y-50.306
X59.135 Y-50.445
X59.373 Y-50.567
X59.622 Y-50.671
X59.86 Y-50.749
X60.124 Y-50.812
X60.371 Y-50.85
X60.627 Y-50.869
X60.885 Y-50.868
X60.971 Y-50.86
X61.279 Y-50.8
X61.567 Y-50.677
X61.823 Y-50.495
X62.035 Y-50.264
X62.194 Y-49.994
X62.292 Y-49.696
X62.325 Y-49.384
Y-47.845
G3 X61.669 Y-47.233 Z-4.56 I-0.635 J-0.022
G1 X61.62 Y-47.236
X58.331 Y-47.603
X58.239 Y-47.614 Z-4.579
G3 X57.675 Y-48.222 Z-4.76 I0.07 J-0.631
G1 Y-49.88
X57.682 Y-50.03
X57.707 Y-50.178
X57.747 Y-50.34
X57.804 Y-50.51
X57.878 Y-50.683
X57.974 Y-50.865
X58.09 Y-51.048
X58.226 Y-51.229
X58.386 Y-51.409
X58.57 Y-51.585
X58.774 Y-51.752
X58.995 Y-51.904
X59.219 Y-52.034
X59.472 Y-52.154
X59.711 Y-52.245
X59.965 Y-52.318
X60.222 Y-52.371
X60.466 Y-52.401
X60.732 Y-52.412
X60.978 Y-52.403
X61.019 Y-52.398
X61.318 Y-52.33
X61.597 Y-52.202
X61.844 Y-52.02
X62.047 Y-51.79
X62.199 Y-51.524
X62.293 Y-51.232
X62.325 Y-50.927
Y-49.384
G3 X61.669 Y-48.772 Z-4.56 I-0.635 J-0.022
G1 X61.598 Y-48.778
X58.33 Y-49.257
X58.218 Y-49.274 Z-4.583
G3 X57.675 Y-49.88 Z-4.76 I0.092 J-0.628
G1 Y-51.33
X57.684 Y-51.517
X57.704 Y-51.666
X57.737 Y-51.818
X57.787 Y-51.986
X57.854 Y-52.159
X57.939 Y-52.333
X58.047 Y-52.517
X58.176 Y-52.7
X58.324 Y-52.879
X58.496 Y-53.054
X58.693 Y-53.226
X58.91 Y-53.387
X59.137 Y-53.527
X59.369 Y-53.647
X59.622 Y-53.753
X59.86 Y-53.831
X60.122 Y-53.893
X60.372 Y-53.932
X60.624 Y-53.951
X60.885 Y-53.949
X60.971 Y-53.942
X61.279 Y-53.882
X61.567 Y-53.759
X61.823 Y-53.577
X62.035 Y-53.346
X62.194 Y-53.076
X62.292 Y-52.778
X62.325 Y-52.466
Y-50.927
G3 X61.669 Y-50.314 Z-4.56 I-0.635 J-0.022
G1 X61.615 Y-50.318
X58.331 Y-50.71
X58.234 Y-50.721 Z-4.579
G3 X57.675 Y-51.33 Z-4.76 I0.075 J-0.631
G1 Y-52.894
X57.683 Y-53.055
X57.703 Y-53.204
X57.737 Y-53.363
X57.786 Y-53.526
X57.854 Y-53.7
X57.942 Y-53.88
X58.048 Y-54.059
X58.177 Y-54.242
X58.329 Y-54.425
X58.502 Y-54.601
X58.695 Y-54.768
X58.913 Y-54.929
X59.134 Y-55.066
X59.379 Y-55.192
X59.624 Y-55.294
X59.864 Y-55.372
X60.128 Y-55.434
X60.372 Y-55.472
X60.633 Y-55.491
X60.888 Y-55.489
X60.974 Y-55.481
X61.281 Y-55.421
X61.569 Y-55.297
X61.824 Y-55.116
X62.036 Y-54.885
X62.194 Y-54.614
X62.292 Y-54.317
X62.325 Y-54.005
Y-52.466
G3 X61.669 Y-51.853 Z-4.56 I-0.635 J-0.022
G1 X61.611 Y-51.858
X58.331 Y-52.273
X58.23 Y-52.286 Z-4.58
G3 X57.675 Y-52.894 Z-4.76 I0.08 J-0.63
G1 Y-54.437
X57.683 Y-54.595
X57.702 Y-54.744
X57.737 Y-54.904
X57.786 Y-55.066
X57.854 Y-55.241
X57.942 Y-55.42
X58.048 Y-55.599
X58.177 Y-55.782
X58.329 Y-55.965
X58.502 Y-56.14
X58.695 Y-56.309
X58.913 Y-56.469
X59.135 Y-56.606
X59.379 Y-56.732
X59.624 Y-56.834
X59.865 Y-56.911
X60.129 Y-56.974
X60.373 Y-57.012
X60.633 Y-57.031
X60.889 Y-57.029
X60.974 Y-57.021
X61.281 Y-56.961
X61.569 Y-56.837
X61.824 Y-56.655
X62.036 Y-56.424
X62.194 Y-56.154
X62.292 Y-55.857
X62.325 Y-55.545
Y-54.005
G3 X61.669 Y-53.393 Z-4.56 I-0.635 J-0.022
G1 X61.61 Y-53.398
X58.331 Y-53.816
X58.229 Y-53.829 Z-4.581
G3 X57.675 Y-54.437 Z-4.76 I0.08 J-0.63
G1 Y-56.001
X57.682 Y-56.151
X57.703 Y-56.299
X57.74 Y-56.46
X57.791 Y-56.624
X57.861 Y-56.798
X57.951 Y-56.979
X58.059 Y-57.159
X58.19 Y-57.341
X58.345 Y-57.523
X58.521 Y-57.7
X58.717 Y-57.867
X58.936 Y-58.025
X59.158 Y-58.16
X59.406 Y-58.284
X59.65 Y-58.383
X59.893 Y-58.46
X60.156 Y-58.52
X60.399 Y-58.555
X60.662 Y-58.571
X60.915 Y-58.567
X60.987 Y-58.56
X61.292 Y-58.498
X61.577 Y-58.373
X61.83 Y-58.191
X62.039 Y-57.96
X62.196 Y-57.691
X62.292 Y-57.395
X62.325 Y-57.086
Y-55.545
G3 X61.669 Y-54.933 Z-4.56 I-0.635 J-0.022
G1 X61.606 Y-54.938
X58.331 Y-55.38
X58.225 Y-55.394 Z-4.581
G3 X57.675 Y-56.001 Z-4.76 I0.085 J-0.629
G1 Y-57.544
X57.682 Y-57.694
X57.704 Y-57.843
X57.74 Y-58.003
X57.791 Y-58.167
X57.862 Y-58.342
X57.952 Y-58.522
X58.06 Y-58.701
X58.193 Y-58.884
X58.348 Y-59.067
X58.522 Y-59.241
X58.719 Y-59.409
X58.94 Y-59.568
X59.163 Y-59.703
X59.408 Y-59.826
X59.654 Y-59.925
X59.896 Y-60.001
X60.16 Y-60.061
X60.403 Y-60.096
X60.665 Y-60.112
X60.919 Y-60.107
X60.989 Y-60.101
X61.293 Y-60.038
X61.578 Y-59.913
X61.831 Y-59.731
X62.04 Y-59.5
X62.196 Y-59.231
X62.292 Y-58.935
X62.325 Y-58.626
Y-57.086
G3 X61.669 Y-56.473 Z-4.56 I-0.635 J-0.022
G1 X61.605 Y-56.478
X58.331 Y-56.923
X58.224 Y-56.937 Z-4.582
G3 X57.675 Y-57.544 Z-4.76 I0.085 J-0.629
G1 Y-59.108
X57.682 Y-59.258
X57.706 Y-59.406
X57.745 Y-59.569
X57.799 Y-59.734
X57.873 Y-59.91
X57.966 Y-60.092
X58.078 Y-60.271
X58.214 Y-60.454
X58.373 Y-60.636
X58.552 Y-60.811
X58.752 Y-60.977
X58.976 Y-61.133
X59.198 Y-61.264
X59.449 Y-61.385
X59.692 Y-61.48
X59.938 Y-61.553
X60.2 Y-61.609
X60.443 Y-61.641
X60.708 Y-61.654
X60.958 Y-61.646
X61.008 Y-61.64
X61.309 Y-61.574
X61.59 Y-61.447
X61.839 Y-61.265
X62.045 Y-61.035
X62.198 Y-60.768
X62.293 Y-60.474
X62.325 Y-60.168
Y-58.626
G3 X61.669 Y-58.014 Z-4.56 I-0.635 J-0.022
G1 X61.601 Y-58.02
X58.33 Y-58.486
X58.22 Y-58.502 Z-4.582
G3 X57.675 Y-59.108 Z-4.76 I0.09 J-0.629
G1 Y-60.652
X57.682 Y-60.801
X57.706 Y-60.952
X57.745 Y-61.112
X57.8 Y-61.278
X57.874 Y-61.456
X57.968 Y-61.635
X58.08 Y-61.815
X58.217 Y-61.999
X58.376 Y-62.18
X58.554 Y-62.353
X58.755 Y-62.52
X58.98 Y-62.677
X59.204 Y-62.808
X59.452 Y-62.928
X59.698 Y-63.023
X59.941 Y-63.095
X60.205 Y-63.151
X60.448 Y-63.183
X60.712 Y-63.195
X60.963 Y-63.187
X61.01 Y-63.182
X61.311 Y-63.115
X61.592 Y-62.988
X61.84 Y-62.806
X62.045 Y-62.576
X62.198 Y-62.309
X62.293 Y-62.016
X62.325 Y-61.709
Y-60.168
G3 X61.669 Y-59.555 Z-4.56 I-0.635 J-0.022
G1 X61.6 Y-59.561
X58.33 Y-60.029
X58.22 Y-60.045 Z-4.582
G3 X57.675 Y-60.652 Z-4.76 I0.09 J-0.629
G1 Y-62.102
X57.685 Y-62.299
X57.704 Y-62.448
X57.737 Y-62.601
X57.787 Y-62.767
X57.855 Y-62.941
X57.94 Y-63.117
X58.047 Y-63.298
X58.176 Y-63.482
X58.325 Y-63.662
X58.496 Y-63.837
X58.692 Y-64.008
X58.91 Y-64.169
X59.135 Y-64.309
X59.37 Y-64.43
X59.621 Y-64.535
X59.859 Y-64.613
X60.122 Y-64.676
X60.371 Y-64.715
X60.624 Y-64.734
X60.884 Y-64.732
X60.971 Y-64.725
X61.279 Y-64.665
X61.567 Y-64.541
X61.823 Y-64.36
X62.035 Y-64.129
X62.194 Y-63.858
X62.292 Y-63.56
X62.325 Y-63.249
Y-61.709
G3 X61.669 Y-61.097 Z-4.56 I-0.635 J-0.022
G1 X61.617 Y-61.101
X58.331 Y-61.482
X58.236 Y-61.493 Z-4.579
G3 X57.675 Y-62.102 Z-4.76 I0.073 J-0.631
G1 Y-63.666
X57.684 Y-63.838
X57.703 Y-63.987
X57.738 Y-64.146
X57.787 Y-64.309
X57.855 Y-64.483
X57.943 Y-64.663
X58.048 Y-64.842
X58.177 Y-65.025
X58.33 Y-65.208
X58.503 Y-65.384
X58.696 Y-65.551
X58.913 Y-65.712
X59.135 Y-65.849
X59.38 Y-65.975
X59.624 Y-66.076
X59.865 Y-66.154
X60.129 Y-66.217
X60.373 Y-66.255
X60.634 Y-66.273
X60.888 Y-66.271
X60.974 Y-66.264
X61.281 Y-66.204
X61.569 Y-66.08
X61.824 Y-65.898
X62.036 Y-65.667
X62.194 Y-65.397
X62.292 Y-65.099
X62.325 Y-64.788
Y-63.249
G3 X61.669 Y-62.636 Z-4.56 I-0.635 J-0.022
G1 X61.613 Y-62.64
X58.331 Y-63.045
X58.232 Y-63.057 Z-4.58
G3 X57.675 Y-63.666 Z-4.76 I0.078 J-0.63
G1 Y-65.209
X57.683 Y-65.378
X57.703 Y-65.527
X57.737 Y-65.686
X57.787 Y-65.849
X57.855 Y-66.023
X57.943 Y-66.203
X58.048 Y-66.381
X58.178 Y-66.565
X58.33 Y-66.747
X58.502 Y-66.923
X58.696 Y-67.091
X58.913 Y-67.252
X59.135 Y-67.389
X59.379 Y-67.514
X59.625 Y-67.616
X59.865 Y-67.694
X60.129 Y-67.757
X60.373 Y-67.794
X60.634 Y-67.813
X60.889 Y-67.811
X60.974 Y-67.803
X61.281 Y-67.743
X61.569 Y-67.619
X61.824 Y-67.438
X62.036 Y-67.207
X62.194 Y-66.937
X62.292 Y-66.639
X62.325 Y-66.328
Y-64.788
G3 X61.669 Y-64.176 Z-4.56 I-0.635 J-0.022
G1 X61.612 Y-64.18
X58.331 Y-64.588
X58.231 Y-64.601 Z-4.58
G3 X57.675 Y-65.209 Z-4.76 I0.078 J-0.63
G1 Y-66.773
X57.682 Y-66.923
X57.702 Y-67.071
X57.738 Y-67.231
X57.787 Y-67.394
X57.856 Y-67.569
X57.945 Y-67.749
X58.051 Y-67.927
X58.181 Y-68.11
X58.334 Y-68.293
X58.508 Y-68.469
X58.702 Y-68.637
X58.921 Y-68.797
X59.142 Y-68.933
X59.388 Y-69.058
X59.633 Y-69.159
X59.874 Y-69.236
X60.138 Y-69.298
X60.381 Y-69.335
X60.643 Y-69.353
X60.897 Y-69.35
X60.978 Y-69.343
X61.285 Y-69.282
X61.572 Y-69.158
X61.826 Y-68.976
X62.037 Y-68.745
X62.195 Y-68.475
X62.292 Y-68.178
X62.325 Y-67.868
Y-66.328
G3 X61.669 Y-65.715 Z-4.56 I-0.635 J-0.022
G1 X61.607 Y-65.72
X58.331 Y-66.152
X58.227 Y-66.165 Z-4.581
G3 X57.675 Y-66.773 Z-4.76 I0.083 J-0.63
G1 Y-68.316
X57.682 Y-68.466
X57.703 Y-68.614
X57.738 Y-68.774
X57.788 Y-68.938
X57.858 Y-69.112
X57.946 Y-69.292
X58.053 Y-69.471
X58.184 Y-69.654
X58.337 Y-69.837
X58.511 Y-70.012
X58.706 Y-70.18
X58.925 Y-70.34
X59.147 Y-70.476
X59.392 Y-70.6
X59.638 Y-70.701
X59.879 Y-70.778
X60.143 Y-70.839
X60.386 Y-70.876
X60.648 Y-70.893
X60.902 Y-70.89
X60.981 Y-70.883
X61.287 Y-70.821
X61.573 Y-70.697
X61.827 Y-70.515
X62.038 Y-70.285
X62.195 Y-70.015
X62.292 Y-69.718
X62.325 Y-69.408
Y-67.868
G3 X61.669 Y-67.255 Z-4.56 I-0.635 J-0.022
G1 X61.607 Y-67.26
X58.331 Y-67.695
X58.226 Y-67.709 Z-4.581
G3 X57.675 Y-68.316 Z-4.76 I0.084 J-0.629
G1 Y-69.88
X57.682 Y-70.03
X57.705 Y-70.178
X57.743 Y-70.34
X57.796 Y-70.506
X57.868 Y-70.68
X57.961 Y-70.862
X58.071 Y-71.041
X58.205 Y-71.223
X58.362 Y-71.406
X58.541 Y-71.581
X58.739 Y-71.748
X58.961 Y-71.905
X59.183 Y-72.037
X59.433 Y-72.16
X59.676 Y-72.255
X59.921 Y-72.33
X60.184 Y-72.387
X60.426 Y-72.42
X60.691 Y-72.435
X60.942 Y-72.428
X61 Y-72.422
X61.303 Y-72.357
X61.585 Y-72.231
X61.836 Y-72.049
X62.043 Y-71.819
X62.197 Y-71.551
X62.293 Y-71.257
X62.325 Y-70.949
Y-69.408
G3 X61.669 Y-68.795 Z-4.56 I-0.635 J-0.022
G1 X61.603 Y-68.801
X58.33 Y-69.258
X58.222 Y-69.273 Z-4.582
G3 X57.675 Y-69.88 Z-4.76 I0.088 J-0.629
G1 Y-71.423
X57.682 Y-71.573
X57.705 Y-71.722
X57.743 Y-71.883
X57.796 Y-72.048
X57.869 Y-72.224
X57.961 Y-72.404
X58.072 Y-72.583
X58.207 Y-72.767
X58.364 Y-72.949
X58.541 Y-73.123
X58.741 Y-73.289
X58.964 Y-73.448
X59.188 Y-73.58
X59.435 Y-73.701
X59.68 Y-73.798
X59.923 Y-73.872
X60.187 Y-73.929
X60.43 Y-73.962
X60.693 Y-73.976
X60.945 Y-73.969
X61.002 Y-73.963
X61.304 Y-73.898
X61.586 Y-73.772
X61.836 Y-73.59
X62.043 Y-73.36
X62.197 Y-73.092
X62.293 Y-72.798
X62.325 Y-72.49
Y-70.949
G3 X61.669 Y-70.336 Z-4.56 I-0.635 J-0.022
G1 X61.602 Y-70.342
X58.33 Y-70.801
X58.221 Y-70.817 Z-4.582
G3 X57.675 Y-71.423 Z-4.76 I0.088 J-0.629
G1 Y-72.873
X57.685 Y-73.08
X57.705 Y-73.229
X57.738 Y-73.383
X57.787 Y-73.548
X57.856 Y-73.723
X57.941 Y-73.898
X58.047 Y-74.079
X58.177 Y-74.264
X58.327 Y-74.444
X58.497 Y-74.618
X58.692 Y-74.789
X58.911 Y-74.95
X59.135 Y-75.09
X59.371 Y-75.212
X59.621 Y-75.316
X59.859 Y-75.394
X60.123 Y-75.457
X60.371 Y-75.495
X60.625 Y-75.514
X60.884 Y-75.513
X60.971 Y-75.505
X61.279 Y-75.445
X61.567 Y-75.322
X61.823 Y-75.141
X62.035 Y-74.909
X62.194 Y-74.639
X62.292 Y-74.341
X62.325 Y-74.029
Y-72.49
G3 X61.669 Y-71.878 Z-4.56 I-0.635 J-0.022
G1 X61.619 Y-71.881
X58.331 Y-72.254
X58.238 Y-72.265 Z-4.579
G3 X57.675 Y-72.873 Z-4.76 I0.072 J-0.631
G1 Y-74.531
X57.682 Y-74.68
X57.707 Y-74.829
X57.748 Y-74.991
X57.806 Y-75.162
X57.881 Y-75.335
X57.978 Y-75.517
X58.095 Y-75.701
X58.232 Y-75.881
X58.392 Y-76.061
X58.577 Y-76.237
X58.783 Y-76.404
X59.004 Y-76.555
X59.229 Y-76.684
X59.482 Y-76.803
X59.72 Y-76.893
X59.976 Y-76.966
X60.232 Y-77.018
X60.476 Y-77.047
X60.743 Y-77.057
X60.988 Y-77.047
X61.024 Y-77.043
X61.322 Y-76.974
X61.6 Y-76.846
X61.846 Y-76.663
X62.049 Y-76.434
X62.2 Y-76.168
X62.293 Y-75.876
X62.325 Y-75.572
Y-74.029
G3 X61.669 Y-73.417 Z-4.56 I-0.635 J-0.022
G1 X61.597 Y-73.423
X58.33 Y-73.908
X58.216 Y-73.925 Z-4.583
G3 X57.675 Y-74.531 Z-4.76 I0.093 J-0.628
G1 Y-75.981
X57.684 Y-76.162
X57.704 Y-76.311
X57.736 Y-76.463
X57.787 Y-76.631
X57.854 Y-76.804
X57.939 Y-76.979
X58.047 Y-77.163
X58.176 Y-77.345
X58.324 Y-77.524
X58.496 Y-77.7
X58.693 Y-77.872
X58.91 Y-78.032
X59.138 Y-78.173
X59.369 Y-78.293
X59.623 Y-78.399
X59.861 Y-78.476
X60.123 Y-78.539
X60.374 Y-78.578
X60.624 Y-78.596
X60.885 Y-78.595
X60.972 Y-78.587
X61.279 Y-78.527
X61.568 Y-78.404
X61.823 Y-78.223
X62.035 Y-77.991
X62.194 Y-77.721
X62.292 Y-77.423
X62.325 Y-77.111
Y-75.572
G3 X61.669 Y-74.96 Z-4.56 I-0.635 J-0.022
G1 X61.614 Y-74.964
X58.331 Y-75.361
X58.233 Y-75.372 Z-4.58
G3 X57.675 Y-75.981 Z-4.76 I0.076 J-0.63
G1 Y-77.545
X57.683 Y-77.701
X57.702 Y-77.849
X57.737 Y-78.009
X57.786 Y-78.171
X57.854 Y-78.345
X57.942 Y-78.525
X58.047 Y-78.704
X58.176 Y-78.887
X58.329 Y-79.07
X58.501 Y-79.246
X58.694 Y-79.414
X58.912 Y-79.574
X59.134 Y-79.712
X59.379 Y-79.837
X59.624 Y-79.939
X59.864 Y-80.017
X60.128 Y-80.08
X60.372 Y-80.117
X60.633 Y-80.136
X60.888 Y-80.134
X60.974 Y-80.127
X61.281 Y-80.066
X61.569 Y-79.943
X61.824 Y-79.761
X62.036 Y-79.53
X62.194 Y-79.26
X62.292 Y-78.962
X62.325 Y-78.651
Y-77.111
G3 X61.669 Y-76.499 Z-4.56 I-0.635 J-0.022
G1 X61.61 Y-76.504
X58.331 Y-76.924
X58.229 Y-76.937 Z-4.581
G3 X57.675 Y-77.545 Z-4.76 I0.081 J-0.63
G1 Y-79.088
X57.683 Y-79.241
X57.702 Y-79.39
X57.737 Y-79.549
X57.786 Y-79.712
X57.854 Y-79.886
X57.942 Y-80.066
X58.047 Y-80.244
X58.177 Y-80.427
X58.329 Y-80.61
X58.501 Y-80.786
X58.695 Y-80.954
X58.913 Y-81.114
X59.135 Y-81.252
X59.379 Y-81.377
X59.624 Y-81.479
X59.865 Y-81.557
X60.129 Y-81.62
X60.373 Y-81.657
X60.633 Y-81.676
X60.888 Y-81.674
X60.974 Y-81.666
X61.281 Y-81.606
X61.569 Y-81.482
X61.824 Y-81.301
X62.036 Y-81.07
X62.194 Y-80.8
X62.292 Y-80.502
X62.325 Y-80.191
Y-78.651
G3 X61.669 Y-78.038 Z-4.56 I-0.635 J-0.022
G1 X61.609 Y-78.043
X58.331 Y-78.467
X58.228 Y-78.48 Z-4.581
G3 X57.675 Y-79.088 Z-4.76 I0.081 J-0.63
G1 Y-80.652
X57.682 Y-80.802
X57.704 Y-80.95
X57.741 Y-81.112
X57.793 Y-81.276
X57.863 Y-81.45
X57.954 Y-81.631
X58.063 Y-81.811
X58.195 Y-81.993
X58.351 Y-82.175
X58.528 Y-82.352
X58.724 Y-82.518
X58.944 Y-82.676
X59.166 Y-82.81
X59.415 Y-82.934
X59.658 Y-83.032
X59.902 Y-83.108
X60.165 Y-83.167
X60.408 Y-83.201
X60.672 Y-83.217
X60.923 Y-83.212
X60.991 Y-83.205
X61.296 Y-83.142
X61.58 Y-83.017
X61.832 Y-82.835
X62.04 Y-82.605
X62.196 Y-82.336
X62.292 Y-82.04
X62.325 Y-81.731
Y-80.191
G3 X61.669 Y-79.578 Z-4.56 I-0.635 J-0.022
G1 X61.605 Y-79.584
X58.331 Y-80.03
X58.224 Y-80.045 Z-4.582
G3 X57.675 Y-80.652 Z-4.76 I0.086 J-0.629
G1 Y-82.195
X57.682 Y-82.345
X57.704 Y-82.493
X57.741 Y-82.654
X57.793 Y-82.818
X57.864 Y-82.994
X57.955 Y-83.174
X58.064 Y-83.352
X58.197 Y-83.536
X58.353 Y-83.718
X58.528 Y-83.893
X58.726 Y-84.06
X58.947 Y-84.219
X59.17 Y-84.353
X59.417 Y-84.475
X59.662 Y-84.574
X59.904 Y-84.649
X60.168 Y-84.708
X60.412 Y-84.742
X60.674 Y-84.758
X60.927 Y-84.753
X60.993 Y-84.746
X61.297 Y-84.683
X61.581 Y-84.557
X61.832 Y-84.375
X62.041 Y-84.145
X62.196 Y-83.876
X62.292 Y-83.581
X62.325 Y-83.272
Y-81.731
G3 X61.669 Y-81.119 Z-4.56 I-0.635 J-0.022
G1 X61.604 Y-81.124
X58.331 Y-81.573
X58.223 Y-81.588 Z-4.582
G3 X57.675 Y-82.195 Z-4.76 I0.086 J-0.629
G1 Y-83.759
X57.682 Y-83.909
X57.706 Y-84.057
X57.746 Y-84.22
X57.801 Y-84.386
X57.875 Y-84.562
X57.969 Y-84.743
X58.082 Y-84.923
X58.218 Y-85.105
X58.378 Y-85.287
X58.558 Y-85.462
X58.759 Y-85.628
X58.983 Y-85.784
X59.206 Y-85.914
X59.457 Y-86.035
X59.7 Y-86.128
X59.947 Y-86.201
X60.208 Y-86.256
X60.451 Y-86.287
X60.716 Y-86.3
X60.966 Y-86.291
X61.012 Y-86.286
X61.313 Y-86.219
X61.593 Y-86.092
X61.841 Y-85.91
X62.046 Y-85.68
X62.199 Y-85.413
X62.293 Y-85.12
X62.325 Y-84.814
Y-83.272
G3 X61.669 Y-82.659 Z-4.56 I-0.635 J-0.022
G1 X61.6 Y-82.666
X58.33 Y-83.137
X58.219 Y-83.153 Z-4.583
G3 X57.675 Y-83.759 Z-4.76 I0.091 J-0.629
G1 Y-85.302
X57.682 Y-85.452
X57.707 Y-85.603
X57.746 Y-85.764
X57.801 Y-85.93
X57.877 Y-86.108
X57.971 Y-86.288
X58.084 Y-86.467
X58.222 Y-86.652
X58.381 Y-86.833
X58.56 Y-87.006
X58.762 Y-87.172
X58.988 Y-87.329
X59.213 Y-87.459
X59.461 Y-87.578
X59.706 Y-87.672
X59.95 Y-87.744
X60.214 Y-87.799
X60.457 Y-87.83
X60.721 Y-87.842
X60.972 Y-87.833
X61.014 Y-87.828
X61.314 Y-87.761
X61.594 Y-87.633
X61.842 Y-87.451
X62.046 Y-87.221
X62.199 Y-86.954
X62.293 Y-86.662
X62.325 Y-86.356
Y-84.814
G3 X61.669 Y-84.201 Z-4.56 I-0.635 J-0.022
G1 X61.6 Y-84.208
X58.33 Y-84.68
X58.219 Y-84.696 Z-4.583
G3 X57.675 Y-85.302 Z-4.76 I0.091 J-0.628
G1 Y-86.752
X57.685 Y-86.945
X57.704 Y-87.094
X57.737 Y-87.247
X57.787 Y-87.414
X57.855 Y-87.588
X57.94 Y-87.763
X58.047 Y-87.945
X58.176 Y-88.129
X58.325 Y-88.308
X58.496 Y-88.483
X58.693 Y-88.655
X58.91 Y-88.816
X59.136 Y-88.956
X59.369 Y-89.077
X59.622 Y-89.182
X59.859 Y-89.259
X60.122 Y-89.322
X60.372 Y-89.361
X60.624 Y-89.38
X60.884 Y-89.379
X60.971 Y-89.371
X61.279 Y-89.311
X61.567 Y-89.188
X61.823 Y-89.007
X62.035 Y-88.775
X62.194 Y-88.505
X62.292 Y-88.207
X62.325 Y-87.895
Y-86.356
G3 X61.669 Y-85.743 Z-4.56 I-0.635 J-0.022
G1 X61.616 Y-85.747
X58.331 Y-86.133
X58.236 Y-86.144 Z-4.579
G3 X57.675 Y-86.752 Z-4.76 I0.074 J-0.631
G1 Y-88.316
X57.683 Y-88.485
X57.703 Y-88.633
X57.737 Y-88.793
X57.786 Y-88.955
X57.855 Y-89.13
X57.942 Y-89.309
X58.048 Y-89.488
X58.177 Y-89.671
X58.33 Y-89.854
X58.502 Y-90.03
X58.695 Y-90.198
X58.913 Y-90.358
X59.135 Y-90.495
X59.379 Y-90.621
X59.624 Y-90.723
X59.865 Y-90.801
X60.129 Y-90.863
X60.372 Y-90.901
X60.633 Y-90.92
X60.888 Y-90.918
X60.974 Y-90.91
X61.281 Y-90.85
X61.569 Y-90.726
X61.824 Y-90.545
X62.036 Y-90.314
X62.194 Y-90.044
X62.292 Y-89.746
X62.325 Y-89.435
Y-87.895
G3 X61.669 Y-87.283 Z-4.56 I-0.635 J-0.022
G1 X61.612 Y-87.287
X58.331 Y-87.696
X58.231 Y-87.708 Z-4.58
G3 X57.675 Y-88.316 Z-4.76 I0.079 J-0.63
G1 Y-89.86
X57.683 Y-90.025
X57.703 Y-90.173
X57.737 Y-90.333
X57.786 Y-90.495
X57.855 Y-90.67
X57.942 Y-90.849
X58.048 Y-91.028
X58.177 Y-91.211
X58.33 Y-91.394
X58.502 Y-91.57
X58.695 Y-91.738
X58.913 Y-91.898
X59.135 Y-92.035
X59.379 Y-92.161
X59.625 Y-92.263
X59.865 Y-92.34
X60.129 Y-92.403
X60.373 Y-92.441
X60.634 Y-92.46
X60.889 Y-92.458
X60.974 Y-92.45
X61.281 Y-92.39
X61.569 Y-92.266
X61.824 Y-92.084
X62.036 Y-91.853
X62.194 Y-91.583
X62.292 Y-91.286
X62.325 Y-90.974
Y-89.435
G3 X61.669 Y-88.822 Z-4.56 I-0.635 J-0.022
G1 X61.611 Y-88.827
X58.331 Y-89.239
X58.23 Y-89.252 Z-4.58
G3 X57.675 Y-89.86 Z-4.76 I0.079 J-0.63
G1 Y-91.424
X57.682 Y-91.573
X57.703 Y-91.722
X57.738 Y-91.883
X57.789 Y-92.046
X57.858 Y-92.22
X57.947 Y-92.401
X58.054 Y-92.579
X58.185 Y-92.762
X58.339 Y-92.945
X58.513 Y-93.121
X58.708 Y-93.288
X58.927 Y-93.448
X59.149 Y-93.583
X59.395 Y-93.708
X59.64 Y-93.808
X59.881 Y-93.885
X60.145 Y-93.946
X60.388 Y-93.982
X60.651 Y-94
X60.904 Y-93.997
X60.982 Y-93.989
X61.288 Y-93.928
X61.574 Y-93.803
X61.828 Y-93.622
X62.038 Y-93.391
X62.195 Y-93.121
X62.292 Y-92.825
X62.325 Y-92.514
Y-90.974
G3 X61.669 Y-90.362 Z-4.56 I-0.635 J-0.022
G1 X61.607 Y-90.367
X58.331 Y-90.802
X58.226 Y-90.816 Z-4.581
G3 X57.675 Y-91.424 Z-4.76 I0.084 J-0.629
G1 Y-92.967
X57.682 Y-93.117
X57.703 Y-93.265
X57.739 Y-93.425
X57.789 Y-93.589
X57.859 Y-93.764
X57.949 Y-93.944
X58.056 Y-94.122
X58.187 Y-94.306
X58.342 Y-94.488
X58.516 Y-94.663
X58.711 Y-94.831
X58.931 Y-94.991
X59.153 Y-95.126
X59.399 Y-95.25
X59.644 Y-95.35
X59.885 Y-95.427
X60.149 Y-95.487
X60.393 Y-95.523
X60.655 Y-95.54
X60.909 Y-95.537
X60.984 Y-95.529
X61.29 Y-95.467
X61.575 Y-95.343
X61.829 Y-95.161
X62.038 Y-94.93
X62.195 Y-94.661
X62.292 Y-94.365
X62.325 Y-94.055
Y-92.514
G3 X61.669 Y-91.902 Z-4.56 I-0.635 J-0.022
G1 X61.606 Y-91.907
X58.331 Y-92.346
X58.225 Y-92.36 Z-4.581
G3 X57.675 Y-92.967 Z-4.76 I0.084 J-0.629
G1 Y-94.531
X57.682 Y-94.681
X57.705 Y-94.829
X57.744 Y-94.991
X57.797 Y-95.157
X57.87 Y-95.332
X57.963 Y-95.513
X58.074 Y-95.693
X58.208 Y-95.875
X58.366 Y-96.057
X58.546 Y-96.233
X58.745 Y-96.399
X58.967 Y-96.556
X59.189 Y-96.687
X59.439 Y-96.809
X59.682 Y-96.905
X59.928 Y-96.979
X60.19 Y-97.036
X60.433 Y-97.068
X60.698 Y-97.082
X60.948 Y-97.075
X61.003 Y-97.069
X61.306 Y-97.004
X61.587 Y-96.877
X61.837 Y-96.695
X62.043 Y-96.465
X62.198 Y-96.197
X62.293 Y-95.903
X62.325 Y-95.596
Y-94.055
G3 X61.669 Y-93.442 Z-4.56 I-0.635 J-0.022
G1 X61.602 Y-93.448
X58.33 Y-93.909
X58.221 Y-93.924 Z-4.582
G3 X57.675 Y-94.531 Z-4.76 I0.089 J-0.629
G1 Y-96.074
X57.682 Y-96.224
X57.706 Y-96.373
X57.744 Y-96.534
X57.798 Y-96.699
X57.871 Y-96.877
X57.964 Y-97.056
X58.075 Y-97.235
X58.211 Y-97.42
X58.369 Y-97.601
X58.546 Y-97.775
X58.747 Y-97.941
X58.971 Y-98.099
X59.195 Y-98.231
X59.442 Y-98.352
X59.687 Y-98.448
X59.93 Y-98.521
X60.194 Y-98.577
X60.438 Y-98.61
X60.701 Y-98.623
X60.953 Y-98.616
X61.005 Y-98.61
X61.307 Y-98.545
X61.588 Y-98.418
X61.838 Y-98.236
X62.044 Y-98.006
X62.198 Y-97.738
X62.293 Y-97.444
X62.325 Y-97.137
Y-95.596
G3 X61.669 Y-94.983 Z-4.56 I-0.635 J-0.022
G1 X61.601 Y-94.989
X58.33 Y-95.452
X58.221 Y-95.468 Z-4.582
G3 X57.675 Y-96.074 Z-4.76 I0.089 J-0.629
G1 Y-97.524
X57.685 Y-97.727
X57.705 Y-97.876
X57.738 Y-98.03
X57.787 Y-98.195
X57.855 Y-98.37
X57.94 Y-98.545
X58.047 Y-98.726
X58.177 Y-98.911
X58.326 Y-99.09
X58.496 Y-99.265
X58.692 Y-99.436
X58.911 Y-99.597
X59.135 Y-99.737
X59.371 Y-99.859
X59.621 Y-99.963
X59.859 Y-100.041
X60.123 Y-100.104
X60.371 Y-100.143
X60.625 Y-100.162
X60.884 Y-100.16
X60.971 Y-100.153
X61.279 Y-100.093
X61.567 Y-99.969
X61.823 Y-99.788
X62.035 Y-99.557
X62.194 Y-99.286
X62.292 Y-98.988
X62.325 Y-98.676
Y-97.137
G3 X61.669 Y-96.525 Z-4.56 I-0.635 J-0.022
G1 X61.618 Y-96.529
X58.331 Y-96.905
X58.237 Y-96.915 Z-4.579
G3 X57.675 Y-97.524 Z-4.76 I0.072 J-0.631
G1 Y-99.088
X57.684 Y-99.266
X57.703 Y-99.415
X57.738 Y-99.575
X57.787 Y-99.737
X57.855 Y-99.911
X57.943 Y-100.091
X58.049 Y-100.27
X58.178 Y-100.453
X58.33 Y-100.636
X58.503 Y-100.812
X58.696 Y-100.979
X58.914 Y-101.14
X59.135 Y-101.277
X59.38 Y-101.403
X59.625 Y-101.504
X59.865 Y-101.582
X60.129 Y-101.645
X60.373 Y-101.682
X60.634 Y-101.701
X60.889 Y-101.699
X60.974 Y-101.692
X61.281 Y-101.631
X61.569 Y-101.508
X61.824 Y-101.326
X62.036 Y-101.095
X62.194 Y-100.825
X62.292 Y-100.527
X62.325 Y-100.216
Y-98.676
G3 X61.669 Y-98.064 Z-4.56 I-0.635 J-0.022
G1 X61.614 Y-98.068
X58.331 Y-98.468
X58.233 Y-98.48 Z-4.58
G3 X57.675 Y-99.088 Z-4.76 I0.077 J-0.63
G1 Y-100.631
X57.684 Y-100.806
X57.703 Y-100.955
X57.738 Y-101.114
X57.787 Y-101.277
X57.855 Y-101.451
X57.943 Y-101.631
X58.048 Y-101.809
X58.178 Y-101.993
X58.33 Y-102.175
X58.502 Y-102.351
X58.696 Y-102.519
X58.914 Y-102.679
X59.135 Y-102.817
X59.38 Y-102.942
X59.625 Y-103.044
X59.865 Y-103.122
X60.129 Y-103.184
X60.373 Y-103.222
X60.634 Y-103.241
X60.889 Y-103.239
X60.974 Y-103.231
X61.281 Y-103.171
X61.569 Y-103.047
X61.824 Y-102.866
X62.036 Y-102.635
X62.194 Y-102.364
X62.292 Y-102.067
X62.325 Y-101.755
Y-100.216
G3 X61.669 Y-99.603 Z-4.56 I-0.635 J-0.022
G1 X61.613 Y-99.608
X58.331 Y-100.011
X58.232 Y-100.023 Z-4.58
G3 X57.675 Y-100.631 Z-4.76 I0.077 J-0.63
G1 Y-102.195
X57.682 Y-102.345
X57.702 Y-102.494
X57.737 Y-102.653
X57.786 Y-102.816
X57.854 Y-102.991
X57.942 Y-103.17
X58.047 Y-103.349
X58.177 Y-103.532
X58.329 Y-103.715
X58.501 Y-103.89
X58.695 Y-104.059
X58.913 Y-104.219
X59.135 Y-104.356
X59.379 Y-104.482
X59.624 Y-104.584
X59.865 Y-104.662
X60.129 Y-104.724
X60.373 Y-104.762
X60.633 Y-104.781
X60.889 Y-104.779
X60.974 Y-104.771
X61.281 Y-104.711
X61.569 Y-104.587
X61.824 Y-104.405
X62.036 Y-104.174
X62.194 Y-103.904
X62.292 Y-103.607
X62.325 Y-103.295
Y-101.755
G3 X61.669 Y-101.143 Z-4.56 I-0.635 J-0.022
G1 X61.608 Y-101.148
X58.331 Y-101.575
X58.228 Y-101.588 Z-4.581
G3 X57.675 Y-102.195 Z-4.76 I0.082 J-0.63
G1 Y-103.739
X57.682 Y-103.889
X57.702 Y-104.037
X57.737 Y-104.197
X57.787 Y-104.36
X57.855 Y-104.534
X57.944 Y-104.714
X58.05 Y-104.893
X58.18 Y-105.076
X58.332 Y-105.259
X58.505 Y-105.434
X58.699 Y-105.602
X58.918 Y-105.762
X59.14 Y-105.899
X59.385 Y-106.024
X59.63 Y-106.126
X59.87 Y-106.203
X60.134 Y-106.265
X60.378 Y-106.302
X60.639 Y-106.321
X60.894 Y-106.318
X60.977 Y-106.311
X61.284 Y-106.25
X61.571 Y-106.126
X61.826 Y-105.944
X62.037 Y-105.713
X62.194 Y-105.443
X62.292 Y-105.146
X62.325 Y-104.835
Y-103.295
G3 X61.669 Y-102.683 Z-4.56 I-0.635 J-0.022
G1 X61.608 Y-102.688
X58.331 Y-103.118
X58.227 Y-103.131 Z-4.581
G3 X57.675 Y-103.739 Z-4.76 I0.083 J-0.63
G1 Y-105.303
X57.682 Y-105.453
X57.704 Y-105.601
X57.742 Y-105.763
X57.795 Y-105.928
X57.866 Y-106.102
X57.958 Y-106.283
X58.068 Y-106.463
X58.201 Y-106.645
X58.357 Y-106.827
X58.535 Y-107.003
X58.733 Y-107.17
X58.954 Y-107.327
X59.176 Y-107.46
X59.425 Y-107.583
X59.668 Y-107.68
X59.913 Y-107.755
X60.176 Y-107.813
X60.418 Y-107.847
X60.683 Y-107.862
X60.934 Y-107.856
X60.997 Y-107.85
X61.3 Y-107.786
X61.583 Y-107.66
X61.834 Y-107.478
X62.042 Y-107.247
X62.197 Y-106.979
X62.293 Y-106.684
X62.325 Y-106.376
Y-104.835
G3 X61.669 Y-104.223 Z-4.56 I-0.635 J-0.022
G1 X61.603 Y-104.228
X58.331 Y-104.681
X58.223 Y-104.696 Z-4.582
G3 X57.675 Y-105.303 Z-4.76 I0.087 J-0.629
G1 Y-106.846
X57.682 Y-106.996
X57.705 Y-107.144
X57.742 Y-107.305
X57.795 Y-107.469
X57.867 Y-107.646
X57.958 Y-107.825
X58.068 Y-108.004
X58.202 Y-108.188
X58.359 Y-108.37
X58.535 Y-108.544
X58.734 Y-108.711
X58.956 Y-108.87
X59.18 Y-109.003
X59.426 Y-109.125
X59.672 Y-109.222
X59.914 Y-109.296
X60.178 Y-109.355
X60.422 Y-109.388
X60.684 Y-109.403
X60.937 Y-109.397
X60.998 Y-109.391
X61.301 Y-109.326
X61.584 Y-109.2
X61.834 Y-109.018
X62.042 Y-108.788
X62.197 Y-108.52
X62.293 Y-108.225
X62.325 Y-107.917
Y-106.376
G3 X61.669 Y-105.764 Z-4.56 I-0.635 J-0.022
G1 X61.603 Y-105.769
X58.331 Y-106.224
X58.222 Y-106.239 Z-4.582
G3 X57.675 Y-106.846 Z-4.76 I0.087 J-0.629
G1 Y-108.296
X57.686 Y-108.507
X57.705 Y-108.656
X57.738 Y-108.811
X57.787 Y-108.975
X57.856 Y-109.15
X57.941 Y-109.326
X58.047 Y-109.506
X58.177 Y-109.691
X58.327 Y-109.872
X58.497 Y-110.046
X58.693 Y-110.216
X58.911 Y-110.378
X59.135 Y-110.517
X59.372 Y-110.639
X59.622 Y-110.743
X59.86 Y-110.821
X60.124 Y-110.884
X60.371 Y-110.922
X60.626 Y-110.941
X60.885 Y-110.94
X60.971 Y-110.932
X61.279 Y-110.872
X61.567 Y-110.749
X61.823 Y-110.567
X62.035 Y-110.336
X62.194 Y-110.066
X62.292 Y-109.768
X62.325 Y-109.456
Y-107.917
G3 X61.669 Y-107.305 Z-4.56 I-0.635 J-0.022
G1 X61.62 Y-107.308
X58.331 Y-107.677
X58.239 Y-107.687 Z-4.579
G3 X57.675 Y-108.296 Z-4.76 I0.071 J-0.631
G1 Y-109.953
X57.682 Y-110.103
X57.707 Y-110.251
X57.748 Y-110.414
X57.805 Y-110.584
X57.879 Y-110.757
X57.975 Y-110.939
X58.092 Y-111.122
X58.228 Y-111.303
X58.387 Y-111.483
X58.572 Y-111.659
X58.776 Y-111.826
X58.997 Y-111.978
X59.221 Y-112.107
X59.474 Y-112.227
X59.713 Y-112.317
X59.968 Y-112.391
X60.225 Y-112.444
X60.468 Y-112.473
X60.735 Y-112.484
X60.981 Y-112.475
X61.02 Y-112.47
X61.319 Y-112.402
X61.598 Y-112.274
X61.844 Y-112.091
X62.048 Y-111.862
X62.199 Y-111.595
X62.293 Y-111.304
X62.325 Y-110.999
Y-109.456
G3 X61.669 Y-108.844 Z-4.56 I-0.635 J-0.022
G1 X61.598 Y-108.85
X58.33 Y-109.33
X58.217 Y-109.347 Z-4.583
G3 X57.675 Y-109.953 Z-4.76 I0.092 J-0.628
G1 Y-111.403
X57.684 Y-111.589
X57.704 Y-111.738
X57.736 Y-111.89
X57.787 Y-112.058
X57.854 Y-112.231
X57.939 Y-112.406
X58.047 Y-112.589
X58.176 Y-112.772
X58.324 Y-112.951
X58.496 Y-113.126
X58.693 Y-113.298
X58.91 Y-113.459
X59.137 Y-113.6
X59.369 Y-113.719
X59.622 Y-113.825
X59.86 Y-113.903
X60.123 Y-113.965
X60.373 Y-114.004
X60.624 Y-114.023
X60.885 Y-114.022
X60.971 Y-114.014
X61.279 Y-113.954
X61.567 Y-113.831
X61.823 Y-113.649
X62.035 Y-113.418
X62.194 Y-113.148
X62.292 Y-112.85
X62.325 Y-112.538
Y-110.999
G3 X61.669 Y-110.386 Z-4.56 I-0.635 J-0.022
G1 X61.615 Y-110.39
X58.331 Y-110.783
X58.234 Y-110.795 Z-4.58
G3 X57.675 Y-111.403 Z-4.76 I0.075 J-0.631
G1 Y-112.967
X57.683 Y-113.127
X57.703 Y-113.276
X57.737 Y-113.435
X57.786 Y-113.598
X57.854 Y-113.772
X57.942 Y-113.952
X58.048 Y-114.131
X58.177 Y-114.314
X58.329 Y-114.497
X58.502 Y-114.673
X58.695 Y-114.841
X58.913 Y-115.001
X59.134 Y-115.138
X59.379 Y-115.264
X59.624 Y-115.366
X59.864 Y-115.444
X60.128 Y-115.506
X60.372 Y-115.544
X60.633 Y-115.563
X60.888 Y-115.561
X60.974 Y-115.553
X61.281 Y-115.493
X61.569 Y-115.369
X61.824 Y-115.188
X62.036 Y-114.957
X62.194 Y-114.687
X62.292 Y-114.389
X62.325 Y-114.077
Y-112.538
G3 X61.669 Y-111.925 Z-4.56 I-0.635 J-0.022
G1 X61.61 Y-111.93
X58.331 Y-112.347
X58.23 Y-112.359 Z-4.58
G3 X57.675 Y-112.967 Z-4.76 I0.08 J-0.63
G1 Y-114.511
X57.683 Y-114.668
X57.702 Y-114.816
X57.737 Y-114.976
X57.786 Y-115.138
X57.854 Y-115.313
X57.942 Y-115.492
X58.048 Y-115.671
X58.177 Y-115.854
X58.329 Y-116.037
X58.501 Y-116.213
X58.695 Y-116.381
X58.913 Y-116.541
X59.135 Y-116.678
X59.379 Y-116.804
X59.624 Y-116.906
X59.865 Y-116.984
X60.129 Y-117.046
X60.373 Y-117.084
X60.633 Y-117.103
X60.889 Y-117.101
X60.974 Y-117.093
X61.281 Y-117.033
X61.569 Y-116.909
X61.824 Y-116.728
X62.036 Y-116.497
X62.194 Y-116.226
X62.292 Y-115.929
X62.325 Y-115.617
Y-114.077
G3 X61.669 Y-113.465 Z-4.56 I-0.635 J-0.022
G1 X61.61 Y-113.47
X58.331 Y-113.89
X58.229 Y-113.903 Z-4.581
G3 X57.675 Y-114.511 Z-4.76 I0.081 J-0.63
G1 Y-116.075
X57.682 Y-116.224
X57.703 Y-116.373
X57.74 Y-116.534
X57.791 Y-116.698
X57.861 Y-116.872
X57.952 Y-117.053
X58.06 Y-117.233
X58.192 Y-117.415
X58.347 Y-117.597
X58.523 Y-117.773
X58.719 Y-117.94
X58.939 Y-118.099
X59.16 Y-118.233
X59.408 Y-118.358
X59.652 Y-118.456
X59.895 Y-118.532
X60.158 Y-118.592
X60.401 Y-118.627
X60.665 Y-118.644
X60.917 Y-118.639
X60.988 Y-118.632
X61.293 Y-118.569
X61.578 Y-118.444
X61.83 Y-118.263
X62.039 Y-118.032
X62.196 Y-117.763
X62.292 Y-117.467
X62.325 Y-117.158
Y-115.617
G3 X61.669 Y-115.005 Z-4.56 I-0.635 J-0.022
G1 X61.605 Y-115.01
X58.331 Y-115.453
X58.224 Y-115.467 Z-4.581
G3 X57.675 Y-116.075 Z-4.76 I0.085 J-0.629
G1 Y-117.618
X57.682 Y-117.768
X57.704 Y-117.916
X57.74 Y-118.076
X57.792 Y-118.24
X57.863 Y-118.416
X57.953 Y-118.596
X58.061 Y-118.774
X58.194 Y-118.958
X58.349 Y-119.14
X58.524 Y-119.315
X58.721 Y-119.482
X58.942 Y-119.642
X59.165 Y-119.776
X59.411 Y-119.899
X59.656 Y-119.998
X59.898 Y-120.073
X60.162 Y-120.133
X60.405 Y-120.168
X60.668 Y-120.184
X60.921 Y-120.179
X60.99 Y-120.173
X61.294 Y-120.11
X61.579 Y-119.984
X61.831 Y-119.803
X62.04 Y-119.572
X62.196 Y-119.303
X62.292 Y-119.007
X62.325 Y-118.698
Y-117.158
G3 X61.669 Y-116.545 Z-4.56 I-0.635 J-0.022
G1 X61.605 Y-116.551
X58.331 Y-116.996
X58.224 Y-117.011 Z-4.582
G3 X57.675 Y-117.618 Z-4.76 I0.086 J-0.629
G1 Y-119.182
X57.682 Y-119.332
X57.706 Y-119.48
X57.745 Y-119.643
X57.799 Y-119.808
X57.873 Y-119.984
X57.967 Y-120.165
X58.079 Y-120.345
X58.215 Y-120.527
X58.374 Y-120.709
X58.554 Y-120.884
X58.754 Y-121.05
X58.977 Y-121.206
X59.2 Y-121.337
X59.451 Y-121.458
X59.694 Y-121.552
X59.94 Y-121.626
X60.202 Y-121.682
X60.445 Y-121.713
X60.71 Y-121.726
X60.96 Y-121.718
X61.009 Y-121.712
X61.31 Y-121.646
X61.591 Y-121.519
X61.839 Y-121.337
X62.045 Y-121.107
X62.198 Y-120.84
X62.293 Y-120.547
X62.325 Y-120.24
Y-118.698
G3 X61.669 Y-118.086 Z-4.56 I-0.635 J-0.022
G1 X61.6 Y-118.092
X58.33 Y-118.559
X58.22 Y-118.575 Z-4.582
G3 X57.675 Y-119.182 Z-4.76 I0.09 J-0.629
G1 Y-120.725
X57.682 Y-120.875
X57.706 Y-121.025
X57.746 Y-121.186
X57.8 Y-121.352
X57.875 Y-121.53
X57.968 Y-121.709
X58.081 Y-121.889
X58.218 Y-122.073
X58.377 Y-122.254
X58.556 Y-122.427
X58.757 Y-122.594
X58.982 Y-122.751
X59.207 Y-122.882
X59.454 Y-123.001
X59.7 Y-123.096
X59.944 Y-123.168
X60.207 Y-123.224
X60.451 Y-123.255
X60.714 Y-123.268
X60.965 Y-123.259
X61.011 Y-123.254
X61.312 Y-123.187
X61.592 Y-123.06
X61.84 Y-122.878
X62.045 Y-122.648
X62.198 Y-122.381
X62.293 Y-122.088
X62.325 Y-121.782
Y-120.24
G3 X61.669 Y-119.628 Z-4.56 I-0.635 J-0.022
G1 X61.6 Y-119.634
X58.33 Y-120.103
X58.219 Y-120.119 Z-4.582
G3 X57.675 Y-120.725 Z-4.76 I0.09 J-0.629
G1 Y-122.175
X57.685 Y-122.371
X57.704 Y-122.52
X57.737 Y-122.673
X57.787 Y-122.839
X57.855 Y-123.014
X57.94 Y-123.189
X58.047 Y-123.37
X58.176 Y-123.555
X58.325 Y-123.734
X58.496 Y-123.909
X58.692 Y-124.08
X58.91 Y-124.242
X59.135 Y-124.382
X59.37 Y-124.503
X59.621 Y-124.608
X59.859 Y-124.685
X60.122 Y-124.748
X60.371 Y-124.787
X60.624 Y-124.806
X60.884 Y-124.805
X60.971 Y-124.797
X61.279 Y-124.737
X61.567 Y-124.614
X61.823 Y-124.432
X62.035 Y-124.201
X62.194 Y-123.931
X62.292 Y-123.633
X62.325 Y-123.321
Y-121.782
G3 X61.669 Y-121.169 Z-4.56 I-0.635 J-0.022
G1 X61.617 Y-121.173
X58.331 Y-121.555
X58.236 Y-121.566 Z-4.579
G3 X57.675 Y-122.175 Z-4.76 I0.073 J-0.631
G1 Y-123.739
X57.684 Y-123.911
X57.703 Y-124.059
X57.738 Y-124.219
X57.787 Y-124.381
X57.855 Y-124.556
X57.943 Y-124.735
X58.048 Y-124.914
X58.177 Y-125.097
X58.33 Y-125.28
X58.502 Y-125.456
X58.696 Y-125.624
X58.913 Y-125.784
X59.135 Y-125.921
X59.38 Y-126.047
X59.624 Y-126.149
X59.865 Y-126.227
X60.129 Y-126.289
X60.373 Y-126.327
X60.634 Y-126.346
X60.888 Y-126.344
X60.974 Y-126.336
X61.281 Y-126.276
X61.569 Y-126.152
X61.824 Y-125.971
X62.036 Y-125.74
X62.194 Y-125.469
X62.292 Y-125.172
X62.325 Y-124.86
Y-123.321
G3 X61.669 Y-122.708 Z-4.56 I-0.635 J-0.022
G1 X61.612 Y-122.713
X58.331 Y-123.119
X58.232 Y-123.131 Z-4.58
G3 X57.675 Y-123.739 Z-4.76 I0.078 J-0.63
G1 Y-125.282
X57.683 Y-125.451
X57.703 Y-125.599
X57.737 Y-125.759
X57.787 Y-125.921
X57.855 Y-126.096
X57.942 Y-126.275
X58.048 Y-126.454
X58.177 Y-126.637
X58.33 Y-126.82
X58.502 Y-126.995
X58.695 Y-127.163
X58.913 Y-127.324
X59.135 Y-127.461
X59.379 Y-127.587
X59.625 Y-127.688
X59.865 Y-127.766
X60.129 Y-127.829
X60.373 Y-127.867
X60.634 Y-127.885
X60.889 Y-127.883
X60.974 Y-127.876
X61.281 Y-127.815
X61.569 Y-127.692
X61.824 Y-127.51
X62.036 Y-127.279
X62.194 Y-127.009
X62.292 Y-126.711
X62.325 Y-126.4
Y-124.86
G3 X61.669 Y-124.248 Z-4.56 I-0.635 J-0.022
G1 X61.612 Y-124.252
X58.331 Y-124.662
X58.231 Y-124.674 Z-4.58
G3 X57.675 Y-125.282 Z-4.76 I0.079 J-0.63
G1 Y-126.846
X57.682 Y-126.996
X57.703 Y-127.145
X57.738 Y-127.305
X57.788 Y-127.468
X57.857 Y-127.642
X57.945 Y-127.823
X58.052 Y-128.001
X58.182 Y-128.184
X58.336 Y-128.367
X58.509 Y-128.543
X58.704 Y-128.71
X58.922 Y-128.87
X59.144 Y-129.007
X59.39 Y-129.132
X59.635 Y-129.232
X59.876 Y-129.309
X60.14 Y-129.371
X60.383 Y-129.408
X60.645 Y-129.426
X60.899 Y-129.423
X60.979 Y-129.415
X61.286 Y-129.354
X61.572 Y-129.23
X61.827 Y-129.048
X62.037 Y-128.817
X62.195 Y-128.548
X62.292 Y-128.251
X62.325 Y-127.94
Y-126.4
G3 X61.669 Y-125.787 Z-4.56 I-0.635 J-0.022
G1 X61.607 Y-125.793
X58.331 Y-126.225
X58.226 Y-126.239 Z-4.581
G3 X57.675 Y-126.846 Z-4.76 I0.083 J-0.63
G1 Y-128.39
X57.682 Y-128.539
X57.703 Y-128.688
X57.738 Y-128.848
X57.789 Y-129.011
X57.858 Y-129.186
X57.947 Y-129.366
X58.054 Y-129.545
X58.185 Y-129.728
X58.339 Y-129.91
X58.512 Y-130.086
X58.707 Y-130.253
X58.927 Y-130.413
X59.149 Y-130.549
X59.394 Y-130.674
X59.639 Y-130.774
X59.88 Y-130.851
X60.144 Y-130.912
X60.388 Y-130.948
X60.65 Y-130.966
X60.904 Y-130.963
X60.982 Y-130.955
X61.288 Y-130.894
X61.574 Y-130.769
X61.828 Y-130.588
X62.038 Y-130.357
X62.195 Y-130.087
X62.292 Y-129.79
X62.325 Y-129.48
Y-127.94
G3 X61.669 Y-127.327 Z-4.56 I-0.635 J-0.022
G1 X61.607 Y-127.333
X58.331 Y-127.768
X58.226 Y-127.782 Z-4.581
G3 X57.675 Y-128.39 Z-4.76 I0.084 J-0.629
G1 Y-129.954
X57.682 Y-130.103
X57.705 Y-130.252
X57.743 Y-130.414
X57.796 Y-130.579
X57.869 Y-130.754
X57.961 Y-130.935
X58.072 Y-131.115
X58.206 Y-131.297
X58.363 Y-131.479
X58.542 Y-131.655
X58.741 Y-131.821
X58.962 Y-131.978
X59.185 Y-132.11
X59.435 Y-132.233
X59.677 Y-132.328
X59.923 Y-132.403
X60.185 Y-132.46
X60.428 Y-132.493
X60.693 Y-132.507
X60.943 Y-132.501
X61.001 Y-132.495
X61.304 Y-132.43
X61.586 Y-132.303
X61.836 Y-132.121
X62.043 Y-131.891
X62.197 Y-131.623
X62.293 Y-131.329
X62.325 Y-131.021
Y-129.48
G3 X61.669 Y-128.868 Z-4.56 I-0.635 J-0.022
G1 X61.602 Y-128.873
X58.33 Y-129.332
X58.222 Y-129.347 Z-4.582
G3 X57.675 Y-129.954 Z-4.76 I0.088 J-0.629
G1 Y-131.497
X57.682 Y-131.647
X57.705 Y-131.796
X57.743 Y-131.956
X57.797 Y-132.121
X57.87 Y-132.298
X57.962 Y-132.478
X58.073 Y-132.657
X58.208 Y-132.841
X58.366 Y-133.023
X58.543 Y-133.197
X58.742 Y-133.363
X58.966 Y-133.521
X59.19 Y-133.654
X59.437 Y-133.775
X59.682 Y-133.871
X59.925 Y-133.945
X60.189 Y-134.002
X60.432 Y-134.035
X60.695 Y-134.049
X60.947 Y-134.042
X61.003 Y-134.036
X61.305 Y-133.971
X61.587 Y-133.844
X61.837 Y-133.662
X62.043 Y-133.432
X62.197 Y-133.164
X62.293 Y-132.87
X62.325 Y-132.563
Y-131.021
G3 X61.669 Y-130.409 Z-4.56 I-0.635 J-0.022
G1 X61.602 Y-130.415
X58.33 Y-130.875
X58.221 Y-130.89 Z-4.582
G3 X57.675 Y-131.497 Z-4.76 I0.088 J-0.629
G1 Y-132.947
X57.685 Y-133.153
X57.705 Y-133.301
X57.738 Y-133.455
X57.787 Y-133.62
X57.855 Y-133.795
X57.941 Y-133.971
X58.047 Y-134.151
X58.177 Y-134.336
X58.326 Y-134.516
X58.496 Y-134.69
X58.692 Y-134.861
X58.911 Y-135.023
X59.135 Y-135.162
X59.371 Y-135.284
X59.621 Y-135.389
X59.859 Y-135.466
X60.123 Y-135.529
X60.371 Y-135.568
X60.625 Y-135.587
X60.884 Y-135.585
X60.971 Y-135.578
X61.279 Y-135.518
X61.567 Y-135.395
X61.823 Y-135.213
X62.035 Y-134.982
X62.194 Y-134.712
X62.292 Y-134.414
X62.325 Y-134.102
Y-132.563
G3 X61.669 Y-131.95 Z-4.56 I-0.635 J-0.022
G1 X61.619 Y-131.954
X58.331 Y-132.328
X58.238 Y-132.338 Z-4.579
G3 X57.675 Y-132.947 Z-4.76 I0.072 J-0.631
G1 Y-134.604
X57.682 Y-134.754
X57.708 Y-134.902
X57.749 Y-135.065
X57.807 Y-135.236
X57.882 Y-135.409
X57.978 Y-135.591
X58.096 Y-135.775
X58.233 Y-135.955
X58.393 Y-136.135
X58.578 Y-136.311
X58.784 Y-136.478
X59.005 Y-136.629
X59.23 Y-136.758
X59.483 Y-136.877
X59.722 Y-136.966
X59.978 Y-137.039
X60.234 Y-137.091
X60.478 Y-137.12
X60.745 Y-137.13
X60.989 Y-137.12
X61.025 Y-137.115
X61.323 Y-137.046
X61.601 Y-136.918
X61.846 Y-136.735
X62.049 Y-136.506
X62.2 Y-136.24
X62.293 Y-135.949
X62.325 Y-135.645
Y-134.102
G3 X61.669 Y-133.489 Z-4.56 I-0.635 J-0.022
G1 X61.597 Y-133.496
X58.33 Y-133.981
X58.216 Y-133.998 Z-4.583
G3 X57.675 Y-134.604 Z-4.76 I0.093 J-0.628
G1 Y-136.054
X57.684 Y-136.235
X57.704 Y-136.384
X57.736 Y-136.536
X57.787 Y-136.704
X57.854 Y-136.877
X57.939 Y-137.052
X58.047 Y-137.235
X58.176 Y-137.418
X58.324 Y-137.597
X58.496 Y-137.773
X58.694 Y-137.945
X58.911 Y-138.105
X59.138 Y-138.246
X59.369 Y-138.366
X59.623 Y-138.471
X59.861 Y-138.549
X60.123 Y-138.612
X60.374 Y-138.651
X60.624 Y-138.669
X60.886 Y-138.667
X60.972 Y-138.66
X61.279 Y-138.6
X61.568 Y-138.476
X61.823 Y-138.295
X62.035 Y-138.064
X62.194 Y-137.793
X62.292 Y-137.496
X62.325 Y-137.184
Y-135.645
G3 X61.669 Y-135.032 Z-4.56 I-0.635 J-0.022
G1 X61.614 Y-135.036
X58.331 Y-135.434
X58.233 Y-135.446 Z-4.58
G3 X57.675 Y-136.054 Z-4.76 I0.076 J-0.63
G1 Y-137.618
X57.683 Y-137.773
X57.702 Y-137.922
X57.737 Y-138.081
X57.786 Y-138.244
X57.854 Y-138.418
X57.942 Y-138.598
X58.047 Y-138.776
X58.176 Y-138.959
X58.329 Y-139.143
X58.501 Y-139.319
X58.694 Y-139.486
X58.912 Y-139.647
X59.134 Y-139.784
X59.378 Y-139.91
X59.624 Y-140.012
X59.864 Y-140.09
X60.128 Y-140.152
X60.372 Y-140.19
X60.633 Y-140.209
X60.888 Y-140.207
X60.974 Y-140.199
X61.281 Y-140.139
X61.569 Y-140.015
X61.824 Y-139.834
X62.036 Y-139.603
X62.194 Y-139.333
X62.292 Y-139.035
X62.325 Y-138.723
Y-137.184
G3 X61.669 Y-136.571 Z-4.56 I-0.635 J-0.022
G1 X61.609 Y-136.576
X58.331 Y-136.997
X58.229 Y-137.01 Z-4.581
G3 X57.675 Y-137.618 Z-4.76 I0.081 J-0.63
G1 Y-139.161
X57.683 Y-139.313
X57.702 Y-139.462
X57.737 Y-139.622
X57.786 Y-139.784
X57.854 Y-139.959
X57.942 Y-140.138
X58.047 Y-140.317
X58.177 Y-140.5
X58.329 Y-140.683
X58.501 Y-140.859
X58.695 Y-141.027
X58.913 Y-141.187
X59.135 Y-141.324
X59.379 Y-141.45
X59.624 Y-141.552
X59.864 Y-141.63
X60.129 Y-141.692
X60.373 Y-141.73
X60.633 Y-141.749
X60.888 Y-141.747
X60.974 Y-141.739
X61.281 Y-141.679
X61.569 Y-141.555
X61.824 Y-141.374
X62.036 Y-141.143
X62.194 Y-140.872
X62.292 Y-140.575
X62.325 Y-140.263
Y-138.723
G3 X61.669 Y-138.111 Z-4.56 I-0.635 J-0.022
G1 X61.609 Y-138.116
X58.331 Y-138.541
X58.228 Y-138.554 Z-4.581
G3 X57.675 Y-139.161 Z-4.76 I0.082 J-0.63
G1 Y-140.725
X57.682 Y-140.875
X57.704 Y-141.024
X57.741 Y-141.185
X57.793 Y-141.35
X57.863 Y-141.524
X57.955 Y-141.705
X58.064 Y-141.885
X58.196 Y-142.067
X58.352 Y-142.249
X58.529 Y-142.425
X58.726 Y-142.592
X58.946 Y-142.75
X59.167 Y-142.884
X59.416 Y-143.007
X59.659 Y-143.105
X59.904 Y-143.181
X60.166 Y-143.24
X60.409 Y-143.274
X60.673 Y-143.29
X60.925 Y-143.285
X60.992 Y-143.278
X61.296 Y-143.215
X61.58 Y-143.089
X61.832 Y-142.907
X62.04 Y-142.677
X62.196 Y-142.408
X62.292 Y-142.113
X62.325 Y-141.804
Y-140.263
G3 X61.669 Y-139.651 Z-4.56 I-0.635 J-0.022
G1 X61.604 Y-139.656
X58.331 Y-140.104
X58.224 Y-140.118 Z-4.582
G3 X57.675 Y-140.725 Z-4.76 I0.086 J-0.629
G1 Y-142.269
X57.682 Y-142.418
X57.704 Y-142.567
X57.741 Y-142.727
X57.793 Y-142.891
X57.865 Y-143.068
X57.955 Y-143.247
X58.064 Y-143.426
X58.198 Y-143.61
X58.354 Y-143.792
X58.529 Y-143.966
X58.727 Y-144.133
X58.949 Y-144.292
X59.172 Y-144.426
X59.418 Y-144.549
X59.663 Y-144.647
X59.905 Y-144.722
X60.169 Y-144.781
X60.413 Y-144.815
X60.675 Y-144.831
X60.928 Y-144.825
X60.993 Y-144.819
X61.297 Y-144.755
X61.581 Y-144.63
X61.833 Y-144.448
X62.041 Y-144.217
X62.196 Y-143.949
X62.292 Y-143.653
X62.325 Y-143.345
Y-141.804
G3 X61.669 Y-141.191 Z-4.56 I-0.635 J-0.022
G1 X61.604 Y-141.197
X58.331 Y-141.647
X58.223 Y-141.662 Z-4.582
G3 X57.675 Y-142.269 Z-4.76 I0.086 J-0.629
G1 Y-143.833
X57.682 Y-143.982
X57.706 Y-144.131
X57.746 Y-144.294
X57.801 Y-144.459
X57.875 Y-144.635
X57.97 Y-144.817
X58.083 Y-144.997
X58.219 Y-145.179
X58.379 Y-145.361
X58.559 Y-145.536
X58.76 Y-145.701
X58.984 Y-145.857
X59.207 Y-145.988
X59.458 Y-146.108
X59.701 Y-146.201
X59.948 Y-146.274
X60.21 Y-146.329
X60.452 Y-146.36
X60.718 Y-146.372
X60.967 Y-146.364
X61.013 Y-146.359
X61.313 Y-146.292
X61.593 Y-146.165
X61.841 Y-145.982
X62.046 Y-145.753
X62.199 Y-145.486
X62.293 Y-145.193
X62.325 Y-144.887
Y-143.345
G3 X61.669 Y-142.732 Z-4.56 I-0.635 J-0.022
G1 X61.6 Y-142.738
X58.33 Y-143.21
X58.219 Y-143.226 Z-4.583
G3 X57.675 Y-143.833 Z-4.76 I0.091 J-0.628
G1 Y-145.376
X57.682 Y-145.526
X57.707 Y-145.677
X57.746 Y-145.838
X57.802 Y-146.004
X57.877 Y-146.182
X57.971 Y-146.361
X58.084 Y-146.541
X58.222 Y-146.725
X58.382 Y-146.906
X58.561 Y-147.079
X58.764 Y-147.245
X58.99 Y-147.402
X59.214 Y-147.533
X59.462 Y-147.651
X59.708 Y-147.746
X59.952 Y-147.817
X60.215 Y-147.872
X60.459 Y-147.903
X60.722 Y-147.914
X60.973 Y-147.905
X61.015 Y-147.9
X61.315 Y-147.833
X61.595 Y-147.706
X61.842 Y-147.523
X62.046 Y-147.294
X62.199 Y-147.027
X62.293 Y-146.734
X62.325 Y-146.429
Y-144.887
G3 X61.669 Y-144.274 Z-4.56 I-0.635 J-0.022
G1 X61.599 Y-144.28
X58.33 Y-144.753
X58.219 Y-144.77 Z-4.583
G3 X57.675 Y-145.376 Z-4.76 I0.091 J-0.628
G1 Y-146.826
X57.685 Y-147.018
X57.704 Y-147.167
X57.737 Y-147.32
X57.787 Y-147.487
X57.855 Y-147.66
X57.94 Y-147.835
X58.047 Y-148.018
X58.176 Y-148.202
X58.325 Y-148.381
X58.496 Y-148.556
X58.693 Y-148.727
X58.91 Y-148.889
X59.136 Y-149.029
X59.369 Y-149.149
X59.622 Y-149.255
X59.859 Y-149.332
X60.122 Y-149.395
X60.372 Y-149.434
X60.624 Y-149.453
X60.884 Y-149.452
X60.971 Y-149.444
X61.279 Y-149.384
X61.567 Y-149.261
X61.823 Y-149.079
X62.035 Y-148.848
X62.194 Y-148.578
X62.292 Y-148.28
X62.325 Y-147.968
Y-146.429
G3 X61.669 Y-145.816 Z-4.56 I-0.635 J-0.022
G1 X61.616 Y-145.82
X58.331 Y-146.206
X58.236 Y-146.217 Z-4.579
G3 X57.675 Y-146.826 Z-4.76 I0.074 J-0.631
G1 Y-148.39
X57.683 Y-148.557
X57.703 Y-148.706
X57.737 Y-148.866
X57.786 Y-149.028
X57.855 Y-149.202
X57.942 Y-149.382
X58.048 Y-149.561
X58.177 Y-149.744
X58.33 Y-149.927
X58.502 Y-150.103
X58.695 Y-150.271
X58.913 Y-150.431
X59.135 Y-150.568
X59.379 Y-150.694
X59.624 Y-150.796
X59.865 Y-150.874
X60.129 Y-150.936
X60.372 Y-150.974
X60.633 Y-150.993
X60.888 Y-150.991
X60.974 Y-150.983
X61.281 Y-150.923
X61.569 Y-150.799
X61.824 Y-150.618
X62.036 Y-150.387
X62.194 Y-150.116
X62.292 Y-149.819
X62.325 Y-149.507
Y-147.968
G3 X61.669 Y-147.355 Z-4.56 I-0.635 J-0.022
G1 X61.612 Y-147.36
X58.331 Y-147.77
X58.231 Y-147.782 Z-4.58
G3 X57.675 Y-148.39 Z-4.76 I0.079 J-0.63
G1 Y-149.933
X57.683 Y-150.097
X57.703 Y-150.246
X57.737 Y-150.406
X57.786 Y-150.568
X57.855 Y-150.743
X57.942 Y-150.922
X58.048 Y-151.101
X58.177 Y-151.284
X58.33 Y-151.467
X58.502 Y-151.642
X58.695 Y-151.81
X58.913 Y-151.971
X59.135 Y-152.108
X59.379 Y-152.234
X59.625 Y-152.335
X59.865 Y-152.413
X60.129 Y-152.476
X60.373 Y-152.514
X60.634 Y-152.532
X60.889 Y-152.53
X60.974 Y-152.523
X61.281 Y-152.462
X61.569 Y-152.339
X61.824 Y-152.157
X62.036 Y-151.926
X62.194 Y-151.656
X62.292 Y-151.358
X62.325 Y-151.047
Y-149.507
G3 X61.669 Y-148.895 Z-4.56 I-0.635 J-0.022
G1 X61.611 Y-148.899
X58.331 Y-149.313
X58.23 Y-149.325 Z-4.58
G3 X57.675 Y-149.933 Z-4.76 I0.079 J-0.63
G1 Y-151.497
X57.682 Y-151.647
X57.703 Y-151.796
X57.739 Y-151.956
X57.789 Y-152.12
X57.858 Y-152.294
X57.948 Y-152.474
X58.055 Y-152.653
X58.186 Y-152.836
X58.34 Y-153.019
X58.514 Y-153.195
X58.709 Y-153.362
X58.928 Y-153.521
X59.15 Y-153.657
X59.396 Y-153.782
X59.641 Y-153.882
X59.883 Y-153.958
X60.146 Y-154.019
X60.39 Y-154.055
X60.652 Y-154.073
X60.905 Y-154.07
X60.982 Y-154.062
X61.288 Y-154
X61.574 Y-153.876
X61.828 Y-153.694
X62.038 Y-153.464
X62.195 Y-153.194
X62.292 Y-152.897
X62.325 Y-152.587
Y-151.047
G3 X61.669 Y-150.434 Z-4.56 I-0.635 J-0.022
G1 X61.607 Y-150.44
X58.331 Y-150.876
X58.226 Y-150.89 Z-4.581
G3 X57.675 Y-151.497 Z-4.76 I0.084 J-0.629
G1 Y-153.04
X57.682 Y-153.19
X57.703 Y-153.339
X57.739 Y-153.499
X57.79 Y-153.662
X57.86 Y-153.838
X57.949 Y-154.017
X58.056 Y-154.196
X58.188 Y-154.38
X58.342 Y-154.562
X58.516 Y-154.737
X58.712 Y-154.905
X58.932 Y-155.064
X59.154 Y-155.2
X59.4 Y-155.324
X59.645 Y-155.423
X59.887 Y-155.5
X60.151 Y-155.56
X60.394 Y-155.596
X60.656 Y-155.613
X60.91 Y-155.609
X60.984 Y-155.602
X61.29 Y-155.54
X61.576 Y-155.415
X61.829 Y-155.234
X62.039 Y-155.003
X62.195 Y-154.734
X62.292 Y-154.437
X62.325 Y-154.127
Y-152.587
G3 X61.669 Y-151.975 Z-4.56 I-0.635 J-0.022
G1 X61.606 Y-151.98
X58.331 Y-152.419
X58.225 Y-152.433 Z-4.581
G3 X57.675 Y-153.04 Z-4.76 I0.084 J-0.629
G1 Y-154.604
X57.682 Y-154.754
X57.705 Y-154.902
X57.744 Y-155.065
X57.797 Y-155.23
X57.87 Y-155.405
X57.963 Y-155.587
X58.075 Y-155.767
X58.209 Y-155.949
X58.367 Y-156.131
X58.546 Y-156.306
X58.746 Y-156.472
X58.968 Y-156.629
X59.19 Y-156.761
X59.44 Y-156.883
X59.683 Y-156.978
X59.929 Y-157.052
X60.191 Y-157.109
X60.434 Y-157.141
X60.699 Y-157.155
X60.949 Y-157.148
X61.004 Y-157.142
X61.306 Y-157.076
X61.588 Y-156.95
X61.837 Y-156.768
X62.043 Y-156.538
X62.198 Y-156.27
X62.293 Y-155.976
X62.325 Y-155.669
Y-154.127
G3 X61.669 Y-153.515 Z-4.56 I-0.635 J-0.022
G1 X61.602 Y-153.521
X58.33 Y-153.982
X58.221 Y-153.998 Z-4.582
G3 X57.675 Y-154.604 Z-4.76 I0.089 J-0.629
G1 Y-156.148
X57.682 Y-156.298
X57.706 Y-156.447
X57.744 Y-156.608
X57.798 Y-156.773
X57.872 Y-156.95
X57.964 Y-157.13
X58.076 Y-157.309
X58.212 Y-157.493
X58.37 Y-157.675
X58.547 Y-157.848
X58.747 Y-158.015
X58.972 Y-158.173
X59.196 Y-158.305
X59.443 Y-158.425
X59.689 Y-158.521
X59.932 Y-158.594
X60.195 Y-158.651
X60.439 Y-158.683
X60.702 Y-158.696
X60.954 Y-158.689
X61.006 Y-158.683
X61.307 Y-158.617
X61.589 Y-158.491
X61.838 Y-158.309
X62.044 Y-158.079
X62.198 Y-157.811
X62.293 Y-157.517
X62.325 Y-157.21
Y-155.669
G3 X61.669 Y-155.056 Z-4.56 I-0.635 J-0.022
G1 X61.601 Y-155.062
X58.33 Y-155.526
X58.221 Y-155.541 Z-4.582
G3 X57.675 Y-156.148 Z-4.76 I0.089 J-0.629
G1 Y-157.598
X57.685 Y-157.8
X57.705 Y-157.949
X57.738 Y-158.103
X57.787 Y-158.268
X57.855 Y-158.443
X57.94 Y-158.618
X58.047 Y-158.799
X58.177 Y-158.984
X58.326 Y-159.163
X58.496 Y-159.338
X58.692 Y-159.509
X58.911 Y-159.67
X59.135 Y-159.81
X59.371 Y-159.931
X59.621 Y-160.036
X59.859 Y-160.114
X60.122 Y-160.177
X60.371 Y-160.216
X60.625 Y-160.235
X60.884 Y-160.233
X60.971 Y-160.226
X61.279 Y-160.166
X61.567 Y-160.042
X61.823 Y-159.861
X62.035 Y-159.63
X62.194 Y-159.359
X62.292 Y-159.061
X62.325 Y-158.749
Y-157.21
G3 X61.669 Y-156.598 Z-4.56 I-0.635 J-0.022
G1 X61.618 Y-156.602
X58.331 Y-156.978
X58.237 Y-156.989 Z-4.579
G3 X57.675 Y-157.598 Z-4.76 I0.072 J-0.631
G1 Y-159.162
X57.684 Y-159.339
X57.703 Y-159.488
X57.738 Y-159.648
X57.787 Y-159.81
X57.855 Y-159.984
X57.943 Y-160.164
X58.049 Y-160.343
X58.178 Y-160.526
X58.33 Y-160.709
X58.503 Y-160.885
X58.696 Y-161.052
X58.914 Y-161.213
X59.135 Y-161.35
X59.38 Y-161.476
X59.625 Y-161.577
X59.865 Y-161.655
X60.129 Y-161.718
X60.373 Y-161.755
X60.634 Y-161.774
X60.889 Y-161.772
X60.974 Y-161.765
X61.281 Y-161.704
X61.569 Y-161.581
X61.824 Y-161.399
X62.036 Y-161.168
X62.194 Y-160.898
X62.292 Y-160.6
X62.325 Y-160.289
Y-158.749
G3 X61.669 Y-158.137 Z-4.56 I-0.635 J-0.022
G1 X61.614 Y-158.141
X58.331 Y-158.542
X58.233 Y-158.554 Z-4.58
G3 X57.675 Y-159.162 Z-4.76 I0.077 J-0.63
G1 Y-160.705
X57.684 Y-160.879
X57.703 Y-161.028
X57.738 Y-161.187
X57.787 Y-161.35
X57.855 Y-161.524
X57.943 Y-161.704
X58.048 Y-161.882
X58.178 Y-162.066
X58.33 Y-162.248
X58.502 Y-162.424
X58.696 Y-162.592
X58.914 Y-162.752
X59.135 Y-162.89
X59.38 Y-163.015
X59.625 Y-163.117
X59.865 Y-163.195
X60.129 Y-163.257
X60.373 Y-163.295
X60.634 Y-163.314
X60.889 Y-163.312
X60.974 Y-163.304
X61.281 Y-163.244
X61.569 Y-163.12
X61.824 Y-162.939
X62.036 Y-162.708
X62.194 Y-162.437
X62.292 Y-162.14
X62.325 Y-161.828
Y-160.289
G3 X61.669 Y-159.676 Z-4.56 I-0.635 J-0.022
G1 X61.613 Y-159.681
X58.331 Y-160.085
X58.232 Y-160.097 Z-4.58
G3 X57.675 Y-160.705 Z-4.76 I0.078 J-0.63
G1 Y-162.269
X57.682 Y-162.419
X57.702 Y-162.568
X57.737 Y-162.727
X57.786 Y-162.89
X57.854 Y-163.064
X57.942 Y-163.244
X58.048 Y-163.422
X58.177 Y-163.606
X58.33 Y-163.788
X58.502 Y-163.964
X58.696 Y-164.132
X58.914 Y-164.293
X59.136 Y-164.43
X59.38 Y-164.555
X59.625 Y-164.657
X59.866 Y-164.735
X60.13 Y-164.797
X60.374 Y-164.835
X60.635 Y-164.854
X60.89 Y-164.852
X60.975 Y-164.844
X61.282 Y-164.783
X61.569 Y-164.66
X61.825 Y-164.478
X62.036 Y-164.247
X62.194 Y-163.977
X62.292 Y-163.679
X62.325 Y-163.368
Y-161.828
G3 X61.669 Y-161.216 Z-4.56 I-0.635 J-0.022
G1 X61.608 Y-161.221
X58.331 Y-161.648
X58.228 Y-161.661 Z-4.581
G3 X57.675 Y-162.269 Z-4.76 I0.082 J-0.63
G1 Y-163.812
X57.682 Y-163.962
X57.702 Y-164.111
X57.737 Y-164.271
X57.787 Y-164.433
X57.856 Y-164.608
X57.944 Y-164.788
X58.05 Y-164.966
X58.18 Y-165.149
X58.333 Y-165.332
X58.506 Y-165.508
X58.7 Y-165.676
X58.919 Y-165.836
X59.14 Y-165.973
X59.385 Y-166.098
X59.631 Y-166.199
X59.871 Y-166.276
X60.135 Y-166.338
X60.379 Y-166.375
X60.64 Y-166.394
X60.895 Y-166.391
X60.977 Y-166.384
X61.284 Y-166.323
X61.571 Y-166.199
X61.826 Y-166.017
X62.037 Y-165.786
X62.194 Y-165.516
X62.292 Y-165.219
X62.325 Y-164.908
Y-163.368
G3 X61.669 Y-162.756 Z-4.56 I-0.635 J-0.022
G1 X61.608 Y-162.761
X58.331 Y-163.191
X58.227 Y-163.205 Z-4.581
G3 X57.675 Y-163.812 Z-4.76 I0.083 J-0.63
G1 Y-165.376
X57.682 Y-165.526
X57.704 Y-165.674
X57.742 Y-165.836
X57.795 Y-166.001
X57.866 Y-166.176
X57.958 Y-166.357
X58.068 Y-166.537
X58.201 Y-166.719
X58.358 Y-166.901
X58.536 Y-167.077
X58.734 Y-167.244
X58.955 Y-167.401
X59.177 Y-167.534
X59.426 Y-167.657
X59.669 Y-167.753
X59.914 Y-167.829
X60.176 Y-167.887
X60.419 Y-167.92
X60.684 Y-167.935
X60.935 Y-167.929
X60.997 Y-167.923
X61.3 Y-167.859
X61.583 Y-167.733
X61.834 Y-167.551
X62.042 Y-167.32
X62.197 Y-167.052
X62.293 Y-166.757
X62.325 Y-166.449
Y-164.908
G3 X61.669 Y-164.296 Z-4.56 I-0.635 J-0.022
G1 X61.603 Y-164.301
X58.331 Y-164.754
X58.223 Y-164.769 Z-4.582
G3 X57.675 Y-165.376 Z-4.76 I0.087 J-0.629
G1 Y-166.919
X57.682 Y-167.069
X57.705 Y-167.218
X57.742 Y-167.378
X57.795 Y-167.543
X57.867 Y-167.719
X57.959 Y-167.899
X58.069 Y-168.078
X58.203 Y-168.262
X58.36 Y-168.444
X58.536 Y-168.618
X58.734 Y-168.785
X58.957 Y-168.943
X59.181 Y-169.077
X59.427 Y-169.198
X59.673 Y-169.296
X59.915 Y-169.37
X60.179 Y-169.428
X60.423 Y-169.461
X60.685 Y-169.476
X60.938 Y-169.47
X60.998 Y-169.464
X61.301 Y-169.399
X61.584 Y-169.273
X61.835 Y-169.091
X62.042 Y-168.861
X62.197 Y-168.593
X62.293 Y-168.298
X62.325 Y-167.99
Y-166.449
G3 X61.669 Y-165.837 Z-4.56 I-0.635 J-0.022
G1 X61.603 Y-165.842
X58.331 Y-166.298
X58.222 Y-166.313 Z-4.582
G3 X57.675 Y-166.919 Z-4.76 I0.088 J-0.629
G1 Y-168.37
X57.686 Y-168.58
X57.705 Y-168.729
X57.738 Y-168.884
X57.787 Y-169.048
X57.856 Y-169.223
X57.941 Y-169.399
X58.047 Y-169.579
X58.177 Y-169.764
X58.327 Y-169.945
X58.497 Y-170.119
X58.692 Y-170.289
X58.911 Y-170.451
X59.135 Y-170.59
X59.372 Y-170.712
X59.622 Y-170.816
X59.86 Y-170.894
X60.124 Y-170.957
X60.371 Y-170.995
X60.626 Y-171.014
X60.884 Y-171.013
X60.971 Y-171.005
X61.279 Y-170.945
X61.567 Y-170.822
X61.823 Y-170.641
X62.035 Y-170.409
X62.194 Y-170.139
X62.292 Y-169.841
X62.325 Y-169.529
Y-167.99
G3 X61.669 Y-167.378 Z-4.56 I-0.635 J-0.022
G1 X61.62 Y-167.381
X58.331 Y-167.75
X58.239 Y-167.761 Z-4.579
G3 X57.675 Y-168.37 Z-4.76 I0.071 J-0.631
G1 Y-170.027
X57.682 Y-170.177
X57.707 Y-170.325
X57.748 Y-170.487
X57.805 Y-170.657
X57.879 Y-170.831
X57.975 Y-171.012
X58.092 Y-171.196
X58.228 Y-171.376
X58.388 Y-171.556
X58.572 Y-171.733
X58.777 Y-171.899
X58.998 Y-172.051
X59.222 Y-172.181
X59.475 Y-172.3
X59.714 Y-172.391
X59.968 Y-172.464
X60.225 Y-172.517
X60.469 Y-172.546
X60.736 Y-172.557
X60.981 Y-172.548
X61.021 Y-172.543
X61.32 Y-172.475
X61.598 Y-172.347
X61.844 Y-172.164
X62.048 Y-171.935
X62.2 Y-171.668
X62.293 Y-171.377
X62.325 Y-171.072
Y-169.529
G3 X61.669 Y-168.917 Z-4.56 I-0.635 J-0.022
G1 X61.598 Y-168.923
X58.33 Y-169.404
X58.217 Y-169.421 Z-4.583
G3 X57.675 Y-170.027 Z-4.76 I0.092 J-0.628
G1 Y-171.477
X57.684 Y-171.662
X57.704 Y-171.811
X57.736 Y-171.963
X57.787 Y-172.131
X57.854 Y-172.304
X57.939 Y-172.479
X58.047 Y-172.662
X58.176 Y-172.845
X58.324 Y-173.024
X58.496 Y-173.199
X58.693 Y-173.371
X58.91 Y-173.532
X59.137 Y-173.673
X59.369 Y-173.793
X59.622 Y-173.898
X59.86 Y-173.976
X60.123 Y-174.039
X60.373 Y-174.078
X60.624 Y-174.096
X60.885 Y-174.095
X60.971 Y-174.087
X61.279 Y-174.027
X61.567 Y-173.904
X61.823 Y-173.722
X62.035 Y-173.491
X62.194 Y-173.221
X62.292 Y-172.923
X62.325 Y-172.611
Y-171.072
G3 X61.669 Y-170.459 Z-4.56 I-0.635 J-0.022
G1 X61.615 Y-170.463
X58.331 Y-170.857
X58.234 Y-170.868 Z-4.58
G3 X57.675 Y-171.477 Z-4.76 I0.076 J-0.63
G1 Y-173.041
X57.683 Y-173.2
X57.702 Y-173.349
X57.737 Y-173.509
X57.786 Y-173.671
X57.854 Y-173.845
X57.942 Y-174.025
X58.048 Y-174.204
X58.177 Y-174.387
X58.329 Y-174.57
X58.502 Y-174.746
X58.695 Y-174.914
X58.913 Y-175.074
X59.134 Y-175.211
X59.379 Y-175.337
X59.624 Y-175.439
X59.864 Y-175.517
X60.128 Y-175.579
X60.372 Y-175.617
X60.633 Y-175.636
X60.888 Y-175.634
X60.974 Y-175.627
X61.281 Y-175.566
X61.569 Y-175.442
X61.824 Y-175.261
X62.036 Y-175.03
X62.194 Y-174.76
X62.292 Y-174.462
X62.325 Y-174.151
Y-172.611
G3 X61.669 Y-171.999 Z-4.56 I-0.635 J-0.022
G1 X61.61 Y-172.003
X58.331 Y-172.42
X58.23 Y-172.433 Z-4.58
G3 X57.675 Y-173.041 Z-4.76 I0.08 J-0.63
G1 Y-174.584
X57.683 Y-174.741
X57.702 Y-174.889
X57.737 Y-175.049
X57.786 Y-175.211
X57.854 Y-175.386
X57.942 Y-175.565
X58.048 Y-175.744
X58.177 Y-175.927
X58.329 Y-176.11
X58.501 Y-176.286
X58.695 Y-176.454
X58.913 Y-176.614
X59.135 Y-176.752
X59.379 Y-176.877
X59.624 Y-176.979
X59.865 Y-177.057
X60.129 Y-177.119
X60.373 Y-177.157
X60.633 Y-177.176
X60.889 Y-177.174
X60.974 Y-177.166
X61.281 Y-177.106
X61.569 Y-176.982
X61.824 Y-176.801
X62.036 Y-176.57
X62.194 Y-176.299
X62.292 Y-176.002
X62.325 Y-175.69
Y-174.151
G3 X61.669 Y-173.538 Z-4.56 I-0.635 J-0.022
G1 X61.61 Y-173.543
X58.331 Y-173.963
X58.229 Y-173.976 Z-4.581
G3 X57.675 Y-174.584 Z-4.76 I0.081 J-0.63
G1 Y-176.148
X57.682 Y-176.298
X57.704 Y-176.446
X57.74 Y-176.608
X57.791 Y-176.772
X57.862 Y-176.946
X57.952 Y-177.127
X58.061 Y-177.306
X58.192 Y-177.488
X58.347 Y-177.671
X58.523 Y-177.847
X58.72 Y-178.014
X58.939 Y-178.173
X59.161 Y-178.307
X59.409 Y-178.431
X59.652 Y-178.529
X59.896 Y-178.606
X60.159 Y-178.665
X60.402 Y-178.7
X60.666 Y-178.717
X60.918 Y-178.712
X60.989 Y-178.705
X61.293 Y-178.642
X61.578 Y-178.517
X61.831 Y-178.336
X62.04 Y-178.105
X62.196 Y-177.836
X62.292 Y-177.54
X62.325 Y-177.231
Y-175.69
G3 X61.669 Y-175.078 Z-4.56 I-0.635 J-0.022
G1 X61.605 Y-175.083
X58.331 Y-175.527
X58.224 Y-175.541 Z-4.581
G3 X57.675 Y-176.148 Z-4.76 I0.085 J-0.629
G1 Y-177.691
X57.682 Y-177.841
X57.704 Y-177.99
X57.74 Y-178.15
X57.792 Y-178.314
X57.863 Y-178.49
X57.953 Y-178.669
X58.062 Y-178.848
X58.194 Y-179.032
X58.349 Y-179.214
X58.524 Y-179.389
X58.721 Y-179.556
X58.943 Y-179.715
X59.165 Y-179.85
X59.411 Y-179.973
X59.657 Y-180.071
X59.898 Y-180.147
X60.162 Y-180.206
X60.406 Y-180.241
X60.668 Y-180.257
X60.922 Y-180.253
X60.99 Y-180.246
X61.295 Y-180.183
X61.579 Y-180.057
X61.831 Y-179.876
X62.04 Y-179.645
X62.196 Y-179.376
X62.292 Y-179.081
X62.325 Y-178.771
Y-177.231
G3 X61.669 Y-176.618 Z-4.56 I-0.635 J-0.022
G1 X61.605 Y-176.624
X58.331 Y-177.07
X58.224 Y-177.084 Z-4.582
G3 X57.675 Y-177.691 Z-4.76 I0.086 J-0.629
G1 Y-179.255
X57.682 Y-179.405
X57.706 Y-179.553
X57.745 Y-179.716
X57.8 Y-179.882
X57.873 Y-180.057
X57.967 Y-180.239
X58.08 Y-180.419
X58.215 Y-180.601
X58.374 Y-180.783
X58.554 Y-180.958
X58.755 Y-181.124
X58.978 Y-181.28
X59.201 Y-181.411
X59.451 Y-181.532
X59.694 Y-181.626
X59.941 Y-181.699
X60.203 Y-181.755
X60.446 Y-181.786
X60.711 Y-181.799
X60.96 Y-181.791
X61.009 Y-181.785
X61.31 Y-181.719
X61.591 Y-181.592
X61.84 Y-181.41
X62.045 Y-181.18
X62.198 Y-180.913
X62.293 Y-180.62
X62.325 Y-180.313
Y-178.771
G3 X61.669 Y-178.159 Z-4.56 I-0.635 J-0.022
G1 X61.6 Y-178.165
X58.33 Y-178.633
X58.22 Y-178.649 Z-4.582
G3 X57.675 Y-179.255 Z-4.76 I0.09 J-0.629
G1 Y-180.799
X57.682 Y-180.948
X57.707 Y-181.099
X57.746 Y-181.26
X57.8 Y-181.426
X57.875 Y-181.603
X57.969 Y-181.783
X58.081 Y-181.962
X58.218 Y-182.147
X58.377 Y-182.328
X58.556 Y-182.501
X58.758 Y-182.667
X58.983 Y-182.824
X59.207 Y-182.956
X59.455 Y-183.075
X59.701 Y-183.17
X59.944 Y-183.242
X60.208 Y-183.297
X60.451 Y-183.328
X60.715 Y-183.341
X60.966 Y-183.332
X61.012 Y-183.327
X61.312 Y-183.26
X61.593 Y-183.133
X61.84 Y-182.951
X62.045 Y-182.721
X62.198 Y-182.454
X62.293 Y-182.161
X62.325 Y-181.855
Y-180.313
G3 X61.669 Y-179.701 Z-4.56 I-0.635 J-0.022
G1 X61.6 Y-179.707
X58.33 Y-180.176
X58.219 Y-180.192 Z-4.583
G3 X57.675 Y-180.799 Z-4.76 I0.09 J-0.629
G1 Y-182.249
X57.685 Y-182.445
X57.704 Y-182.593
X57.737 Y-182.746
X57.787 Y-182.912
X57.855 Y-183.087
X57.94 Y-183.262
X58.047 Y-183.444
X58.176 Y-183.628
X58.325 Y-183.807
X58.496 Y-183.982
X58.692 Y-184.154
X58.91 Y-184.315
X59.135 Y-184.455
X59.37 Y-184.576
X59.621 Y-184.681
X59.859 Y-184.758
X60.122 Y-184.822
X60.371 Y-184.86
X60.624 Y-184.879
X60.884 Y-184.878
X60.971 Y-184.87
X61.279 Y-184.81
X61.567 Y-184.687
X61.823 Y-184.506
X62.035 Y-184.274
X62.194 Y-184.004
X62.292 Y-183.706
X62.325 Y-183.394
Y-181.855
G3 X61.669 Y-181.243 Z-4.56 I-0.635 J-0.022
G1 X61.617 Y-181.246
X58.331 Y-181.629
X58.236 Y-181.64 Z-4.579
G3 X57.675 Y-182.249 Z-4.76 I0.073 J-0.631
G1 Y-183.813
X57.684 Y-183.984
X57.703 Y-184.133
X57.738 Y-184.292
X57.787 Y-184.454
X57.855 Y-184.629
X57.943 Y-184.809
X58.048 Y-184.987
X58.177 Y-185.17
X58.33 Y-185.353
X58.502 Y-185.529
X58.696 Y-185.697
X58.913 Y-185.857
X59.135 Y-185.995
X59.38 Y-186.12
X59.624 Y-186.222
X59.865 Y-186.3
X60.129 Y-186.363
X60.373 Y-186.4
X60.634 Y-186.419
X60.888 Y-186.417
X60.974 Y-186.409
X61.281 Y-186.349
X61.569 Y-186.225
X61.824 Y-186.044
X62.036 Y-185.813
X62.194 Y-185.543
X62.292 Y-185.245
X62.325 Y-184.934
Y-183.394
G3 X61.669 Y-182.782 Z-4.56 I-0.635 J-0.022
G1 X61.612 Y-182.786
X58.331 Y-183.192
X58.232 Y-183.205 Z-4.58
G3 X57.675 Y-183.813 Z-4.76 I0.078 J-0.63
G1 Y-185.356
X57.683 Y-185.524
X57.703 Y-185.672
X57.737 Y-185.832
X57.786 Y-185.995
X57.855 Y-186.169
X57.942 Y-186.348
X58.048 Y-186.527
X58.177 Y-186.71
X58.33 Y-186.893
X58.502 Y-187.069
X58.695 Y-187.237
X58.913 Y-187.397
X59.135 Y-187.534
X59.379 Y-187.66
X59.625 Y-187.762
X59.865 Y-187.839
X60.129 Y-187.902
X60.373 Y-187.94
X60.634 Y-187.959
X60.889 Y-187.957
X60.974 Y-187.949
X61.281 Y-187.889
X61.569 Y-187.765
X61.824 Y-187.583
X62.036 Y-187.352
X62.194 Y-187.082
X62.292 Y-186.785
X62.325 Y-186.473
Y-184.934
G3 X61.669 Y-184.321 Z-4.56 I-0.635 J-0.022
G1 X61.612 Y-184.326
X58.331 Y-184.735
X58.231 Y-184.748 Z-4.58
G3 X57.675 Y-185.356 Z-4.76 I0.079 J-0.63
G1 Y-186.92
X57.682 Y-187.07
X57.703 Y-187.218
X57.738 Y-187.378
X57.788 Y-187.542
X57.857 Y-187.716
X57.946 Y-187.896
X58.052 Y-188.075
X58.183 Y-188.258
X58.336 Y-188.441
X58.51 Y-188.616
X58.704 Y-188.784
X58.923 Y-188.944
X59.145 Y-189.08
X59.39 Y-189.205
X59.635 Y-189.306
X59.876 Y-189.383
X60.14 Y-189.444
X60.384 Y-189.481
X60.646 Y-189.499
X60.9 Y-189.496
X60.98 Y-189.489
X61.286 Y-189.427
X61.573 Y-189.303
X61.827 Y-189.121
X62.037 Y-188.891
X62.195 Y-188.621
X62.292 Y-188.324
X62.325 Y-188.013
Y-186.473
G3 X61.669 Y-185.861 Z-4.56 I-0.635 J-0.022
G1 X61.607 Y-185.866
X58.331 Y-186.299
X58.226 Y-186.312 Z-4.581
G3 X57.675 Y-186.92 Z-4.76 I0.083 J-0.63
G1 Y-188.463
X57.682 Y-188.613
X57.703 Y-188.762
X57.738 Y-188.922
X57.789 Y-189.085
X57.858 Y-189.26
X57.947 Y-189.44
X58.054 Y-189.618
X58.185 Y-189.802
X58.339 Y-189.984
X58.513 Y-190.159
X58.708 Y-190.327
X58.927 Y-190.487
X59.149 Y-190.623
X59.395 Y-190.747
X59.64 Y-190.847
X59.881 Y-190.924
X60.145 Y-190.985
X60.389 Y-191.022
X60.65 Y-191.039
X60.905 Y-191.036
X60.982 Y-191.028
X61.288 Y-190.967
X61.574 Y-190.842
X61.828 Y-190.661
X62.038 Y-190.43
X62.195 Y-190.16
X62.292 Y-189.864
X62.325 Y-189.553
Y-188.013
G3 X61.669 Y-187.401 Z-4.56 I-0.635 J-0.022
G1 X61.607 Y-187.406
X58.331 Y-187.842
X58.226 Y-187.856 Z-4.581
G3 X57.675 Y-188.463 Z-4.76 I0.084 J-0.629
G1 Y-190.027
X57.682 Y-190.177
X57.705 Y-190.325
X57.743 Y-190.488
X57.796 Y-190.653
X57.869 Y-190.827
X57.962 Y-191.009
X58.072 Y-191.189
X58.206 Y-191.371
X58.364 Y-191.553
X58.543 Y-191.729
X58.741 Y-191.895
X58.963 Y-192.052
X59.185 Y-192.184
X59.435 Y-192.306
X59.678 Y-192.402
X59.924 Y-192.477
X60.186 Y-192.534
X60.429 Y-192.566
X60.693 Y-192.581
X60.944 Y-192.574
X61.001 Y-192.568
X61.304 Y-192.503
X61.586 Y-192.377
X61.836 Y-192.194
X62.043 Y-191.964
X62.197 Y-191.696
X62.293 Y-191.402
X62.325 Y-191.095
Y-189.553
G3 X61.669 Y-188.941 Z-4.56 I-0.635 J-0.022
G1 X61.602 Y-188.947
X58.33 Y-189.405
X58.221 Y-189.42 Z-4.582
G3 X57.675 Y-190.027 Z-4.76 I0.088 J-0.629
G1 Y-191.57
X57.682 Y-191.72
X57.705 Y-191.869
X57.743 Y-192.03
X57.797 Y-192.195
X57.87 Y-192.372
X57.962 Y-192.552
X58.073 Y-192.731
X58.209 Y-192.915
X58.366 Y-193.096
X58.543 Y-193.27
X58.743 Y-193.437
X58.966 Y-193.595
X59.19 Y-193.727
X59.437 Y-193.848
X59.683 Y-193.945
X59.926 Y-194.018
X60.189 Y-194.075
X60.433 Y-194.108
X60.696 Y-194.122
X60.948 Y-194.115
X61.003 Y-194.109
X61.305 Y-194.044
X61.587 Y-193.917
X61.837 Y-193.735
X62.043 Y-193.505
X62.197 Y-193.237
X62.293 Y-192.943
X62.325 Y-192.636
Y-191.095
G3 X61.669 Y-190.482 Z-4.56 I-0.635 J-0.022
G1 X61.602 Y-190.488
X58.33 Y-190.948
X58.221 Y-190.964 Z-4.582
G3 X57.675 Y-191.57 Z-4.76 I0.088 J-0.629
G1 Y-193.02
X57.685 Y-193.226
X57.705 Y-193.375
X57.738 Y-193.529
X57.787 Y-193.693
X57.855 Y-193.869
X57.941 Y-194.044
X58.047 Y-194.224
X58.177 Y-194.409
X58.326 Y-194.589
X58.496 Y-194.764
X58.692 Y-194.934
X58.911 Y-195.096
X59.135 Y-195.235
X59.371 Y-195.357
X59.621 Y-195.462
X59.859 Y-195.539
X60.123 Y-195.603
X60.371 Y-195.641
X60.625 Y-195.66
X60.884 Y-195.659
X60.971 Y-195.651
X61.279 Y-195.591
X61.567 Y-195.468
X61.823 Y-195.286
X62.035 Y-195.055
X62.194 Y-194.785
X62.292 Y-194.487
X62.325 Y-194.175
Y-192.636
G3 X61.669 Y-192.023 Z-4.56 I-0.635 J-0.022
G1 X61.619 Y-192.027
X58.331 Y-192.401
X58.238 Y-192.412 Z-4.579
G3 X57.675 Y-193.02 Z-4.76 I0.072 J-0.631
G1 Y-194.584
X57.684 Y-194.765
X57.704 Y-194.914
X57.738 Y-195.073
X57.787 Y-195.236
X57.855 Y-195.41
X57.943 Y-195.59
X58.049 Y-195.768
X58.178 Y-195.951
X58.33 Y-196.134
X58.503 Y-196.31
X58.696 Y-196.478
X58.914 Y-196.638
X59.135 Y-196.775
X59.38 Y-196.901
X59.625 Y-197.003
X59.865 Y-197.081
X60.129 Y-197.143
X60.373 Y-197.181
X60.634 Y-197.2
X60.889 Y-197.198
X60.974 Y-197.19
X61.281 Y-197.13
X61.569 Y-197.006
X61.824 Y-196.825
X62.036 Y-196.594
X62.194 Y-196.323
X62.292 Y-196.026
X62.325 Y-195.714
Y-194.175
G3 X61.669 Y-193.563 Z-4.56 I-0.635 J-0.022
G1 X61.614 Y-193.567
X58.331 Y-193.964
X58.233 Y-193.976 Z-4.58
G3 X57.675 Y-194.584 Z-4.76 I0.076 J-0.63
G1 Y-196.128
X57.684 Y-196.305
X57.703 Y-196.453
X57.738 Y-196.613
X57.787 Y-196.775
X57.855 Y-196.95
X57.943 Y-197.129
X58.048 Y-197.308
X58.178 Y-197.491
X58.33 Y-197.674
X58.502 Y-197.849
X58.696 Y-198.017
X58.914 Y-198.178
X59.135 Y-198.315
X59.38 Y-198.44
X59.625 Y-198.542
X59.865 Y-198.62
X60.129 Y-198.683
X60.373 Y-198.72
X60.634 Y-198.739
X60.889 Y-198.737
X60.974 Y-198.73
X61.281 Y-198.669
X61.569 Y-198.546
X61.824 Y-198.364
X62.036 Y-198.133
X62.194 Y-197.863
X62.292 Y-197.565
X62.325 Y-197.254
Y-195.714
G3 X61.669 Y-195.102 Z-4.56 I-0.635 J-0.022
G1 X61.613 Y-195.106
X58.331 Y-195.508
X58.233 Y-195.52 Z-4.58
G3 X57.675 Y-196.128 Z-4.76 I0.077 J-0.63
G1 Y-197.692
X57.683 Y-197.844
X57.702 Y-197.992
X57.737 Y-198.152
X57.786 Y-198.314
X57.854 Y-198.489
X57.942 Y-198.668
X58.047 Y-198.847
X58.177 Y-199.03
X58.329 Y-199.213
X58.501 Y-199.389
X58.695 Y-199.557
X58.913 Y-199.717
X59.135 Y-199.855
X59.379 Y-199.98
X59.624 Y-200.082
X59.864 Y-200.16
X60.128 Y-200.223
X60.373 Y-200.26
X60.633 Y-200.279
X60.888 Y-200.277
X60.974 Y-200.269
X61.281 Y-200.209
X61.569 Y-200.085
X61.824 Y-199.904
X62.036 Y-199.673
X62.194 Y-199.403
X62.292 Y-199.105
X62.325 Y-198.794
Y-197.254
G3 X61.669 Y-196.641 Z-4.56 I-0.635 J-0.022
G1 X61.609 Y-196.646
X58.331 Y-197.071
X58.228 Y-197.084 Z-4.581
G3 X57.675 Y-197.692 Z-4.76 I0.082 J-0.63
G1 Y-199.235
X57.682 Y-199.385
X57.702 Y-199.533
X57.737 Y-199.693
X57.786 Y-199.856
X57.854 Y-200.03
X57.942 Y-200.21
X58.048 Y-200.388
X58.178 Y-200.572
X58.33 Y-200.754
X58.503 Y-200.93
X58.696 Y-201.098
X58.914 Y-201.258
X59.136 Y-201.396
X59.381 Y-201.521
X59.626 Y-201.623
X59.866 Y-201.7
X60.131 Y-201.763
X60.375 Y-201.8
X60.635 Y-201.819
X60.89 Y-201.817
X60.975 Y-201.809
X61.282 Y-201.749
X61.57 Y-201.625
X61.825 Y-201.443
X62.036 Y-201.212
X62.194 Y-200.942
X62.292 Y-200.645
X62.325 Y-200.333
Y-198.794
G3 X61.669 Y-198.181 Z-4.56 I-0.635 J-0.022
G1 X61.608 Y-198.186
X58.331 Y-198.614
X58.227 Y-198.627 Z-4.581
G3 X57.675 Y-199.235 Z-4.76 I0.082 J-0.63
G1 Y-200.799
X57.682 Y-200.949
X57.704 Y-201.097
X57.742 Y-201.259
X57.794 Y-201.424
X57.865 Y-201.598
X57.957 Y-201.779
X58.067 Y-201.959
X58.199 Y-202.141
X58.355 Y-202.323
X58.533 Y-202.499
X58.73 Y-202.666
X58.951 Y-202.824
X59.172 Y-202.957
X59.422 Y-203.08
X59.665 Y-203.177
X59.91 Y-203.253
X60.172 Y-203.311
X60.415 Y-203.345
X60.679 Y-203.36
X60.93 Y-203.355
X60.995 Y-203.348
X61.298 Y-203.284
X61.582 Y-203.159
X61.833 Y-202.977
X62.041 Y-202.746
X62.197 Y-202.478
X62.293 Y-202.183
X62.325 Y-201.874
Y-200.333
G3 X61.669 Y-199.721 Z-4.56 I-0.635 J-0.022
G1 X61.604 Y-199.726
X58.331 Y-200.177
X58.223 Y-200.192 Z-4.582
G3 X57.675 Y-200.799 Z-4.76 I0.087 J-0.629
G1 Y-202.342
X57.682 Y-202.492
X57.705 Y-202.64
X57.742 Y-202.801
X57.794 Y-202.965
X57.866 Y-203.142
X57.957 Y-203.321
X58.067 Y-203.5
X58.201 Y-203.684
X58.357 Y-203.866
X58.533 Y-204.04
X58.731 Y-204.207
X58.953 Y-204.366
X59.177 Y-204.5
X59.423 Y-204.621
X59.669 Y-204.719
X59.911 Y-204.794
X60.175 Y-204.852
X60.418 Y-204.886
X60.681 Y-204.901
X60.934 Y-204.895
X60.996 Y-204.889
X61.299 Y-204.825
X61.583 Y-204.699
X61.834 Y-204.517
X62.041 Y-204.287
X62.197 Y-204.018
X62.293 Y-203.724
X62.325 Y-203.415
Y-201.874
G3 X61.669 Y-201.262 Z-4.56 I-0.635 J-0.022
G1 X61.603 Y-201.267
X58.331 Y-201.72
X58.223 Y-201.735 Z-4.582
G3 X57.675 Y-202.342 Z-4.76 I0.087 J-0.629
G1 Y-203.792
X57.686 Y-204.006
X57.705 Y-204.154
X57.739 Y-204.31
X57.788 Y-204.473
X57.856 Y-204.649
X57.942 Y-204.825
X58.047 Y-205.004
X58.178 Y-205.19
X58.328 Y-205.37
X58.498 Y-205.544
X58.693 Y-205.714
X58.912 Y-205.876
X59.135 Y-206.015
X59.373 Y-206.137
X59.622 Y-206.241
X59.86 Y-206.319
X60.124 Y-206.382
X60.371 Y-206.421
