(1001)
(T39  D=6.35 CR=0 - ZMIN=-4.76 - flat end mill)
G90 G94
G17
G21
G28 G91 Z0
G90

(2D Adaptive2)
T39
S18000 M3
G54
G0 X-0.611 Y-203.485
Z15
Z5
Z-3.49
G1 Z-4.125 F250
X-0.609 Y-203.477 Z-4.224
X-0.603 Y-203.455 Z-4.321
X-0.594 Y-203.418 Z-4.413
X-0.581 Y-203.367 Z-4.498
X-0.565 Y-203.305 Z-4.574
X-0.546 Y-203.231 Z-4.639
X-0.525 Y-203.149 Z-4.691
X-0.502 Y-203.06 Z-4.729
X-0.478 Y-202.966 Z-4.752
X-0.453 Y-202.87 Z-4.76
G3 X0.044 Y-199.413 I-15.704 J4.023
G1 Y-199.299
X0.084 Y-199.192
X0.687 Y-198.508
X1.157 Y-198.214
X1.641 Y-197.75
X2.1 Y-197.077
X2.447 Y-196.234
X2.633 Y-195.341
X2.7 Y-194.432
X2.689 Y-193.52
X2.621 Y-192.611
X2.513 Y-191.705
X2.391 Y-190.802
X2.278 Y-189.897
X2.171 Y-188.991
X2.069 Y-188.085
X1.996 Y-187.176
X1.951 Y-186.266
X1.922 Y-185.354
X1.914 Y-184.443
X1.945 Y-183.531
X1.999 Y-182.621
X2.069 Y-181.712
X2.177 Y-180.807
X2.316 Y-179.906
X2.474 Y-179.007
X2.657 Y-178.114
X2.877 Y-177.229
X3.12 Y-176.35
X3.377 Y-175.475
X3.675 Y-174.614
X4 Y-173.762
X4.342 Y-172.917
X4.71 Y-172.082
X5.112 Y-171.264
X5.533 Y-170.455
X5.968 Y-169.654
X6.442 Y-168.875
X6.939 Y-168.111
X7.45 Y-167.356
X7.987 Y-166.619
X8.552 Y-165.903
X9.134 Y-165.201
X9.728 Y-164.509
X10.34 Y-163.834
X10.965 Y-163.169
X11.597 Y-162.512
X12.233 Y-161.859
X12.872 Y-161.209
X13.514 Y-160.56
X14.156 Y-159.913
X15.443 Y-158.622
X18.021 Y-156.041
X18.665 Y-155.396
X27.047 Y-147.014
X27.686 Y-146.363
X28.314 Y-145.703
X28.935 Y-145.035
X29.552 Y-144.363
X30.147 Y-143.673
X30.721 Y-142.964
X31.279 Y-142.243
X31.827 Y-141.515
X32.346 Y-140.765
X32.839 Y-139.998
X33.315 Y-139.22
X33.779 Y-138.435
X34.209 Y-137.631
X34.612 Y-136.813
X34.997 Y-135.987
X35.369 Y-135.154
X35.702 Y-134.305
X36.009 Y-133.447
X36.298 Y-132.582
X36.57 Y-131.712
X36.804 Y-130.83
X37.011 Y-129.942
X37.199 Y-129.05
X37.368 Y-128.154
X37.499 Y-127.252
X37.603 Y-126.346
X37.69 Y-125.438
X37.758 Y-124.529
X37.804 Y-123.618
X37.834 Y-122.707
X37.854 Y-121.795
X37.867 Y-120.884
X37.875 Y-119.972
X37.881 Y-119.06
X37.884 Y-118.148
X37.888 Y-116.325
X37.89 Y-112.677
X37.891 Y-111.766
Y-96.265
X37.876 Y-95.353
X37.848 Y-94.442
X37.813 Y-93.531
X37.769 Y-92.62
X37.689 Y-91.712
X37.585 Y-90.806
X37.464 Y-89.902
X37.325 Y-89.001
X37.149 Y-88.106
X36.948 Y-87.217
X36.728 Y-86.332
X36.488 Y-85.452
X36.212 Y-84.583
X35.911 Y-83.723
X35.593 Y-82.868
X35.253 Y-82.022
X34.879 Y-81.19
X34.482 Y-80.37
X34.07 Y-79.556
X33.633 Y-78.756
X33.166 Y-77.973
X32.678 Y-77.202
X32.176 Y-76.441
X31.65 Y-75.697
X31.095 Y-74.973
X30.523 Y-74.263
X29.938 Y-73.563
X29.337 Y-72.878
X28.72 Y-72.206
X28.094 Y-71.543
X27.461 Y-70.887
X26.824 Y-70.234
X26.185 Y-69.584
X25.543 Y-68.936
X24.901 Y-68.29
X23.613 Y-66.998
X22.969 Y-66.352
X18.457 Y-61.838
X12.01 Y-55.391
X11.374 Y-54.737
X10.748 Y-54.074
X10.127 Y-53.406
X9.515 Y-52.73
X8.93 Y-52.031
X8.363 Y-51.316
X7.807 Y-50.594
X7.279 Y-49.851
X6.777 Y-49.089
X6.292 Y-48.317
X5.825 Y-47.534
X5.393 Y-46.731
X4.983 Y-45.917
X4.588 Y-45.095
X4.227 Y-44.258
X3.895 Y-43.408
X3.581 Y-42.552
X3.291 Y-41.688
X3.037 Y-40.812
X2.807 Y-39.93
X2.592 Y-39.044
X2.417 Y-38.149
X2.272 Y-37.249
X2.144 Y-36.346
X2.044 Y-35.44
X1.981 Y-34.53
X1.941 Y-33.619
X1.915 Y-32.708
X1.934 Y-31.796
X1.982 Y-30.885
X2.046 Y-29.976
X2.141 Y-29.069
X2.271 Y-28.167
X2.423 Y-27.267
X2.59 Y-26.371
X2.801 Y-25.484
X3.039 Y-24.604
X3.292 Y-23.728
X3.577 Y-22.862
X3.894 Y-22.007
X4.231 Y-21.16
X4.585 Y-20.319
X4.979 Y-19.497
X5.396 Y-18.686
X5.827 Y-17.882
X6.289 Y-17.096
X6.779 Y-16.327
X7.286 Y-15.57
X7.811 Y-14.824
X8.368 Y-14.103
X8.946 Y-13.397
X9.535 Y-12.701
X10.143 Y-12.021
X10.774 Y-11.363
X11.422 Y-10.722
X12.082 Y-10.092
X12.753 Y-9.476
X13.451 Y-8.889
X14.164 Y-8.32
X14.886 Y-7.763
X15.63 Y-7.237
X16.392 Y-6.736
X17.165 Y-6.251
X17.949 Y-5.787
X18.754 Y-5.357
X19.569 Y-4.949
X20.391 Y-4.554
X21.23 Y-4.197
X22.08 Y-3.867
X22.936 Y-3.555
X23.802 Y-3.268
X24.678 Y-3.017
X25.561 Y-2.788
X26.447 Y-2.574
X27.343 Y-2.403
X28.243 Y-2.259
X29.147 Y-2.133
X30.053 Y-2.037
X30.963 Y-1.977
X31.874 Y-1.938
X32.786 Y-1.915
X33.697 Y-1.937
X34.608 Y-1.986
X35.517 Y-2.052
X36.424 Y-2.151
X37.326 Y-2.283
X38.225 Y-2.437
X39.12 Y-2.608
X40.006 Y-2.822
X40.886 Y-3.061
X41.762 Y-3.315
X42.627 Y-3.603
X43.481 Y-3.923
X44.328 Y-4.261
X45.166 Y-4.619
X45.988 Y-5.015
X46.798 Y-5.433
X47.601 Y-5.865
X48.385 Y-6.33
X49.153 Y-6.822
X49.91 Y-7.33
X50.653 Y-7.858
X51.373 Y-8.418
X52.078 Y-8.997
X52.773 Y-9.587
X53.452 Y-10.196
X54.118 Y-10.818
X54.777 Y-11.448
X55.431 Y-12.084
X56.082 Y-12.723
X56.73 Y-13.363
X57.377 Y-14.006
X58.67 Y-15.293
X61.25 Y-17.87
X70.277 Y-26.896
X70.925 Y-27.538
X71.584 Y-28.168
X72.25 Y-28.79
X72.921 Y-29.408
X73.606 Y-30.01
X74.311 Y-30.588
X75.029 Y-31.15
X75.757 Y-31.7
X76.501 Y-32.226
X77.264 Y-32.725
X78.04 Y-33.205
X78.823 Y-33.672
X79.623 Y-34.11
X80.438 Y-34.519
X81.262 Y-34.908
X82.093 Y-35.283
X82.938 Y-35.625
X83.795 Y-35.938
X84.658 Y-36.231
X85.526 Y-36.51
X86.406 Y-36.752
X87.292 Y-36.964
X88.184 Y-37.156
X89.078 Y-37.335
X89.979 Y-37.473
X90.884 Y-37.582
X91.792 Y-37.671
X92.701 Y-37.746
X93.611 Y-37.796
X94.522 Y-37.829
X95.434 Y-37.851
X96.345 Y-37.865
X97.257 Y-37.874
X98.169 Y-37.88
X99.081 Y-37.884
X100.904 Y-37.888
X103.64 Y-37.89
X119.141 Y-37.891
X120.964
X121.876 Y-37.88
X122.788 Y-37.855
X123.699 Y-37.821
X124.61 Y-37.782
X125.519 Y-37.709
X126.425 Y-37.61
X127.329 Y-37.493
X128.232 Y-37.363
X129.128 Y-37.194
X130.018 Y-36.997
X130.904 Y-36.781
X131.786 Y-36.55
X132.657 Y-36.28
X133.519 Y-35.984
X134.375 Y-35.669
X135.224 Y-35.338
X136.059 Y-34.97
X136.882 Y-34.577
X137.696 Y-34.168
X138.501 Y-33.74
X139.288 Y-33.278
X140.061 Y-32.794
X140.824 Y-32.295
X141.574 Y-31.776
X142.302 Y-31.227
X143.014 Y-30.658
X143.716 Y-30.076
X144.405 Y-29.479
X145.08 Y-28.866
X145.744 Y-28.241
X146.402 Y-27.61
X147.055 Y-26.974
X147.706 Y-26.335
X148.354 Y-25.694
X149.001 Y-25.051
X150.293 Y-23.764
X152.874 Y-21.187
X161.901 Y-12.161
X162.552 Y-11.523
X163.213 Y-10.894
X163.88 Y-10.272
X164.55 Y-9.655
X165.246 Y-9.065
X165.957 Y-8.495
X166.678 Y-7.937
X167.416 Y-7.4
X168.174 Y-6.893
X168.943 Y-6.405
X169.72 Y-5.928
X170.52 Y-5.49
X171.333 Y-5.077
X172.153 Y-4.679
X172.987 Y-4.309
X173.834 Y-3.971
X174.689 Y-3.654
X175.549 Y-3.352
X176.423 Y-3.093
X177.305 Y-2.859
X178.19 Y-2.641
X179.083 Y-2.456
X179.982 Y-2.305
X180.884 Y-2.173
X181.789 Y-2.062
X182.698 Y-1.992
X183.609 Y-1.948
X184.521 Y-1.92
X185.432 Y-1.929
X186.343 Y-1.97
X187.253 Y-2.031
X188.161 Y-2.114
X189.064 Y-2.237
X189.964 Y-2.385
X190.861 Y-2.548
X191.75 Y-2.75
X192.632 Y-2.982
X193.509 Y-3.232
X194.379 Y-3.507
X195.236 Y-3.818
X196.084 Y-4.151
X196.928 Y-4.498
X197.754 Y-4.884
X198.567 Y-5.296
X199.372 Y-5.724
X200.163 Y-6.177
X200.936 Y-6.662
X201.696 Y-7.166
X202.448 Y-7.681
X203.173 Y-8.234
X203.881 Y-8.808
X204.579 Y-9.396
X205.263 Y-9.999
X205.926 Y-10.624
X206.571 Y-11.269
X207.203 Y-11.926
X207.827 Y-12.591
X208.419 Y-13.284
X208.991 Y-13.995
X209.55 Y-14.715
X210.085 Y-15.454
X210.59 Y-16.212
X211.078 Y-16.983
X211.552 Y-17.762
X211.987 Y-18.563
X212.4 Y-19.376
X212.797 Y-20.197
X213.164 Y-21.032
X213.499 Y-21.879
X213.815 Y-22.735
X214.113 Y-23.597
X214.37 Y-24.471
X214.602 Y-25.353
X214.819 Y-26.239
X215 Y-27.132
X215.15 Y-28.032
X215.279 Y-28.934
X215.387 Y-29.84
X215.454 Y-30.749
X215.496 Y-31.66
X215.524 Y-32.571
X215.511 Y-33.483
X215.468 Y-34.394
X215.406 Y-35.304
X215.318 Y-36.211
X215.192 Y-37.114
X215.043 Y-38.014
X214.879 Y-38.911
X214.674 Y-39.799
X214.44 Y-40.68
X214.188 Y-41.557
X213.91 Y-42.425
X213.596 Y-43.281
X213.262 Y-44.13
X212.914 Y-44.972
X212.524 Y-45.797
X212.11 Y-46.609
X211.681 Y-47.414
X211.224 Y-48.203
X210.737 Y-48.974
X210.232 Y-49.733
X209.713 Y-50.483
X209.159 Y-51.207
X208.583 Y-51.914
X207.995 Y-52.611
X207.391 Y-53.293
X206.771 Y-53.962
X206.143 Y-54.623
X205.508 Y-55.278
X204.87 Y-55.929
X204.23 Y-56.578
X203.588 Y-57.226
X202.301 Y-58.518
X200.368 Y-60.454
X197.145 Y-63.678
X190.053 Y-70.77
X189.421 Y-71.428
X188.797 Y-72.093
X188.179 Y-72.763
X187.57 Y-73.442
X186.987 Y-74.143
X186.423 Y-74.859
X185.871 Y-75.585
X185.337 Y-76.324
X184.832 Y-77.083
X184.349 Y-77.856
X183.879 Y-78.638
X183.433 Y-79.433
X183.018 Y-80.245
X182.625 Y-81.068
X182.247 Y-81.897
X181.895 Y-82.739
X181.576 Y-83.593
X181.279 Y-84.455
X180.997 Y-85.322
X180.746 Y-86.199
X180.527 Y-87.084
X180.33 Y-87.974
X180.149 Y-88.868
X180.001 Y-89.767
X179.885 Y-90.672
X179.791 Y-91.579
X179.712 Y-92.487
X179.657 Y-93.397
X179.62 Y-94.308
X179.596 Y-95.22
X179.58 Y-96.132
X179.57 Y-97.043
X179.563 Y-97.955
X179.559 Y-98.867
X179.554 Y-100.691
X179.552 Y-103.426
X179.551 Y-107.985
Y-120.75
X179.558 Y-121.662
X179.58 Y-122.574
X179.612 Y-123.485
X179.651 Y-124.396
X179.714 Y-125.306
X179.807 Y-126.213
X179.921 Y-127.117
X180.048 Y-128.02
X180.207 Y-128.918
X180.398 Y-129.81
X180.61 Y-130.697
X180.836 Y-131.58
X181.097 Y-132.453
X181.388 Y-133.318
X181.698 Y-134.175
X182.022 Y-135.027
X182.383 Y-135.865
X182.771 Y-136.69
X183.177 Y-137.506
X183.597 Y-138.316
X184.052 Y-139.106
X184.532 Y-139.881
X185.028 Y-140.646
X185.539 Y-141.401
X186.083 Y-142.134
X186.648 Y-142.849
X187.228 Y-143.552
X187.82 Y-144.246
X188.431 Y-144.923
X189.053 Y-145.589
X189.683 Y-146.248
X190.319 Y-146.902
X190.957 Y-147.553
X191.598 Y-148.202
X192.24 Y-148.849
X193.527 Y-150.142
X196.104 Y-152.722
X205.13 Y-161.749
X205.771 Y-162.397
X206.401 Y-163.057
X207.024 Y-163.722
X207.643 Y-164.392
X208.239 Y-165.082
X208.814 Y-165.79
X209.375 Y-166.509
X209.92 Y-167.24
X210.432 Y-167.994
X210.924 Y-168.762
X211.403 Y-169.537
X211.85 Y-170.333
X212.269 Y-171.142
X212.67 Y-171.961
X213.051 Y-172.79
X213.394 Y-173.634
X213.715 Y-174.488
X214.022 Y-175.346
X214.29 Y-176.218
X214.53 Y-177.098
X214.751 Y-177.982
X214.946 Y-178.873
X215.104 Y-179.771
X215.239 Y-180.673
X215.36 Y-181.577
X215.437 Y-182.485
X215.486 Y-183.396
X215.517 Y-184.307
X215.518 Y-185.219
X215.484 Y-186.13
X215.427 Y-187.04
X215.355 Y-187.949
X215.238 Y-188.853
X215.094 Y-189.754
X214.934 Y-190.651
X214.742 Y-191.542
X214.516 Y-192.426
X214.27 Y-193.304
X214.006 Y-194.177
X213.701 Y-195.036
X213.372 Y-195.886
X213.027 Y-196.73
X212.65 Y-197.561
X212.243 Y-198.377
X211.819 Y-199.184
X211.376 Y-199.981
X210.897 Y-200.756
X210.396 Y-201.519
X209.883 Y-202.272
X209.338 Y-203.004
X208.769 Y-203.716
X208.184 Y-204.416
X207.586 Y-205.104
X206.967 Y-205.773
X206.326 Y-206.421
X205.671 Y-207.056
X205.008 Y-207.681
X204.32 Y-208.281
X203.614 Y-208.857
X202.896 Y-209.419
X202.164 Y-209.963
X201.409 Y-210.474
X200.641 Y-210.965
X199.865 Y-211.444
X199.068 Y-211.887
X198.257 Y-212.304
X197.438 Y-212.705
X196.607 Y-213.081
X195.762 Y-213.423
X194.908 Y-213.742
X194.049 Y-214.048
X193.176 Y-214.313
X192.296 Y-214.55
X191.411 Y-214.77
X190.52 Y-214.961
X189.621 Y-215.117
X188.719 Y-215.25
X187.815 Y-215.369
X186.906 Y-215.443
X185.996 Y-215.489
X185.084 Y-215.519
X184.173 Y-215.517
X183.261 Y-215.479
X182.351 Y-215.421
X181.443 Y-215.345
X180.539 Y-215.226
X179.639 Y-215.08
X178.741 Y-214.919
X177.851 Y-214.723
X176.968 Y-214.495
X176.09 Y-214.248
X175.219 Y-213.98
X174.36 Y-213.673
X173.511 Y-213.342
X172.667 Y-212.996
X171.838 Y-212.616
X171.023 Y-212.207
X170.217 Y-211.781
X169.422 Y-211.334
X168.647 Y-210.853
X167.886 Y-210.352
X167.133 Y-209.838
X166.404 Y-209.29
X165.693 Y-208.719
X164.994 Y-208.133
X164.307 Y-207.534
X163.636 Y-206.917
X162.973 Y-206.29
X162.317 Y-205.657
X161.665 Y-205.019
X161.016 Y-204.379
X160.368 Y-203.738
X159.075 Y-202.452
X157.139 Y-200.519
X148.112 Y-191.493
X146.823 Y-190.204
X146.168 Y-189.569
X145.505 Y-188.943
X144.836 Y-188.323
X144.163 Y-187.708
X143.466 Y-187.121
X142.753 Y-186.553
X142.029 Y-185.999
X141.295 Y-185.457
X140.539 Y-184.947
X139.768 Y-184.46
X138.988 Y-183.988
X138.198 Y-183.533
X137.389 Y-183.112
X136.568 Y-182.715
X135.74 Y-182.334
X134.902 Y-181.974
X134.051 Y-181.648
X133.19 Y-181.347
X132.324 Y-181.062
X131.45 Y-180.801
X130.567 Y-180.576
X129.677 Y-180.375
X128.784 Y-180.19
X127.886 Y-180.033
X126.983 Y-179.911
X126.076 Y-179.812
X125.168 Y-179.73
X124.258 Y-179.668
X123.347 Y-179.628
X122.436 Y-179.601
X121.524 Y-179.584
X120.613 Y-179.572
X119.701 Y-179.565
X118.789 Y-179.56
X117.877 Y-179.557
X116.053 Y-179.553
X112.406 Y-179.551
X96.905
X95.994 Y-179.554
X95.082 Y-179.573
X94.171 Y-179.603
X93.26 Y-179.641
X92.35 Y-179.696
X91.442 Y-179.783
X90.537 Y-179.893
X89.633 Y-180.017
X88.734 Y-180.167
X87.841 Y-180.352
X86.953 Y-180.559
X86.069 Y-180.782
X85.193 Y-181.034
X84.326 Y-181.318
X83.468 Y-181.625
X82.614 Y-181.946
X81.773 Y-182.298
X80.945 Y-182.68
X80.127 Y-183.082
X79.315 Y-183.497
X78.521 Y-183.945
X77.742 Y-184.419
X76.975 Y-184.912
X76.215 Y-185.417
X75.478 Y-185.954
X74.759 Y-186.514
X74.053 Y-187.091
X73.356 Y-187.679
X72.676 Y-188.286
X72.008 Y-188.906
X71.347 Y-189.535
X70.692 Y-190.17
X70.041 Y-190.808
X69.392 Y-191.448
X68.744 Y-192.09
X67.451 Y-193.376
X65.516 Y-195.309
X55.844 Y-204.98
X55.198 Y-205.624
X54.541 Y-206.256
X53.876 Y-206.88
X53.207 Y-207.499
X52.523 Y-208.102
X51.819 Y-208.681
X51.102 Y-209.245
X50.378 Y-209.798
X49.627 Y-210.316
X48.862 Y-210.812
X48.087 Y-211.293
X47.297 Y-211.748
X46.49 Y-212.172
X45.673 Y-212.577
X44.849 Y-212.968
X44.007 Y-213.318
X43.155 Y-213.643
X42.298 Y-213.952
X41.429 Y-214.23
X40.551 Y-214.475
X39.667 Y-214.7
X38.779 Y-214.906
X37.882 Y-215.071
X36.981 Y-215.21
X36.078 Y-215.333
X35.17 Y-215.42
X34.26 Y-215.475
X33.349 Y-215.51
X32.437 Y-215.523
X31.525 Y-215.495
X30.615 Y-215.442
X29.706 Y-215.374
X28.8 Y-215.266
X27.899 Y-215.128
X27.001 Y-214.972
X26.107 Y-214.79
X25.222 Y-214.571
X24.343 Y-214.329
X23.468 Y-214.072
X22.606 Y-213.775
X21.754 Y-213.45
X20.909 Y-213.109
X20.074 Y-212.741
X19.255 Y-212.34
X18.447 Y-211.919
X17.645 Y-211.485
X16.865 Y-211.012
X16.101 Y-210.515
X15.345 Y-210.004
X14.608 Y-209.468
X13.892 Y-208.904
X13.19 Y-208.322
X12.497 Y-207.729
X11.822 Y-207.116
X11.17 Y-206.478
X10.534 Y-205.826
X9.906 Y-205.164
X9.3 Y-204.483
X8.719 Y-203.78
X8.154 Y-203.065
X7.601 Y-202.339
X7.085 Y-201.588
X6.899 Y-201.301
X6.777 Y-201.108
X6.685 Y-200.662
X6.804 Y-199.758
X6.996 Y-198.866
X7.185 Y-197.974
X7.342 Y-197.076
X7.461 Y-196.172
X7.538 Y-195.264
X7.57 Y-194.352
X7.561 Y-193.44
X7.517 Y-192.53
X7.448 Y-191.621
X7.364 Y-190.713
X7.183 Y-188.898
X7.104 Y-187.99
X7.041 Y-187.08
X6.996 Y-186.169
X6.978 Y-185.258
X6.988 Y-184.346
X7.026 Y-183.435
X7.096 Y-182.526
X7.196 Y-181.619
X7.326 Y-180.717
X7.492 Y-179.82
X7.689 Y-178.93
X7.916 Y-178.047
X8.177 Y-177.173
X8.468 Y-176.309
X8.791 Y-175.457
X9.147 Y-174.617
X9.53 Y-173.79
X9.943 Y-172.977
X10.388 Y-172.181
X10.86 Y-171.4
X11.361 Y-170.639
X11.89 Y-169.896
X12.442 Y-169.171
X13.016 Y-168.462
X13.609 Y-167.769
X14.217 Y-167.089
X14.835 Y-166.419
X15.461 Y-165.756
X16.093 Y-165.099
X16.728 Y-164.445
X17.367 Y-163.794
X18.007 Y-163.145
X18.649 Y-162.497
X19.935 Y-161.204
X21.867 Y-159.268
X27.024 Y-154.109
X28.958 Y-152.174
X29.602 Y-151.529
X30.243 Y-150.881
X30.88 Y-150.228
X31.511 Y-149.569
X32.136 Y-148.906
X32.751 Y-148.233
X33.353 Y-147.548
X33.942 Y-146.852
X34.518 Y-146.145
X35.079 Y-145.426
X35.623 Y-144.694
X36.149 Y-143.949
X36.658 Y-143.193
X37.152 Y-142.426
X37.625 Y-141.647
X38.077 Y-140.855
X38.509 Y-140.052
X38.923 Y-139.24
X39.318 Y-138.418
X39.692 Y-137.586
X40.043 Y-136.745
X40.374 Y-135.895
X40.686 Y-135.038
X40.975 Y-134.174
X41.241 Y-133.301
X41.485 Y-132.423
X41.709 Y-131.539
X41.913 Y-130.65
X42.093 Y-129.756
X42.248 Y-128.858
X42.382 Y-127.956
X42.496 Y-127.051
X42.59 Y-126.144
X42.666 Y-125.236
X42.725 Y-124.326
X42.771 Y-123.415
X42.804 Y-122.504
X42.829 Y-121.592
X42.847 Y-120.681
X42.86 Y-119.769
X42.87 Y-118.857
X42.876 Y-117.946
X42.881 Y-117.034
X42.886 Y-115.21
X42.889 Y-112.475
X42.891 Y-106.092
Y-97.886
X42.885 Y-96.974
X42.872 Y-96.062
X42.852 Y-95.151
X42.824 Y-94.239
X42.781 Y-93.328
X42.72 Y-92.419
X42.642 Y-91.51
X42.547 Y-90.603
X42.434 Y-89.699
X42.299 Y-88.797
X42.141 Y-87.899
X41.963 Y-87.004
X41.766 Y-86.114
X41.546 Y-85.229
X41.303 Y-84.35
X41.039 Y-83.478
X40.755 Y-82.611
X40.452 Y-81.751
X40.125 Y-80.9
X39.775 Y-80.058
X39.406 Y-79.224
X39.017 Y-78.4
X38.608 Y-77.585
X38.178 Y-76.781
X37.727 Y-75.988
X37.26 Y-75.205
X36.772 Y-74.435
X36.264 Y-73.678
X35.736 Y-72.934
X35.192 Y-72.203
X34.631 Y-71.484
X34.055 Y-70.777
X33.465 Y-70.082
X32.862 Y-69.397
X32.249 Y-68.722
X31.628 Y-68.055
X31 Y-67.394
X30.368 Y-66.737
X29.732 Y-66.083
X29.094 Y-65.432
X28.453 Y-64.783
X27.812 Y-64.135
X26.526 Y-62.842
X25.238 Y-61.551
X22.016 Y-58.326
X16.858 Y-53.168
X16.216 Y-52.52
X15.579 Y-51.868
X14.948 Y-51.21
X14.324 Y-50.544
X13.717 Y-49.864
X13.125 Y-49.171
X12.551 Y-48.462
X12.001 Y-47.735
X11.473 Y-46.992
X10.969 Y-46.232
X10.494 Y-45.453
X10.046 Y-44.659
X9.625 Y-43.851
X9.235 Y-43.026
X8.874 Y-42.189
X8.544 Y-41.339
X8.246 Y-40.477
X7.977 Y-39.606
X7.74 Y-38.725
X7.539 Y-37.836
X7.368 Y-36.941
X7.23 Y-36.039
X7.126 Y-35.133
X7.05 Y-34.225
X7.012 Y-33.314
X7.008 Y-32.402
X7.036 Y-31.49
X7.097 Y-30.581
X7.192 Y-29.674
X7.317 Y-28.771
X7.478 Y-27.873
X7.671 Y-26.982
X7.895 Y-26.098
X8.153 Y-25.224
X8.442 Y-24.359
X8.762 Y-23.505
X9.114 Y-22.664
X9.495 Y-21.835
X9.905 Y-21.021
X10.348 Y-20.224
X10.818 Y-19.442
X11.315 Y-18.678
X11.842 Y-17.934
X12.392 Y-17.207
X12.965 Y-16.498
X13.563 Y-15.809
X14.182 Y-15.14
X14.819 Y-14.488
X15.477 Y-13.856
X16.156 Y-13.248
X16.854 Y-12.661
X17.573 Y-12.1
X18.311 Y-11.564
X19.065 Y-11.053
X19.84 Y-10.571
X20.63 Y-10.117
X21.436 Y-9.69
X22.258 Y-9.295
X23.093 Y-8.929
X23.941 Y-8.593
X24.801 Y-8.291
X25.671 Y-8.018
X26.55 Y-7.776
X27.438 Y-7.568
X28.332 Y-7.392
X29.233 Y-7.249
X30.138 Y-7.14
X31.047 Y-7.061
X31.957 Y-7.016
X32.869 Y-7.007
X33.781 Y-7.029
X34.691 Y-7.086
X35.598 Y-7.176
X36.502 Y-7.295
X37.401 Y-7.45
X38.293 Y-7.639
X39.178 Y-7.858
X40.054 Y-8.111
X40.92 Y-8.395
X41.776 Y-8.709
X42.619 Y-9.057
X43.45 Y-9.433
X44.266 Y-9.839
X45.066 Y-10.276
X45.85 Y-10.742
X46.617 Y-11.235
X47.365 Y-11.758
X48.094 Y-12.304
X48.807 Y-12.873
X49.503 Y-13.462
X50.186 Y-14.066
X50.859 Y-14.682
X51.523 Y-15.306
X52.182 Y-15.937
X52.836 Y-16.571
X53.488 Y-17.209
X54.138 Y-17.849
X54.786 Y-18.49
X55.433 Y-19.133
X56.725 Y-20.42
X59.306 Y-22.997
X65.754 Y-29.444
X66.401 Y-30.086
X67.053 Y-30.724
X67.71 Y-31.356
X68.372 Y-31.982
X69.042 Y-32.601
X69.724 Y-33.206
X70.418 Y-33.798
X71.122 Y-34.377
X71.838 Y-34.941
X72.567 Y-35.49
X73.309 Y-36.02
X74.062 Y-36.533
X74.827 Y-37.031
X75.603 Y-37.509
X76.392 Y-37.966
X77.192 Y-38.403
X78.002 Y-38.821
X78.822 Y-39.221
X79.651 Y-39.601
X80.49 Y-39.958
X81.338 Y-40.293
X82.193 Y-40.61
X83.055 Y-40.905
X83.926 Y-41.177
X84.803 Y-41.427
X85.685 Y-41.656
X86.573 Y-41.866
X87.465 Y-42.052
X88.363 Y-42.213
X89.264 Y-42.352
X90.168 Y-42.471
X91.074 Y-42.57
X91.983 Y-42.65
X92.892 Y-42.713
X93.803 Y-42.761
X94.714 Y-42.798
X95.625 Y-42.824
X96.537 Y-42.844
X97.449 Y-42.858
X98.36 Y-42.868
X99.272 Y-42.875
X100.184 Y-42.88
X101.096 Y-42.883
X102.919 Y-42.887
X105.655 Y-42.89
X115.685 Y-42.891
X119.332
X120.244 Y-42.887
X121.156 Y-42.876
X122.067 Y-42.857
X122.979 Y-42.831
X123.89 Y-42.792
X124.8 Y-42.736
X125.708 Y-42.662
X126.616 Y-42.571
X127.521 Y-42.464
X128.424 Y-42.335
X129.323 Y-42.183
X130.218 Y-42.01
X131.109 Y-41.818
X131.996 Y-41.604
X132.876 Y-41.367
X133.75 Y-41.107
X134.618 Y-40.828
X135.48 Y-40.53
X136.334 Y-40.209
X137.178 Y-39.864
X138.013 Y-39.499
X138.84 Y-39.116
X139.658 Y-38.712
X140.465 Y-38.287
X141.26 Y-37.841
X142.045 Y-37.377
X142.819 Y-36.895
X143.579 Y-36.392
X144.326 Y-35.869
X145.06 Y-35.328
X145.782 Y-34.771
X146.492 Y-34.199
X147.19 Y-33.612
X147.877 Y-33.012
X148.554 Y-32.401
X149.223 Y-31.782
X149.886 Y-31.156
X150.544 Y-30.524
X151.198 Y-29.889
X151.849 Y-29.251
X152.499 Y-28.611
X153.147 Y-27.97
X153.794 Y-27.328
X155.086 Y-26.041
X157.667 Y-23.464
X164.116 Y-17.017
X164.762 Y-16.374
X165.413 Y-15.736
X166.07 Y-15.103
X166.732 Y-14.477
X167.408 Y-13.865
X168.099 Y-13.269
X168.804 Y-12.691
X169.526 Y-12.135
X170.266 Y-11.601
X171.021 Y-11.09
X171.794 Y-10.607
X172.585 Y-10.153
X173.39 Y-9.725
X174.211 Y-9.328
X175.045 Y-8.96
X175.892 Y-8.621
X176.751 Y-8.316
X177.62 Y-8.04
X178.498 Y-7.795
X179.386 Y-7.586
X180.28 Y-7.407
X181.18 Y-7.26
X182.085 Y-7.149
X182.993 Y-7.066
X183.903 Y-7.019
X184.815 Y-7.008
X185.727 Y-7.027
X186.637 Y-7.079
X187.545 Y-7.166
X188.449 Y-7.283
X189.348 Y-7.436
X190.241 Y-7.622
X191.127 Y-7.837
X192.004 Y-8.087
X192.871 Y-8.368
X193.728 Y-8.679
X194.572 Y-9.024
X195.404 Y-9.398
X196.222 Y-9.801
X197.023 Y-10.236
X197.809 Y-10.699
X198.578 Y-11.188
X199.327 Y-11.708
X200.058 Y-12.253
X200.772 Y-12.821
X201.465 Y-13.413
X202.139 Y-14.027
X202.796 Y-14.659
X203.433 Y-15.312
X204.047 Y-15.986
X204.639 Y-16.679
X205.207 Y-17.393
X205.748 Y-18.127
X206.266 Y-18.877
X206.756 Y-19.646
X207.216 Y-20.433
X207.649 Y-21.235
X208.052 Y-22.054
X208.424 Y-22.886
X208.77 Y-23.73
X209.081 Y-24.587
X209.36 Y-25.455
X209.609 Y-26.332
X209.825 Y-27.218
X210.009 Y-28.111
X210.161 Y-29.01
X210.278 Y-29.914
X210.364 Y-30.822
X210.417 Y-31.732
X210.435 Y-32.644
X210.421 Y-33.556
X210.373 Y-34.466
X210.291 Y-35.374
X210.18 Y-36.279
X210.034 Y-37.179
X209.853 Y-38.073
X209.641 Y-38.96
X209.396 Y-39.838
X209.119 Y-40.707
X208.815 Y-41.567
X208.475 Y-42.413
X208.105 Y-43.246
X207.706 Y-44.066
X207.277 Y-44.87
X206.818 Y-45.658
X206.333 Y-46.43
X205.817 Y-47.182
X205.276 Y-47.916
X204.712 Y-48.633
X204.128 Y-49.333
X203.527 Y-50.019
X202.914 Y-50.693
X202.291 Y-51.36
X201.662 Y-52.02
X201.028 Y-52.675
X200.391 Y-53.327
X199.752 Y-53.977
X199.111 Y-54.626
X198.468 Y-55.273
X197.182 Y-56.565
X195.249 Y-58.501
X188.158 Y-65.594
X187.514 Y-66.24
X186.875 Y-66.891
X186.242 Y-67.546
X185.614 Y-68.208
X184.992 Y-68.875
X184.384 Y-69.554
X183.789 Y-70.245
X183.207 Y-70.947
X182.639 Y-71.66
X182.086 Y-72.385
X181.551 Y-73.124
X181.034 Y-73.875
X180.533 Y-74.636
X180.05 Y-75.41
X179.588 Y-76.196
X179.146 Y-76.993
X178.723 Y-77.801
X178.318 Y-78.618
X177.934 Y-79.445
X177.571 Y-80.282
X177.231 Y-81.128
X176.909 Y-81.981
X176.609 Y-82.842
X176.331 Y-83.71
X176.076 Y-84.586
X175.842 Y-85.467
X175.628 Y-86.353
X175.435 Y-87.244
X175.268 Y-88.141
X175.124 Y-89.041
X175 Y-89.945
X174.896 Y-90.85
X174.811 Y-91.758
X174.744 Y-92.668
X174.692 Y-93.578
X174.653 Y-94.489
X174.624 Y-95.4
X174.603 Y-96.312
X174.587 Y-97.223
X174.576 Y-98.135
X174.569 Y-99.047
X174.563 Y-99.959
X174.559 Y-100.871
X174.555 Y-102.694
X174.552 Y-105.43
X174.551 Y-113.636
Y-119.107
X174.554 Y-120.019
X174.563 Y-120.93
X174.58 Y-121.842
X174.604 Y-122.754
X174.64 Y-123.665
X174.692 Y-124.575
X174.761 Y-125.484
X174.848 Y-126.392
X174.951 Y-127.298
X175.075 Y-128.201
X175.221 Y-129.101
X175.389 Y-129.997
X175.576 Y-130.89
X175.785 Y-131.777
X176.016 Y-132.659
X176.27 Y-133.535
X176.544 Y-134.405
X176.836 Y-135.269
X177.152 Y-136.124
X177.491 Y-136.97
X177.851 Y-137.808
X178.229 Y-138.638
X178.628 Y-139.458
X179.047 Y-140.267
X179.488 Y-141.066
X179.948 Y-141.853
X180.425 Y-142.63
X180.923 Y-143.394
X181.441 Y-144.144
X181.978 Y-144.881
X182.532 Y-145.606
X183.1 Y-146.319
X183.683 Y-147.02
X184.28 Y-147.709
X184.889 Y-148.388
X185.506 Y-149.059
X186.131 Y-149.723
X186.761 Y-150.382
X187.396 Y-151.037
X188.033 Y-151.689
X188.673 Y-152.339
X189.314 Y-152.987
X189.956 Y-153.634
X191.242 Y-154.927
X193.175 Y-156.863
X199.621 Y-163.311
X200.266 Y-163.956
X200.91 Y-164.602
X201.549 Y-165.252
X202.183 Y-165.907
X202.812 Y-166.568
X203.427 Y-167.241
X204.027 Y-167.928
X204.61 Y-168.629
X205.172 Y-169.346
X205.711 Y-170.082
X206.228 Y-170.833
X206.717 Y-171.602
X207.178 Y-172.389
X207.613 Y-173.19
X208.019 Y-174.007
X208.393 Y-174.838
X208.74 Y-175.682
X209.054 Y-176.538
X209.336 Y-177.405
X209.589 Y-178.281
X209.807 Y-179.166
X209.994 Y-180.059
X210.149 Y-180.957
X210.269 Y-181.861
X210.358 Y-182.769
X210.414 Y-183.679
X210.434 Y-184.59
X210.424 Y-185.502
X210.38 Y-186.413
X210.301 Y-187.321
X210.192 Y-188.226
X210.047 Y-189.127
X209.869 Y-190.021
X209.662 Y-190.909
X209.421 Y-191.788
X209.147 Y-192.658
X208.843 Y-193.517
X208.506 Y-194.365
X208.138 Y-195.199
X207.744 Y-196.021
X207.317 Y-196.827
X206.86 Y-197.616
X206.377 Y-198.389
X205.864 Y-199.143
X205.325 Y-199.879
X204.763 Y-200.597
X204.177 Y-201.296
X203.568 Y-201.974
X202.94 Y-202.635
X202.293 Y-203.277
X201.623 Y-203.897
X200.935 Y-204.494
X200.227 Y-205.069
X199.498 Y-205.617
X198.752 Y-206.141
X197.988 Y-206.638
X197.204 Y-207.105
X196.406 Y-207.545
X195.591 Y-207.955
X194.762 Y-208.335
X193.922 Y-208.689
X193.068 Y-209.008
X192.202 Y-209.294
X191.327 Y-209.551
X190.443 Y-209.775
X189.552 Y-209.966
X188.655 Y-210.128
X187.751 Y-210.253
X186.844 Y-210.346
X185.935 Y-210.408
X185.023 Y-210.434
X184.111 Y-210.427
X183.2 Y-210.389
X182.292 Y-210.315
X181.386 Y-210.21
X180.484 Y-210.073
X179.589 Y-209.9
X178.7 Y-209.696
X177.82 Y-209.46
X176.949 Y-209.191
X176.087 Y-208.893
X175.237 Y-208.561
X174.401 Y-208.198
X173.577 Y-207.807
X172.769 Y-207.385
X171.977 Y-206.933
X171.201 Y-206.455
X170.444 Y-205.946
X169.706 Y-205.411
X168.985 Y-204.853
X168.281 Y-204.273
X167.592 Y-203.676
X166.914 Y-203.066
X166.246 Y-202.445
X165.585 Y-201.817
X164.928 Y-201.185
X164.275 Y-200.548
X163.625 Y-199.909
X162.976 Y-199.269
X162.329 Y-198.627
X161.036 Y-197.34
X159.1 Y-195.408
X152.651 Y-188.961
X152.007 Y-188.317
X151.361 Y-187.673
X150.712 Y-187.033
X150.057 Y-186.398
X149.398 Y-185.768
X148.733 Y-185.144
X148.057 Y-184.532
X147.369 Y-183.933
X146.67 Y-183.348
X145.96 Y-182.776
X145.238 Y-182.219
X144.503 Y-181.68
X143.755 Y-181.159
X142.995 Y-180.654
X142.225 Y-180.166
X141.442 Y-179.699
X140.647 Y-179.252
X139.842 Y-178.825
X139.027 Y-178.416
X138.202 Y-178.026
X137.368 Y-177.658
X136.524 Y-177.312
X135.673 Y-176.987
X134.814 Y-176.681
X133.947 Y-176.398
X133.073 Y-176.137
X132.193 Y-175.898
X131.308 Y-175.679
X130.418 Y-175.481
X129.523 Y-175.308
X128.623 Y-175.158
X127.721 Y-175.03
X126.815 Y-174.921
X125.908 Y-174.831
X124.999 Y-174.759
X124.089 Y-174.704
X123.178 Y-174.662
X122.267 Y-174.63
X121.355 Y-174.607
X120.444 Y-174.591
X119.532 Y-174.579
X118.62 Y-174.57
X117.708 Y-174.564
X116.797 Y-174.56
X114.973 Y-174.555
X112.238 Y-174.552
X104.943 Y-174.551
X103.119
X98.56
X97.649 Y-174.552
X96.737 Y-174.559
X95.825 Y-174.574
X94.914 Y-174.597
X94.002 Y-174.629
X93.092 Y-174.677
X92.182 Y-174.742
X91.274 Y-174.825
X90.368 Y-174.924
X89.464 Y-175.042
X88.563 Y-175.183
X87.666 Y-175.346
X86.772 Y-175.529
X85.883 Y-175.732
X85 Y-175.958
X84.123 Y-176.206
X83.252 Y-176.476
X82.386 Y-176.763
X81.529 Y-177.073
X80.68 Y-177.406
X79.84 Y-177.762
X79.009 Y-178.135
X78.186 Y-178.529
X77.374 Y-178.943
X76.573 Y-179.379
X75.783 Y-179.834
X75.003 Y-180.307
X74.236 Y-180.799
X73.482 Y-181.312
X72.742 Y-181.845
X72.014 Y-182.394
X71.298 Y-182.958
X70.594 Y-183.538
X69.902 Y-184.132
X69.22 Y-184.737
X68.548 Y-185.353
X67.882 Y-185.976
X67.222 Y-186.605
X66.566 Y-187.239
X65.914 Y-187.876
X65.263 Y-188.515
X64.615 Y-189.156
X63.967 Y-189.798
X62.674 Y-191.084
X60.738 Y-193.016
X59.448 Y-194.305
X53 Y-200.752
X52.351 Y-201.393
X51.697 Y-202.028
X51.038 Y-202.658
X50.369 Y-203.277
X49.685 Y-203.881
X48.988 Y-204.468
X48.275 Y-205.037
X47.544 Y-205.582
X46.797 Y-206.104
X46.031 Y-206.6
X45.248 Y-207.067
X44.451 Y-207.509
X43.638 Y-207.922
X42.81 Y-208.305
X41.97 Y-208.658
X41.117 Y-208.979
X40.252 Y-209.269
X39.378 Y-209.53
X38.495 Y-209.757
X37.604 Y-209.951
X36.707 Y-210.114
X35.804 Y-210.242
X34.898 Y-210.338
X33.988 Y-210.404
X33.077 Y-210.433
X32.165 Y-210.429
X31.254 Y-210.394
X30.345 Y-210.323
X29.439 Y-210.221
X28.537 Y-210.086
X27.641 Y-209.916
X26.752 Y-209.716
X25.87 Y-209.484
X24.998 Y-209.217
X24.136 Y-208.92
X23.285 Y-208.591
X22.448 Y-208.231
X21.622 Y-207.844
X20.812 Y-207.426
X20.019 Y-206.976
X19.241 Y-206.499
X18.483 Y-205.993
X17.743 Y-205.46
X17.02 Y-204.904
X16.316 Y-204.325
X15.633 Y-203.721
X14.968 Y-203.097
X14.321 Y-202.454
X13.696 Y-201.79
X13.093 Y-201.106
X12.948 Y-200.931
X12.73 Y-200.53
X12.506 Y-199.647
X12.453 Y-198.736
X12.462 Y-197.824
X12.518 Y-196.002
X12.532 Y-195.09
X12.528 Y-194.178
X12.503 Y-193.267
X12.46 Y-192.356
X12.401 Y-191.446
X12.332 Y-190.537
X12.257 Y-189.628
X12.184 Y-188.719
X12.119 Y-187.81
X12.07 Y-186.899
X12.042 Y-185.988
X12.04 Y-185.076
X12.07 Y-184.165
X12.133 Y-183.255
X12.232 Y-182.349
X12.369 Y-181.447
X12.546 Y-180.553
X12.761 Y-179.667
X13.014 Y-178.791
X13.308 Y-177.928
X13.641 Y-177.079
X14.011 Y-176.245
X14.419 Y-175.43
X14.864 Y-174.634
X15.346 Y-173.86
X15.859 Y-173.106
X16.402 Y-172.373
X16.968 Y-171.659
X17.554 Y-170.961
X18.156 Y-170.275
X18.769 Y-169.6
X19.39 Y-168.933
X20.018 Y-168.272
X20.65 Y-167.615
X21.286 Y-166.961
X21.925 Y-166.31
X22.565 Y-165.661
X23.206 Y-165.013
X24.492 Y-163.719
X26.423 Y-161.783
X27.712 Y-160.492
X31.58 Y-156.623
X32.224 Y-155.978
X32.866 Y-155.331
X33.506 Y-154.681
X34.142 Y-154.027
X34.773 Y-153.37
X35.399 Y-152.706
X36.015 Y-152.034
X36.623 Y-151.354
X37.219 Y-150.664
X37.804 Y-149.965
X38.377 Y-149.256
X38.936 Y-148.535
X39.481 Y-147.804
X40.012 Y-147.063
X40.528 Y-146.311
X41.029 Y-145.549
X41.513 Y-144.777
X41.98 Y-143.993
X42.43 Y-143.2
X42.863 Y-142.398
X43.279 Y-141.586
X43.677 Y-140.766
X44.057 Y-139.937
X44.419 Y-139.1
X44.763 Y-138.256
X45.089 Y-137.404
X45.395 Y-136.546
X45.682 Y-135.68
X45.95 Y-134.808
X46.199 Y-133.931
X46.429 Y-133.049
X46.641 Y-132.162
X46.832 Y-131.271
X47.004 Y-130.375
X47.156 Y-129.476
X47.289 Y-128.574
X47.405 Y-127.67
X47.503 Y-126.763
X47.585 Y-125.855
X47.653 Y-124.946
X47.708 Y-124.036
X47.752 Y-123.125
X47.786 Y-122.214
X47.813 Y-121.302
X47.833 Y-120.391
X47.848 Y-119.479
X47.86 Y-118.567
X47.868 Y-117.655
X47.875 Y-116.744
X47.879 Y-115.832
X47.885 Y-114.008
X47.889 Y-111.273
X47.891 Y-105.802
X47.89 Y-99.419
X47.888 Y-98.507
X47.882 Y-97.596
X47.87 Y-96.684
X47.853 Y-95.772
X47.827 Y-94.861
X47.789 Y-93.95
X47.739 Y-93.039
X47.675 Y-92.13
X47.597 Y-91.221
X47.503 Y-90.314
X47.392 Y-89.409
X47.263 Y-88.507
X47.117 Y-87.607
X46.953 Y-86.71
X46.77 Y-85.816
X46.568 Y-84.927
X46.346 Y-84.043
X46.106 Y-83.163
X45.848 Y-82.289
X45.571 Y-81.42
X45.276 Y-80.557
X44.962 Y-79.701
X44.629 Y-78.853
X44.277 Y-78.011
X43.907 Y-77.178
X43.519 Y-76.353
X43.112 Y-75.537
X42.688 Y-74.729
X42.248 Y-73.931
X41.79 Y-73.143
X41.315 Y-72.364
X40.822 Y-71.597
X40.312 Y-70.841
X39.786 Y-70.097
X39.245 Y-69.363
X38.689 Y-68.64
X38.12 Y-67.927
X37.538 Y-67.225
X36.945 Y-66.533
X36.342 Y-65.849
X35.73 Y-65.173
X35.111 Y-64.504
X34.486 Y-63.84
X33.856 Y-63.18
X33.223 Y-62.524
X32.586 Y-61.871
X31.948 Y-61.22
X31.308 Y-60.571
X30.667 Y-59.923
X29.381 Y-58.629
X27.45 Y-56.692
X23.583 Y-52.822
X21.649 Y-50.888
X21.005 Y-50.242
X20.363 Y-49.594
X19.725 Y-48.942
X19.093 Y-48.285
X18.471 Y-47.619
X17.861 Y-46.941
X17.269 Y-46.248
X16.696 Y-45.538
X16.146 Y-44.811
X15.625 Y-44.063
X15.133 Y-43.295
X14.674 Y-42.507
X14.248 Y-41.701
X13.857 Y-40.877
X13.505 Y-40.036
X13.19 Y-39.18
X12.913 Y-38.312
X12.677 Y-37.431
X12.482 Y-36.54
X12.327 Y-35.642
X12.212 Y-34.737
X12.14 Y-33.828
X12.111 Y-32.917
X12.122 Y-32.005
X12.174 Y-31.095
X12.269 Y-30.188
X12.406 Y-29.286
X12.583 Y-28.392
X12.801 Y-27.506
X13.06 Y-26.632
X13.359 Y-25.771
X13.696 Y-24.924
X14.071 Y-24.093
X14.485 Y-23.28
X14.936 Y-22.488
X15.422 Y-21.716
X15.94 Y-20.966
X16.49 Y-20.239
X17.07 Y-19.535
X17.676 Y-18.853
X18.308 Y-18.196
X18.965 Y-17.564
X19.648 Y-16.96
X20.356 Y-16.386
X21.087 Y-15.841
X21.842 Y-15.329
X22.619 Y-14.852
X23.416 Y-14.409
X24.232 Y-14.003
X25.066 Y-13.634
X25.916 Y-13.304
X26.78 Y-13.013
X27.657 Y-12.761
X28.544 Y-12.549
X29.439 Y-12.38
X30.342 Y-12.251
X31.25 Y-12.163
X32.16 Y-12.116
X33.072 Y-12.113
X33.983 Y-12.151
X34.892 Y-12.229
X35.795 Y-12.35
X36.692 Y-12.513
X37.581 Y-12.717
X38.46 Y-12.959
X39.327 Y-13.243
X40.179 Y-13.567
X41.016 Y-13.929
X41.836 Y-14.328
X42.636 Y-14.765
X43.415 Y-15.239
X44.173 Y-15.745
X44.911 Y-16.282
X45.629 Y-16.843
X46.331 Y-17.425
X47.019 Y-18.024
X47.696 Y-18.635
X48.365 Y-19.254
X49.027 Y-19.881
X49.685 Y-20.512
X50.339 Y-21.148
X50.991 Y-21.785
X51.64 Y-22.425
X52.288 Y-23.066
X52.936 Y-23.709
X54.228 Y-24.995
X56.164 Y-26.928
X61.324 Y-32.084
X61.97 Y-32.727
X62.62 Y-33.367
X63.272 Y-34.004
X63.929 Y-34.637
X64.591 Y-35.263
X65.261 Y-35.882
X65.94 Y-36.491
X66.627 Y-37.09
X67.324 Y-37.678
X68.032 Y-38.253
X68.75 Y-38.815
X69.478 Y-39.363
X70.218 Y-39.897
X70.967 Y-40.416
X71.727 Y-40.92
X72.497 Y-41.408
X73.278 Y-41.878
X74.069 Y-42.332
X74.87 Y-42.769
X75.679 Y-43.189
X76.498 Y-43.59
X77.325 Y-43.974
X78.16 Y-44.34
X79.003 Y-44.689
X79.852 Y-45.019
X80.71 Y-45.33
X81.574 Y-45.621
X82.444 Y-45.893
X83.32 Y-46.146
X84.201 Y-46.381
X85.087 Y-46.597
X85.977 Y-46.793
X86.872 Y-46.969
X87.77 Y-47.125
X88.672 Y-47.263
X89.576 Y-47.382
X90.482 Y-47.484
X91.39 Y-47.57
X92.299 Y-47.64
X93.209 Y-47.698
X94.119 Y-47.744
X95.03 Y-47.78
X95.942 Y-47.808
X96.853 Y-47.829
X97.765 Y-47.846
X98.677 Y-47.858
X99.589 Y-47.867
X100.5 Y-47.874
X101.412 Y-47.878
X103.236 Y-47.885
X105.971 Y-47.889
X111.442 Y-47.891
X117.825
X118.737 Y-47.889
X119.648 Y-47.883
X120.56 Y-47.873
X121.472 Y-47.857
X122.383 Y-47.833
X123.294 Y-47.798
X124.205 Y-47.751
X125.115 Y-47.69
X126.023 Y-47.615
X126.931 Y-47.525
X127.836 Y-47.418
X128.74 Y-47.293
X129.64 Y-47.151
X130.538 Y-46.991
X131.432 Y-46.812
X132.322 Y-46.615
X133.208 Y-46.397
X134.088 Y-46.161
X134.964 Y-45.907
X135.834 Y-45.635
X136.698 Y-45.343
X137.556 Y-45.033
X138.406 Y-44.704
X139.249 Y-44.356
X140.084 Y-43.99
X140.911 Y-43.606
X141.729 Y-43.203
X142.538 Y-42.783
X143.338 Y-42.346
X144.129 Y-41.891
X144.91 Y-41.42
X145.679 Y-40.931
X146.437 Y-40.425
X147.185 Y-39.902
X147.921 Y-39.364
X148.646 Y-38.811
X149.361 Y-38.245
X150.065 Y-37.666
X150.759 Y-37.075
X151.445 Y-36.474
X152.122 Y-35.864
X152.793 Y-35.246
X153.458 Y-34.622
X154.119 Y-33.994
X154.775 Y-33.361
X155.429 Y-32.725
X156.08 Y-32.087
X156.73 Y-31.447
X157.378 Y-30.806
X158.026 Y-30.164
X159.319 Y-28.878
X161.255 Y-26.946
X165.769 Y-22.434
X167.06 Y-21.145
X167.707 Y-20.503
X168.358 Y-19.864
X169.013 Y-19.23
X169.677 Y-18.605
X170.353 Y-17.993
X171.042 Y-17.396
X171.748 Y-16.819
X172.471 Y-16.264
X173.214 Y-15.735
X173.978 Y-15.237
X174.761 Y-14.771
X175.564 Y-14.337
X176.384 Y-13.939
X177.221 Y-13.578
X178.074 Y-13.255
X178.94 Y-12.97
X179.818 Y-12.725
X180.707 Y-12.521
X181.604 Y-12.358
X182.507 Y-12.234
X183.416 Y-12.153
X184.327 Y-12.114
X185.238 Y-12.117
X186.149 Y-12.16
X187.057 Y-12.245
X187.96 Y-12.373
X188.856 Y-12.542
X189.744 Y-12.75
X190.621 Y-13
X191.485 Y-13.29
X192.335 Y-13.619
X193.17 Y-13.986
X193.987 Y-14.392
X194.784 Y-14.834
X195.56 Y-15.313
X196.315 Y-15.824
X197.047 Y-16.368
X197.756 Y-16.941
X198.443 Y-17.541
X199.106 Y-18.167
X199.743 Y-18.819
X200.353 Y-19.497
X200.934 Y-20.199
X201.486 Y-20.925
X202.005 Y-21.675
X202.49 Y-22.447
X202.939 Y-23.24
X203.354 Y-24.052
X203.732 Y-24.882
X204.07 Y-25.729
X204.369 Y-26.591
X204.629 Y-27.464
X204.85 Y-28.349
X205.028 Y-29.243
X205.166 Y-30.145
X205.263 Y-31.051
X205.319 Y-31.961
X205.331 Y-32.873
X205.302 Y-33.784
X205.233 Y-34.694
X205.122 Y-35.599
X204.968 Y-36.497
X204.773 Y-37.388
X204.539 Y-38.27
X204.265 Y-39.139
X203.95 Y-39.995
X203.596 Y-40.835
X203.205 Y-41.659
X202.776 Y-42.464
X202.31 Y-43.247
X201.811 Y-44.01
X201.28 Y-44.752
X200.724 Y-45.474
X200.146 Y-46.179
X199.55 Y-46.87
X198.942 Y-47.549
X198.324 Y-48.219
X197.699 Y-48.883
X197.068 Y-49.542
X196.434 Y-50.197
X195.796 Y-50.849
X195.157 Y-51.499
X194.516 Y-52.147
X193.874 Y-52.795
X192.588 Y-54.087
X190.655 Y-56.024
X185.499 Y-61.183
X184.855 Y-61.829
X184.214 Y-62.477
X183.576 Y-63.129
X182.943 Y-63.785
X182.315 Y-64.446
X181.694 Y-65.114
X181.083 Y-65.79
X180.481 Y-66.476
X179.891 Y-67.171
X179.313 Y-67.876
X178.748 Y-68.591
X178.197 Y-69.318
X177.66 Y-70.055
X177.138 Y-70.802
X176.631 Y-71.56
X176.14 Y-72.328
X175.665 Y-73.107
X175.208 Y-73.896
X174.767 Y-74.694
X174.344 Y-75.502
X173.938 Y-76.318
X173.551 Y-77.144
X173.181 Y-77.977
X172.829 Y-78.818
X172.495 Y-79.667
X172.18 Y-80.522
X171.884 Y-81.385
X171.608 Y-82.254
X171.351 Y-83.129
X171.112 Y-84.009
X170.892 Y-84.893
X170.692 Y-85.783
X170.512 Y-86.677
X170.351 Y-87.574
X170.209 Y-88.475
X170.085 Y-89.379
X169.98 Y-90.284
X169.891 Y-91.192
X169.817 Y-92.1
X169.756 Y-93.01
X169.708 Y-93.921
X169.67 Y-94.832
X169.64 Y-95.743
X169.617 Y-96.655
X169.6 Y-97.566
X169.587 Y-98.478
X169.577 Y-99.39
X169.57 Y-100.302
X169.564 Y-101.213
X169.561 Y-102.125
X169.556 Y-103.949
X169.553 Y-106.684
X169.551 Y-113.067
Y-117.626
X169.553 Y-118.538
X169.557 Y-119.45
X169.566 Y-120.361
X169.581 Y-121.273
X169.603 Y-122.185
X169.636 Y-123.096
X169.68 Y-124.007
X169.738 Y-124.917
X169.81 Y-125.826
X169.897 Y-126.733
X170.001 Y-127.639
X170.122 Y-128.543
X170.26 Y-129.444
X170.416 Y-130.342
X170.59 Y-131.237
X170.784 Y-132.129
X170.997 Y-133.015
X171.229 Y-133.897
X171.479 Y-134.774
X171.747 Y-135.645
X172.034 Y-136.511
X172.34 Y-137.37
X172.665 Y-138.221
X173.009 Y-139.066
X173.37 Y-139.903
X173.75 Y-140.732
X174.149 Y-141.552
X174.565 Y-142.363
X174.999 Y-143.165
X175.449 Y-143.958
X175.917 Y-144.741
X176.402 Y-145.513
X176.905 Y-146.274
X177.424 Y-147.023
X177.959 Y-147.762
X178.508 Y-148.49
X179.071 Y-149.207
X179.648 Y-149.913
X180.237 Y-150.609
X180.836 Y-151.297
X181.444 Y-151.976
X182.061 Y-152.648
X182.683 Y-153.314
X183.311 Y-153.975
X183.943 Y-154.633
X184.578 Y-155.287
X185.216 Y-155.939
X185.855 Y-156.589
X186.496 Y-157.237
X187.138 Y-157.885
X188.424 Y-159.178
X190.356 Y-161.114
X194.868 Y-165.629
X196.157 Y-166.919
X196.8 Y-167.565
X197.439 Y-168.215
X198.074 Y-168.87
X198.701 Y-169.532
X199.317 Y-170.205
X199.917 Y-170.891
X200.499 Y-171.593
X201.059 Y-172.312
X201.594 Y-173.051
X202.098 Y-173.81
X202.572 Y-174.589
X203.013 Y-175.387
X203.42 Y-176.204
X203.788 Y-177.038
X204.12 Y-177.887
X204.413 Y-178.75
X204.667 Y-179.626
X204.88 Y-180.513
X205.052 Y-181.408
X205.185 Y-182.31
X205.275 Y-183.218
X205.323 Y-184.128
X205.33 Y-185.04
X205.296 Y-185.951
X205.219 Y-186.86
X205.1 Y-187.764
X204.941 Y-188.661
X204.741 Y-189.551
X204.5 Y-190.43
X204.218 Y-191.298
X203.898 Y-192.151
X203.54 Y-192.99
X203.142 Y-193.81
X202.707 Y-194.612
X202.236 Y-195.392
X201.732 Y-196.152
X201.195 Y-196.889
X200.628 Y-197.603
X200.034 Y-198.295
X199.413 Y-198.963
X198.767 Y-199.606
X198.095 Y-200.222
X197.397 Y-200.81
X196.677 Y-201.368
X195.932 Y-201.895
X195.165 Y-202.387
X194.376 Y-202.844
X193.568 Y-203.267
X192.742 Y-203.653
X191.899 Y-204
X191.04 Y-204.307
X190.169 Y-204.576
X189.287 Y-204.806
X188.394 Y-204.994
X187.494 Y-205.14
X186.589 Y-205.246
X185.679 Y-205.311
X184.768 Y-205.332
X183.856 Y-205.313
X182.946 Y-205.252
X182.04 Y-205.149
X181.14 Y-205.005
X180.247 Y-204.819
X179.364 Y-204.594
X178.492 Y-204.328
X177.633 Y-204.021
X176.789 Y-203.676
X175.961 Y-203.293
X175.152 Y-202.872
X174.364 Y-202.414
X173.597 Y-201.921
X172.85 Y-201.398
X172.124 Y-200.847
X171.415 Y-200.273
X170.722 Y-199.681
X170.04 Y-199.075
X169.368 Y-198.459
X168.703 Y-197.835
X168.044 Y-197.206
X167.388 Y-196.572
X166.735 Y-195.935
X166.085 Y-195.296
X165.436 Y-194.655
X164.788 Y-194.014
X163.495 Y-192.728
X161.559 Y-190.796
X156.4 Y-185.639
X155.754 Y-184.995
X155.106 Y-184.354
X154.455 Y-183.715
X153.8 Y-183.08
X153.141 Y-182.451
X152.475 Y-181.828
X151.8 Y-181.215
X151.117 Y-180.611
X150.424 Y-180.018
X149.722 Y-179.437
X149.008 Y-178.869
X148.284 Y-178.315
X147.549 Y-177.775
X146.804 Y-177.249
X146.049 Y-176.739
X145.283 Y-176.244
X144.506 Y-175.766
X143.72 Y-175.305
X142.923 Y-174.861
X142.118 Y-174.434
X141.303 Y-174.024
X140.479 Y-173.633
X139.648 Y-173.259
X138.808 Y-172.904
X137.961 Y-172.566
X137.107 Y-172.247
X136.246 Y-171.947
X135.378 Y-171.667
X134.505 Y-171.405
X133.626 Y-171.162
X132.742 Y-170.938
X131.853 Y-170.734
X130.96 Y-170.55
X130.064 Y-170.385
X129.163 Y-170.239
X128.261 Y-170.111
X127.355 Y-170.002
X126.448 Y-169.909
X125.54 Y-169.832
X124.63 Y-169.769
X123.72 Y-169.718
X122.809 Y-169.678
X121.898 Y-169.646
X120.986 Y-169.622
X120.074 Y-169.603
X119.163 Y-169.589
X118.251 Y-169.579
X117.339 Y-169.571
X116.427 Y-169.566
X115.516 Y-169.561
X113.692 Y-169.556
X110.957 Y-169.553
X104.574 Y-169.551
X100.015
X99.103 Y-169.552
X98.191 Y-169.556
X97.279 Y-169.564
X96.368 Y-169.577
X95.456 Y-169.598
X94.545 Y-169.627
X93.634 Y-169.669
X92.724 Y-169.724
X91.815 Y-169.793
X90.907 Y-169.877
X90 Y-169.977
X89.096 Y-170.094
X88.194 Y-170.229
X87.295 Y-170.381
X86.4 Y-170.552
X85.508 Y-170.741
X84.62 Y-170.95
X83.737 Y-171.177
X82.859 Y-171.424
X81.987 Y-171.688
X81.12 Y-171.971
X80.259 Y-172.273
X79.406 Y-172.594
X78.56 Y-172.934
X77.721 Y-173.291
X76.89 Y-173.667
X76.068 Y-174.062
X75.255 Y-174.474
X74.451 Y-174.904
X73.656 Y-175.351
X72.871 Y-175.815
X72.096 Y-176.296
X71.333 Y-176.795
X70.581 Y-177.31
X69.84 Y-177.841
X69.11 Y-178.387
X68.39 Y-178.948
X67.682 Y-179.521
X66.983 Y-180.108
X66.294 Y-180.705
X65.613 Y-181.311
X64.94 Y-181.926
X64.272 Y-182.547
X63.61 Y-183.174
X62.952 Y-183.805
X62.297 Y-184.44
X61.645 Y-185.077
X60.995 Y-185.716
X60.346 Y-186.356
X59.698 Y-186.998
X58.405 Y-188.284
X56.468 Y-190.216
X52.598 Y-194.083
X50.664 Y-196.017
X50.018 Y-196.66
X49.369 Y-197.301
X48.716 Y-197.937
X48.055 Y-198.566
X47.385 Y-199.184
X46.702 Y-199.788
X46.004 Y-200.375
X45.289 Y-200.94
X44.554 Y-201.481
X43.799 Y-201.991
X43.024 Y-202.472
X42.23 Y-202.921
X41.418 Y-203.335
X40.588 Y-203.711
X39.741 Y-204.051
X38.881 Y-204.353
X38.008 Y-204.615
X37.123 Y-204.837
X36.23 Y-205.018
X35.329 Y-205.159
X34.422 Y-205.259
X33.512 Y-205.316
X32.601 Y-205.332
X31.689 Y-205.306
X30.78 Y-205.239
X29.875 Y-205.129
X28.975 Y-204.979
X28.084 Y-204.788
X27.202 Y-204.556
X26.332 Y-204.283
X25.475 Y-203.971
X24.633 Y-203.621
X23.809 Y-203.232
X23.003 Y-202.805
X22.218 Y-202.341
X21.453 Y-201.845
X20.711 Y-201.315
X19.992 Y-200.754
X19.296 Y-200.166
X18.622 Y-199.551
X18.359 Y-199.179
X17.994 Y-198.343
X17.813 Y-197.449
X17.71 Y-196.543
X17.644 Y-195.634
X17.593 Y-194.724
X17.544 Y-193.813
X17.492 Y-192.903
X17.435 Y-191.993
X17.372 Y-191.083
X17.239 Y-189.264
X17.178 Y-188.355
X17.129 Y-187.444
X17.1 Y-186.533
X17.098 Y-185.621
X17.128 Y-184.71
X17.195 Y-183.8
X17.308 Y-182.895
X17.467 Y-181.998
X17.674 Y-181.11
X17.932 Y-180.235
X18.242 Y-179.378
X18.601 Y-178.539
X19.011 Y-177.725
X19.467 Y-176.936
X19.964 Y-176.171
X20.495 Y-175.43
X21.053 Y-174.709
X21.633 Y-174.005
X22.23 Y-173.315
X22.838 Y-172.636
X23.456 Y-171.966
X24.081 Y-171.302
X24.711 Y-170.643
X25.345 Y-169.987
X25.982 Y-169.335
X26.621 Y-168.684
X27.261 Y-168.035
X27.903 Y-167.387
X29.188 Y-166.094
X31.12 Y-164.157
X34.342 Y-160.932
X34.986 Y-160.287
X35.629 Y-159.64
X36.27 Y-158.991
X36.908 Y-158.34
X37.543 Y-157.685
X38.173 Y-157.026
X38.797 Y-156.362
X39.414 Y-155.69
X40.023 Y-155.012
X40.624 Y-154.325
X41.214 Y-153.631
X41.794 Y-152.927
X42.362 Y-152.214
X42.918 Y-151.491
X43.462 Y-150.759
X43.993 Y-150.018
X44.51 Y-149.267
X45.014 Y-148.507
X45.503 Y-147.738
X45.978 Y-146.959
X46.438 Y-146.172
X46.884 Y-145.376
X47.313 Y-144.572
X47.727 Y-143.76
X48.125 Y-142.939
X48.507 Y-142.111
X48.873 Y-141.276
X49.223 Y-140.434
X49.556 Y-139.585
X49.873 Y-138.73
X50.173 Y-137.869
X50.455 Y-137.002
X50.721 Y-136.13
X50.97 Y-135.253
X51.201 Y-134.371
X51.415 Y-133.484
X51.612 Y-132.594
X51.791 Y-131.7
X51.954 Y-130.803
X52.1 Y-129.903
X52.23 Y-129
X52.343 Y-128.096
X52.442 Y-127.189
X52.526 Y-126.281
X52.597 Y-125.372
X52.657 Y-124.462
X52.706 Y-123.552
X52.747 Y-122.641
X52.779 Y-121.73
X52.805 Y-120.818
X52.825 Y-119.907
X52.841 Y-118.995
X52.854 Y-118.083
X52.863 Y-117.172
X52.87 Y-116.26
X52.876 Y-115.348
X52.88 Y-114.436
X52.885 Y-112.613
X52.889 Y-109.877
X52.891 Y-104.406
X52.89 Y-100.759
X52.889 Y-99.847
X52.885 Y-98.935
X52.878 Y-98.024
X52.866 Y-97.112
X52.849 Y-96.2
X52.824 Y-95.289
X52.789 Y-94.378
X52.745 Y-93.467
X52.689 Y-92.557
X52.62 Y-91.648
X52.537 Y-90.74
X52.441 Y-89.833
X52.33 Y-88.928
X52.203 Y-88.025
X52.061 Y-87.124
X51.903 Y-86.226
X51.729 Y-85.331
X51.538 Y-84.44
X51.33 Y-83.552
X51.105 Y-82.668
X50.864 Y-81.789
X50.605 Y-80.914
X50.33 Y-80.045
X50.039 Y-79.181
X49.731 Y-78.323
X49.406 Y-77.471
X49.065 Y-76.625
X48.707 Y-75.787
X48.333 Y-74.955
X47.942 Y-74.131
X47.536 Y-73.315
X47.113 Y-72.507
X46.676 Y-71.707
X46.222 Y-70.916
X45.754 Y-70.134
X45.27 Y-69.361
X44.771 Y-68.598
X44.257 Y-67.844
X43.73 Y-67.101
X43.188 Y-66.367
X42.634 Y-65.643
X42.068 Y-64.928
X41.49 Y-64.223
X40.902 Y-63.526
X40.305 Y-62.837
X39.699 Y-62.155
X39.086 Y-61.48
X38.467 Y-60.811
X37.843 Y-60.146
X37.214 Y-59.486
X36.582 Y-58.828
X35.947 Y-58.174
X35.31 Y-57.522
X34.671 Y-56.872
X34.031 Y-56.223
X33.389 Y-55.575
X32.104 Y-54.281
X30.172 Y-52.344
X29.528 Y-51.699
X25.661 Y-47.828
X25.018 Y-47.182
X24.377 Y-46.533
X23.74 Y-45.881
X23.11 Y-45.222
X22.489 Y-44.554
X21.882 Y-43.874
X21.293 Y-43.178
X20.727 Y-42.463
X20.191 Y-41.725
X19.689 Y-40.964
X19.224 Y-40.18
X18.802 Y-39.372
X18.426 Y-38.541
X18.098 Y-37.69
X17.822 Y-36.821
X17.598 Y-35.937
X17.426 Y-35.042
X17.312 Y-34.137
X17.252 Y-33.227
X17.248 Y-32.316
X17.301 Y-31.405
X17.41 Y-30.5
X17.573 Y-29.603
X17.793 Y-28.718
X18.067 Y-27.848
X18.393 Y-26.997
X18.772 Y-26.168
X19.201 Y-25.363
X19.675 Y-24.584
X20.194 Y-23.834
X20.752 Y-23.113
X21.346 Y-22.421
X21.977 Y-21.763
X22.642 Y-21.139
X23.34 Y-20.553
X24.07 Y-20.006
X24.831 Y-19.504
X25.619 Y-19.046
X26.434 Y-18.636
X27.272 Y-18.277
X28.13 Y-17.969
X29.006 Y-17.714
X29.895 Y-17.514
X30.795 Y-17.367
X31.703 Y-17.278
X32.614 Y-17.245
X33.525 Y-17.266
X34.434 Y-17.345
X35.336 Y-17.481
X36.228 Y-17.669
X37.106 Y-17.915
X37.967 Y-18.214
X38.809 Y-18.564
X39.627 Y-18.967
X40.42 Y-19.418
X41.188 Y-19.909
X41.932 Y-20.436
X42.655 Y-20.992
X43.36 Y-21.569
X44.051 Y-22.164
X44.732 Y-22.771
X45.403 Y-23.388
X46.068 Y-24.012
X46.728 Y-24.642
X47.383 Y-25.275
X48.036 Y-25.912
X48.687 Y-26.55
X49.336 Y-27.191
X49.984 Y-27.832
X51.277 Y-29.118
X53.214 Y-31.05
X57.085 Y-34.916
X57.731 Y-35.559
X58.38 Y-36.2
X59.031 Y-36.839
X59.685 Y-37.474
X60.343 Y-38.104
X61.008 Y-38.729
X61.678 Y-39.347
X62.356 Y-39.957
X63.042 Y-40.558
X63.736 Y-41.149
X64.439 Y-41.73
X65.151 Y-42.3
X65.872 Y-42.857
X66.603 Y-43.402
X67.343 Y-43.935
X68.093 Y-44.454
X68.852 Y-44.959
X69.621 Y-45.45
X70.398 Y-45.926
X71.184 Y-46.388
X71.979 Y-46.834
X72.782 Y-47.266
X73.594 Y-47.682
X74.414 Y-48.081
X75.241 Y-48.465
X76.075 Y-48.833
X76.916 Y-49.184
X77.764 Y-49.519
X78.619 Y-49.838
X79.479 Y-50.14
X80.345 Y-50.425
X81.217 Y-50.693
X82.093 Y-50.944
X82.975 Y-51.177
X83.861 Y-51.393
X84.751 Y-51.592
X85.644 Y-51.773
X86.541 Y-51.938
X87.441 Y-52.085
X88.343 Y-52.217
X89.248 Y-52.332
X90.154 Y-52.433
X91.062 Y-52.519
X91.971 Y-52.591
X92.88 Y-52.652
X93.791 Y-52.702
X94.702 Y-52.743
X95.613 Y-52.777
X96.524 Y-52.803
X97.436 Y-52.824
X98.348 Y-52.84
X99.259 Y-52.853
X100.171 Y-52.862
X101.083 Y-52.87
X101.995 Y-52.875
X102.906 Y-52.879
X104.73 Y-52.885
X107.465 Y-52.889
X112.936 Y-52.891
X116.584 Y-52.89
X117.495 Y-52.889
X118.407 Y-52.885
X119.319 Y-52.878
X120.231 Y-52.867
X121.142 Y-52.85
X122.054 Y-52.826
X122.965 Y-52.793
X123.876 Y-52.749
X124.786 Y-52.695
X125.695 Y-52.628
X126.604 Y-52.548
X127.511 Y-52.453
X128.416 Y-52.343
X129.319 Y-52.218
X130.22 Y-52.078
X131.118 Y-51.922
X132.014 Y-51.749
X132.906 Y-51.56
X133.794 Y-51.354
X134.678 Y-51.132
X135.558 Y-50.892
X136.433 Y-50.636
X137.303 Y-50.363
X138.167 Y-50.073
X139.026 Y-49.766
X139.879 Y-49.443
X140.725 Y-49.104
X141.564 Y-48.748
X142.397 Y-48.376
X143.222 Y-47.987
X144.039 Y-47.582
X144.848 Y-47.161
X145.648 Y-46.725
X146.44 Y-46.274
X147.223 Y-45.806
X147.997 Y-45.324
X148.761 Y-44.826
X149.516 Y-44.314
X150.261 Y-43.789
X150.996 Y-43.249
X151.721 Y-42.696
X152.436 Y-42.131
X153.143 Y-41.554
X153.84 Y-40.967
X154.53 Y-40.371
X155.212 Y-39.766
X155.888 Y-39.154
X156.558 Y-38.535
X157.223 Y-37.912
X157.884 Y-37.284
X158.542 Y-36.652
X159.196 Y-36.017
X159.849 Y-35.38
X160.499 Y-34.741
X161.148 Y-34.101
X161.797 Y-33.459
X163.09 Y-32.174
X165.028 Y-30.243
X166.318 Y-28.954
X169.543 Y-25.732
X170.189 Y-25.089
X170.838 Y-24.448
X171.49 Y-23.81
X172.147 Y-23.179
X172.814 Y-22.557
X173.493 Y-21.948
X174.187 Y-21.356
X174.9 Y-20.788
X175.635 Y-20.248
X176.393 Y-19.742
X177.174 Y-19.272
X177.98 Y-18.846
X178.809 Y-18.465
X179.657 Y-18.131
X180.525 Y-17.849
X181.407 Y-17.619
X182.301 Y-17.442
X183.205 Y-17.322
X184.115 Y-17.256
X185.026 Y-17.245
X185.937 Y-17.293
X186.843 Y-17.396
X187.741 Y-17.553
X188.627 Y-17.767
X189.499 Y-18.034
X190.353 Y-18.355
X191.185 Y-18.728
X191.993 Y-19.151
X192.774 Y-19.621
X193.527 Y-20.135
X194.252 Y-20.688
X194.947 Y-21.278
X195.609 Y-21.905
X196.236 Y-22.567
X196.828 Y-23.261
X197.378 Y-23.988
X197.885 Y-24.746
X198.349 Y-25.531
X198.763 Y-26.343
X199.128 Y-27.179
X199.442 Y-28.035
X199.702 Y-28.909
X199.909 Y-29.797
X200.061 Y-30.696
X200.157 Y-31.603
X200.196 Y-32.513
X200.181 Y-33.425
X200.108 Y-34.334
X199.979 Y-35.237
X199.796 Y-36.13
X199.557 Y-37.01
X199.264 Y-37.873
X198.919 Y-38.717
X198.522 Y-39.538
X198.077 Y-40.334
X197.59 Y-41.105
X197.066 Y-41.851
X196.513 Y-42.576
X195.937 Y-43.283
X195.345 Y-43.976
X194.739 Y-44.657
X194.123 Y-45.33
X193.499 Y-45.995
X192.87 Y-46.655
X192.237 Y-47.311
X191.601 Y-47.964
X190.962 Y-48.615
X190.322 Y-49.265
X189.681 Y-49.913
X188.395 Y-51.206
X186.464 Y-53.143
X182.597 Y-57.014
X181.954 Y-57.66
X181.312 Y-58.308
X180.673 Y-58.958
X180.038 Y-59.612
X179.406 Y-60.27
X178.781 Y-60.933
X178.162 Y-61.603
X177.552 Y-62.28
X176.95 Y-62.965
X176.357 Y-63.658
X175.775 Y-64.36
X175.205 Y-65.071
X174.646 Y-65.792
X174.099 Y-66.521
X173.565 Y-67.261
X173.045 Y-68.01
X172.538 Y-68.768
X172.046 Y-69.535
X171.568 Y-70.312
X171.105 Y-71.097
X170.657 Y-71.891
X170.224 Y-72.694
X169.806 Y-73.504
X169.405 Y-74.323
X169.019 Y-75.149
X168.65 Y-75.983
X168.296 Y-76.823
X167.96 Y-77.671
X167.64 Y-78.525
X167.336 Y-79.384
X167.05 Y-80.25
X166.78 Y-81.121
X166.527 Y-81.997
X166.291 Y-82.878
X166.073 Y-83.763
X165.873 Y-84.653
X165.689 Y-85.546
X165.523 Y-86.442
X165.374 Y-87.342
X165.241 Y-88.244
X165.123 Y-89.148
X165.021 Y-90.054
X164.933 Y-90.962
X164.859 Y-91.871
X164.797 Y-92.78
X164.745 Y-93.691
X164.703 Y-94.601
X164.669 Y-95.513
X164.642 Y-96.424
X164.62 Y-97.336
X164.604 Y-98.247
X164.591 Y-99.159
X164.581 Y-100.071
X164.573 Y-100.983
X164.567 Y-101.894
X164.563 Y-102.806
X164.557 Y-104.63
X164.553 Y-107.365
X164.551 Y-112.836
Y-116.483
X164.553 Y-117.395
X164.556 Y-118.307
X164.563 Y-119.219
X164.573 Y-120.131
X164.59 Y-121.042
X164.613 Y-121.954
X164.646 Y-122.865
X164.688 Y-123.776
X164.742 Y-124.686
X164.807 Y-125.595
X164.886 Y-126.504
X164.979 Y-127.411
X165.087 Y-128.316
X165.21 Y-129.22
X165.349 Y-130.121
X165.503 Y-131.02
X165.674 Y-131.915
X165.862 Y-132.808
X166.066 Y-133.696
X166.287 Y-134.581
X166.524 Y-135.461
X166.778 Y-136.337
X167.049 Y-137.208
X167.337 Y-138.073
X167.641 Y-138.932
X167.963 Y-139.786
X168.3 Y-140.633
X168.655 Y-141.473
X169.025 Y-142.306
X169.411 Y-143.132
X169.814 Y-143.95
X170.233 Y-144.76
X170.667 Y-145.562
X171.117 Y-146.355
X171.583 Y-147.139
X172.064 Y-147.913
X172.559 Y-148.678
X173.07 Y-149.434
X173.594 Y-150.18
X174.132 Y-150.916
X174.684 Y-151.642
X175.248 Y-152.359
X175.823 Y-153.066
X176.409 Y-153.765
X177.005 Y-154.455
X177.609 Y-155.138
X178.22 Y-155.815
X178.838 Y-156.485
X179.461 Y-157.151
X180.089 Y-157.812
X180.721 Y-158.47
X181.355 Y-159.125
X181.992 Y-159.777
X182.631 Y-160.428
X183.271 Y-161.077
X183.912 Y-161.725
X185.197 Y-163.019
X187.128 Y-164.957
X189.061 Y-166.892
X191.639 Y-169.472
X192.283 Y-170.118
X192.924 Y-170.766
X193.562 Y-171.418
X194.194 Y-172.075
X194.818 Y-172.74
X195.428 Y-173.417
X196.022 Y-174.109
X196.593 Y-174.82
X197.136 Y-175.553
X197.646 Y-176.309
X198.12 Y-177.087
X198.551 Y-177.891
X198.937 Y-178.717
X199.277 Y-179.563
X199.564 Y-180.428
X199.8 Y-181.309
X199.983 Y-182.203
X200.11 Y-183.106
X200.181 Y-184.015
X200.198 Y-184.926
X200.157 Y-185.837
X200.061 Y-186.744
X199.909 Y-187.643
X199.701 Y-188.531
X199.44 Y-189.404
X199.125 Y-190.26
X198.757 Y-191.094
X198.34 Y-191.905
X197.875 Y-192.689
X197.365 Y-193.446
X196.816 Y-194.173
X196.23 Y-194.872
X195.607 Y-195.537
X194.949 Y-196.169
X194.259 Y-196.765
X193.535 Y-197.32
X192.781 Y-197.832
X191.999 Y-198.301
X191.189 Y-198.72
X190.356 Y-199.09
X189.503 Y-199.411
X188.63 Y-199.677
X187.744 Y-199.889
X186.846 Y-200.048
X185.94 Y-200.149
X185.029 Y-200.195
X184.117 Y-200.186
X183.208 Y-200.119
X182.304 Y-199.996
X181.41 Y-199.819
X180.528 Y-199.585
X179.663 Y-199.298
X178.817 Y-198.959
X177.993 Y-198.567
X177.194 Y-198.127
X176.421 Y-197.645
X175.672 Y-197.124
X174.945 Y-196.574
X174.236 Y-196.001
X173.542 Y-195.41
X172.859 Y-194.805
X172.186 Y-194.19
X171.52 Y-193.568
X170.859 Y-192.939
X170.203 Y-192.307
X169.549 Y-191.671
X168.898 Y-191.032
X168.249 Y-190.392
X167.6 Y-189.751
X166.307 Y-188.466
X164.37 Y-186.534
X160.499 Y-182.668
X159.853 Y-182.024
X159.205 Y-181.383
X158.555 Y-180.743
X157.902 Y-180.107
X157.245 Y-179.475
X156.582 Y-178.849
X155.913 Y-178.229
X155.237 Y-177.618
X154.553 Y-177.015
X153.861 Y-176.421
X153.16 Y-175.838
X152.45 Y-175.266
X151.73 Y-174.706
X151.002 Y-174.157
X150.264 Y-173.622
X149.516 Y-173.1
X148.759 Y-172.592
X147.992 Y-172.098
X147.217 Y-171.619
X146.432 Y-171.154
X145.639 Y-170.705
X144.837 Y-170.27
X144.027 Y-169.851
X143.21 Y-169.447
X142.384 Y-169.06
X141.552 Y-168.689
X140.712 Y-168.334
X139.865 Y-167.995
X139.012 Y-167.674
X138.153 Y-167.369
X137.288 Y-167.08
X136.417 Y-166.809
X135.542 Y-166.554
X134.661 Y-166.316
X133.776 Y-166.096
X132.887 Y-165.894
X131.995 Y-165.709
X131.098 Y-165.541
X130.199 Y-165.39
X129.297 Y-165.255
X128.393 Y-165.136
X127.487 Y-165.032
X126.58 Y-164.943
X125.671 Y-164.867
X124.762 Y-164.803
X123.851 Y-164.751
X122.941 Y-164.707
X122.03 Y-164.673
X121.118 Y-164.645
X120.207 Y-164.623
X119.295 Y-164.605
X118.383 Y-164.592
X117.471 Y-164.582
X116.56 Y-164.574
X115.648 Y-164.568
X114.736 Y-164.563
X112.912 Y-164.558
X110.177 Y-164.553
X104.706 Y-164.551
X101.059
X100.147 Y-164.553
X99.235 Y-164.556
X98.323 Y-164.562
X97.412 Y-164.572
X96.5 Y-164.587
X95.589 Y-164.61
X94.677 Y-164.641
X93.766 Y-164.683
X92.856 Y-164.735
X91.947 Y-164.8
X91.038 Y-164.877
X90.131 Y-164.968
X89.225 Y-165.074
X88.321 Y-165.196
X87.42 Y-165.333
X86.521 Y-165.486
X85.625 Y-165.655
X84.733 Y-165.841
X83.843 Y-166.044
X82.958 Y-166.263
X82.077 Y-166.498
X81.201 Y-166.75
X80.33 Y-167.019
X79.464 Y-167.305
X78.604 Y-167.608
X77.75 Y-167.928
X76.903 Y-168.264
X76.062 Y-168.616
X75.228 Y-168.985
X74.401 Y-169.37
X73.582 Y-169.771
X72.771 Y-170.187
X71.968 Y-170.62
X71.174 Y-171.068
X70.389 Y-171.532
X69.613 Y-172.011
X68.847 Y-172.505
X68.091 Y-173.014
X67.344 Y-173.537
X66.606 Y-174.074
X65.879 Y-174.623
X65.161 Y-175.185
X64.453 Y-175.759
X63.753 Y-176.344
X63.062 Y-176.939
X62.378 Y-177.542
X61.701 Y-178.153
X61.03 Y-178.77
X60.364 Y-179.393
X59.702 Y-180.02
X59.044 Y-180.651
X58.389 Y-181.286
X57.736 Y-181.922
X57.085 Y-182.561
X56.436 Y-183.201
X55.788 Y-183.842
X54.494 Y-185.127
X52.556 Y-187.058
X49.976 Y-189.635
X48.041 Y-191.569
X47.395 Y-192.213
X46.747 Y-192.854
X46.096 Y-193.493
X45.44 Y-194.126
X44.776 Y-194.75
X44.1 Y-195.363
X43.41 Y-195.959
X42.701 Y-196.532
X41.971 Y-197.078
X41.218 Y-197.593
X40.441 Y-198.071
X39.64 Y-198.506
X38.817 Y-198.898
X37.973 Y-199.242
X37.109 Y-199.535
X36.23 Y-199.777
X35.338 Y-199.965
X34.436 Y-200.098
X33.527 Y-200.176
X32.616 Y-200.199
X31.705 Y-200.164
X30.797 Y-200.074
X29.897 Y-199.928
X29.008 Y-199.726
X28.132 Y-199.471
X27.275 Y-199.162
X26.438 Y-198.8
X25.624 Y-198.388
X24.837 Y-197.928
X24.078 Y-197.423
X23.753 Y-197.103
X23.308 Y-196.373
X23.269 Y-196.317
X23.224 Y-196.264
X23.174 Y-196.217
X22.747 Y-195.858
X22.603 Y-195.731
X22.333 Y-195.468
X21.974 Y-195.109
X21.711 Y-194.839
X21.584 Y-194.695
X21.235 Y-194.281
X20.367 Y-193.245
X20.261 Y-193.113
X19.955 Y-192.623
X19.847 Y-192.449
X19.11 Y-191.173
X19.018 Y-191.011
X18.997 Y-190.966
X18.811 Y-190.54
X18.736 Y-190.345
X18.359 Y-189.309
X18.285 Y-189.102
X18.142 Y-188.687
X18.072 Y-188.48
X17.947 Y-187.859
X17.691 Y-186.408
X17.639 Y-185.994
X17.622 Y-185.787
X17.618 Y-185.165
Y-183.922
X17.628 Y-183.715
X17.657 Y-183.301
X17.685 Y-183.094
X17.982 Y-181.414
X18.015 Y-181.229
X18.198 Y-180.608
X18.272 Y-180.401
X18.649 Y-179.365
X18.727 Y-179.158
X18.89 Y-178.743
X18.978 Y-178.536
X19.018 Y-178.46
X19.432 Y-177.739
X19.81 Y-177.086
X20.054 Y-176.666
X20.189 Y-176.464
X20.261 Y-176.364
X20.34 Y-176.257
X21.208 Y-175.221
X21.557 Y-174.807
X21.711 Y-174.628
X21.943 Y-174.393
X22.564 Y-173.771
X51.75 Y-144.585
X52.362 Y-143.909
X52.921 Y-143.189
X53.412 Y-142.42
X53.847 Y-141.619
X54.238 Y-140.795
X54.592 Y-139.955
X54.916 Y-139.102
X55.214 Y-138.241
X55.491 Y-137.372
X55.747 Y-136.497
X55.984 Y-135.616
X56.203 Y-134.731
X56.406 Y-133.842
X56.592 Y-132.95
X56.763 Y-132.054
X56.918 Y-131.156
X57.058 Y-130.255
X57.184 Y-129.351
X57.295 Y-128.446
X57.393 Y-127.54
X57.478 Y-126.632
X57.551 Y-125.723
X57.614 Y-124.813
X57.667 Y-123.903
X57.711 Y-122.992
X57.748 Y-122.081
X57.778 Y-121.17
X57.802 Y-120.259
X57.822 Y-119.347
X57.837 Y-118.435
X57.85 Y-117.524
X57.86 Y-116.612
X57.867 Y-115.7
X57.873 Y-114.788
X57.877 Y-113.876
X57.883 Y-112.053
X57.888 Y-109.317
X57.89 Y-104.758
Y-102.023
X57.889 Y-101.111
X57.886 Y-100.199
X57.882 Y-99.287
X57.874 Y-98.376
X57.861 Y-97.464
X57.844 Y-96.552
X57.819 Y-95.641
X57.787 Y-94.73
X57.746 Y-93.819
X57.695 Y-92.908
X57.633 Y-91.999
X57.56 Y-91.09
X57.474 Y-90.182
X57.375 Y-89.276
X57.262 Y-88.371
X57.136 Y-87.468
X56.996 Y-86.567
X56.842 Y-85.668
X56.673 Y-84.772
X56.49 Y-83.879
X56.291 Y-82.989
X56.078 Y-82.102
X55.849 Y-81.22
X55.605 Y-80.341
X55.345 Y-79.467
X55.071 Y-78.598
X54.781 Y-77.733
X54.477 Y-76.874
X54.157 Y-76.02
X53.823 Y-75.171
X53.701 Y-74.876
X53.664 Y-74.802
X53.618 Y-74.733
X53.563 Y-74.67
X22.125 Y-43.233
X21.738 Y-42.842
X21.711 Y-42.814
X21.504 Y-42.571
X20.86 Y-41.806
X20.34 Y-41.185
X20.261 Y-41.078
X20.189 Y-40.978
X20.051 Y-40.77
X19.639 Y-40.062
X19.212 Y-39.32
X19.018 Y-38.982
X18.977 Y-38.906
X18.89 Y-38.699
X18.727 Y-38.284
X18.649 Y-38.077
X18.272 Y-37.041
X18.198 Y-36.834
X18.015 Y-36.213
X17.722 Y-34.555
X17.685 Y-34.348
X17.657 Y-34.141
X17.628 Y-33.727
X17.618 Y-33.52
Y-32.277
X17.622 Y-31.655
X17.639 Y-31.448
X17.691 Y-31.034
X17.947 Y-29.583
X18.072 Y-28.962
X18.142 Y-28.755
X18.285 Y-28.34
X18.604 Y-27.463
X18.737 Y-27.097
X18.811 Y-26.903
X18.997 Y-26.476
X19.018 Y-26.431
X19.11 Y-26.269
X19.847 Y-24.993
X20.085 Y-24.611
X20.261 Y-24.33
X20.367 Y-24.197
X21.409 Y-22.954
X21.584 Y-22.747
X21.711 Y-22.603
X21.974 Y-22.333
X22.333 Y-21.974
X22.603 Y-21.711
X22.747 Y-21.584
X23.161 Y-21.235
X24.197 Y-20.367
X24.33 Y-20.261
X24.819 Y-19.955
X24.993 Y-19.847
X26.269 Y-19.11
X26.431 Y-19.018
X26.476 Y-18.997
X26.903 Y-18.811
X27.097 Y-18.737
X28.133 Y-18.36
X28.34 Y-18.285
X28.755 Y-18.142
X28.962 Y-18.072
X29.583 Y-17.947
X31.034 Y-17.691
X31.448 Y-17.639
X31.655 Y-17.622
X32.277 Y-17.618
X33.52
X33.727 Y-17.628
X34.141 Y-17.657
X34.348 Y-17.685
X36.028 Y-17.982
X36.213 Y-18.015
X36.834 Y-18.198
X37.041 Y-18.272
X38.077 Y-18.649
X38.284 Y-18.727
X38.699 Y-18.89
X38.906 Y-18.977
X38.982 Y-19.018
X39.704 Y-19.432
X40.356 Y-19.81
X40.776 Y-20.054
X40.978 Y-20.189
X41.078 Y-20.261
X41.185 Y-20.34
X42.221 Y-21.208
X42.635 Y-21.557
X42.814 Y-21.711
X43.049 Y-21.943
X43.671 Y-22.564
X72.857 Y-51.75
X73.534 Y-52.362
X74.254 Y-52.921
X75.022 Y-53.412
X75.824 Y-53.847
X76.648 Y-54.237
X77.488 Y-54.591
X78.34 Y-54.915
X79.202 Y-55.214
X80.071 Y-55.491
X80.946 Y-55.747
X81.826 Y-55.985
X82.711 Y-56.204
X83.6 Y-56.407
X84.493 Y-56.593
X85.388 Y-56.763
X86.287 Y-56.919
X87.188 Y-57.059
X88.091 Y-57.184
X88.996 Y-57.295
X89.903 Y-57.393
X90.81 Y-57.479
X91.719 Y-57.552
X92.629 Y-57.615
X93.539 Y-57.667
X94.45 Y-57.712
X95.361 Y-57.748
X96.272 Y-57.778
X97.184 Y-57.803
X98.095 Y-57.822
X99.007 Y-57.838
X99.919 Y-57.85
X100.831 Y-57.86
X101.742 Y-57.867
X102.654 Y-57.873
X103.566 Y-57.878
X105.39 Y-57.883
X108.125 Y-57.888
X112.684 Y-57.89
X115.419
X116.331 Y-57.889
X117.243 Y-57.886
X118.155 Y-57.881
X119.067 Y-57.873
X119.978 Y-57.861
X120.89 Y-57.843
X121.802 Y-57.819
X122.713 Y-57.786
X123.624 Y-57.745
X124.534 Y-57.694
X125.444 Y-57.633
X126.353 Y-57.56
X127.26 Y-57.474
X128.167 Y-57.375
X129.072 Y-57.263
X129.975 Y-57.137
X130.876 Y-56.997
X131.774 Y-56.843
X132.671 Y-56.674
X133.564 Y-56.49
X134.454 Y-56.292
X135.34 Y-56.078
X136.223 Y-55.85
X137.101 Y-55.606
X137.976 Y-55.347
X138.845 Y-55.072
X139.71 Y-54.783
X140.569 Y-54.478
X141.423 Y-54.158
X142.271 Y-53.824
X142.565 Y-53.702
X142.639 Y-53.665
X142.708 Y-53.619
X142.771 Y-53.564
X174.209 Y-22.125
X174.6 Y-21.738
X174.628 Y-21.711
X174.871 Y-21.504
X175.636 Y-20.86
X176.257 Y-20.34
X176.364 Y-20.261
X176.464 Y-20.189
X176.672 Y-20.051
X177.38 Y-19.639
X178.122 Y-19.212
X178.46 Y-19.018
X178.536 Y-18.978
X178.743 Y-18.89
X179.158 Y-18.727
X179.365 Y-18.649
X180.401 Y-18.272
X180.608 Y-18.198
X181.229 Y-18.015
X182.887 Y-17.722
X183.094 Y-17.685
X183.301 Y-17.657
X183.715 Y-17.628
X183.922 Y-17.618
X185.165
X185.787 Y-17.622
X185.994 Y-17.639
X186.408 Y-17.691
X187.859 Y-17.947
X188.48 Y-18.072
X188.687 Y-18.142
X189.102 Y-18.285
X189.98 Y-18.604
X190.345 Y-18.736
X190.54 Y-18.811
X190.966 Y-18.997
X191.011 Y-19.018
X191.173 Y-19.11
X192.449 Y-19.847
X192.831 Y-20.084
X193.113 Y-20.261
X193.245 Y-20.367
X194.488 Y-21.409
X194.695 Y-21.584
X194.839 Y-21.711
X195.109 Y-21.974
X195.468 Y-22.333
X195.731 Y-22.603
X195.858 Y-22.747
X196.207 Y-23.161
X197.076 Y-24.197
X197.181 Y-24.329
X197.488 Y-24.819
X197.595 Y-24.992
X198.332 Y-26.269
X198.424 Y-26.431
X198.445 Y-26.476
X198.631 Y-26.903
X198.706 Y-27.097
X199.083 Y-28.133
X199.157 Y-28.34
X199.301 Y-28.755
X199.37 Y-28.962
X199.495 Y-29.583
X199.75 Y-31.034
X199.803 Y-31.448
X199.82 Y-31.655
X199.824 Y-32.277
Y-33.52
X199.814 Y-33.727
X199.785 Y-34.141
X199.756 Y-34.348
X199.46 Y-36.029
X199.427 Y-36.213
X199.244 Y-36.834
X199.17 Y-37.041
X198.793 Y-38.077
X198.715 Y-38.284
X198.552 Y-38.699
X198.465 Y-38.906
X198.424 Y-38.982
X198.01 Y-39.704
X197.633 Y-40.356
X197.388 Y-40.776
X197.253 Y-40.978
X197.181 Y-41.078
X197.103 Y-41.185
X196.234 Y-42.221
X195.885 Y-42.635
X195.731 Y-42.814
X195.499 Y-43.049
X194.879 Y-43.671
X165.692 Y-72.858
X165.08 Y-73.534
X164.521 Y-74.254
X164.031 Y-75.023
X163.596 Y-75.824
X163.206 Y-76.649
X162.852 Y-77.489
X162.528 Y-78.341
X162.229 Y-79.203
X161.953 Y-80.072
X161.696 Y-80.947
X161.459 Y-81.827
X161.239 Y-82.712
X161.036 Y-83.601
X160.85 Y-84.493
X160.68 Y-85.389
X160.525 Y-86.288
X160.385 Y-87.189
X160.26 Y-88.092
X160.148 Y-88.997
X160.05 Y-89.903
X159.964 Y-90.811
X159.891 Y-91.72
X159.828 Y-92.63
X159.775 Y-93.54
X159.73 Y-94.451
X159.694 Y-95.362
X159.664 Y-96.273
X159.639 Y-97.185
X159.62 Y-98.096
X159.604 Y-99.008
X159.592 Y-99.92
X159.582 Y-100.831
X159.575 Y-101.743
X159.569 Y-102.655
X159.564 Y-103.567
X159.558 Y-105.39
X159.554 Y-108.126
X159.552 Y-112.685
Y-115.42
X159.553 Y-116.332
X159.556 Y-117.244
X159.561 Y-118.156
X159.569 Y-119.067
X159.581 Y-119.979
X159.599 Y-120.891
X159.624 Y-121.802
X159.656 Y-122.714
X159.698 Y-123.624
X159.749 Y-124.535
X159.811 Y-125.445
X159.884 Y-126.353
X159.969 Y-127.261
X160.068 Y-128.168
X160.18 Y-129.073
X160.306 Y-129.976
X160.446 Y-130.877
X160.6 Y-131.775
X160.77 Y-132.671
X160.953 Y-133.564
X161.152 Y-134.454
X161.365 Y-135.341
X161.594 Y-136.224
X161.837 Y-137.102
X162.096 Y-137.977
X162.37 Y-138.846
X162.66 Y-139.711
X162.964 Y-140.57
X163.284 Y-141.424
X163.619 Y-142.272
X163.74 Y-142.564
X163.776 Y-142.639
X163.823 Y-142.708
X163.877 Y-142.77
X195.317 Y-174.209
X195.704 Y-174.6
X195.731 Y-174.628
X195.938 Y-174.87
X196.582 Y-175.636
X197.103 Y-176.257
X197.181 Y-176.364
X197.253 Y-176.464
X197.392 Y-176.672
X197.803 Y-177.379
X198.23 Y-178.122
X198.424 Y-178.46
X198.464 Y-178.536
X198.552 Y-178.743
X198.715 Y-179.158
X198.793 Y-179.365
X199.17 Y-180.401
X199.244 Y-180.608
X199.427 Y-181.229
X199.72 Y-182.887
X199.756 Y-183.094
X199.785 Y-183.301
X199.814 Y-183.715
X199.824 Y-183.922
Y-185.165
X199.82 Y-185.787
X199.803 Y-185.994
X199.75 Y-186.408
X199.495 Y-187.859
X199.37 Y-188.48
X199.301 Y-188.687
X199.158 Y-189.102
X198.838 Y-189.98
X198.706 Y-190.345
X198.631 Y-190.54
X198.445 Y-190.966
X198.424 Y-191.011
X198.332 Y-191.173
X197.595 Y-192.45
X197.358 Y-192.831
X197.181 Y-193.113
X197.076 Y-193.245
X196.033 Y-194.488
X195.858 Y-194.695
X195.731 Y-194.839
X195.468 Y-195.109
X195.109 Y-195.468
X194.839 Y-195.731
X194.695 Y-195.858
X194.281 Y-196.207
X193.245 Y-197.076
X193.113 Y-197.181
X192.623 Y-197.488
X192.45 Y-197.595
X191.173 Y-198.332
X191.011 Y-198.424
X190.966 Y-198.445
X190.54 Y-198.631
X190.345 Y-198.706
X189.309 Y-199.083
X189.102 Y-199.158
X188.687 Y-199.301
X188.48 Y-199.37
X187.859 Y-199.495
X186.408 Y-199.75
X185.994 Y-199.803
X185.787 Y-199.82
X185.165 Y-199.824
X183.922
X183.715 Y-199.814
X183.301 Y-199.785
X183.094 Y-199.756
X181.412 Y-199.46
X181.229 Y-199.427
X180.608 Y-199.244
X180.401 Y-199.17
X179.365 Y-198.793
X179.158 Y-198.715
X178.743 Y-198.552
X178.536 Y-198.464
X178.46 Y-198.424
X177.738 Y-198.01
X177.086 Y-197.633
X176.665 Y-197.388
X176.464 Y-197.253
X176.364 Y-197.181
X176.257 Y-197.103
X175.221 Y-196.234
X174.807 Y-195.885
X174.628 Y-195.731
X174.393 Y-195.499
X173.771 Y-194.878
X144.585 Y-165.692
X143.908 Y-165.08
X143.188 Y-164.521
X142.419 Y-164.031
X141.618 Y-163.595
X140.794 Y-163.205
X139.953 Y-162.852
X139.101 Y-162.528
X138.239 Y-162.23
X137.371 Y-161.953
X136.496 Y-161.697
X135.615 Y-161.459
X134.73 Y-161.239
X133.841 Y-161.036
X132.949 Y-160.85
X132.053 Y-160.68
X131.154 Y-160.525
X130.253 Y-160.385
X129.35 Y-160.26
X128.445 Y-160.149
X127.539 Y-160.051
X126.631 Y-159.965
X125.722 Y-159.891
X124.812 Y-159.828
X123.902 Y-159.775
X122.991 Y-159.731
X122.08 Y-159.694
X121.169 Y-159.664
X120.258 Y-159.639
X119.346 Y-159.62
X118.434 Y-159.604
X117.523 Y-159.592
X116.611 Y-159.582
X115.699 Y-159.575
X114.787 Y-159.569
X113.875 Y-159.564
X112.052 Y-159.558
X109.316 Y-159.554
X104.757 Y-159.552
X102.022
X101.11 Y-159.553
X100.198 Y-159.555
X99.286 Y-159.56
X98.375 Y-159.568
X97.463 Y-159.581
X96.551 Y-159.599
X95.64 Y-159.624
X94.729 Y-159.656
X93.818 Y-159.698
X92.907 Y-159.749
X91.998 Y-159.811
X91.089 Y-159.884
X90.181 Y-159.97
X89.275 Y-160.068
X88.37 Y-160.18
X87.466 Y-160.306
X86.566 Y-160.446
X85.667 Y-160.6
X84.771 Y-160.77
X83.878 Y-160.954
X82.988 Y-161.153
X82.102 Y-161.366
X81.219 Y-161.595
X80.34 Y-161.839
X79.466 Y-162.097
X78.596 Y-162.371
X77.732 Y-162.66
X76.872 Y-162.965
X76.018 Y-163.285
X75.17 Y-163.62
X74.876 Y-163.742
X74.801 Y-163.778
X74.733 Y-163.825
X74.67 Y-163.879
X43.233 Y-195.317
X42.842 Y-195.704
X42.814 Y-195.731
X42.572 Y-195.938
X41.806 Y-196.582
X41.185 Y-197.103
X41.078 Y-197.181
X40.978 Y-197.253
X40.77 Y-197.392
X40.063 Y-197.803
X39.32 Y-198.23
X38.982 Y-198.424
X38.906 Y-198.465
X38.699 Y-198.552
X38.284 Y-198.715
X38.077 Y-198.793
X37.041 Y-199.17
X36.834 Y-199.244
X36.213 Y-199.427
X34.555 Y-199.72
X34.348 Y-199.756
X34.141 Y-199.785
X33.727 Y-199.814
X33.52 Y-199.824
X32.277
X31.655 Y-199.82
X31.448 Y-199.803
X31.034 Y-199.75
X29.583 Y-199.495
X28.962 Y-199.37
X28.755 Y-199.301
X28.34 Y-199.157
X27.462 Y-198.838
X27.097 Y-198.706
X26.903 Y-198.631
X26.476 Y-198.445
X26.431 Y-198.424
X26.269 Y-198.332
X24.992 Y-197.595
X24.611 Y-197.358
X24.329 Y-197.181
X24.197 Y-197.076
X23.174 Y-196.217
G3 X22.438 Y-196.184 I-0.391 J-0.5
G1 X22.355 Y-196.238 Z-4.752
X22.273 Y-196.291 Z-4.729
X22.196 Y-196.341 Z-4.691
X22.125 Y-196.387 Z-4.639
X22.061 Y-196.428 Z-4.574
X22.007 Y-196.463 Z-4.498
X21.963 Y-196.491 Z-4.413
X21.931 Y-196.512 Z-4.321
X21.911 Y-196.525 Z-4.224
X21.905 Y-196.529 Z-4.125
G0 Z5
X50.445 Y-145.118
Z-3.49
G1 Z-4.125 F250
X50.453 Y-145.116 Z-4.224
X50.476 Y-145.11 Z-4.321
X50.513 Y-145.101 Z-4.413
X50.563 Y-145.088 Z-4.498
X50.626 Y-145.072 Z-4.574
X50.699 Y-145.053 Z-4.639
X50.781 Y-145.032 Z-4.691
X50.871 Y-145.01 Z-4.729
X50.965 Y-144.986 Z-4.752
X51.061 Y-144.961 Z-4.76
G3 X51.75 Y-144.585 I-0.39 J1.534
G1 X59.208 Y-137.127
X59.82 Y-136.451
X60.33 Y-135.695
X60.748 Y-134.885
X61.09 Y-134.04
X61.371 Y-133.172
X61.605 Y-132.291
X61.801 Y-131.4
X61.967 Y-130.504
X62.11 Y-129.603
X62.233 Y-128.7
X62.338 Y-127.794
X62.429 Y-126.887
X62.507 Y-125.978
X62.574 Y-125.069
X62.63 Y-124.159
X62.678 Y-123.248
X62.719 Y-122.337
X62.752 Y-121.426
X62.78 Y-120.515
X62.803 Y-119.603
X62.821 Y-118.692
X62.836 Y-117.78
X62.848 Y-116.868
X62.858 Y-115.956
X62.865 Y-115.045
X62.871 Y-114.133
X62.876 Y-113.221
X62.882 Y-111.397
X62.887 Y-108.662
X62.89 Y-105.015
Y-103.191
X62.889 Y-102.279
X62.887 Y-101.367
X62.884 Y-100.456
X62.878 Y-99.544
X62.869 Y-98.632
X62.856 Y-97.72
X62.838 Y-96.809
X62.813 Y-95.897
X62.782 Y-94.986
X62.743 Y-94.075
X62.695 Y-93.164
X62.638 Y-92.254
X62.571 Y-91.345
X62.492 Y-90.437
X62.402 Y-89.529
X62.3 Y-88.623
X62.186 Y-87.719
X62.059 Y-86.816
X61.92 Y-85.915
X61.767 Y-85.016
X61.601 Y-84.119
X61.422 Y-83.225
X61.27 Y-82.521
X61.234 Y-82.406
X61.176 Y-82.299
X61.099 Y-82.206
X53.563 Y-74.67
G3 X52.833 Y-74.573 I-0.433 J-0.464
G1 X52.745 Y-74.62 Z-4.752
X52.66 Y-74.665 Z-4.729
X52.578 Y-74.708 Z-4.691
X52.503 Y-74.748 Z-4.639
X52.436 Y-74.783 Z-4.574
X52.379 Y-74.814 Z-4.498
X52.333 Y-74.838 Z-4.413
X52.299 Y-74.856 Z-4.321
X52.279 Y-74.867 Z-4.224
X52.272 Y-74.87 Z-4.125
G0 Z5
X57.903 Y-137.66
Z-3.49
G1 Z-4.125 F250
X57.911 Y-137.658 Z-4.224
X57.934 Y-137.652 Z-4.321
X57.971 Y-137.643 Z-4.413
X58.021 Y-137.63 Z-4.498
X58.084 Y-137.614 Z-4.574
X58.157 Y-137.595 Z-4.639
X58.239 Y-137.574 Z-4.691
X58.329 Y-137.552 Z-4.729
X58.423 Y-137.528 Z-4.752
X58.519 Y-137.503 Z-4.76
G3 X59.208 Y-137.127 I-0.39 J1.534
G1 X65.009 Y-131.326
X65.621 Y-130.65
X66.131 Y-129.894
X66.53 Y-129.074
X66.837 Y-128.216
X67.073 Y-127.335
X67.252 Y-126.441
X67.389 Y-125.54
X67.495 Y-124.634
X67.578 Y-123.726
X67.642 Y-122.817
X67.693 Y-121.906
X67.734 Y-120.995
X67.767 Y-120.084
X67.792 Y-119.173
X67.813 Y-118.261
X67.83 Y-117.349
X67.843 Y-116.438
X67.853 Y-115.526
X67.862 Y-114.614
X67.868 Y-113.702
X67.873 Y-112.791
X67.881 Y-110.967
X67.885 Y-109.143
X67.888 Y-106.408
X67.889 Y-103.672
X67.888 Y-102.761
X67.886 Y-101.849
X67.882 Y-100.937
X67.876 Y-100.025
X67.867 Y-99.113
X67.855 Y-98.202
X67.838 Y-97.29
X67.815 Y-96.379
X67.787 Y-95.467
X67.752 Y-94.556
X67.709 Y-93.645
X67.657 Y-92.735
X67.597 Y-91.825
X67.527 Y-90.916
X67.446 Y-90.008
X67.356 Y-89.1
X67.3 Y-88.603
X67.268 Y-88.464
X67.206 Y-88.336
X67.118 Y-88.225
X61.099 Y-82.206
G3 X60.369 Y-82.109 I-0.433 J-0.464
G1 X60.281 Y-82.155 Z-4.752
X60.195 Y-82.201 Z-4.729
X60.114 Y-82.244 Z-4.691
X60.039 Y-82.283 Z-4.639
X59.972 Y-82.319 Z-4.574
X59.915 Y-82.349 Z-4.498
X59.869 Y-82.373 Z-4.413
X59.835 Y-82.391 Z-4.321
X59.814 Y-82.402 Z-4.224
X59.808 Y-82.406 Z-4.125
G0 Z5
X63.704 Y-131.859
Z-3.49
G1 Z-4.125 F250
X63.712 Y-131.857 Z-4.224
X63.734 Y-131.852 Z-4.321
X63.771 Y-131.842 Z-4.413
X63.822 Y-131.829 Z-4.498
X63.884 Y-131.813 Z-4.574
X63.958 Y-131.795 Z-4.639
X64.04 Y-131.774 Z-4.691
X64.129 Y-131.751 Z-4.729
X64.223 Y-131.727 Z-4.752
X64.32 Y-131.703 Z-4.76
G3 X65.009 Y-131.326 I-0.39 J1.534
G1 X70.395 Y-125.94
X71.007 Y-125.264
X71.497 Y-124.495
X71.87 Y-123.663
X72.148 Y-122.794
X72.352 Y-121.906
X72.499 Y-121.006
X72.605 Y-120.1
X72.682 Y-119.192
X72.737 Y-118.282
X72.777 Y-117.371
X72.806 Y-116.459
X72.828 Y-115.548
X72.843 Y-114.636
X72.855 Y-113.724
X72.864 Y-112.813
X72.87 Y-111.901
X72.875 Y-110.989
X72.882 Y-109.165
X72.886 Y-107.342
X72.888 Y-105.518
X72.887 Y-103.694
X72.886 Y-102.783
X72.883 Y-101.871
X72.878 Y-100.959
X72.871 Y-100.047
X72.86 Y-99.136
X72.846 Y-98.224
X72.828 Y-97.312
X72.805 Y-96.401
X72.775 Y-95.489
X72.74 Y-94.578
X72.715 Y-94.056
X72.689 Y-93.903
X72.626 Y-93.76
X72.53 Y-93.637
X67.118 Y-88.225
G3 X66.388 Y-88.128 I-0.433 J-0.464
G1 X66.3 Y-88.174 Z-4.752
X66.214 Y-88.22 Z-4.729
X66.133 Y-88.263 Z-4.691
X66.058 Y-88.302 Z-4.639
X65.991 Y-88.338 Z-4.574
X65.934 Y-88.368 Z-4.498
X65.888 Y-88.392 Z-4.413
X65.854 Y-88.41 Z-4.321
X65.833 Y-88.421 Z-4.224
X65.826 Y-88.425 Z-4.125
G0 Z5
X69.09 Y-126.473
Z-3.49
G1 Z-4.125 F250
X69.098 Y-126.471 Z-4.224
X69.121 Y-126.465 Z-4.321
X69.158 Y-126.456 Z-4.413
X69.208 Y-126.443 Z-4.498
X69.271 Y-126.427 Z-4.574
X69.344 Y-126.408 Z-4.639
X69.426 Y-126.387 Z-4.691
X69.516 Y-126.365 Z-4.729
X69.61 Y-126.341 Z-4.752
X69.706 Y-126.316 Z-4.76
G3 X70.395 Y-125.94 I-0.39 J1.534
G1 X75.392 Y-120.944
X76.003 Y-120.268
X76.518 Y-119.515
X76.909 Y-118.691
X77.198 Y-117.826
X77.406 Y-116.939
X77.554 Y-116.039
X77.657 Y-115.133
X77.729 Y-114.224
X77.778 Y-113.314
X77.812 Y-112.402
X77.836 Y-111.491
X77.852 Y-110.579
X77.864 Y-109.667
X77.872 Y-108.756
X77.877 Y-107.844
X77.881 Y-106.932
X77.883 Y-106.02
X77.884 Y-105.108
X77.885 Y-104.197
X77.883 Y-103.285
X77.881 Y-102.373
X77.876 Y-101.461
X77.869 Y-100.549
X77.86 Y-99.638
X77.854 Y-99.215
X77.831 Y-99.054
X77.767 Y-98.904
X77.668 Y-98.775
X72.53 Y-93.637
G3 X71.633 Y-93.668 Z-4.56 I-0.433 J-0.464
X71.466 Y-94.17 I0.464 J-0.433
G1 X74.327 Y-120.548
G3 X74.494 Y-120.913 I0.631 J0.068
X75.392 Y-120.944 Z-4.76 I0.464 J0.433
G1 X80.546 Y-115.789
X80.571 Y-115.765
X80.761 Y-115.557
X80.946 Y-115.35
X81.641 Y-114.522
X81.79 Y-114.314
X82.081 Y-113.9
X82.204 Y-113.691
X82.442 Y-113.279
X82.553 Y-113.071
X82.849 Y-112.45
X82.929 Y-112.243
X83.24 Y-111.389
X83.304 Y-111.207
X83.344 Y-111
X83.454 Y-110.378
X83.49 Y-110.171
X83.585 Y-109.55
X83.599 Y-109.342
Y-108.1
X83.585 Y-107.892
X83.49 Y-107.271
X83.381 Y-106.649
X83.344 Y-106.442
X83.304 Y-106.235
X83.23 Y-106.028
X82.929 Y-105.199
X82.849 Y-104.992
X82.553 Y-104.371
X82.442 Y-104.163
X81.963 Y-103.335
X81.899 Y-103.231
X81.815 Y-103.128
X80.946 Y-102.092
X80.754 Y-101.876
X80.57 Y-101.677
X77.668 Y-98.775
G3 X76.938 Y-98.678 I-0.433 J-0.464
G1 X76.85 Y-98.724 Z-4.752
X76.764 Y-98.77 Z-4.729
X76.683 Y-98.813 Z-4.691
X76.608 Y-98.852 Z-4.639
X76.541 Y-98.888 Z-4.574
X76.484 Y-98.918 Z-4.498
X76.438 Y-98.942 Z-4.413
X76.404 Y-98.96 Z-4.321
X76.383 Y-98.971 Z-4.224
X76.377 Y-98.975 Z-4.125
G0 Z5
X72.325 Y-50.445
Z-3.49
G1 Z-4.125 F250
X72.327 Y-50.453 Z-4.224
X72.332 Y-50.476 Z-4.321
X72.342 Y-50.513 Z-4.413
X72.354 Y-50.563 Z-4.498
X72.37 Y-50.626 Z-4.574
X72.389 Y-50.699 Z-4.639
X72.41 Y-50.781 Z-4.691
X72.433 Y-50.871 Z-4.729
X72.457 Y-50.965 Z-4.752
X72.481 Y-51.061 Z-4.76
G3 X72.857 Y-51.75 I1.534 J0.39
G1 X80.315 Y-59.208
X80.992 Y-59.82
X81.747 Y-60.331
X82.557 Y-60.749
X83.403 Y-61.09
X84.27 Y-61.371
X85.151 Y-61.605
X86.042 Y-61.801
X86.938 Y-61.968
X87.839 Y-62.11
X88.742 Y-62.233
X89.648 Y-62.339
X90.555 Y-62.43
X91.464 Y-62.508
X92.373 Y-62.575
X93.283 Y-62.631
X94.194 Y-62.679
X95.105 Y-62.719
X96.016 Y-62.753
X96.927 Y-62.78
X97.839 Y-62.803
X98.751 Y-62.822
X99.662 Y-62.837
X100.574 Y-62.848
X101.486 Y-62.858
X102.397 Y-62.866
X103.309 Y-62.871
X104.221 Y-62.876
X106.045 Y-62.882
X108.78 Y-62.887
X112.427 Y-62.89
X114.251
X115.163 Y-62.889
X116.075 Y-62.887
X116.986 Y-62.884
X117.898 Y-62.878
X118.81 Y-62.869
X119.722 Y-62.855
X120.633 Y-62.837
X121.545 Y-62.813
X122.456 Y-62.781
X123.367 Y-62.742
X124.278 Y-62.695
X125.188 Y-62.638
X126.097 Y-62.57
X127.005 Y-62.492
X127.913 Y-62.403
X128.819 Y-62.301
X129.724 Y-62.187
X130.627 Y-62.06
X131.528 Y-61.92
X132.427 Y-61.768
X133.323 Y-61.602
X134.217 Y-61.423
X134.921 Y-61.271
X135.036 Y-61.235
X135.142 Y-61.177
X135.236 Y-61.1
X142.771 Y-53.564
G3 X142.868 Y-52.835 I-0.464 J0.433
G1 X142.821 Y-52.747 Z-4.752
X142.776 Y-52.661 Z-4.729
X142.733 Y-52.58 Z-4.691
X142.693 Y-52.505 Z-4.639
X142.658 Y-52.438 Z-4.574
X142.627 Y-52.38 Z-4.498
X142.603 Y-52.334 Z-4.413
X142.585 Y-52.301 Z-4.321
X142.574 Y-52.28 Z-4.224
X142.571 Y-52.273 Z-4.125
G0 Z5
X79.783 Y-57.903
Z-3.49
G1 Z-4.125 F250
X79.784 Y-57.911 Z-4.224
X79.79 Y-57.934 Z-4.321
X79.8 Y-57.971 Z-4.413
X79.812 Y-58.021 Z-4.498
X79.828 Y-58.084 Z-4.574
X79.847 Y-58.157 Z-4.639
X79.868 Y-58.239 Z-4.691
X79.891 Y-58.329 Z-4.729
X79.915 Y-58.423 Z-4.752
X79.939 Y-58.519 Z-4.76
G3 X80.315 Y-59.208 I1.534 J0.39
G1 X86.116 Y-65.009
X86.792 Y-65.621
X87.548 Y-66.131
X88.368 Y-66.53
X89.226 Y-66.838
X90.107 Y-67.073
X91.001 Y-67.253
X91.902 Y-67.39
X92.808 Y-67.496
X93.716 Y-67.578
X94.625 Y-67.643
X95.536 Y-67.694
X96.447 Y-67.735
X97.358 Y-67.767
X98.269 Y-67.793
X99.181 Y-67.813
X100.093 Y-67.83
X101.004 Y-67.843
X101.916 Y-67.854
X102.828 Y-67.862
X103.74 Y-67.868
X104.652 Y-67.874
X106.475 Y-67.881
X108.299 Y-67.885
X111.034 Y-67.888
X113.77 Y-67.889
X114.681 Y-67.888
X115.593 Y-67.886
X116.505 Y-67.882
X117.417 Y-67.876
X118.329 Y-67.867
X119.24 Y-67.854
X120.152 Y-67.837
X121.064 Y-67.815
X121.975 Y-67.786
X122.886 Y-67.751
X123.797 Y-67.708
X124.707 Y-67.657
X125.617 Y-67.597
X126.526 Y-67.527
X127.434 Y-67.447
X128.342 Y-67.356
X128.839 Y-67.3
X128.978 Y-67.269
X129.106 Y-67.207
X129.217 Y-67.118
X135.236 Y-61.1
G3 X135.333 Y-60.37 I-0.464 J0.433
G1 X135.286 Y-60.282 Z-4.752
X135.241 Y-60.196 Z-4.729
X135.198 Y-60.115 Z-4.691
X135.158 Y-60.04 Z-4.639
X135.123 Y-59.973 Z-4.574
X135.092 Y-59.916 Z-4.498
X135.068 Y-59.87 Z-4.413
X135.05 Y-59.836 Z-4.321
X135.039 Y-59.815 Z-4.224
X135.036 Y-59.808 Z-4.125
G0 Z5
X85.583 Y-63.704
Z-3.49
G1 Z-4.125 F250
X85.585 Y-63.712 Z-4.224
X85.591 Y-63.734 Z-4.321
X85.6 Y-63.771 Z-4.413
X85.613 Y-63.822 Z-4.498
X85.629 Y-63.884 Z-4.574
X85.648 Y-63.958 Z-4.639
X85.669 Y-64.04 Z-4.691
X85.691 Y-64.129 Z-4.729
X85.715 Y-64.223 Z-4.752
X85.74 Y-64.32 Z-4.76
G3 X86.116 Y-65.009 I1.534 J0.39
G1 X91.502 Y-70.395
X92.179 Y-71.007
X92.948 Y-71.497
X93.779 Y-71.87
X94.648 Y-72.148
X95.537 Y-72.352
X96.436 Y-72.499
X97.342 Y-72.606
X98.251 Y-72.682
X99.161 Y-72.737
X100.072 Y-72.777
X100.983 Y-72.806
X101.895 Y-72.828
X102.806 Y-72.843
X103.718 Y-72.855
X104.63 Y-72.864
X105.542 Y-72.871
X106.453 Y-72.875
X108.277 Y-72.882
X110.101 Y-72.886
X111.924 Y-72.888
X113.748 Y-72.887
X114.66 Y-72.886
X115.571 Y-72.883
X116.483 Y-72.878
X117.395 Y-72.87
X118.307 Y-72.86
X119.218 Y-72.846
X120.13 Y-72.828
X121.042 Y-72.804
X121.953 Y-72.775
X122.864 Y-72.739
X123.387 Y-72.715
X123.54 Y-72.688
X123.683 Y-72.625
X123.806 Y-72.529
X129.217 Y-67.118
G3 X129.314 Y-66.388 I-0.464 J0.433
G1 X129.268 Y-66.3 Z-4.752
X129.222 Y-66.215 Z-4.729
X129.179 Y-66.133 Z-4.691
X129.14 Y-66.058 Z-4.639
X129.104 Y-65.991 Z-4.574
X129.074 Y-65.934 Z-4.498
X129.05 Y-65.888 Z-4.413
X129.032 Y-65.854 Z-4.321
X129.021 Y-65.834 Z-4.224
X129.017 Y-65.827 Z-4.125
G0 Z5
X90.97 Y-69.09
Z-3.49
G1 Z-4.125 F250
X90.971 Y-69.098 Z-4.224
X90.977 Y-69.121 Z-4.321
X90.987 Y-69.158 Z-4.413
X90.999 Y-69.208 Z-4.498
X91.015 Y-69.271 Z-4.574
X91.034 Y-69.344 Z-4.639
X91.055 Y-69.426 Z-4.691
X91.078 Y-69.516 Z-4.729
X91.102 Y-69.61 Z-4.752
X91.126 Y-69.706 Z-4.76
G3 X91.502 Y-70.395 I1.534 J0.39
G1 X96.498 Y-75.391
X97.174 Y-76.003
X97.927 Y-76.517
X98.751 Y-76.909
X99.615 Y-77.198
X100.503 Y-77.406
X101.403 Y-77.554
X102.309 Y-77.657
X103.218 Y-77.729
X104.128 Y-77.778
X105.039 Y-77.812
X105.951 Y-77.836
X106.863 Y-77.852
X107.774 Y-77.864
X108.686 Y-77.872
X109.598 Y-77.877
X110.51 Y-77.881
X111.422 Y-77.883
X112.333 Y-77.884
X113.245
X114.157 Y-77.883
X115.069 Y-77.881
X115.981 Y-77.876
X116.892 Y-77.869
X117.804 Y-77.859
X118.228 Y-77.853
X118.389 Y-77.83
X118.539 Y-77.767
X118.668 Y-77.667
X123.806 Y-72.529
G3 X123.775 Y-71.632 Z-4.56 I-0.464 J0.433
X123.273 Y-71.465 I-0.433 J-0.464
G1 X96.894 Y-74.327
G3 X96.529 Y-74.494 I0.068 J-0.631
X96.498 Y-75.391 Z-4.76 I0.433 J-0.464
G1 X101.653 Y-80.546
X101.677 Y-80.57
X101.885 Y-80.761
X102.092 Y-80.946
X103.128 Y-81.815
X103.231 Y-81.899
X103.335 Y-81.963
X104.163 Y-82.442
X104.371 Y-82.553
X104.992 Y-82.849
X105.199 Y-82.929
X106.053 Y-83.24
X106.235 Y-83.304
X106.442 Y-83.344
X107.064 Y-83.454
X107.271 Y-83.49
X107.892 Y-83.585
X108.1 Y-83.599
X109.342
X109.55 Y-83.585
X110.171 Y-83.49
X110.793 Y-83.381
X111 Y-83.344
X111.207 Y-83.304
X111.414 Y-83.23
X112.243 Y-82.929
X112.45 Y-82.849
X113.071 Y-82.553
X113.279 Y-82.442
X113.693 Y-82.202
X113.9 Y-82.081
X114.315 Y-81.789
X114.522 Y-81.641
X115.35 Y-80.946
X115.566 Y-80.754
X115.765 Y-80.571
X118.668 Y-77.667
G3 X118.765 Y-76.938 I-0.464 J0.433
G1 X118.718 Y-76.85 Z-4.752
X118.673 Y-76.764 Z-4.729
X118.63 Y-76.683 Z-4.691
X118.59 Y-76.608 Z-4.639
X118.555 Y-76.541 Z-4.574
X118.525 Y-76.483 Z-4.498
X118.5 Y-76.437 Z-4.413
X118.483 Y-76.404 Z-4.321
X118.472 Y-76.383 Z-4.224
X118.468 Y-76.376 Z-4.125
G0 Z5
X166.997 Y-72.325
Z-3.49
G1 Z-4.125 F250
X166.989 Y-72.327 Z-4.224
X166.966 Y-72.332 Z-4.321
X166.929 Y-72.342 Z-4.413
X166.879 Y-72.355 Z-4.498
X166.816 Y-72.371 Z-4.574
X166.743 Y-72.389 Z-4.639
X166.661 Y-72.41 Z-4.691
X166.571 Y-72.433 Z-4.729
X166.477 Y-72.457 Z-4.752
X166.381 Y-72.481 Z-4.76
G3 X165.692 Y-72.858 I0.39 J-1.534
G1 X158.234 Y-80.316
X157.622 Y-80.992
X157.112 Y-81.747
X156.694 Y-82.558
X156.352 Y-83.403
X156.072 Y-84.271
X155.838 Y-85.152
X155.642 Y-86.043
X155.476 Y-86.939
X155.333 Y-87.84
X155.21 Y-88.743
X155.104 Y-89.649
X155.013 Y-90.556
X154.935 Y-91.465
X154.868 Y-92.374
X154.811 Y-93.284
X154.763 Y-94.195
X154.723 Y-95.106
X154.689 Y-96.017
X154.662 Y-96.928
X154.639 Y-97.84
X154.62 Y-98.751
X154.605 Y-99.663
X154.593 Y-100.575
X154.584 Y-101.487
X154.576 Y-102.398
X154.57 Y-103.31
X154.566 Y-104.222
X154.56 Y-106.045
X154.555 Y-108.781
X154.552 Y-112.428
Y-114.252
X154.553 Y-115.164
X154.555 Y-116.075
X154.558 Y-116.987
X154.564 Y-117.899
X154.574 Y-118.811
X154.587 Y-119.723
X154.605 Y-120.634
X154.63 Y-121.546
X154.661 Y-122.457
X154.701 Y-123.368
X154.748 Y-124.278
X154.806 Y-125.188
X154.873 Y-126.098
X154.951 Y-127.006
X155.041 Y-127.914
X155.142 Y-128.82
X155.256 Y-129.724
X155.383 Y-130.627
X155.523 Y-131.528
X155.675 Y-132.427
X155.841 Y-133.324
X156.02 Y-134.218
X156.172 Y-134.922
X156.209 Y-135.037
X156.267 Y-135.144
X156.344 Y-135.237
X163.877 Y-142.77
G3 X164.607 Y-142.867 I0.433 J0.464
G1 X164.695 Y-142.821 Z-4.752
X164.781 Y-142.775 Z-4.729
X164.862 Y-142.732 Z-4.691
X164.937 Y-142.693 Z-4.639
X165.004 Y-142.657 Z-4.574
X165.061 Y-142.627 Z-4.498
X165.107 Y-142.603 Z-4.413
X165.141 Y-142.585 Z-4.321
X165.162 Y-142.574 Z-4.224
X165.169 Y-142.57 Z-4.125
G0 Z5
X159.539 Y-79.783
Z-3.49
G1 Z-4.125 F250
X159.531 Y-79.785 Z-4.224
X159.508 Y-79.791 Z-4.321
X159.471 Y-79.8 Z-4.413
X159.421 Y-79.813 Z-4.498
X159.358 Y-79.829 Z-4.574
X159.285 Y-79.847 Z-4.639
X159.203 Y-79.868 Z-4.691
X159.113 Y-79.891 Z-4.729
X159.019 Y-79.915 Z-4.752
X158.923 Y-79.939 Z-4.76
G3 X158.234 Y-80.316 I0.39 J-1.534
G1 X152.433 Y-86.116
X151.821 Y-86.793
X151.311 Y-87.548
X150.912 Y-88.368
X150.605 Y-89.227
X150.369 Y-90.108
X150.19 Y-91.001
X150.052 Y-91.903
X149.946 Y-92.808
X149.864 Y-93.717
X149.799 Y-94.626
X149.748 Y-95.536
X149.708 Y-96.447
X149.675 Y-97.359
X149.649 Y-98.27
X149.629 Y-99.182
X149.612 Y-100.093
X149.599 Y-101.005
X149.588 Y-101.917
X149.58 Y-102.829
X149.574 Y-103.74
X149.568 Y-104.652
X149.561 Y-106.476
X149.557 Y-108.299
X149.554 Y-111.035
X149.553 Y-113.77
X149.554 Y-114.682
X149.556 Y-115.594
X149.56 Y-116.506
X149.566 Y-117.417
X149.575 Y-118.329
X149.588 Y-119.241
X149.605 Y-120.153
X149.628 Y-121.064
X149.656 Y-121.976
X149.692 Y-122.887
X149.735 Y-123.797
X149.786 Y-124.708
X149.847 Y-125.618
X149.916 Y-126.527
X149.996 Y-127.435
X150.087 Y-128.342
X150.143 Y-128.839
X150.174 Y-128.978
X150.236 Y-129.106
X150.325 Y-129.218
X156.344 Y-135.237
G3 X157.074 Y-135.334 I0.433 J0.464
G1 X157.162 Y-135.288 Z-4.752
X157.247 Y-135.242 Z-4.729
X157.329 Y-135.199 Z-4.691
X157.404 Y-135.16 Z-4.639
X157.471 Y-135.124 Z-4.574
X157.528 Y-135.094 Z-4.498
X157.574 Y-135.07 Z-4.413
X157.608 Y-135.052 Z-4.321
X157.628 Y-135.041 Z-4.224
X157.635 Y-135.037 Z-4.125
G0 Z5
X153.738 Y-85.584
Z-3.49
G1 Z-4.125 F250
X153.73 Y-85.585 Z-4.224
X153.708 Y-85.591 Z-4.321
X153.671 Y-85.601 Z-4.413
X153.62 Y-85.613 Z-4.498
X153.558 Y-85.629 Z-4.574
X153.484 Y-85.648 Z-4.639
X153.402 Y-85.669 Z-4.691
X153.313 Y-85.692 Z-4.729
X153.219 Y-85.716 Z-4.752
X153.122 Y-85.74 Z-4.76
G3 X152.433 Y-86.116 I0.39 J-1.534
G1 X147.047 Y-91.503
X146.435 Y-92.179
X145.945 Y-92.948
X145.572 Y-93.78
X145.294 Y-94.648
X145.09 Y-95.537
X144.943 Y-96.437
X144.836 Y-97.342
X144.76 Y-98.251
X144.705 Y-99.161
X144.665 Y-100.072
X144.636 Y-100.983
X144.614 Y-101.895
X144.598 Y-102.807
X144.587 Y-103.718
X144.578 Y-104.63
X144.571 Y-105.542
X144.566 Y-106.454
X144.56 Y-108.277
X144.556 Y-110.101
X144.554 Y-111.925
X144.555 Y-113.748
X144.556 Y-114.66
X144.559 Y-115.572
X144.564 Y-116.484
X144.572 Y-117.395
X144.582 Y-118.307
X144.596 Y-119.219
X144.615 Y-120.131
X144.638 Y-121.042
X144.668 Y-121.953
X144.703 Y-122.865
X144.728 Y-123.387
X144.754 Y-123.541
X144.817 Y-123.683
X144.913 Y-123.806
X150.325 Y-129.218
G3 X151.055 Y-129.315 I0.433 J0.464
G1 X151.143 Y-129.268 Z-4.752
X151.228 Y-129.223 Z-4.729
X151.31 Y-129.18 Z-4.691
X151.385 Y-129.14 Z-4.639
X151.452 Y-129.105 Z-4.574
X151.509 Y-129.075 Z-4.498
X151.555 Y-129.05 Z-4.413
X151.589 Y-129.032 Z-4.321
X151.609 Y-129.022 Z-4.224
X151.616 Y-129.018 Z-4.125
G0 Z5
X148.352 Y-90.97
Z-3.49
G1 Z-4.125 F250
X148.344 Y-90.972 Z-4.224
X148.321 Y-90.978 Z-4.321
X148.284 Y-90.987 Z-4.413
X148.234 Y-91 Z-4.498
X148.171 Y-91.016 Z-4.574
X148.098 Y-91.034 Z-4.639
X148.016 Y-91.055 Z-4.691
X147.926 Y-91.078 Z-4.729
X147.832 Y-91.102 Z-4.752
X147.736 Y-91.126 Z-4.76
G3 X147.047 Y-91.503 I0.39 J-1.534
G1 X142.051 Y-96.498
X141.44 Y-97.174
X140.925 Y-97.927
X140.534 Y-98.75
X140.244 Y-99.615
X140.036 Y-100.503
X139.888 Y-101.403
X139.785 Y-102.309
X139.713 Y-103.218
X139.664 Y-104.128
X139.63 Y-105.039
X139.606 Y-105.951
X139.59 Y-106.862
X139.578 Y-107.774
X139.57 Y-108.686
X139.565 Y-109.598
X139.561 Y-110.51
X139.559 Y-111.421
X139.558 Y-112.333
X139.557 Y-113.245
X139.559 Y-114.157
X139.561 Y-115.069
X139.566 Y-115.98
X139.573 Y-116.892
X139.583 Y-117.804
X139.589 Y-118.228
X139.612 Y-118.389
X139.675 Y-118.539
X139.775 Y-118.668
X144.913 Y-123.806
G3 X145.81 Y-123.775 Z-4.56 I0.433 J0.464
X145.978 Y-123.273 I-0.464 J0.433
G1 X143.116 Y-96.894
G3 X142.949 Y-96.529 I-0.631 J-0.068
X142.051 Y-96.498 Z-4.76 I-0.464 J-0.433
G1 X136.896 Y-101.654
X136.872 Y-101.677
X136.681 Y-101.885
X136.496 Y-102.092
X135.627 Y-103.128
X135.543 Y-103.231
X135.479 Y-103.335
X135.001 Y-104.163
X134.889 Y-104.371
X134.593 Y-104.992
X134.514 Y-105.199
X134.202 Y-106.054
X134.138 Y-106.235
X134.098 Y-106.442
X133.879 Y-107.685
X133.845 Y-107.892
X133.843 Y-108.1
Y-109.342
X133.845 Y-109.55
X133.879 Y-109.757
X134.098 Y-111
X134.138 Y-111.207
X134.212 Y-111.414
X134.514 Y-112.243
X134.593 Y-112.45
X134.889 Y-113.071
X135.001 Y-113.279
X135.479 Y-114.107
X135.543 Y-114.211
X135.627 Y-114.314
X136.496 Y-115.35
X136.688 Y-115.566
X136.872 Y-115.765
X139.775 Y-118.668
G3 X140.505 Y-118.765 I0.433 J0.464
G1 X140.592 Y-118.718 Z-4.752
X140.678 Y-118.673 Z-4.729
X140.759 Y-118.63 Z-4.691
X140.835 Y-118.59 Z-4.639
X140.902 Y-118.555 Z-4.574
X140.959 Y-118.524 Z-4.498
X141.005 Y-118.5 Z-4.413
X141.038 Y-118.482 Z-4.321
X141.059 Y-118.471 Z-4.224
X141.066 Y-118.468 Z-4.125
G0 Z5
X145.117 Y-166.997
Z-3.49
G1 Z-4.125 F250
X145.116 Y-166.989 Z-4.224
X145.11 Y-166.966 Z-4.321
X145.1 Y-166.929 Z-4.413
X145.088 Y-166.879 Z-4.498
X145.072 Y-166.816 Z-4.574
X145.053 Y-166.743 Z-4.639
X145.032 Y-166.661 Z-4.691
X145.009 Y-166.571 Z-4.729
X144.985 Y-166.477 Z-4.752
X144.961 Y-166.381 Z-4.76
G3 X144.585 Y-165.692 I-1.534 J-0.39
G1 X137.127 Y-158.234
X136.45 Y-157.622
X135.695 Y-157.112
X134.884 Y-156.694
X134.039 Y-156.352
X133.171 Y-156.072
X132.29 Y-155.839
X131.399 Y-155.643
X130.503 Y-155.476
X129.602 Y-155.334
X128.699 Y-155.211
X127.793 Y-155.105
X126.886 Y-155.014
X125.978 Y-154.935
X125.068 Y-154.868
X124.158 Y-154.811
X123.248 Y-154.763
X122.337 Y-154.723
X121.425 Y-154.689
X120.514 Y-154.662
X119.603 Y-154.639
X118.691 Y-154.62
X117.779 Y-154.605
X116.867 Y-154.593
X115.956 Y-154.584
X115.044 Y-154.576
X114.132 Y-154.57
X113.22 Y-154.566
X111.397 Y-154.56
X108.661 Y-154.555
X105.014 Y-154.552
X103.19
X102.279 Y-154.553
X101.367 Y-154.555
X100.455 Y-154.558
X99.543 Y-154.564
X98.631 Y-154.573
X97.72 Y-154.587
X96.808 Y-154.605
X95.897 Y-154.63
X94.985 Y-154.661
X94.074 Y-154.701
X93.164 Y-154.749
X92.254 Y-154.806
X91.344 Y-154.873
X90.436 Y-154.951
X89.529 Y-155.041
X88.622 Y-155.142
X87.718 Y-155.256
X86.815 Y-155.383
X85.914 Y-155.523
X85.015 Y-155.676
X84.118 Y-155.842
X83.224 Y-156.021
X82.519 Y-156.173
X82.404 Y-156.21
X82.298 Y-156.268
X82.204 Y-156.345
X74.67 Y-163.879
G3 X74.573 Y-164.609 I0.464 J-0.433
G1 X74.62 Y-164.697 Z-4.752
X74.665 Y-164.783 Z-4.729
X74.708 Y-164.864 Z-4.691
X74.748 Y-164.939 Z-4.639
X74.783 Y-165.006 Z-4.574
X74.813 Y-165.063 Z-4.498
X74.838 Y-165.109 Z-4.413
X74.856 Y-165.143 Z-4.321
X74.866 Y-165.164 Z-4.224
X74.87 Y-165.17 Z-4.125
G0 Z5
X137.659 Y-159.539
Z-3.49
G1 Z-4.125 F250
X137.658 Y-159.531 Z-4.224
X137.652 Y-159.508 Z-4.321
X137.642 Y-159.471 Z-4.413
X137.63 Y-159.421 Z-4.498
X137.614 Y-159.358 Z-4.574
X137.595 Y-159.285 Z-4.639
X137.574 Y-159.203 Z-4.691
X137.551 Y-159.113 Z-4.729
X137.527 Y-159.019 Z-4.752
X137.503 Y-158.923 Z-4.76
G3 X137.127 Y-158.234 I-1.534 J-0.39
G1 X131.326 Y-152.433
X130.65 Y-151.821
X129.894 Y-151.312
X129.074 Y-150.913
X128.216 Y-150.605
X127.335 Y-150.37
X126.441 Y-150.19
X125.539 Y-150.053
X124.634 Y-149.947
X123.726 Y-149.864
X122.816 Y-149.799
X121.906 Y-149.748
X120.995 Y-149.708
X120.084 Y-149.675
X119.172 Y-149.649
X118.261 Y-149.629
X117.349 Y-149.612
X116.437 Y-149.599
X115.525 Y-149.588
X114.614 Y-149.58
X113.702 Y-149.574
X112.79 Y-149.568
X110.966 Y-149.561
X109.143 Y-149.557
X106.407 Y-149.554
X103.672 Y-149.553
X102.76 Y-149.554
X101.848 Y-149.556
X100.937 Y-149.56
X100.025 Y-149.566
X99.113 Y-149.575
X98.201 Y-149.588
X97.29 Y-149.605
X96.378 Y-149.628
X95.467 Y-149.656
X94.556 Y-149.692
X93.645 Y-149.735
X92.734 Y-149.786
X91.825 Y-149.847
X90.915 Y-149.917
X90.007 Y-149.997
X89.1 Y-150.087
X88.603 Y-150.143
X88.464 Y-150.175
X88.336 Y-150.236
X88.224 Y-150.325
X82.204 Y-156.345
G3 X82.108 Y-157.075 I0.464 J-0.433
G1 X82.154 Y-157.163 Z-4.752
X82.199 Y-157.248 Z-4.729
X82.242 Y-157.33 Z-4.691
X82.282 Y-157.405 Z-4.639
X82.317 Y-157.472 Z-4.574
X82.348 Y-157.529 Z-4.498
X82.372 Y-157.575 Z-4.413
X82.39 Y-157.609 Z-4.321
X82.401 Y-157.629 Z-4.224
X82.404 Y-157.636 Z-4.125
G0 Z5
X131.859 Y-153.738
Z-3.49
G1 Z-4.125 F250
X131.857 Y-153.73 Z-4.224
X131.851 Y-153.708 Z-4.321
X131.842 Y-153.671 Z-4.413
X131.829 Y-153.62 Z-4.498
X131.813 Y-153.558 Z-4.574
X131.794 Y-153.484 Z-4.639
X131.773 Y-153.402 Z-4.691
X131.751 Y-153.313 Z-4.729
X131.727 Y-153.219 Z-4.752
X131.702 Y-153.122 Z-4.76
G3 X131.326 Y-152.433 I-1.534 J-0.39
G1 X125.94 Y-147.047
X125.263 Y-146.435
X124.494 Y-145.945
X123.663 Y-145.572
X122.794 Y-145.294
X121.905 Y-145.09
X121.006 Y-144.943
X120.1 Y-144.836
X119.191 Y-144.76
X118.281 Y-144.705
X117.37 Y-144.665
X116.459 Y-144.636
X115.547 Y-144.614
X114.636 Y-144.598
X113.724 Y-144.587
X112.812 Y-144.578
X111.9 Y-144.571
X110.989 Y-144.566
X109.165 Y-144.56
X107.341 Y-144.556
X105.518 Y-144.554
X103.694 Y-144.555
X102.782 Y-144.556
X101.871 Y-144.559
X100.959 Y-144.564
X100.047 Y-144.571
X99.135 Y-144.582
X98.223 Y-144.596
X97.312 Y-144.615
X96.4 Y-144.638
X95.489 Y-144.668
X94.578 Y-144.704
X94.055 Y-144.728
X93.902 Y-144.755
X93.759 Y-144.818
X93.636 Y-144.913
X88.224 Y-150.325
G3 X88.128 Y-151.055 I0.464 J-0.433
G1 X88.174 Y-151.143 Z-4.752
X88.219 Y-151.228 Z-4.729
X88.262 Y-151.31 Z-4.691
X88.302 Y-151.385 Z-4.639
X88.337 Y-151.452 Z-4.574
X88.368 Y-151.509 Z-4.498
X88.392 Y-151.555 Z-4.413
X88.41 Y-151.589 Z-4.321
X88.421 Y-151.609 Z-4.224
X88.424 Y-151.616 Z-4.125
G0 Z5
X126.472 Y-148.352
Z-3.49
G1 Z-4.125 F250
X126.471 Y-148.344 Z-4.224
X126.465 Y-148.321 Z-4.321
X126.455 Y-148.284 Z-4.413
X126.443 Y-148.234 Z-4.498
X126.427 Y-148.171 Z-4.574
X126.408 Y-148.098 Z-4.639
X126.387 Y-148.016 Z-4.691
X126.364 Y-147.926 Z-4.729
X126.341 Y-147.832 Z-4.752
X126.316 Y-147.736 Z-4.76
G3 X125.94 Y-147.047 I-1.534 J-0.39
G1 X120.944 Y-142.051
X120.268 Y-141.439
X119.515 Y-140.925
X118.691 Y-140.533
X117.827 Y-140.244
X116.939 Y-140.036
X116.039 Y-139.888
X115.133 Y-139.785
X114.224 Y-139.713
X113.314 Y-139.664
X112.403 Y-139.629
X111.491 Y-139.606
X110.579 Y-139.59
X109.668 Y-139.578
X108.756 Y-139.57
X107.844 Y-139.565
X106.932 Y-139.561
X106.02 Y-139.559
X105.109 Y-139.557
X104.197
X103.285 Y-139.559
X102.373 Y-139.561
X101.461 Y-139.566
X100.55 Y-139.573
X99.638 Y-139.583
X99.215 Y-139.589
X99.054 Y-139.612
X98.904 Y-139.675
X98.775 Y-139.775
X93.636 Y-144.913
G3 X93.667 Y-145.811 Z-4.56 I0.464 J-0.433
X94.169 Y-145.978 I0.433 J0.464
G1 X120.548 Y-143.115
G3 X120.913 Y-142.948 I-0.069 J0.631
X120.944 Y-142.051 Z-4.76 I-0.433 J0.464
G1 X115.789 Y-136.896
X115.765 Y-136.872
X115.557 Y-136.681
X115.35 Y-136.496
X114.314 Y-135.627
X114.211 Y-135.543
X114.107 Y-135.479
X113.279 Y-135.001
X113.071 Y-134.889
X112.45 Y-134.593
X112.243 Y-134.514
X111.388 Y-134.202
X111.207 Y-134.138
X111 Y-134.098
X109.757 Y-133.879
X109.55 Y-133.845
X109.342 Y-133.843
X108.1
X107.892 Y-133.845
X107.685 Y-133.879
X106.442 Y-134.098
X106.235 Y-134.138
X106.028 Y-134.212
X105.199 Y-134.514
X104.992 Y-134.593
X104.371 Y-134.889
X104.163 Y-135.001
X103.335 Y-135.479
X103.231 Y-135.543
X103.128 Y-135.627
X102.092 Y-136.496
X101.877 Y-136.688
X101.677 Y-136.872
X98.775 Y-139.775
G3 X98.678 Y-140.504 I0.464 J-0.433
G1 X98.725 Y-140.592 Z-4.752
X98.77 Y-140.678 Z-4.729
X98.813 Y-140.759 Z-4.691
X98.853 Y-140.834 Z-4.639
X98.888 Y-140.901 Z-4.574
X98.918 Y-140.959 Z-4.498
X98.943 Y-141.005 Z-4.413
X98.96 Y-141.038 Z-4.321
X98.971 Y-141.059 Z-4.224
X98.975 Y-141.066 Z-4.125
G0 Z15
G28 G91 Z0
G90
G28 G91 X0 Y0
G90
M5
M30
