(1001)
(T39  D=6.35 CR=0 - ZMIN=-8 - flat end mill)
G90 G94
G17
G21
G28 G91 Z0
G90

(2D Contour2)
T39
S18000 M3
G54
G0 X-4.468 Y39.447
Z15
Z5
G1 Z1 F66.7
Z-7.365
X-4.46 Y39.446 Z-7.464 F200
X-4.437 Y39.441 Z-7.561
X-4.4 Y39.434 Z-7.653
X-4.349 Y39.423 Z-7.738
X-4.285 Y39.41 Z-7.814
X-4.211 Y39.395 Z-7.879
X-4.128 Y39.378 Z-7.931
X-4.038 Y39.36 Z-7.969
X-3.943 Y39.341 Z-7.992
X-3.845 Y39.321 Z-8
X-3.223 Y39.195
G3 X-2.475 Y39.691 I0.126 J0.622
G2 X7.128 Y57.58 I34.475 J-6.984
G1 X25.034 Y75.486
G3 X32.891 Y94.454 I-18.968 J18.968
G1 Y122.988
G3 X25.034 Y141.956 I-26.825 J0
G1 X7.127 Y159.863
G2 X7.127 Y209.606 I24.873 J24.872
G1 X7.833 Y210.314
X7.835 Y210.315
G2 X57.58 Y210.315 I24.872 J-24.873
G1 X75.486 Y192.408
G3 X94.454 Y184.551 I18.968 J18.968
G1 X122.988
G3 X141.956 Y192.408 I0 J26.825
G1 X159.863 Y210.315
G2 X209.607 Y210.315 I24.872 J-24.873
G1 X210.315 Y209.607
G2 X210.315 Y159.863 I-24.873 J-24.872
G1 X192.408 Y141.956
G3 X184.551 Y122.988 I18.968 J-18.968
G1 Y94.454
G3 X192.408 Y75.486 I26.825 J0
G1 X210.315 Y57.58
G2 X210.315 Y7.835 I-24.873 J-24.872
G1 X210.314 Y7.833
X209.606 Y7.127
G2 X159.863 Y7.127 I-24.871 J24.873
G1 X141.956 Y25.034
G3 X122.988 Y32.891 I-18.968 J-18.968
G1 X94.454
G3 X75.486 Y25.034 I0 J-26.825
G1 X57.58 Y7.128
G2 X7.835 Y7.128 I-24.872 J24.872
G1 X7.481 Y7.481
X7.128 Y7.835
G2 X-2.475 Y39.691 I24.872 J24.872
G3 X-2.971 Y40.44 I-0.622 J0.126
G1 X-3.593 Y40.566
X-3.691 Y40.586 Z-7.992
X-3.786 Y40.605 Z-7.969
X-3.876 Y40.623 Z-7.931
X-3.959 Y40.64 Z-7.879
X-4.033 Y40.655 Z-7.814
X-4.097 Y40.668 Z-7.738
X-4.148 Y40.678 Z-7.653
X-4.185 Y40.686 Z-7.561
X-4.208 Y40.69 Z-7.464
X-4.216 Y40.692 Z-7.365
G0 Z15
G28 G91 Z0
G90
G28 G91 X0 Y0
G90
M5
M30
