(1001)
(T39  D=6.35 CR=0 - ZMIN=-4.26 - flat end mill)
G90 G94
G17
G21
G28 G91 Z0
G90

(2D Adaptive1)
T39
S18000 M3
G54
G0 X-0.611 Y-203.523
Z15
Z5
Z-2.99
G1 Z-3.625 F200
X-0.609 Y-203.516 Z-3.724
X-0.603 Y-203.493 Z-3.821
X-0.594 Y-203.456 Z-3.913
X-0.581 Y-203.406 Z-3.998
X-0.565 Y-203.343 Z-4.074
X-0.546 Y-203.27 Z-4.139
X-0.525 Y-203.187 Z-4.191
X-0.502 Y-203.098 Z-4.229
X-0.478 Y-203.004 Z-4.252
X-0.453 Y-202.908 Z-4.26
G3 X0.044 Y-199.451 I-15.704 J4.023
G1 Y-199.329
X0.09 Y-199.215
X0.779 Y-198.516
X1.254 Y-198.195
X1.737 Y-197.698
X2.187 Y-196.985
X2.529 Y-196.066
X2.689 Y-195.097
X2.727 Y-194.116
X2.684 Y-193.136
X2.584 Y-192.159
X2.448 Y-191.187
X2.32 Y-190.214
X2.202 Y-189.24
X2.09 Y-188.265
X2.004 Y-187.287
X1.952 Y-186.307
X1.92 Y-185.326
X1.913 Y-184.344
X1.951 Y-183.363
X2.014 Y-182.384
X2.096 Y-181.406
X2.228 Y-180.433
X2.389 Y-179.465
X2.566 Y-178.5
X2.79 Y-177.544
X3.046 Y-176.597
X3.32 Y-175.654
X3.633 Y-174.724
X3.981 Y-173.806
X4.348 Y-172.896
X4.746 Y-171.999
X5.182 Y-171.119
X5.64 Y-170.251
X6.12 Y-169.395
X6.64 Y-168.562
X7.183 Y-167.745
X7.74 Y-166.937
X8.339 Y-166.159
X8.962 Y-165.4
X9.598 Y-164.653
X10.254 Y-163.923
X10.926 Y-163.207
X11.606 Y-162.5
X12.292 Y-161.797
X12.98 Y-161.098
X13.671 Y-160.401
X14.363 Y-159.705
X15.749 Y-158.315
X18.524 Y-155.537
X27.546 Y-146.514
X28.232 Y-145.812
X28.907 Y-145.1
X29.577 Y-144.382
X30.243 Y-143.661
X30.885 Y-142.919
X31.507 Y-142.16
X32.116 Y-141.39
X32.715 Y-140.613
X33.286 Y-139.814
X33.834 Y-139
X34.365 Y-138.175
X34.887 Y-137.343
X35.377 Y-136.493
X35.842 Y-135.628
X36.29 Y-134.755
X36.728 Y-133.877
X37.131 Y-132.982
X37.508 Y-132.076
X37.869 Y-131.163
X38.218 Y-130.245
X38.531 Y-129.315
X38.817 Y-128.376
X39.085 Y-127.432
X39.343 Y-126.485
X39.562 Y-125.528
X39.754 Y-124.566
X39.928 Y-123.6
X40.091 Y-122.632
X40.214 Y-121.658
X40.31 Y-120.681
X40.389 Y-119.703
X40.456 Y-118.724
X40.499 Y-117.743
X40.526 Y-116.762
X40.543 Y-115.781
X40.553 Y-114.799
X40.56 Y-113.818
X40.564 Y-112.836
X40.568 Y-110.873
X40.57 Y-106.947
Y-102.039
X40.552 Y-101.058
X40.523 Y-100.077
X40.487 Y-99.096
X40.441 Y-98.116
X40.36 Y-97.138
X40.256 Y-96.162
X40.137 Y-95.187
X40.002 Y-94.215
X39.83 Y-93.249
X39.634 Y-92.287
X39.422 Y-91.329
X39.193 Y-90.374
X38.928 Y-89.429
X38.639 Y-88.491
X38.334 Y-87.558
X38.012 Y-86.631
X37.654 Y-85.717
X37.274 Y-84.812
X36.879 Y-83.914
X36.467 Y-83.023
X36.021 Y-82.149
X35.554 Y-81.285
X35.072 Y-80.43
X34.574 Y-79.585
X34.044 Y-78.758
X33.494 Y-77.946
X32.931 Y-77.142
X32.351 Y-76.35
X31.742 Y-75.58
X31.114 Y-74.825
X30.475 Y-74.08
X29.824 Y-73.346
X29.157 Y-72.626
X28.479 Y-71.916
X27.796 Y-71.211
X27.108 Y-70.511
X26.418 Y-69.813
X25.727 Y-69.116
X24.341 Y-67.726
X21.567 Y-64.948
X11.85 Y-55.231
X11.17 Y-54.524
X10.498 Y-53.808
X9.832 Y-53.087
X9.189 Y-52.346
X8.571 Y-51.583
X7.969 Y-50.808
X7.39 Y-50.016
X6.845 Y-49.199
X6.321 Y-48.369
X5.816 Y-47.528
X5.353 Y-46.662
X4.915 Y-45.784
X4.492 Y-44.898
X4.115 Y-43.992
X3.767 Y-43.074
X3.436 Y-42.15
X3.146 Y-41.213
X2.89 Y-40.265
X2.654 Y-39.312
X2.452 Y-38.352
X2.29 Y-37.384
X2.151 Y-36.412
X2.04 Y-35.437
X1.974 Y-34.458
X1.934 Y-33.477
X1.914 Y-32.496
X1.944 Y-31.514
X2.002 Y-30.535
X2.078 Y-29.556
X2.202 Y-28.583
X2.358 Y-27.613
X2.533 Y-26.648
X2.748 Y-25.69
X2.999 Y-24.741
X3.27 Y-23.798
X3.573 Y-22.864
X3.916 Y-21.944
X4.281 Y-21.033
X4.67 Y-20.132
X5.101 Y-19.25
X5.555 Y-18.38
X6.026 Y-17.519
X6.542 Y-16.684
X7.082 Y-15.864
X7.636 Y-15.055
X8.229 Y-14.272
X8.848 Y-13.51
X9.481 Y-12.761
X10.134 Y-12.027
X10.814 Y-11.319
X11.513 Y-10.631
X12.225 Y-9.955
X12.955 Y-9.3
X13.712 Y-8.675
X14.484 Y-8.069
X15.27 Y-7.481
X16.084 Y-6.931
X16.912 Y-6.405
X17.749 Y-5.892
X18.612 Y-5.424
X19.489 Y-4.983
X20.374 Y-4.559
X21.277 Y-4.174
X22.193 Y-3.822
X23.116 Y-3.489
X24.051 Y-3.19
X24.997 Y-2.929
X25.949 Y-2.691
X26.908 Y-2.481
X27.875 Y-2.314
X28.847 Y-2.172
X29.821 Y-2.053
X30.8 Y-1.981
X31.78 Y-1.938
X32.761 Y-1.912
X33.743 Y-1.936
X34.723 Y-1.991
X35.701 Y-2.065
X36.676 Y-2.181
X37.646 Y-2.333
X38.612 Y-2.505
X39.572 Y-2.712
X40.522 Y-2.957
X41.466 Y-3.226
X42.402 Y-3.521
X43.323 Y-3.859
X44.236 Y-4.221
X45.14 Y-4.602
X46.024 Y-5.029
X46.895 Y-5.481
X47.759 Y-5.948
X48.597 Y-6.458
X49.419 Y-6.994
X50.23 Y-7.547
X51.018 Y-8.133
X51.783 Y-8.748
X52.534 Y-9.38
X53.27 Y-10.028
X53.991 Y-10.695
X54.701 Y-11.373
X55.405 Y-12.057
X56.105 Y-12.745
X56.803 Y-13.435
X57.499 Y-14.126
X58.89 Y-15.512
X61.667 Y-18.287
X69.996 Y-26.615
X70.695 Y-27.304
X71.405 Y-27.982
X72.121 Y-28.653
X72.842 Y-29.319
X73.577 Y-29.969
X74.332 Y-30.597
X75.1 Y-31.208
X75.875 Y-31.81
X76.667 Y-32.39
X77.478 Y-32.943
X78.3 Y-33.479
X79.13 Y-34.003
X79.975 Y-34.502
X80.836 Y-34.973
X81.707 Y-35.426
X82.584 Y-35.866
X83.474 Y-36.28
X84.378 Y-36.664
X85.289 Y-37.028
X86.205 Y-37.38
X87.132 Y-37.704
X88.069 Y-37.997
X89.012 Y-38.27
X89.958 Y-38.53
X90.912 Y-38.76
X91.873 Y-38.959
X92.838 Y-39.138
X93.806 Y-39.304
X94.778 Y-39.438
X95.754 Y-39.541
X96.732 Y-39.624
X97.711 Y-39.694
X98.691 Y-39.744
X99.672 Y-39.775
X100.654 Y-39.794
X101.635 Y-39.807
X102.617 Y-39.814
X103.598 Y-39.819
X104.58 Y-39.822
X106.543 Y-39.825
X111.45 Y-39.827
X113.413
X114.395 Y-39.815
X115.376 Y-39.791
X116.357 Y-39.759
X117.338 Y-39.717
X118.316 Y-39.642
X119.293 Y-39.546
X120.268 Y-39.437
X121.241 Y-39.302
X122.208 Y-39.136
X123.172 Y-38.95
X124.133 Y-38.752
X125.087 Y-38.519
X126.033 Y-38.259
X126.975 Y-37.983
X127.911 Y-37.689
X128.836 Y-37.361
X129.753 Y-37.011
X130.665 Y-36.647
X131.566 Y-36.257
X132.454 Y-35.839
X133.333 Y-35.402
X134.206 Y-34.954
X135.062 Y-34.474
X135.904 Y-33.97
X136.737 Y-33.451
X137.56 Y-32.916
X138.364 Y-32.352
X139.153 Y-31.769
X139.934 Y-31.174
X140.703 Y-30.564
X141.46 Y-29.939
X142.209 Y-29.305
X142.954 Y-28.666
X143.695 Y-28.023
X144.435 Y-27.377
X145.173 Y-26.73
X146.647 Y-25.435
X150.33 Y-22.19
X162.109 Y-11.805
X162.843 Y-11.153
X163.575 Y-10.499
X164.306 Y-9.844
X165.052 Y-9.206
X165.818 Y-8.592
X166.595 Y-7.993
X167.387 Y-7.413
X168.204 Y-6.868
X169.034 Y-6.344
X169.874 Y-5.837
X170.739 Y-5.373
X171.617 Y-4.935
X172.502 Y-4.511
X173.408 Y-4.132
X174.325 Y-3.783
X175.249 Y-3.451
X176.186 Y-3.159
X177.133 Y-2.901
X178.085 Y-2.664
X179.046 Y-2.461
X180.013 Y-2.297
X180.985 Y-2.157
X181.96 Y-2.044
X182.939 Y-1.976
X183.92 Y-1.935
X184.901 Y-1.912
X185.882 Y-1.941
X186.862 Y-1.999
X187.84 Y-2.074
X188.814 Y-2.196
X189.784 Y-2.351
X190.749 Y-2.525
X191.708 Y-2.738
X192.657 Y-2.987
X193.601 Y-3.257
X194.535 Y-3.558
X195.455 Y-3.899
X196.367 Y-4.263
X197.269 Y-4.65
X198.151 Y-5.08
X199.021 Y-5.534
X199.884 Y-6.002
X200.72 Y-6.516
X201.54 Y-7.056
X202.35 Y-7.61
X203.134 Y-8.201
X203.897 Y-8.819
X204.647 Y-9.452
X205.381 Y-10.103
X206.09 Y-10.781
X206.779 Y-11.48
X207.456 Y-12.191
X208.113 Y-12.92
X208.739 Y-13.677
X209.346 Y-14.448
X209.936 Y-15.232
X210.486 Y-16.045
X211.013 Y-16.873
X211.527 Y-17.71
X211.996 Y-18.571
X212.438 Y-19.448
X212.864 Y-20.332
X213.25 Y-21.234
X213.604 Y-22.15
X213.938 Y-23.073
X214.239 Y-24.007
X214.501 Y-24.953
X214.741 Y-25.905
X214.953 Y-26.863
X215.121 Y-27.83
X215.264 Y-28.801
X215.386 Y-29.775
X215.458 Y-30.754
X215.502 Y-31.734
X215.529 Y-32.716
X215.507 Y-33.697
X215.453 Y-34.677
X215.381 Y-35.656
X215.267 Y-36.631
X215.117 Y-37.601
X214.946 Y-38.567
X214.741 Y-39.527
X214.497 Y-40.478
X214.229 Y-41.422
X213.936 Y-42.359
X213.6 Y-43.281
X213.238 Y-44.193
X212.86 Y-45.099
X212.435 Y-45.984
X211.983 Y-46.855
X211.516 Y-47.719
X211.009 Y-48.559
X210.473 Y-49.381
X209.921 Y-50.193
X209.337 Y-50.982
X208.723 Y-51.747
X208.092 Y-52.499
X207.445 Y-53.237
X206.778 Y-53.957
X206.101 Y-54.668
X205.418 Y-55.372
X204.73 Y-56.073
X204.04 Y-56.771
X203.348 Y-57.467
X201.963 Y-58.858
X199.188 Y-61.635
X190.166 Y-70.658
X189.476 Y-71.356
X188.798 Y-72.066
X188.127 Y-72.782
X187.46 Y-73.502
X186.808 Y-74.236
X186.18 Y-74.991
X185.568 Y-75.758
X184.966 Y-76.533
X184.385 Y-77.324
X183.83 Y-78.134
X183.294 Y-78.956
X182.77 Y-79.785
X182.269 Y-80.629
X181.796 Y-81.49
X181.343 Y-82.36
X180.902 Y-83.237
X180.487 Y-84.127
X180.102 Y-85.029
X179.736 Y-85.94
X179.384 Y-86.856
X179.059 Y-87.783
X178.765 Y-88.719
X178.491 Y-89.661
X178.23 Y-90.608
X177.998 Y-91.561
X177.798 Y-92.522
X177.618 Y-93.487
X177.452 Y-94.455
X177.316 Y-95.427
X177.211 Y-96.403
X177.127 Y-97.38
X177.057 Y-98.359
X177.006 Y-99.34
X176.974 Y-100.321
X176.954 Y-101.302
X176.942 Y-102.283
X176.934 Y-103.265
X176.929 Y-104.246
X176.926 Y-105.228
X176.923 Y-107.191
X176.921 Y-112.098
Y-115.043
X176.932 Y-116.024
X176.956 Y-117.006
X176.99 Y-117.987
X177.029 Y-118.967
X177.096 Y-119.947
X177.191 Y-120.923
X177.304 Y-121.898
X177.429 Y-122.872
X177.587 Y-123.841
X177.774 Y-124.804
X177.98 Y-125.764
X178.198 Y-126.721
X178.45 Y-127.67
X178.73 Y-128.61
X179.029 Y-129.545
X179.34 Y-130.476
X179.684 Y-131.395
X180.056 Y-132.303
X180.446 Y-133.204
X180.847 Y-134.1
X181.281 Y-134.981
X181.741 Y-135.848
X182.217 Y-136.706
X182.704 Y-137.558
X183.223 Y-138.391
X183.766 Y-139.209
X184.325 Y-140.016
X184.893 Y-140.816
X185.492 Y-141.594
X186.113 Y-142.354
X186.748 Y-143.102
X187.393 Y-143.842
X188.054 Y-144.567
X188.728 Y-145.281
X189.41 Y-145.987
X190.096 Y-146.689
X190.785 Y-147.388
X191.476 Y-148.085
X192.168 Y-148.781
X192.861 Y-149.476
X194.942 Y-151.56
X205.352 Y-161.971
X206.037 Y-162.673
X206.712 Y-163.386
X207.38 Y-164.105
X208.035 Y-164.836
X208.66 Y-165.593
X209.266 Y-166.365
X209.861 Y-167.146
X210.414 Y-167.957
X210.942 Y-168.784
X211.457 Y-169.62
X211.932 Y-170.478
X212.377 Y-171.353
X212.805 Y-172.237
X213.198 Y-173.136
X213.556 Y-174.05
X213.892 Y-174.972
X214.2 Y-175.904
X214.466 Y-176.849
X214.708 Y-177.8
X214.928 Y-178.756
X215.1 Y-179.723
X215.245 Y-180.693
X215.374 Y-181.667
X215.451 Y-182.645
X215.498 Y-183.625
X215.527 Y-184.607
X215.512 Y-185.588
X215.462 Y-186.568
X215.391 Y-187.547
X215.285 Y-188.523
X215.139 Y-189.493
X214.97 Y-190.46
X214.773 Y-191.422
X214.533 Y-192.374
X214.268 Y-193.319
X213.982 Y-194.258
X213.65 Y-195.181
X213.291 Y-196.095
X212.916 Y-197.002
X212.496 Y-197.889
X212.047 Y-198.762
X211.582 Y-199.626
X211.081 Y-200.47
X210.549 Y-201.295
X209.999 Y-202.108
X209.42 Y-202.901
X208.81 Y-203.669
X208.181 Y-204.423
X207.536 Y-205.163
X206.867 Y-205.881
X206.173 Y-206.575
X205.465 Y-207.254
X204.746 Y-207.923
X203.995 Y-208.555
X203.227 Y-209.166
X202.449 Y-209.764
X201.643 Y-210.325
X200.819 Y-210.857
X199.984 Y-211.374
X199.13 Y-211.857
X198.257 Y-212.307
X197.375 Y-212.737
X196.479 Y-213.138
X195.567 Y-213.5
X194.646 Y-213.839
X193.717 Y-214.155
X192.773 Y-214.426
X191.823 Y-214.671
X190.868 Y-214.899
X189.903 Y-215.077
X188.932 Y-215.224
X187.96 Y-215.355
X186.982 Y-215.44
X186.002 Y-215.491
X185.021 Y-215.522
X184.039 Y-215.516
X183.059 Y-215.471
X182.079 Y-215.403
X181.103 Y-215.305
X180.132 Y-215.164
X179.164 Y-214.998
X178.201 Y-214.81
X177.248 Y-214.574
X176.302 Y-214.312
X175.361 Y-214.034
X174.436 Y-213.706
X173.521 Y-213.35
X172.613 Y-212.977
X171.723 Y-212.564
X170.848 Y-212.12
X169.982 Y-211.657
X169.134 Y-211.163
X168.307 Y-210.634
X167.492 Y-210.087
X166.694 Y-209.516
X165.922 Y-208.909
X165.167 Y-208.282
X164.423 Y-207.642
X163.699 Y-206.98
X162.986 Y-206.305
X162.28 Y-205.623
X161.579 Y-204.936
X160.88 Y-204.247
X160.184 Y-203.555
X158.793 Y-202.17
X156.015 Y-199.396
X142.134 Y-185.515
X141.436 Y-184.825
X140.727 Y-184.146
X140.011 Y-183.475
X139.291 Y-182.808
X138.558 Y-182.155
X137.804 Y-181.526
X137.038 Y-180.913
X136.263 Y-180.311
X135.473 Y-179.728
X134.664 Y-179.173
X133.842 Y-178.636
X133.013 Y-178.11
X132.17 Y-177.608
X131.311 Y-177.134
X130.44 Y-176.68
X129.564 Y-176.239
X128.675 Y-175.822
X127.773 Y-175.435
X126.862 Y-175.069
X125.946 Y-174.716
X125.021 Y-174.389
X124.085 Y-174.094
X123.143 Y-173.819
X122.197 Y-173.558
X121.243 Y-173.324
X120.283 Y-173.122
X119.318 Y-172.942
X118.351 Y-172.775
X117.379 Y-172.637
X116.403 Y-172.531
X115.425 Y-172.446
X114.446 Y-172.375
X113.466 Y-172.323
X112.485 Y-172.291
X111.504 Y-172.27
X110.523 Y-172.257
X109.541 Y-172.249
X108.56 Y-172.244
X107.578 Y-172.241
X106.597
X105.615 Y-172.259
X104.634 Y-172.288
X103.653 Y-172.324
X102.673 Y-172.373
X101.695 Y-172.455
X100.719 Y-172.561
X99.745 Y-172.68
X98.773 Y-172.818
X97.807 Y-172.992
X96.846 Y-173.189
X95.887 Y-173.402
X94.934 Y-173.634
X93.989 Y-173.902
X93.052 Y-174.192
X92.119 Y-174.498
X91.193 Y-174.823
X90.28 Y-175.182
X89.375 Y-175.564
X88.477 Y-175.96
X87.588 Y-176.375
X86.715 Y-176.823
X85.852 Y-177.292
X84.997 Y-177.774
X84.153 Y-178.275
X83.328 Y-178.807
X82.516 Y-179.358
X81.713 Y-179.922
X80.923 Y-180.504
X80.154 Y-181.115
X79.401 Y-181.744
X78.657 Y-182.384
X77.924 Y-183.036
X77.205 Y-183.705
X76.495 Y-184.382
X75.791 Y-185.066
X75.09 Y-185.754
X74.392 Y-186.444
X73.696 Y-187.136
X72.305 Y-188.521
X69.528 Y-191.296
X55.647 Y-205.177
X54.948 Y-205.866
X54.237 Y-206.543
X53.519 Y-207.212
X52.797 Y-207.876
X52.044 Y-208.506
X51.275 Y-209.115
X50.496 Y-209.712
X49.691 Y-210.275
X48.868 Y-210.809
X48.034 Y-211.327
X47.182 Y-211.814
X46.311 Y-212.266
X45.429 Y-212.697
X44.535 Y-213.103
X43.624 Y-213.468
X42.704 Y-213.809
X41.776 Y-214.13
X40.833 Y-214.403
X39.883 Y-214.65
X38.929 Y-214.88
X37.965 Y-215.061
X36.995 Y-215.211
X36.022 Y-215.343
X35.045 Y-215.433
X34.065 Y-215.487
X33.084 Y-215.52
X32.102 Y-215.518
X31.121 Y-215.476
X30.142 Y-215.41
X29.165 Y-215.317
X28.193 Y-215.179
X27.226 Y-215.015
X26.261 Y-214.831
X25.308 Y-214.598
X24.362 Y-214.338
X23.42 Y-214.06
X22.493 Y-213.737
X21.578 Y-213.383
X20.669 Y-213.012
X19.777 Y-212.603
X18.901 Y-212.161
X18.034 Y-211.7
X17.184 Y-211.21
X16.355 Y-210.684
X15.539 Y-210.138
X14.738 Y-209.571
X13.965 Y-208.967
X13.208 Y-208.341
X12.463 Y-207.703
X11.738 Y-207.041
X11.04 Y-206.351
X10.358 Y-205.645
X9.685 Y-204.93
X9.045 Y-204.186
X8.429 Y-203.422
X7.828 Y-202.646
X7.258 Y-201.847
X6.988 Y-201.437
X6.79 Y-201.127
X6.704 Y-200.644
X6.843 Y-199.672
X7.058 Y-198.715
X7.255 Y-197.753
X7.414 Y-196.785
X7.526 Y-195.81
X7.585 Y-194.83
X7.593 Y-193.848
X7.557 Y-192.867
X7.485 Y-191.889
X7.395 Y-190.911
X7.194 Y-188.958
X7.106 Y-187.981
X7.037 Y-187.002
X6.99 Y-186.021
X6.975 Y-185.04
X6.993 Y-184.059
X7.044 Y-183.078
X7.134 Y-182.101
X7.257 Y-181.127
X7.418 Y-180.159
X7.62 Y-179.198
X7.856 Y-178.246
X8.131 Y-177.304
X8.441 Y-176.372
X8.786 Y-175.454
X9.17 Y-174.55
X9.588 Y-173.662
X10.04 Y-172.791
X10.526 Y-171.938
X11.041 Y-171.103
X11.594 Y-170.292
X12.177 Y-169.502
X12.786 Y-168.732
X13.418 Y-167.982
X14.069 Y-167.247
X14.733 Y-166.524
X15.406 Y-165.81
X16.086 Y-165.102
X16.771 Y-164.399
X17.459 Y-163.698
X18.148 Y-163
X18.84 Y-162.303
X20.225 Y-160.912
X21.611 Y-159.523
X26.469 Y-154.664
X29.939 Y-151.193
X30.63 Y-150.496
X31.315 Y-149.794
X31.995 Y-149.086
X32.67 Y-148.373
X33.335 Y-147.651
X33.987 Y-146.918
X34.626 Y-146.172
X35.252 Y-145.417
X35.865 Y-144.65
X36.461 Y-143.87
X37.04 Y-143.077
X37.601 Y-142.272
X38.148 Y-141.458
X38.676 Y-140.63
X39.185 Y-139.791
X39.674 Y-138.94
X40.146 Y-138.079
X40.602 Y-137.21
X41.036 Y-136.33
X41.45 Y-135.44
X41.844 Y-134.541
X42.222 Y-133.635
X42.578 Y-132.72
X42.912 Y-131.797
X43.225 Y-130.867
X43.52 Y-129.931
X43.796 Y-128.989
X44.049 Y-128.041
X44.28 Y-127.087
X44.49 Y-126.128
X44.683 Y-125.166
X44.853 Y-124.199
X44.999 Y-123.228
X45.123 Y-122.255
X45.228 Y-121.279
X45.316 Y-120.301
X45.385 Y-119.322
X45.438 Y-118.342
X45.478 Y-117.361
X45.506 Y-116.38
X45.526 Y-115.399
X45.541 Y-114.418
X45.55 Y-113.436
X45.557 Y-112.455
X45.562 Y-111.473
X45.565 Y-110.492
X45.568 Y-108.529
X45.57 Y-104.602
Y-103.621
X45.563 Y-102.639
X45.549 Y-101.658
X45.526 Y-100.677
X45.495 Y-99.696
X45.449 Y-98.715
X45.385 Y-97.736
X45.303 Y-96.758
X45.204 Y-95.781
X45.088 Y-94.807
X44.95 Y-93.835
X44.791 Y-92.866
X44.612 Y-91.901
X44.415 Y-90.94
X44.195 Y-89.983
X43.952 Y-89.032
X43.689 Y-88.087
X43.408 Y-87.146
X43.107 Y-86.212
X42.783 Y-85.285
X42.439 Y-84.366
X42.076 Y-83.454
X41.695 Y-82.55
X41.292 Y-81.655
X40.867 Y-80.77
X40.424 Y-79.894
X39.964 Y-79.027
X39.485 Y-78.17
X38.986 Y-77.325
X38.468 Y-76.491
X37.933 Y-75.668
X37.382 Y-74.856
X36.811 Y-74.058
X36.221 Y-73.274
X35.615 Y-72.502
X34.994 Y-71.742
X34.359 Y-70.993
X33.711 Y-70.255
X33.052 Y-69.528
X32.384 Y-68.81
X31.708 Y-68.098
X31.026 Y-67.391
X30.341 Y-66.689
X29.653 Y-65.989
X28.964 Y-65.29
X28.272 Y-64.593
X26.887 Y-63.202
X24.807 Y-61.118
X17.173 Y-53.483
X16.48 Y-52.789
X15.792 Y-52.089
X15.11 Y-51.382
X14.438 Y-50.668
X13.78 Y-49.939
X13.142 Y-49.193
X12.523 Y-48.431
X11.932 Y-47.648
X11.368 Y-46.845
X10.832 Y-46.022
X10.33 Y-45.179
X9.856 Y-44.319
X9.418 Y-43.441
X9.016 Y-42.546
X8.647 Y-41.636
X8.317 Y-40.712
X8.021 Y-39.776
X7.76 Y-38.83
X7.541 Y-37.873
X7.357 Y-36.909
X7.211 Y-35.938
X7.105 Y-34.963
X7.031 Y-33.984
X7.001 Y-33.003
X7.01 Y-32.021
X7.055 Y-31.041
X7.141 Y-30.063
X7.262 Y-29.089
X7.424 Y-28.121
X7.625 Y-27.16
X7.861 Y-26.207
X8.135 Y-25.265
X8.446 Y-24.334
X8.791 Y-23.415
X9.176 Y-22.512
X9.592 Y-21.623
X10.043 Y-20.752
X10.53 Y-19.9
X11.048 Y-19.066
X11.601 Y-18.255
X12.184 Y-17.465
X12.793 Y-16.696
X13.43 Y-15.949
X14.093 Y-15.225
X14.778 Y-14.522
X15.486 Y-13.843
X16.219 Y-13.189
X16.971 Y-12.559
X17.749 Y-11.96
X18.549 Y-11.391
X19.368 Y-10.851
X20.21 Y-10.346
X21.069 Y-9.871
X21.947 Y-9.432
X22.842 Y-9.029
X23.751 Y-8.66
X24.675 Y-8.327
X25.61 Y-8.03
X26.556 Y-7.769
X27.512 Y-7.548
X28.476 Y-7.362
X29.446 Y-7.214
X30.422 Y-7.106
X31.401 Y-7.032
X32.382 Y-7.002
X33.363 Y-7.009
X34.344 Y-7.053
X35.322 Y-7.138
X36.296 Y-7.259
X37.264 Y-7.42
X38.225 Y-7.619
X39.178 Y-7.853
X40.121 Y-8.126
X41.052 Y-8.436
X41.972 Y-8.78
X42.875 Y-9.163
X43.765 Y-9.578
X44.637 Y-10.028
X45.489 Y-10.515
X46.323 Y-11.033
X47.135 Y-11.585
X47.925 Y-12.167
X48.695 Y-12.775
X49.447 Y-13.406
X50.182 Y-14.057
X50.905 Y-14.72
X51.619 Y-15.394
X52.327 Y-16.074
X53.03 Y-16.758
X53.731 Y-17.446
X54.429 Y-18.136
X55.126 Y-18.827
X56.517 Y-20.212
X58.601 Y-22.292
X64.848 Y-28.538
X65.542 Y-29.231
X66.24 Y-29.922
X66.942 Y-30.607
X67.65 Y-31.287
X68.364 Y-31.961
X69.085 Y-32.627
X69.82 Y-33.278
X70.566 Y-33.916
X71.322 Y-34.541
X72.09 Y-35.153
X72.871 Y-35.747
X73.665 Y-36.325
X74.47 Y-36.885
X75.286 Y-37.431
X76.113 Y-37.959
X76.953 Y-38.467
X77.804 Y-38.955
X78.665 Y-39.427
X79.536 Y-39.881
X80.417 Y-40.313
X81.307 Y-40.726
X82.207 Y-41.119
X83.113 Y-41.495
X84.028 Y-41.852
X84.951 Y-42.185
X85.882 Y-42.497
X86.818 Y-42.791
X87.761 Y-43.065
X88.709 Y-43.316
X89.664 Y-43.546
X90.623 Y-43.755
X91.585 Y-43.946
X92.552 Y-44.115
X93.523 Y-44.261
X94.496 Y-44.384
X95.472 Y-44.489
X96.45 Y-44.575
X97.429 Y-44.643
X98.409 Y-44.696
X99.39 Y-44.734
X100.371 Y-44.763
X101.353 Y-44.783
X102.334 Y-44.797
X103.315 Y-44.807
X104.297 Y-44.813
X105.278 Y-44.818
X106.26 Y-44.821
X108.223 Y-44.824
X111.168 Y-44.826
X112.149 Y-44.825
X113.131 Y-44.818
X114.112 Y-44.804
X115.093 Y-44.783
X116.074 Y-44.753
X117.055 Y-44.706
X118.034 Y-44.641
X119.012 Y-44.56
X119.989 Y-44.461
X120.963 Y-44.342
X121.934 Y-44.202
X122.903 Y-44.043
X123.868 Y-43.865
X124.829 Y-43.665
X125.785 Y-43.443
X126.737 Y-43.201
X127.683 Y-42.94
X128.622 Y-42.657
X129.555 Y-42.352
X130.482 Y-42.027
X131.401 Y-41.684
X132.313 Y-41.32
X133.216 Y-40.935
X134.11 Y-40.531
X134.997 Y-40.11
X135.873 Y-39.668
X136.738 Y-39.205
X137.593 Y-38.723
X138.439 Y-38.224
X139.273 Y-37.707
X140.095 Y-37.17
X140.904 Y-36.615
X141.703 Y-36.045
X142.491 Y-35.46
X143.268 Y-34.86
X144.035 Y-34.248
X144.794 Y-33.626
X145.547 Y-32.996
X146.295 Y-32.361
X147.04 Y-31.721
X147.782 Y-31.078
X148.522 Y-30.434
X149.261 Y-29.788
X150.736 Y-28.493
X152.947 Y-26.548
X161.782 Y-18.759
X163.991 Y-16.812
X164.726 Y-16.162
X165.461 Y-15.51
X166.194 Y-14.858
X166.931 Y-14.209
X167.677 Y-13.572
X168.436 Y-12.949
X169.21 Y-12.346
X170.003 Y-11.768
X170.813 Y-11.214
X171.643 Y-10.689
X172.491 Y-10.196
X173.356 Y-9.732
X174.241 Y-9.306
X175.14 Y-8.913
X176.054 Y-8.554
X176.981 Y-8.233
X177.92 Y-7.947
X178.87 Y-7.699
X179.828 Y-7.489
X180.794 Y-7.313
X181.766 Y-7.178
X182.743 Y-7.081
X183.722 Y-7.02
X184.704 Y-7.001
X185.685 Y-7.017
X186.665 Y-7.073
X187.642 Y-7.17
X188.614 Y-7.303
X189.581 Y-7.476
X190.539 Y-7.685
X191.49 Y-7.929
X192.429 Y-8.215
X193.357 Y-8.535
X194.271 Y-8.892
X195.171 Y-9.285
X196.057 Y-9.707
X196.922 Y-10.17
X197.769 Y-10.666
X198.597 Y-11.194
X199.402 Y-11.755
X200.186 Y-12.345
X200.95 Y-12.962
X201.69 Y-13.607
X202.408 Y-14.276
X203.106 Y-14.966
X203.778 Y-15.681
X204.426 Y-16.419
X205.047 Y-17.178
X205.637 Y-17.963
X206.2 Y-18.767
X206.731 Y-19.593
X207.227 Y-20.439
X207.692 Y-21.304
X208.121 Y-22.187
X208.515 Y-23.085
X208.877 Y-23.998
X209.199 Y-24.925
X209.486 Y-25.864
X209.736 Y-26.813
X209.947 Y-27.771
X210.125 Y-28.737
X210.262 Y-29.709
X210.36 Y-30.685
X210.421 Y-31.665
X210.441 Y-32.646
X210.426 Y-33.627
X210.37 Y-34.607
X210.275 Y-35.584
X210.143 Y-36.557
X209.972 Y-37.523
X209.764 Y-38.483
X209.52 Y-39.433
X209.236 Y-40.373
X208.918 Y-41.301
X208.563 Y-42.217
X208.171 Y-43.116
X207.747 Y-44.002
X207.286 Y-44.868
X206.791 Y-45.715
X206.264 Y-46.544
X205.704 Y-47.35
X205.114 Y-48.134
X204.499 Y-48.899
X203.862 Y-49.646
X203.208 Y-50.377
X202.541 Y-51.098
X201.866 Y-51.81
X201.185 Y-52.517
X200.499 Y-53.219
X199.811 Y-53.919
X199.121 Y-54.617
X198.429 Y-55.313
X197.044 Y-56.704
X194.27 Y-59.482
X188.024 Y-65.729
X187.331 Y-66.424
X186.641 Y-67.123
X185.958 Y-67.827
X185.279 Y-68.536
X184.608 Y-69.252
X183.946 Y-69.977
X183.298 Y-70.714
X182.663 Y-71.463
X182.04 Y-72.221
X181.432 Y-72.992
X180.843 Y-73.777
X180.271 Y-74.574
X179.714 Y-75.383
X179.174 Y-76.202
X178.651 Y-77.033
X178.149 Y-77.876
X177.665 Y-78.73
X177.197 Y-79.593
X176.748 Y-80.465
X176.321 Y-81.349
X175.914 Y-82.242
X175.525 Y-83.144
X175.155 Y-84.053
X174.806 Y-84.97
X174.478 Y-85.895
X174.171 Y-86.827
X173.881 Y-87.765
X173.612 Y-88.709
X173.367 Y-89.659
X173.144 Y-90.615
X172.939 Y-91.575
X172.755 Y-92.539
X172.593 Y-93.507
X172.453 Y-94.479
X172.335 Y-95.453
X172.234 Y-96.43
X172.152 Y-97.408
X172.088 Y-98.387
X172.04 Y-99.367
X172.005 Y-100.348
X171.979 Y-101.329
X171.961 Y-102.311
X171.948 Y-103.292
X171.939 Y-104.274
X171.933 Y-105.255
X171.929 Y-106.237
X171.925 Y-108.2
X171.922 Y-111.144
X171.921 Y-113.107
X171.924 Y-114.089
X171.933 Y-115.07
X171.949 Y-116.052
X171.973 Y-117.033
X172.007 Y-118.014
X172.057 Y-118.994
X172.125 Y-119.973
X172.21 Y-120.951
X172.31 Y-121.927
X172.431 Y-122.902
X172.575 Y-123.872
X172.74 Y-124.84
X172.923 Y-125.804
X173.125 Y-126.765
X173.35 Y-127.72
X173.597 Y-128.67
X173.863 Y-129.615
X174.147 Y-130.554
X174.453 Y-131.487
X174.782 Y-132.412
X175.132 Y-133.329
X175.499 Y-134.239
X175.885 Y-135.141
X176.293 Y-136.034
X176.721 Y-136.917
X177.168 Y-137.791
X177.63 Y-138.657
X178.113 Y-139.512
X178.617 Y-140.354
X179.14 Y-141.184
X179.679 Y-142.005
X180.235 Y-142.814
X180.81 Y-143.609
X181.403 Y-144.391
X182.013 Y-145.16
X182.636 Y-145.919
X183.273 Y-146.665
X183.924 Y-147.4
X184.586 Y-148.124
X185.257 Y-148.841
X185.934 Y-149.551
X186.617 Y-150.257
X187.303 Y-150.959
X187.991 Y-151.658
X188.681 Y-152.356
X189.373 Y-153.053
X190.758 Y-154.444
X192.839 Y-156.527
X194.92 Y-158.61
X200.472 Y-164.162
X201.164 Y-164.859
X201.85 Y-165.561
X202.53 Y-166.269
X203.2 Y-166.985
X203.852 Y-167.719
X204.485 Y-168.469
X205.096 Y-169.237
X205.679 Y-170.027
X206.237 Y-170.835
X206.763 Y-171.664
X207.255 Y-172.513
X207.717 Y-173.379
X208.143 Y-174.263
X208.536 Y-175.162
X208.895 Y-176.076
X209.215 Y-177.004
X209.501 Y-177.943
X209.749 Y-178.892
X209.959 Y-179.851
X210.135 Y-180.817
X210.269 Y-181.789
X210.364 Y-182.766
X210.423 Y-183.746
X210.441 Y-184.727
X210.423 Y-185.708
X210.365 Y-186.688
X210.267 Y-187.665
X210.135 Y-188.637
X209.962 Y-189.603
X209.752 Y-190.562
X209.506 Y-191.512
X209.22 Y-192.451
X208.901 Y-193.379
X208.544 Y-194.294
X208.15 Y-195.193
X207.723 Y-196.076
X207.259 Y-196.941
X206.762 Y-197.788
X206.235 Y-198.616
X205.673 Y-199.42
X205.081 Y-200.204
X204.464 Y-200.967
X203.819 Y-201.707
X203.15 Y-202.425
X202.461 Y-203.124
X201.745 Y-203.796
X201.007 Y-204.442
X200.246 Y-205.062
X199.461 Y-205.652
X198.656 Y-206.214
X197.829 Y-206.742
X196.982 Y-207.237
X196.117 Y-207.701
X195.234 Y-208.13
X194.335 Y-208.524
X193.422 Y-208.885
X192.495 Y-209.206
X191.556 Y-209.493
X190.607 Y-209.744
X189.649 Y-209.955
X188.683 Y-210.13
X187.711 Y-210.264
X186.734 Y-210.361
X185.754 Y-210.421
X184.773 Y-210.441
X183.792 Y-210.423
X182.812 Y-210.366
X181.835 Y-210.27
X180.862 Y-210.14
X179.896 Y-209.969
X178.937 Y-209.76
X177.986 Y-209.515
X177.047 Y-209.23
X176.118 Y-208.912
X175.204 Y-208.555
X174.305 Y-208.162
X173.421 Y-207.735
X172.555 Y-207.272
X171.708 Y-206.777
X170.879 Y-206.251
X170.074 Y-205.69
X169.29 Y-205.099
X168.525 Y-204.484
X167.779 Y-203.847
X167.047 Y-203.192
X166.327 Y-202.525
X165.615 Y-201.85
X164.909 Y-201.168
X164.206 Y-200.483
X163.507 Y-199.794
X162.809 Y-199.104
X162.112 Y-198.413
X160.721 Y-197.027
X157.944 Y-194.253
X146.839 Y-183.149
X146.143 Y-182.456
X145.443 Y-181.768
X144.737 Y-181.086
X144.026 Y-180.409
X143.308 Y-179.74
X142.58 Y-179.082
X141.839 Y-178.438
X141.088 Y-177.807
X140.325 Y-177.189
X139.551 Y-176.585
X138.764 Y-176
X137.963 Y-175.432
X137.152 Y-174.879
X136.33 Y-174.343
X135.495 Y-173.827
X134.649 Y-173.33
X133.792 Y-172.851
X132.926 Y-172.388
X132.051 Y-171.945
X131.165 Y-171.523
X130.269 Y-171.121
X129.366 Y-170.736
X128.455 Y-170.372
X127.535 Y-170.029
X126.608 Y-169.707
X125.674 Y-169.405
X124.734 Y-169.122
X123.788 Y-168.859
X122.837 Y-168.619
X121.88 Y-168.401
X120.919 Y-168.201
X119.954 Y-168.022
X118.984 Y-167.867
X118.012 Y-167.734
X117.037 Y-167.621
X116.06 Y-167.526
X115.082 Y-167.449
X114.102 Y-167.39
X113.121 Y-167.345
X112.14 Y-167.312
X111.159 Y-167.288
X110.178 Y-167.272
X109.196 Y-167.26
X108.215 Y-167.253
X107.233 Y-167.255
X106.252 Y-167.267
X105.271 Y-167.287
X104.29 Y-167.317
X103.309 Y-167.363
X102.33 Y-167.427
X101.352 Y-167.509
X100.375 Y-167.608
X99.401 Y-167.725
X98.429 Y-167.863
X97.461 Y-168.024
X96.496 Y-168.203
X95.534 Y-168.402
X94.578 Y-168.623
X93.627 Y-168.866
X92.682 Y-169.13
X91.742 Y-169.412
X90.808 Y-169.714
X89.881 Y-170.038
X88.962 Y-170.383
X88.051 Y-170.747
X87.147 Y-171.129
X86.252 Y-171.533
X85.368 Y-171.958
X84.492 Y-172.402
X83.626 Y-172.863
X82.769 Y-173.343
X81.925 Y-173.842
X81.091 Y-174.361
X80.269 Y-174.897
X79.458 Y-175.449
X78.66 Y-176.021
X77.876 Y-176.612
X77.105 Y-177.219
X76.345 Y-177.84
X75.596 Y-178.475
X74.86 Y-179.124
X74.133 Y-179.783
X73.415 Y-180.452
X72.703 Y-181.129
X71.997 Y-181.81
X71.294 Y-182.495
X70.594 Y-183.183
X69.896 Y-183.873
X69.199 Y-184.564
X67.808 Y-185.949
X65.724 Y-188.03
X56.701 Y-197.052
X53.231 Y-200.522
X52.534 Y-201.213
X51.832 Y-201.899
X51.123 Y-202.578
X50.406 Y-203.247
X49.671 Y-203.898
X48.92 Y-204.53
X48.15 Y-205.139
X47.359 Y-205.72
X46.549 Y-206.274
X45.718 Y-206.797
X44.868 Y-207.287
X44.001 Y-207.748
X43.116 Y-208.173
X42.216 Y-208.563
X41.301 Y-208.919
X40.372 Y-209.237
X39.433 Y-209.522
X38.483 Y-209.768
X37.523 Y-209.974
X36.557 Y-210.144
X35.584 Y-210.275
X34.607 Y-210.369
X33.627 Y-210.425
X32.645 Y-210.44
X31.664 Y-210.419
X30.685 Y-210.358
X29.708 Y-210.259
X28.736 Y-210.126
X27.77 Y-209.95
X26.812 Y-209.737
X25.863 Y-209.488
X24.924 Y-209.199
X23.997 Y-208.877
X23.085 Y-208.516
X22.187 Y-208.119
X21.305 Y-207.689
X20.44 Y-207.224
X19.595 Y-206.726
X18.769 Y-206.195
X17.966 Y-205.631
X17.183 Y-205.039
X16.421 Y-204.421
X15.682 Y-203.774
X14.966 Y-203.103
X14.27 Y-202.41
X13.601 Y-201.693
X12.956 Y-200.953
X12.73 Y-200.517
X12.507 Y-199.561
X12.468 Y-198.581
X12.489 Y-197.599
X12.524 Y-196.618
X12.55 Y-195.637
X12.555 Y-194.656
X12.538 Y-193.674
X12.497 Y-192.694
X12.436 Y-191.714
X12.361 Y-190.735
X12.278 Y-189.757
X12.196 Y-188.779
X12.123 Y-187.801
X12.068 Y-186.821
X12.038 Y-185.84
X12.04 Y-184.858
X12.08 Y-183.877
X12.16 Y-182.899
X12.284 Y-181.925
X12.451 Y-180.958
X12.665 Y-180
X12.925 Y-179.054
X13.23 Y-178.121
X13.579 Y-177.203
X13.974 Y-176.305
X14.411 Y-175.427
X14.891 Y-174.57
X15.412 Y-173.738
X15.972 Y-172.932
X16.564 Y-172.15
X17.183 Y-171.388
X17.822 Y-170.643
X18.477 Y-169.911
X19.143 Y-169.19
X19.817 Y-168.477
X20.497 Y-167.769
X21.181 Y-167.066
X21.868 Y-166.365
X22.558 Y-165.666
X23.249 Y-164.969
X24.633 Y-163.577
X26.713 Y-161.493
X32.264 Y-155.939
X32.957 Y-155.244
X33.647 Y-154.546
X34.334 Y-153.845
X35.017 Y-153.14
X35.694 Y-152.43
X36.363 Y-151.712
X37.023 Y-150.985
X37.673 Y-150.25
X38.312 Y-149.505
X38.94 Y-148.75
X39.554 Y-147.985
X40.155 Y-147.208
X40.741 Y-146.421
X41.313 Y-145.623
X41.869 Y-144.815
X42.41 Y-143.995
X42.933 Y-143.165
X43.441 Y-142.325
X43.933 Y-141.476
X44.408 Y-140.617
X44.867 Y-139.749
X45.308 Y-138.873
X45.732 Y-137.987
X46.139 Y-137.094
X46.528 Y-136.193
X46.898 Y-135.284
X47.25 Y-134.368
X47.583 Y-133.445
X47.899 Y-132.515
X48.197 Y-131.58
X48.477 Y-130.639
X48.737 Y-129.693
X48.979 Y-128.742
X49.203 Y-127.786
X49.408 Y-126.826
X49.592 Y-125.862
X49.757 Y-124.894
X49.903 Y-123.924
X50.03 Y-122.951
X50.14 Y-121.975
X50.234 Y-120.998
X50.311 Y-120.02
X50.374 Y-119.04
X50.423 Y-118.06
X50.462 Y-117.079
X50.491 Y-116.098
X50.513 Y-115.117
X50.53 Y-114.136
X50.542 Y-113.154
X50.55 Y-112.173
X50.556 Y-111.191
X50.561 Y-110.21
X50.566 Y-108.247
X50.569 Y-105.302
X50.567 Y-104.321
X50.561 Y-103.339
X50.549 Y-102.358
X50.53 Y-101.376
X50.502 Y-100.395
X50.463 Y-99.414
X50.411 Y-98.434
X50.344 Y-97.455
X50.263 Y-96.477
X50.166 Y-95.5
X50.053 Y-94.525
X49.921 Y-93.553
X49.772 Y-92.583
X49.605 Y-91.615
X49.419 Y-90.652
X49.214 Y-89.692
X48.989 Y-88.736
X48.747 Y-87.785
X48.487 Y-86.839
X48.208 Y-85.898
X47.911 Y-84.962
X47.596 Y-84.033
X47.262 Y-83.109
X46.911 Y-82.193
X46.541 Y-81.284
X46.153 Y-80.382
X45.746 Y-79.489
X45.322 Y-78.604
X44.882 Y-77.727
X44.424 Y-76.858
X43.949 Y-75.999
X43.457 Y-75.15
X42.949 Y-74.31
X42.425 Y-73.48
X41.884 Y-72.661
X41.326 Y-71.854
X40.752 Y-71.058
X40.163 Y-70.273
X39.559 Y-69.499
X38.942 Y-68.736
X38.312 Y-67.983
X37.67 Y-67.24
X37.018 Y-66.507
X36.357 Y-65.782
X35.688 Y-65.064
X35.013 Y-64.351
X34.333 Y-63.643
X33.649 Y-62.939
X32.962 Y-62.237
X32.274 Y-61.538
X31.584 Y-60.84
X30.892 Y-60.143
X29.508 Y-58.752
X27.427 Y-56.668
X21.182 Y-50.421
X20.49 Y-49.724
X19.803 Y-49.024
X19.122 Y-48.317
X18.451 Y-47.6
X17.796 Y-46.87
X17.16 Y-46.122
X16.547 Y-45.355
X15.963 Y-44.566
X15.413 Y-43.754
X14.898 Y-42.918
X14.422 Y-42.06
X13.985 Y-41.181
X13.592 Y-40.281
X13.243 Y-39.364
X12.939 Y-38.431
X12.68 Y-37.484
X12.469 Y-36.525
X12.306 Y-35.558
X12.188 Y-34.583
X12.119 Y-33.604
X12.099 Y-32.623
X12.128 Y-31.642
X12.204 Y-30.663
X12.329 Y-29.69
X12.503 Y-28.724
X12.724 Y-27.767
X12.99 Y-26.823
X13.303 Y-25.892
X13.662 Y-24.979
X14.066 Y-24.084
X14.512 Y-23.21
X15.001 Y-22.359
X15.532 Y-21.533
X16.1 Y-20.733
X16.704 Y-19.959
X17.339 Y-19.211
X18.006 Y-18.491
X18.703 Y-17.799
X19.428 Y-17.139
X20.182 Y-16.51
X20.964 Y-15.917
X21.774 Y-15.362
X22.609 Y-14.846
X23.467 Y-14.37
X24.348 Y-13.937
X25.25 Y-13.549
X26.169 Y-13.205
X27.103 Y-12.905
X28.052 Y-12.652
X29.012 Y-12.447
X29.98 Y-12.288
X30.955 Y-12.176
X31.935 Y-12.114
X32.916 Y-12.101
X33.897 Y-12.136
X34.875 Y-12.218
X35.848 Y-12.35
X36.813 Y-12.529
X37.768 Y-12.755
X38.711 Y-13.027
X39.639 Y-13.346
X40.551 Y-13.711
X41.443 Y-14.119
X42.314 Y-14.571
X43.162 Y-15.067
X43.984 Y-15.603
X44.782 Y-16.174
X45.557 Y-16.775
X46.313 Y-17.401
X47.053 Y-18.046
X47.781 Y-18.705
X48.499 Y-19.374
X49.21 Y-20.051
X49.916 Y-20.733
X50.619 Y-21.418
X51.319 Y-22.106
X52.017 Y-22.796
X52.714 Y-23.487
X54.105 Y-24.872
X56.189 Y-26.952
X60.354 Y-31.115
X61.049 Y-31.809
X61.745 Y-32.501
X62.444 Y-33.19
X63.147 Y-33.875
X63.854 Y-34.556
X64.567 Y-35.231
X65.287 Y-35.897
X66.017 Y-36.553
X66.757 Y-37.198
X67.506 Y-37.832
X68.266 Y-38.453
X69.037 Y-39.061
X69.818 Y-39.655
X70.61 Y-40.235
X71.412 Y-40.8
X72.225 Y-41.351
X73.048 Y-41.885
X73.882 Y-42.403
X74.726 Y-42.905
X75.579 Y-43.389
X76.442 Y-43.857
X77.314 Y-44.308
X78.195 Y-44.741
X79.084 Y-45.157
X79.98 Y-45.556
X80.885 Y-45.938
X81.796 Y-46.302
X82.715 Y-46.647
X83.641 Y-46.974
X84.573 Y-47.282
X85.51 Y-47.572
X86.454 Y-47.842
X87.402 Y-48.094
X88.356 Y-48.328
X89.313 Y-48.543
X90.275 Y-48.74
X91.24 Y-48.918
X92.209 Y-49.075
X93.181 Y-49.214
X94.155 Y-49.334
X95.131 Y-49.437
X96.109 Y-49.523
X97.088 Y-49.594
X98.067 Y-49.65
X99.048 Y-49.695
X100.029 Y-49.73
X101.01 Y-49.756
X101.991 Y-49.776
X102.973 Y-49.791
X103.954 Y-49.801
X104.936 Y-49.809
X105.917 Y-49.814
X106.899 Y-49.818
X108.862 Y-49.823
X109.843 Y-49.824
X110.825
X111.806 Y-49.82
X112.788 Y-49.812
X113.769 Y-49.799
X114.75 Y-49.778
X115.731 Y-49.747
X116.712 Y-49.704
X117.692 Y-49.647
X118.671 Y-49.575
X119.648 Y-49.487
X120.624 Y-49.382
X121.598 Y-49.26
X122.57 Y-49.121
X123.539 Y-48.964
X124.505 Y-48.79
X125.467 Y-48.596
X126.425 Y-48.385
X127.379 Y-48.155
X128.329 Y-47.906
X129.273 Y-47.637
X130.211 Y-47.35
X131.144 Y-47.045
X132.071 Y-46.721
X132.991 Y-46.38
X133.905 Y-46.021
X134.811 Y-45.643
X135.71 Y-45.25
X136.601 Y-44.838
X137.483 Y-44.407
X138.356 Y-43.959
X139.22 Y-43.494
X140.075 Y-43.011
X140.92 Y-42.513
X141.756 Y-41.997
X142.581 Y-41.465
X143.395 Y-40.918
X144.2 Y-40.356
X144.995 Y-39.78
X145.78 Y-39.191
X146.556 Y-38.59
X147.323 Y-37.978
X148.084 Y-37.358
X148.839 Y-36.731
X149.59 Y-36.098
X150.337 Y-35.462
X151.081 Y-34.821
X151.822 Y-34.179
X152.563 Y-33.534
X153.302 Y-32.888
X154.778 Y-31.594
X156.989 Y-29.649
X162.143 Y-25.106
X166.56 Y-21.212
X167.296 Y-20.562
X168.766 Y-19.261
X169.504 Y-18.614
X170.249 Y-17.975
X171.004 Y-17.348
X171.775 Y-16.741
X172.564 Y-16.157
X173.373 Y-15.601
X174.203 Y-15.077
X175.054 Y-14.588
X175.927 Y-14.14
X176.82 Y-13.733
X177.732 Y-13.368
X178.659 Y-13.046
X179.601 Y-12.772
X180.556 Y-12.543
X181.52 Y-12.362
X182.493 Y-12.225
X183.47 Y-12.139
X184.451 Y-12.101
X185.432 Y-12.112
X186.412 Y-12.169
X187.388 Y-12.277
X188.357 Y-12.433
X189.317 Y-12.635
X190.267 Y-12.884
X191.202 Y-13.181
X192.123 Y-13.522
X193.025 Y-13.908
X193.907 Y-14.338
X194.767 Y-14.812
X195.602 Y-15.328
X196.412 Y-15.882
X197.196 Y-16.472
X197.953 Y-17.097
X198.684 Y-17.752
X199.386 Y-18.438
X200.06 Y-19.152
X200.701 Y-19.895
X201.307 Y-20.668
X201.876 Y-21.467
X202.408 Y-22.292
X202.898 Y-23.142
X203.346 Y-24.015
X203.752 Y-24.909
X204.114 Y-25.822
X204.43 Y-26.751
X204.7 Y-27.694
X204.924 Y-28.65
X205.101 Y-29.615
X205.23 Y-30.589
X205.309 Y-31.567
X205.342 Y-32.548
X205.326 Y-33.529
X205.261 Y-34.509
X205.146 Y-35.483
X204.986 Y-36.452
X204.778 Y-37.411
X204.523 Y-38.359
X204.221 Y-39.292
X203.874 Y-40.211
X203.483 Y-41.111
X203.046 Y-41.99
X202.566 Y-42.846
X202.045 Y-43.678
X201.487 Y-44.486
X200.896 Y-45.269
X200.278 Y-46.032
X199.639 Y-46.777
X198.985 Y-47.509
X198.32 Y-48.23
X197.646 Y-48.944
X196.966 Y-49.652
X196.282 Y-50.355
X195.595 Y-51.056
X194.905 Y-51.755
X194.215 Y-52.452
X193.523 Y-53.149
X192.138 Y-54.539
X189.363 Y-57.317
X185.2 Y-61.482
X184.507 Y-62.178
X183.817 Y-62.876
X183.13 Y-63.577
X182.448 Y-64.282
X181.771 Y-64.993
X181.102 Y-65.711
X180.442 Y-66.438
X179.792 Y-67.174
X179.153 Y-67.918
X178.526 Y-68.673
X177.912 Y-69.439
X177.313 Y-70.217
X176.728 Y-71.005
X176.158 Y-71.804
X175.602 Y-72.613
X175.063 Y-73.433
X174.539 Y-74.263
X174.031 Y-75.103
X173.54 Y-75.952
X173.064 Y-76.811
X172.606 Y-77.679
X172.166 Y-78.557
X171.744 Y-79.443
X171.339 Y-80.337
X170.951 Y-81.238
X170.581 Y-82.148
X170.23 Y-83.064
X169.897 Y-83.987
X169.581 Y-84.916
X169.282 Y-85.852
X169.003 Y-86.793
X168.744 Y-87.739
X168.504 Y-88.691
X168.283 Y-89.647
X168.08 Y-90.608
X167.896 Y-91.572
X167.731 Y-92.539
X167.586 Y-93.51
X167.458 Y-94.483
X167.348 Y-95.458
X167.255 Y-96.436
X167.178 Y-97.414
X167.116 Y-98.394
X167.067 Y-99.374
X167.029 Y-100.355
X167 Y-101.336
X166.978 Y-102.317
X166.962 Y-103.298
X166.95 Y-104.28
X166.942 Y-105.261
X166.935 Y-106.243
X166.931 Y-107.224
X166.926 Y-109.187
X166.923 Y-111.15
Y-112.132
X166.926 Y-113.113
X166.932 Y-114.095
X166.944 Y-115.076
X166.962 Y-116.058
X166.989 Y-117.039
X167.027 Y-118.02
X167.079 Y-119
X167.144 Y-119.979
X167.223 Y-120.957
X167.317 Y-121.934
X167.43 Y-122.909
X167.562 Y-123.882
X167.711 Y-124.852
X167.878 Y-125.819
X168.063 Y-126.783
X168.267 Y-127.743
X168.49 Y-128.699
X168.73 Y-129.651
X168.988 Y-130.598
X169.265 Y-131.54
X169.56 Y-132.476
X169.875 Y-133.405
X170.209 Y-134.328
X170.56 Y-135.245
X170.929 Y-136.154
X171.316 Y-137.056
X171.721 Y-137.95
X172.144 Y-138.836
X172.582 Y-139.714
X173.038 Y-140.584
X173.511 Y-141.443
X174.003 Y-142.293
X174.511 Y-143.133
X175.035 Y-143.963
X175.575 Y-144.782
X176.132 Y-145.59
X176.705 Y-146.387
X177.293 Y-147.173
X177.895 Y-147.949
X178.511 Y-148.713
X179.14 Y-149.466
X179.781 Y-150.209
X180.433 Y-150.943
X181.095 Y-151.668
X181.764 Y-152.386
X182.439 Y-153.099
X183.118 Y-153.807
X183.802 Y-154.511
X184.488 Y-155.213
X185.177 Y-155.912
X185.867 Y-156.61
X186.558 Y-157.307
X187.943 Y-158.698
X190.023 Y-160.782
X195.575 Y-166.336
X196.268 Y-167.03
X196.959 Y-167.727
X197.647 Y-168.428
X198.329 Y-169.134
X199 Y-169.85
X199.656 Y-170.58
X200.292 Y-171.328
X200.903 Y-172.095
X201.486 Y-172.885
X202.037 Y-173.698
X202.551 Y-174.534
X203.025 Y-175.393
X203.46 Y-176.273
X203.854 Y-177.172
X204.202 Y-178.089
X204.506 Y-179.023
X204.764 Y-179.97
X204.976 Y-180.928
X205.14 Y-181.896
X205.255 Y-182.871
X205.323 Y-183.85
X205.343 Y-184.831
X205.313 Y-185.812
X205.235 Y-186.791
X205.109 Y-187.764
X204.938 Y-188.73
X204.716 Y-189.687
X204.449 Y-190.631
X204.135 Y-191.561
X203.777 Y-192.475
X203.372 Y-193.369
X202.924 Y-194.242
X202.434 Y-195.093
X201.904 Y-195.919
X201.335 Y-196.718
X200.73 Y-197.492
X200.095 Y-198.24
X199.429 Y-198.961
X198.732 Y-199.652
X198.006 Y-200.312
X197.251 Y-200.94
X196.469 Y-201.532
X195.659 Y-202.087
X194.823 Y-202.602
X193.964 Y-203.076
X193.083 Y-203.509
X192.182 Y-203.898
X191.263 Y-204.242
X190.328 Y-204.541
X189.379 Y-204.794
X188.42 Y-204.999
X187.451 Y-205.156
X186.475 Y-205.266
X185.496 Y-205.328
X184.514 Y-205.341
X183.533 Y-205.305
X182.555 Y-205.221
X181.583 Y-205.091
X180.618 Y-204.912
X179.663 Y-204.685
X178.72 Y-204.412
X177.792 Y-204.093
X176.881 Y-203.727
X175.989 Y-203.317
X175.119 Y-202.864
X174.271 Y-202.369
X173.449 Y-201.833
X172.651 Y-201.261
X171.876 Y-200.659
X171.12 Y-200.032
X170.38 Y-199.387
X169.653 Y-198.729
X168.935 Y-198.059
X168.224 Y-197.383
X167.517 Y-196.701
X166.815 Y-196.016
X166.115 Y-195.328
X165.417 Y-194.638
X164.72 Y-193.947
X163.329 Y-192.562
X161.245 Y-190.482
X159.162 Y-188.4
X151.527 Y-180.766
X150.833 Y-180.073
X150.136 Y-179.381
X149.436 Y-178.693
X148.732 Y-178.009
X148.023 Y-177.33
X147.308 Y-176.658
X146.584 Y-175.995
X145.852 Y-175.342
X145.11 Y-174.699
X144.358 Y-174.068
X143.596 Y-173.45
X142.823 Y-172.845
X142.039 Y-172.254
X141.245 Y-171.678
X140.44 Y-171.116
X139.624 Y-170.57
X138.797 Y-170.041
X137.96 Y-169.528
X137.114 Y-169.032
X136.258 Y-168.551
X135.393 Y-168.087
X134.519 Y-167.64
X133.637 Y-167.211
X132.746 Y-166.798
X131.847 Y-166.403
X130.941 Y-166.027
X130.027 Y-165.669
X129.106 Y-165.33
X128.179 Y-165.009
X127.245 Y-164.705
X126.306 Y-164.42
X125.361 Y-164.153
X124.412 Y-163.905
X123.457 Y-163.676
X122.499 Y-163.465
X121.536 Y-163.274
X120.57 Y-163.103
X119.6 Y-162.951
X118.627 Y-162.818
X117.653 Y-162.702
X116.676 Y-162.603
X115.698 Y-162.521
X114.719 Y-162.453
X113.739 Y-162.4
X112.758 Y-162.357
X111.777 Y-162.325
X110.796 Y-162.301
X109.815 Y-162.283
X108.833 Y-162.272
X107.852 Y-162.27
X106.87 Y-162.276
X105.889 Y-162.291
X104.908 Y-162.317
X103.927 Y-162.355
X102.947 Y-162.408
X101.968 Y-162.475
X100.99 Y-162.557
X100.013 Y-162.656
X99.038 Y-162.771
X98.066 Y-162.905
X97.096 Y-163.056
X96.129 Y-163.225
X95.166 Y-163.413
X94.207 Y-163.621
X93.252 Y-163.847
X92.301 Y-164.092
X91.355 Y-164.354
X90.415 Y-164.635
X89.48 Y-164.935
X88.552 Y-165.253
X87.629 Y-165.588
X86.714 Y-165.942
X85.805 Y-166.314
X84.905 Y-166.704
X84.012 Y-167.113
X83.128 Y-167.539
X82.252 Y-167.982
X81.385 Y-168.442
X80.527 Y-168.919
X79.679 Y-169.413
X78.841 Y-169.923
X78.012 Y-170.449
X77.194 Y-170.992
X76.388 Y-171.552
X75.594 Y-172.128
X74.81 Y-172.719
X74.038 Y-173.325
X73.276 Y-173.944
X72.525 Y-174.575
X71.783 Y-175.219
X71.051 Y-175.872
X70.327 Y-176.534
X69.609 Y-177.204
X68.897 Y-177.88
X68.19 Y-178.56
X67.486 Y-179.245
X66.785 Y-179.931
X66.086 Y-180.62
X65.388 Y-181.31
X64.691 Y-182.002
X63.3 Y-183.387
X61.216 Y-185.467
X54.275 Y-192.407
X50.805 Y-195.877
X50.11 Y-196.57
X49.411 Y-197.259
X48.709 Y-197.945
X47.998 Y-198.622
X47.276 Y-199.287
X46.539 Y-199.935
X45.783 Y-200.561
X45.006 Y-201.161
X44.206 Y-201.73
X43.383 Y-202.263
X42.537 Y-202.761
X41.669 Y-203.22
X40.781 Y-203.637
X39.873 Y-204.011
X38.948 Y-204.341
X38.009 Y-204.625
X37.057 Y-204.863
X36.094 Y-205.052
X35.123 Y-205.195
X34.146 Y-205.29
X33.165 Y-205.337
X32.184 Y-205.334
X31.204 Y-205.284
X30.227 Y-205.188
X29.256 Y-205.041
X28.294 Y-204.847
X27.343 Y-204.606
X26.404 Y-204.319
X25.481 Y-203.984
X24.576 Y-203.605
X23.691 Y-203.181
X22.826 Y-202.717
X21.987 Y-202.208
X21.173 Y-201.66
X20.383 Y-201.076
X19.621 Y-200.459
X18.885 Y-199.809
X18.531 Y-199.469
X18.042 Y-198.618
X17.832 Y-197.659
X17.722 Y-196.684
X17.655 Y-195.705
X17.603 Y-194.725
X17.553 Y-193.745
X17.498 Y-192.765
X17.435 Y-191.785
X17.364 Y-190.806
X17.29 Y-189.827
X17.218 Y-188.849
X17.155 Y-187.869
X17.111 Y-186.889
X17.093 Y-185.907
X17.111 Y-184.926
X17.118 Y-184.808
Y-184.794
Y-184.197
X17.128 Y-183.528
X17.156 Y-183.305
X17.221 Y-182.859
X17.258 Y-182.636
X17.494 Y-181.298
X17.538 Y-181.075
X17.637 Y-180.702
X17.659 Y-180.629
X17.982 Y-179.737
X18.225 Y-179.068
X18.395 Y-178.623
X18.496 Y-178.4
X18.752 Y-177.925
X18.86 Y-177.731
X19.246 Y-177.062
X19.644 Y-176.376
X19.796 Y-176.17
X20.138 Y-175.724
X20.321 Y-175.501
X21.069 Y-174.609
X21.205 Y-174.453
X21.815 Y-173.685
X22.482 Y-172.964
X23.154 Y-172.249
X23.831 Y-171.538
X24.512 Y-170.831
X25.196 Y-170.128
X25.883 Y-169.427
X26.572 Y-168.728
X27.262 Y-168.03
X27.954 Y-167.333
X29.339 Y-165.942
X31.419 Y-163.858
X34.888 Y-160.386
X35.581 Y-159.692
X36.273 Y-158.995
X36.962 Y-158.297
X37.649 Y-157.595
X38.331 Y-156.89
X39.008 Y-156.179
X39.678 Y-155.462
X40.341 Y-154.738
X40.995 Y-154.006
X41.639 Y-153.266
X42.273 Y-152.516
X42.896 Y-151.758
X43.507 Y-150.99
X44.106 Y-150.212
X44.692 Y-149.425
X45.265 Y-148.628
X45.824 Y-147.821
X46.369 Y-147.004
X46.899 Y-146.179
X47.415 Y-145.344
X47.917 Y-144.5
X48.403 Y-143.647
X48.873 Y-142.786
X49.329 Y-141.916
X49.769 Y-141.039
X50.193 Y-140.154
X50.601 Y-139.261
X50.994 Y-138.362
X51.369 Y-137.455
X51.729 Y-136.542
X52.072 Y-135.622
X52.399 Y-134.697
X52.709 Y-133.765
X53.001 Y-132.828
X53.277 Y-131.886
X53.537 Y-130.94
X53.779 Y-129.989
X54.004 Y-129.033
X54.212 Y-128.074
X54.403 Y-127.111
X54.576 Y-126.145
X54.732 Y-125.176
X54.871 Y-124.205
X54.994 Y-123.231
X55.1 Y-122.255
X55.192 Y-121.278
X55.269 Y-120.299
X55.334 Y-119.32
X55.387 Y-118.34
X55.43 Y-117.359
X55.464 Y-116.378
X55.49 Y-115.397
X55.511 Y-114.416
X55.527 Y-113.434
X55.538 Y-112.453
X55.547 Y-111.472
X55.554 Y-110.49
X55.559 Y-109.509
X55.565 Y-107.546
X55.566 Y-106.564
Y-105.583
X55.562 Y-104.601
X55.555 Y-103.62
X55.542 Y-102.638
X55.523 Y-101.657
X55.496 Y-100.676
X55.459 Y-99.695
X55.411 Y-98.714
X55.35 Y-97.735
X55.276 Y-96.756
X55.189 Y-95.778
X55.086 Y-94.802
X54.968 Y-93.828
X54.835 Y-92.856
X54.685 Y-91.885
X54.52 Y-90.918
X54.337 Y-89.954
X54.138 Y-88.993
X53.922 Y-88.035
X53.689 Y-87.082
X53.439 Y-86.132
X53.173 Y-85.188
X52.889 Y-84.248
X52.589 Y-83.314
X52.273 Y-82.385
X51.94 Y-81.461
X51.59 Y-80.544
X51.224 Y-79.633
X50.841 Y-78.73
X50.443 Y-77.833
X50.028 Y-76.943
X49.598 Y-76.061
X49.151 Y-75.187
X48.689 Y-74.321
X48.212 Y-73.463
X47.719 Y-72.614
X47.211 Y-71.774
X46.688 Y-70.944
X46.151 Y-70.123
X45.598 Y-69.311
X45.031 Y-68.51
X44.45 Y-67.719
X43.856 Y-66.938
X43.249 Y-66.167
X42.629 Y-65.406
X41.998 Y-64.654
X41.357 Y-63.911
X40.706 Y-63.176
X40.047 Y-62.448
X39.381 Y-61.727
X38.709 Y-61.012
X38.032 Y-60.301
X37.352 Y-59.594
X36.667 Y-58.89
X35.981 Y-58.189
X35.292 Y-57.489
X34.603 Y-56.791
X33.911 Y-56.094
X32.527 Y-54.702
X30.448 Y-52.618
X25.591 Y-47.758
X24.899 Y-47.062
X24.209 Y-46.363
X23.525 Y-45.66
X22.849 Y-44.948
X22.186 Y-44.224
X21.541 Y-43.485
X20.92 Y-42.725
X20.429 Y-42.07
X20.421 Y-42.061
X20.313 Y-41.931
X20.139 Y-41.718
X19.797 Y-41.272
X19.644 Y-41.066
X19.198 Y-40.298
X18.859 Y-39.711
X18.736 Y-39.488
X18.496 Y-39.042
X18.395 Y-38.819
X18.225 Y-38.373
X17.82 Y-37.259
X17.659 Y-36.813
X17.637 Y-36.74
X17.538 Y-36.367
X17.494 Y-36.144
X17.258 Y-34.806
X17.221 Y-34.583
X17.156 Y-34.137
X17.128 Y-33.914
X17.118 Y-33.245
Y-31.907
X17.126 Y-31.684
X17.16 Y-31.238
X17.187 Y-31.015
X17.462 Y-29.455
X17.502 Y-29.232
X17.544 Y-29.009
X17.612 Y-28.786
X17.755 Y-28.34
X17.833 Y-28.117
X18.306 Y-26.818
X18.323 Y-26.779
X18.529 Y-26.32
X18.624 Y-26.11
X19.421 Y-24.73
X19.657 Y-24.326
X19.811 Y-24.103
X19.867 Y-24.025
X19.982 Y-23.88
X20.353 Y-23.434
X21.102 Y-22.543
X21.428 Y-22.173
X22.173 Y-21.428
X22.543 Y-21.102
X23.483 Y-20.313
X23.88 Y-19.982
X24.025 Y-19.867
X24.103 Y-19.811
X24.326 Y-19.657
X24.772 Y-19.397
X26.11 Y-18.624
X26.556 Y-18.423
X26.779 Y-18.323
X26.818 Y-18.306
X28.117 Y-17.833
X28.34 Y-17.755
X28.786 Y-17.612
X29.009 Y-17.544
X29.232 Y-17.502
X30.347 Y-17.304
X31.015 Y-17.187
X31.238 Y-17.16
X31.684 Y-17.126
X31.907 Y-17.118
X33.245
X33.914 Y-17.128
X34.137 Y-17.156
X34.583 Y-17.221
X34.806 Y-17.258
X36.144 Y-17.494
X36.367 Y-17.538
X36.74 Y-17.637
X36.813 Y-17.659
X37.705 Y-17.982
X38.373 Y-18.225
X38.819 Y-18.395
X39.042 Y-18.496
X39.517 Y-18.752
X39.711 Y-18.859
X40.38 Y-19.246
X41.066 Y-19.644
X41.272 Y-19.797
X41.718 Y-20.139
X41.941 Y-20.321
X42.833 Y-21.069
X42.989 Y-21.205
X43.757 Y-21.815
X44.478 Y-22.482
X45.193 Y-23.154
X45.904 Y-23.831
X46.611 Y-24.512
X47.314 Y-25.196
X48.015 Y-25.883
X48.715 Y-26.572
X49.412 Y-27.262
X50.109 Y-27.954
X51.5 Y-29.339
X53.584 Y-31.419
X56.362 Y-34.194
X57.057 Y-34.887
X57.753 Y-35.578
X58.452 Y-36.268
X59.154 Y-36.954
X59.859 Y-37.636
X60.57 Y-38.313
X61.288 Y-38.983
X62.012 Y-39.645
X62.745 Y-40.298
X63.486 Y-40.941
X64.236 Y-41.574
X64.996 Y-42.196
X65.765 Y-42.806
X66.544 Y-43.403
X67.332 Y-43.988
X68.129 Y-44.561
X68.936 Y-45.119
X69.753 Y-45.663
X70.58 Y-46.193
X71.415 Y-46.707
X72.26 Y-47.207
X73.113 Y-47.692
X73.975 Y-48.161
X74.846 Y-48.615
X75.724 Y-49.054
X76.609 Y-49.477
X77.502 Y-49.885
X78.402 Y-50.277
X79.309 Y-50.651
X80.223 Y-51.01
X81.143 Y-51.351
X82.069 Y-51.676
X83.001 Y-51.985
X83.938 Y-52.276
X84.881 Y-52.551
X85.828 Y-52.808
X86.779 Y-53.05
X87.735 Y-53.274
X88.694 Y-53.482
X89.657 Y-53.671
X90.623 Y-53.843
X91.593 Y-53.997
X92.565 Y-54.135
X93.538 Y-54.256
X94.514 Y-54.362
X95.492 Y-54.453
X96.47 Y-54.529
X97.45 Y-54.593
X98.43 Y-54.645
X99.41 Y-54.688
X100.391 Y-54.721
X101.372 Y-54.747
X102.354 Y-54.768
X103.335 Y-54.783
X104.317 Y-54.795
X105.298 Y-54.804
X106.28 Y-54.81
X107.261 Y-54.815
X108.243 Y-54.818
X109.224 Y-54.82
X110.206
X111.187 Y-54.817
X112.169 Y-54.81
X113.15 Y-54.798
X114.131 Y-54.78
X115.112 Y-54.752
X116.093 Y-54.715
X117.074 Y-54.666
X118.053 Y-54.605
X119.032 Y-54.531
X120.009 Y-54.442
X120.985 Y-54.338
X121.96 Y-54.219
X122.932 Y-54.085
X123.902 Y-53.935
X124.869 Y-53.769
X125.834 Y-53.586
X126.795 Y-53.386
X127.752 Y-53.169
X128.705 Y-52.935
X129.654 Y-52.684
X130.598 Y-52.416
X131.537 Y-52.131
X132.471 Y-51.83
X133.4 Y-51.512
X134.323 Y-51.178
X135.24 Y-50.827
X136.15 Y-50.461
X137.054 Y-50.078
X137.951 Y-49.679
X138.84 Y-49.263
X139.721 Y-48.831
X140.595 Y-48.383
X141.46 Y-47.92
X142.317 Y-47.441
X143.165 Y-46.948
X144.005 Y-46.439
X144.835 Y-45.916
X145.656 Y-45.378
X146.468 Y-44.826
X147.271 Y-44.261
X148.064 Y-43.684
X148.849 Y-43.095
X149.626 Y-42.495
X150.396 Y-41.886
X151.16 Y-41.269
X151.918 Y-40.646
X152.671 Y-40.017
X153.421 Y-39.383
X154.167 Y-38.746
X154.911 Y-38.106
X155.653 Y-37.463
X156.394 Y-36.819
X157.133 Y-36.174
X158.609 Y-34.88
X160.821 Y-32.935
X165.239 Y-29.042
X168.92 Y-25.797
X171.127 Y-23.847
X171.865 Y-23.2
X172.607 Y-22.558
X173.358 Y-21.925
X174.121 Y-21.308
X174.902 Y-20.713
X175.703 Y-20.146
X175.759 Y-20.11
X175.788 Y-20.09
X176.17 Y-19.796
X176.376 Y-19.644
X177.144 Y-19.198
X177.731 Y-18.86
X177.954 Y-18.737
X178.4 Y-18.496
X178.623 Y-18.395
X179.068 Y-18.225
X180.183 Y-17.82
X180.629 Y-17.659
X180.702 Y-17.637
X181.075 Y-17.538
X181.298 Y-17.494
X182.636 Y-17.258
X182.859 Y-17.221
X183.305 Y-17.156
X183.528 Y-17.128
X184.197 Y-17.118
X185.535
X185.758 Y-17.126
X186.204 Y-17.16
X186.427 Y-17.187
X187.987 Y-17.462
X188.21 Y-17.502
X188.433 Y-17.544
X188.656 Y-17.612
X189.102 Y-17.755
X189.325 Y-17.833
X190.624 Y-18.306
X190.663 Y-18.323
X191.122 Y-18.529
X191.332 Y-18.624
X192.712 Y-19.421
X193.116 Y-19.657
X193.339 Y-19.811
X193.418 Y-19.867
X193.562 Y-19.981
X194.008 Y-20.353
X194.899 Y-21.102
X195.27 Y-21.428
X196.014 Y-22.173
X196.34 Y-22.543
X197.129 Y-23.483
X197.461 Y-23.88
X197.575 Y-24.024
X197.631 Y-24.103
X197.785 Y-24.326
X198.046 Y-24.772
X198.818 Y-26.11
X199.019 Y-26.556
X199.119 Y-26.779
X199.136 Y-26.818
X199.609 Y-28.117
X199.687 Y-28.34
X199.831 Y-28.786
X199.898 Y-29.009
X199.94 Y-29.232
X200.138 Y-30.347
X200.255 Y-31.015
X200.281 Y-31.238
X200.315 Y-31.684
X200.324 Y-31.907
Y-33.245
X200.314 Y-33.914
X200.286 Y-34.137
X200.221 Y-34.583
X200.184 Y-34.806
X199.948 Y-36.144
X199.904 Y-36.367
X199.805 Y-36.741
X199.784 Y-36.813
X199.461 Y-37.705
X199.217 Y-38.373
X199.047 Y-38.819
X198.946 Y-39.042
X198.69 Y-39.517
X198.583 Y-39.711
X198.197 Y-40.38
X197.798 Y-41.066
X197.646 Y-41.272
X197.304 Y-41.718
X197.122 Y-41.941
X196.373 Y-42.833
X196.237 Y-42.989
X195.627 Y-43.757
X194.96 Y-44.478
X194.288 Y-45.193
X193.611 Y-45.904
X192.93 Y-46.611
X192.246 Y-47.314
X191.559 Y-48.016
X190.87 Y-48.715
X190.18 Y-49.412
X189.488 Y-50.109
X188.104 Y-51.501
X186.024 Y-53.585
X182.555 Y-57.056
X181.862 Y-57.751
X181.17 Y-58.448
X180.481 Y-59.147
X179.795 Y-59.849
X179.113 Y-60.555
X178.437 Y-61.266
X177.767 Y-61.983
X177.104 Y-62.707
X176.451 Y-63.439
X175.806 Y-64.18
X175.173 Y-64.93
X174.551 Y-65.689
X173.941 Y-66.458
X173.344 Y-67.237
X172.759 Y-68.025
X172.188 Y-68.824
X171.63 Y-69.631
X171.087 Y-70.448
X170.557 Y-71.275
X170.041 Y-72.11
X169.54 Y-72.954
X169.055 Y-73.807
X168.585 Y-74.669
X168.131 Y-75.539
X167.693 Y-76.417
X167.27 Y-77.303
X166.864 Y-78.196
X166.473 Y-79.097
X166.098 Y-80.004
X165.74 Y-80.918
X165.397 Y-81.838
X165.071 Y-82.763
X164.762 Y-83.695
X164.47 Y-84.632
X164.196 Y-85.574
X163.938 Y-86.522
X163.698 Y-87.473
X163.475 Y-88.429
X163.268 Y-89.388
X163.079 Y-90.352
X162.907 Y-91.318
X162.752 Y-92.287
X162.613 Y-93.259
X162.491 Y-94.233
X162.385 Y-95.208
X162.294 Y-96.186
X162.218 Y-97.164
X162.154 Y-98.144
X162.102 Y-99.124
X162.06 Y-100.104
X162.027 Y-101.085
X162 Y-102.067
X161.98 Y-103.048
X161.965 Y-104.029
X161.953 Y-105.011
X161.944 Y-105.992
X161.938 Y-106.974
X161.933 Y-107.955
X161.93 Y-108.937
X161.927 Y-109.918
X161.926 Y-110.9
X161.927 Y-111.881
X161.93 Y-112.863
X161.938 Y-113.844
X161.95 Y-114.826
X161.969 Y-115.807
X161.997 Y-116.788
X162.033 Y-117.769
X162.081 Y-118.749
X162.14 Y-119.729
X162.213 Y-120.708
X162.299 Y-121.686
X162.402 Y-122.662
X162.519 Y-123.636
X162.653 Y-124.609
X162.802 Y-125.579
X162.968 Y-126.546
X163.15 Y-127.51
X163.349 Y-128.472
X163.565 Y-129.429
X163.796 Y-130.383
X164.044 Y-131.333
X164.31 Y-132.278
X164.592 Y-133.218
X164.892 Y-134.152
X165.209 Y-135.081
X165.542 Y-136.004
X165.892 Y-136.922
X166.257 Y-137.832
X166.64 Y-138.736
X167.038 Y-139.634
X167.451 Y-140.524
X167.88 Y-141.407
X168.325 Y-142.281
X168.787 Y-143.147
X169.264 Y-144.005
X169.757 Y-144.854
X170.265 Y-145.694
X170.788 Y-146.525
X171.325 Y-147.346
X171.877 Y-148.157
X172.444 Y-148.959
X173.024 Y-149.751
X173.617 Y-150.533
X174.224 Y-151.304
X174.843 Y-152.066
X175.474 Y-152.818
X176.115 Y-153.561
X176.765 Y-154.296
X177.424 Y-155.023
X178.09 Y-155.744
X178.762 Y-156.46
X179.439 Y-157.17
X180.12 Y-157.877
X180.804 Y-158.581
X181.491 Y-159.283
X182.179 Y-159.982
X182.869 Y-160.68
X183.56 Y-161.377
X184.945 Y-162.769
X187.024 Y-164.854
X191.187 Y-169.019
X191.881 Y-169.714
X192.572 Y-170.41
X193.262 Y-171.109
X193.946 Y-171.813
X194.622 Y-172.524
X195.285 Y-173.248
X195.93 Y-173.988
X196.549 Y-174.75
X197.016 Y-175.375
X197.024 Y-175.384
X197.129 Y-175.51
X197.304 Y-175.724
X197.646 Y-176.17
X197.798 Y-176.375
X198.244 Y-177.144
X198.583 Y-177.731
X198.705 Y-177.954
X198.946 Y-178.4
X199.047 Y-178.623
X199.217 Y-179.068
X199.622 Y-180.183
X199.784 Y-180.629
X199.805 Y-180.701
X199.904 Y-181.075
X199.948 Y-181.298
X200.184 Y-182.636
X200.221 Y-182.859
X200.286 Y-183.305
X200.314 Y-183.528
X200.324 Y-184.197
Y-185.535
X200.315 Y-185.758
X200.282 Y-186.204
X200.255 Y-186.427
X199.98 Y-187.987
X199.941 Y-188.21
X199.898 Y-188.433
X199.831 Y-188.656
X199.687 Y-189.102
X199.609 Y-189.325
X199.136 Y-190.625
X199.119 Y-190.663
X198.913 Y-191.122
X198.818 Y-191.332
X198.021 Y-192.713
X197.785 Y-193.116
X197.631 Y-193.339
X197.575 Y-193.419
X197.461 Y-193.562
X197.089 Y-194.008
X196.34 Y-194.899
X196.014 Y-195.27
X195.27 Y-196.014
X194.899 Y-196.34
X193.96 Y-197.129
X193.562 Y-197.461
X193.419 Y-197.575
X193.339 Y-197.631
X193.116 Y-197.785
X192.67 Y-198.046
X191.332 Y-198.818
X190.886 Y-199.019
X190.663 Y-199.119
X190.625 Y-199.136
X189.325 Y-199.609
X189.102 Y-199.687
X188.656 Y-199.831
X188.433 Y-199.898
X188.21 Y-199.941
X187.095 Y-200.138
X186.427 Y-200.255
X186.204 Y-200.282
X185.758 Y-200.315
X185.535 Y-200.324
X184.197
X183.528 Y-200.314
X183.305 Y-200.286
X182.859 Y-200.221
X182.636 Y-200.184
X181.298 Y-199.948
X181.075 Y-199.904
X180.701 Y-199.805
X180.629 Y-199.784
X179.737 Y-199.461
X179.068 Y-199.217
X178.623 Y-199.047
X178.4 Y-198.946
X177.925 Y-198.69
X177.731 Y-198.583
X177.062 Y-198.197
X176.375 Y-197.798
X176.17 Y-197.646
X175.724 Y-197.304
X175.501 Y-197.122
X174.609 Y-196.373
X174.453 Y-196.237
X173.685 Y-195.627
X172.964 Y-194.96
X172.249 Y-194.288
X171.538 Y-193.611
X170.831 Y-192.93
X170.128 Y-192.246
X169.427 Y-191.559
X168.727 Y-190.87
X168.03 Y-190.18
X167.333 Y-189.488
X165.942 Y-188.104
X163.858 Y-186.023
X158.304 Y-180.472
X155.528 Y-177.696
X154.833 Y-177.003
X154.136 Y-176.312
X153.437 Y-175.623
X152.734 Y-174.938
X152.027 Y-174.258
X151.314 Y-173.583
X150.594 Y-172.915
X149.867 Y-172.256
X149.133 Y-171.605
X148.389 Y-170.964
X147.637 Y-170.333
X146.876 Y-169.714
X146.105 Y-169.107
X145.324 Y-168.512
X144.534 Y-167.93
X143.734 Y-167.361
X142.924 Y-166.806
X142.104 Y-166.266
X141.275 Y-165.741
X140.437 Y-165.23
X139.59 Y-164.734
X138.735 Y-164.253
X137.871 Y-163.787
X136.999 Y-163.337
X136.119 Y-162.901
X135.232 Y-162.482
X134.337 Y-162.078
X133.435 Y-161.691
X132.526 Y-161.321
X131.611 Y-160.967
X130.689 Y-160.63
X129.761 Y-160.309
X128.828 Y-160.005
X127.89 Y-159.717
X126.946 Y-159.446
X125.998 Y-159.192
X125.046 Y-158.955
X124.089 Y-158.734
X123.129 Y-158.532
X122.165 Y-158.348
X121.198 Y-158.181
X120.228 Y-158.031
X119.255 Y-157.897
X118.281 Y-157.78
X117.305 Y-157.678
X116.327 Y-157.591
X115.348 Y-157.517
X114.369 Y-157.456
X113.388 Y-157.406
X112.408 Y-157.366
X111.427 Y-157.335
X110.445 Y-157.311
X109.464 Y-157.296
X108.482 Y-157.289
X107.501
X106.519 Y-157.299
X105.538 Y-157.319
X104.557 Y-157.35
X103.577 Y-157.393
X102.597 Y-157.449
X101.618 Y-157.518
X100.64 Y-157.601
X99.663 Y-157.699
X98.688 Y-157.813
X97.715 Y-157.942
X96.744 Y-158.086
X95.776 Y-158.247
X94.811 Y-158.426
X93.849 Y-158.621
X92.891 Y-158.834
X91.936 Y-159.063
X90.986 Y-159.31
X90.041 Y-159.572
X89.1 Y-159.852
X88.164 Y-160.148
X87.234 Y-160.46
X86.309 Y-160.789
X85.39 Y-161.134
X84.477 Y-161.496
X83.572 Y-161.875
X82.674 Y-162.271
X81.783 Y-162.682
X80.899 Y-163.109
X80.023 Y-163.552
X79.155 Y-164.011
X78.296 Y-164.485
X77.445 Y-164.974
X76.602 Y-165.477
X75.769 Y-165.996
X74.946 Y-166.53
X74.132 Y-167.08
X73.329 Y-167.644
X72.536 Y-168.222
X71.753 Y-168.814
X70.98 Y-169.418
X70.216 Y-170.035
X69.462 Y-170.663
X68.717 Y-171.302
X67.98 Y-171.951
X67.251 Y-172.608
X66.528 Y-173.272
X65.812 Y-173.943
X65.1 Y-174.618
X64.392 Y-175.298
X63.688 Y-175.982
X62.986 Y-176.668
X62.286 Y-177.356
X61.587 Y-178.046
X60.89 Y-178.736
X59.498 Y-180.12
X57.413 Y-182.2
X53.248 Y-186.363
X49.083 Y-190.527
X47.695 Y-191.914
X46.999 Y-192.607
X46.3 Y-193.296
X45.596 Y-193.98
X44.883 Y-194.655
X44.158 Y-195.316
X43.417 Y-195.959
X42.654 Y-196.577
X42.074 Y-197.01
X42.065 Y-197.018
X41.932 Y-197.129
X41.718 Y-197.304
X41.272 Y-197.646
X41.066 Y-197.798
X40.298 Y-198.244
X39.711 Y-198.583
X39.488 Y-198.706
X39.042 Y-198.946
X38.819 Y-199.047
X38.373 Y-199.217
X37.259 Y-199.622
X36.813 Y-199.784
X36.741 Y-199.805
X36.367 Y-199.904
X36.144 Y-199.948
X34.806 Y-200.184
X34.583 Y-200.221
X34.137 Y-200.286
X33.914 Y-200.314
X33.245 Y-200.324
X31.907
X31.684 Y-200.315
X31.238 Y-200.281
X31.015 Y-200.255
X29.455 Y-199.98
X29.232 Y-199.94
X29.009 Y-199.898
X28.786 Y-199.831
X28.34 Y-199.687
X28.117 Y-199.609
X26.818 Y-199.136
X26.779 Y-199.119
X26.32 Y-198.913
X26.11 Y-198.818
X24.73 Y-198.021
X24.326 Y-197.785
X24.103 Y-197.631
X24.024 Y-197.575
X23.88 Y-197.461
X23.434 Y-197.089
X22.543 Y-196.34
X22.173 Y-196.014
X21.428 Y-195.27
X21.102 Y-194.899
X20.313 Y-193.959
X19.981 Y-193.562
X19.867 Y-193.418
X19.811 Y-193.339
X19.657 Y-193.116
X19.396 Y-192.67
X18.624 Y-191.332
X18.423 Y-190.886
X18.323 Y-190.663
X18.306 Y-190.624
X17.833 Y-189.325
X17.755 Y-189.102
X17.612 Y-188.656
X17.544 Y-188.433
X17.502 Y-188.21
X17.304 Y-187.095
X17.187 Y-186.427
X17.16 Y-186.204
X17.126 Y-185.758
X17.118 Y-185.535
Y-184.794
Y-184.197 Z-4.14
X17.12 Y-184.024 Z-4.106
X17.124 Y-183.798 Z-4.06
X17.128 Y-183.528
X17.156 Y-183.305
X17.221 Y-182.859
X17.258 Y-182.636
X17.494 Y-181.298
X17.538 Y-181.075
X17.637 Y-180.702
X17.659 Y-180.629
X17.901 Y-179.96
X18.225 Y-179.068
X18.306 Y-178.855
X18.395 Y-178.623
X18.496 Y-178.4
X18.752 Y-177.925
X18.86 Y-177.731
X19.246 Y-177.062
X19.644 Y-176.376
X19.796 Y-176.17
X20.138 Y-175.724
X20.313 Y-175.51
X20.561 Y-175.215
X20.707 Y-175.041 Z-4.106
X21.069 Y-174.609 Z-4.219
X21.205 Y-174.453 Z-4.26
X21.428 Y-174.201
X53.759 Y-141.87
X54.417 Y-141.142
X55.021 Y-140.368
X55.547 Y-139.54
X56.012 Y-138.675
X56.428 Y-137.786
X56.807 Y-136.881
X57.155 Y-135.963
X57.478 Y-135.036
X57.779 Y-134.102
X58.06 Y-133.161
X58.323 Y-132.216
X58.569 Y-131.266
X58.799 Y-130.311
X59.011 Y-129.353
X59.208 Y-128.391
X59.389 Y-127.427
X59.554 Y-126.459
X59.703 Y-125.489
X59.837 Y-124.517
X59.956 Y-123.542
X60.06 Y-122.567
X60.151 Y-121.589
X60.229 Y-120.611
X60.296 Y-119.632
X60.352 Y-118.652
X60.398 Y-117.671
X60.436 Y-116.69
X60.466 Y-115.709
X60.491 Y-114.728
X60.51 Y-113.747
X60.525 Y-112.765
X60.536 Y-111.784
X60.545 Y-110.803
X60.552 Y-109.821
X60.557 Y-108.84
X60.56 Y-107.858
X60.562 Y-106.877
X60.561 Y-105.895
X60.557 Y-104.914
X60.55 Y-103.932
X60.537 Y-102.951
X60.518 Y-101.969
X60.492 Y-100.988
X60.457 Y-100.007
X60.412 Y-99.027
X60.357 Y-98.047
X60.29 Y-97.068
X60.21 Y-96.089
X60.118 Y-95.112
X60.011 Y-94.136
X59.891 Y-93.162
X59.757 Y-92.19
X59.608 Y-91.22
X59.444 Y-90.252
X59.265 Y-89.287
X59.071 Y-88.325
X58.861 Y-87.366
X58.637 Y-86.41
X58.397 Y-85.459
X58.141 Y-84.511
X57.87 Y-83.568
X57.583 Y-82.629
X57.281 Y-81.695
X56.964 Y-80.766
X56.631 Y-79.843
X56.284 Y-78.925
X55.922 Y-78.013
X55.773 Y-77.655
X55.736 Y-77.581
X55.69 Y-77.512
X55.636 Y-77.45
X21.428 Y-43.242
X21.205 Y-42.989
X21.069 Y-42.833
X20.421 Y-42.061
G3 X19.703 Y-41.9 I-0.472 J-0.425
G1 X19.611 Y-41.939 Z-4.252
X19.522 Y-41.977 Z-4.229
X19.437 Y-42.012 Z-4.191
X19.359 Y-42.045 Z-4.139
X19.289 Y-42.075 Z-4.074
X19.229 Y-42.1 Z-3.998
X19.181 Y-42.12 Z-3.913
X19.146 Y-42.135 Z-3.821
X19.125 Y-42.144 Z-3.724
X19.117 Y-42.147 Z-3.625
G0 Z5
X52.454 Y-142.402
Z-2.99
G1 Z-3.625 F200
X52.461 Y-142.4 Z-3.724
X52.484 Y-142.395 Z-3.821
X52.521 Y-142.385 Z-3.913
X52.571 Y-142.372 Z-3.998
X52.634 Y-142.357 Z-4.074
X52.707 Y-142.338 Z-4.139
X52.79 Y-142.317 Z-4.191
X52.879 Y-142.294 Z-4.229
X52.973 Y-142.27 Z-4.252
X53.069 Y-142.246 Z-4.26
G3 X53.759 Y-141.87 I-0.39 J1.534
G1 X61.34 Y-134.289
X61.998 Y-133.561
X62.571 Y-132.764
X63.038 Y-131.9
X63.418 Y-130.995
X63.732 Y-130.066
X63.995 Y-129.12
X64.219 Y-128.164
X64.412 Y-127.202
X64.58 Y-126.235
X64.727 Y-125.264
X64.856 Y-124.291
X64.969 Y-123.317
X65.068 Y-122.34
X65.154 Y-121.362
X65.229 Y-120.384
X65.292 Y-119.404
X65.346 Y-118.424
X65.39 Y-117.444
X65.428 Y-116.463
X65.458 Y-115.482
X65.483 Y-114.5
X65.503 Y-113.519
X65.518 Y-112.538
X65.531 Y-111.556
X65.54 Y-110.575
X65.548 Y-109.593
X65.553 Y-108.612
X65.556 Y-107.63
X65.557 Y-106.649
X65.554 Y-105.667
X65.549 Y-104.686
X65.538 Y-103.704
X65.523 Y-102.723
X65.5 Y-101.742
X65.471 Y-100.761
X65.433 Y-99.78
X65.387 Y-98.799
X65.33 Y-97.82
X65.262 Y-96.84
X65.183 Y-95.862
X65.092 Y-94.885
X64.989 Y-93.909
X64.873 Y-92.934
X64.744 Y-91.961
X64.602 Y-90.99
X64.446 Y-90.021
X64.276 Y-89.054
X64.092 Y-88.09
X63.895 Y-87.129
X63.683 Y-86.17
X63.516 Y-85.464
X63.478 Y-85.353
X63.421 Y-85.251
X63.347 Y-85.161
X55.636 Y-77.45
G3 X54.906 Y-77.353 I-0.433 J-0.464
G1 X54.818 Y-77.399 Z-4.252
X54.732 Y-77.445 Z-4.229
X54.651 Y-77.488 Z-4.191
X54.576 Y-77.527 Z-4.139
X54.509 Y-77.563 Z-4.074
X54.452 Y-77.593 Z-3.998
X54.405 Y-77.617 Z-3.913
X54.372 Y-77.635 Z-3.821
X54.351 Y-77.646 Z-3.724
X54.344 Y-77.65 Z-3.625
G0 Z5
X60.035 Y-134.821
Z-2.99
G1 Z-3.625 F200
X60.042 Y-134.819 Z-3.724
X60.065 Y-134.814 Z-3.821
X60.102 Y-134.804 Z-3.913
X60.152 Y-134.791 Z-3.998
X60.215 Y-134.776 Z-4.074
X60.288 Y-134.757 Z-4.139
X60.371 Y-134.736 Z-4.191
X60.46 Y-134.713 Z-4.229
X60.554 Y-134.689 Z-4.252
X60.65 Y-134.665 Z-4.26
G3 X61.34 Y-134.289 I-0.39 J1.534
G1 X67.583 Y-128.045
X68.241 Y-127.318
X68.761 Y-126.485
X69.162 Y-125.589
X69.468 Y-124.656
X69.701 Y-123.703
X69.88 Y-122.738
X70.019 Y-121.766
X70.128 Y-120.791
X70.215 Y-119.813
X70.286 Y-118.834
X70.343 Y-117.854
X70.389 Y-116.874
X70.426 Y-115.893
X70.457 Y-114.912
X70.481 Y-113.931
X70.501 Y-112.95
X70.516 Y-111.968
X70.529 Y-110.987
X70.538 Y-110.005
X70.545 Y-109.024
X70.549 Y-108.042
X70.551 Y-107.061
X70.549 Y-106.079
X70.544 Y-105.098
X70.534 Y-104.116
X70.52 Y-103.135
X70.499 Y-102.154
X70.472 Y-101.172
X70.438 Y-100.191
X70.395 Y-99.211
X70.343 Y-98.231
X70.282 Y-97.251
X70.21 Y-96.272
X70.128 Y-95.294
X70.034 Y-94.317
X69.93 Y-93.341
X69.813 Y-92.367
X69.729 Y-91.728
X69.696 Y-91.594
X69.635 Y-91.47
X69.548 Y-91.362
X63.347 Y-85.161
G3 X62.617 Y-85.064 I-0.433 J-0.464
G1 X62.529 Y-85.11 Z-4.252
X62.443 Y-85.156 Z-4.229
X62.362 Y-85.199 Z-4.191
X62.287 Y-85.238 Z-4.139
X62.22 Y-85.274 Z-4.074
X62.163 Y-85.304 Z-3.998
X62.117 Y-85.328 Z-3.913
X62.083 Y-85.346 Z-3.821
X62.062 Y-85.357 Z-3.724
X62.055 Y-85.361 Z-3.625
G0 Z5
X66.278 Y-128.578
Z-2.99
G1 Z-3.625 F200
X66.286 Y-128.576 Z-3.724
X66.308 Y-128.571 Z-3.821
X66.345 Y-128.561 Z-3.913
X66.396 Y-128.548 Z-3.998
X66.458 Y-128.532 Z-4.074
X66.532 Y-128.514 Z-4.139
X66.614 Y-128.493 Z-4.191
X66.703 Y-128.47 Z-4.229
X66.797 Y-128.446 Z-4.252
X66.893 Y-128.422 Z-4.26
G3 X67.583 Y-128.045 I-0.39 J1.534
G1 X72.934 Y-122.694
X73.593 Y-121.966
X74.125 Y-121.142
X74.524 Y-120.245
X74.815 Y-119.307
X75.024 Y-118.348
X75.173 Y-117.378
X75.279 Y-116.403
X75.356 Y-115.424
X75.411 Y-114.444
X75.451 Y-113.463
X75.481 Y-112.482
X75.503 Y-111.501
X75.519 Y-110.52
X75.53 Y-109.538
X75.538 Y-108.557
X75.542 Y-107.575
Y-106.594
X75.539 Y-105.612
X75.531 Y-104.631
X75.518 Y-103.649
X75.5 Y-102.668
X75.476 Y-101.687
X75.446 Y-100.706
X75.407 Y-99.725
X75.361 Y-98.744
X75.305 Y-97.765
X75.276 Y-97.313
X75.248 Y-97.163
X75.185 Y-97.025
X75.091 Y-96.905
X69.548 Y-91.362
G3 X68.818 Y-91.265 I-0.433 J-0.464
G1 X68.73 Y-91.312 Z-4.252
X68.645 Y-91.357 Z-4.229
X68.563 Y-91.4 Z-4.191
X68.488 Y-91.44 Z-4.139
X68.421 Y-91.475 Z-4.074
X68.364 Y-91.506 Z-3.998
X68.318 Y-91.53 Z-3.913
X68.284 Y-91.548 Z-3.821
X68.264 Y-91.559 Z-3.724
X68.257 Y-91.562 Z-3.625
G0 Z5
X71.629 Y-123.227
Z-2.99
G1 Z-3.625 F200
X71.637 Y-123.225 Z-3.724
X71.659 Y-123.219 Z-3.821
X71.696 Y-123.21 Z-3.913
X71.747 Y-123.197 Z-3.998
X71.81 Y-123.181 Z-4.074
X71.883 Y-123.162 Z-4.139
X71.965 Y-123.142 Z-4.191
X72.055 Y-123.119 Z-4.229
X72.148 Y-123.095 Z-4.252
X72.245 Y-123.07 Z-4.26
G3 X72.934 Y-122.694 I-0.39 J1.534
G1 X78.062 Y-117.566
X78.721 Y-116.838
X79.259 Y-116.017
X79.657 Y-115.12
X79.942 Y-114.181
X80.141 Y-113.22
X80.278 Y-112.248
X80.37 Y-111.271
X80.432 Y-110.291
X80.473 Y-109.31
X80.499 Y-108.329
X80.514 Y-107.348
X80.521 Y-106.366
Y-105.385
X80.514 Y-104.403
X80.501 Y-103.422
X80.485 Y-102.565
X80.464 Y-102.413
X80.407 Y-102.271
X80.318 Y-102.147
X80.106 Y-101.92
X75.091 Y-96.905
G3 X74.194 Y-96.936 Z-4.06 I-0.433 J-0.464
X74.03 Y-97.464 I0.464 J-0.433
G1 X77.001 Y-117.196
G3 X77.165 Y-117.535 I0.628 J0.095
X78.062 Y-117.566 Z-4.26 I0.464 J0.433
G1 X80.107 Y-115.522
X80.315 Y-115.299
X80.519 Y-115.076
X80.738 Y-114.821
X81.459 Y-113.961
X81.599 Y-113.738
X82.114 Y-112.846
X82.225 Y-112.623
X82.33 Y-112.4
X82.421 Y-112.177
X82.745 Y-111.285
X82.823 Y-111.062
X82.865 Y-110.839
X83.022 Y-109.947
X83.045 Y-109.724
X83.085 Y-109.278
X83.099 Y-109.055
Y-108.387
X83.085 Y-108.164
X83.045 Y-107.718
X83.022 Y-107.495
X82.865 Y-106.603
X82.823 Y-106.38
X82.745 Y-106.155
X82.421 Y-105.265
X82.33 Y-105.042
X82.225 Y-104.819
X82.114 Y-104.596
X81.599 Y-103.704
X81.459 Y-103.481
X80.711 Y-102.589
X80.515 Y-102.362
X80.318 Y-102.147
G3 X79.593 Y-102.019 I-0.453 J-0.445
G1 X79.503 Y-102.062 Z-4.252
X79.416 Y-102.103 Z-4.229
X79.332 Y-102.143 Z-4.191
X79.256 Y-102.179 Z-4.139
X79.187 Y-102.212 Z-4.074
X79.129 Y-102.24 Z-3.998
X79.082 Y-102.262 Z-3.913
X79.047 Y-102.278 Z-3.821
X79.026 Y-102.288 Z-3.724
X79.019 Y-102.292 Z-3.625
G0 Z5
X42.374 Y-19.937
Z-2.99
G1 Z-3.625 F200
X42.376 Y-19.944 Z-3.724
X42.383 Y-19.966 Z-3.821
X42.395 Y-20.002 Z-3.913
X42.411 Y-20.052 Z-3.998
X42.431 Y-20.114 Z-4.074
X42.454 Y-20.186 Z-4.139
X42.481 Y-20.266 Z-4.191
X42.509 Y-20.354 Z-4.229
X42.539 Y-20.446 Z-4.252
X42.569 Y-20.541 Z-4.26
G3 X42.989 Y-21.205 I1.506 J0.487
G1 X43.242 Y-21.428
X74.904 Y-53.09
X75.632 Y-53.748
X76.414 Y-54.341
X77.248 Y-54.858
X78.116 Y-55.316
X79.008 Y-55.727
X79.915 Y-56.101
X80.834 Y-56.446
X81.762 Y-56.766
X82.697 Y-57.064
X83.638 Y-57.343
X84.584 Y-57.605
X85.535 Y-57.849
X86.489 Y-58.077
X87.448 Y-58.288
X88.41 Y-58.483
X89.375 Y-58.662
X90.343 Y-58.825
X91.313 Y-58.973
X92.286 Y-59.105
X93.26 Y-59.222
X94.236 Y-59.325
X95.214 Y-59.415
X96.192 Y-59.492
X97.172 Y-59.557
X98.152 Y-59.612
X99.132 Y-59.657
X100.113 Y-59.694
X101.094 Y-59.724
X102.075 Y-59.748
X103.056 Y-59.767
X104.038 Y-59.782
X105.019 Y-59.793
X106.001 Y-59.802
X106.982 Y-59.808
X107.964 Y-59.813
X108.945 Y-59.815
X109.927
X110.908 Y-59.812
X111.89 Y-59.804
X112.871 Y-59.792
X113.853 Y-59.773
X114.834 Y-59.747
X115.815 Y-59.711
X116.795 Y-59.666
X117.775 Y-59.61
X118.754 Y-59.542
X119.732 Y-59.461
X120.709 Y-59.367
X121.685 Y-59.259
X122.659 Y-59.138
X123.631 Y-59.002
X124.601 Y-58.852
X125.568 Y-58.687
X126.533 Y-58.507
X127.495 Y-58.312
X128.454 Y-58.101
X129.409 Y-57.875
X130.36 Y-57.633
X131.307 Y-57.376
X132.25 Y-57.103
X133.188 Y-56.814
X134.122 Y-56.511
X135.05 Y-56.192
X135.973 Y-55.858
X136.891 Y-55.51
X137.803 Y-55.146
X138.708 Y-54.768
X139.607 Y-54.375
X140.5 Y-53.967
X141.386 Y-53.544
X142.264 Y-53.106
X142.713 Y-52.873
X142.769 Y-52.841
X142.821 Y-52.802
X142.869 Y-52.759
X174.201 Y-21.428
X174.453 Y-21.205
X174.609 Y-21.069
X175.51 Y-20.313
X175.724 Y-20.138
X175.788 Y-20.09
G3 X175.979 Y-19.379 I-0.404 J0.49
G1 X175.945 Y-19.286 Z-4.252
X175.911 Y-19.195 Z-4.229
X175.879 Y-19.108 Z-4.191
X175.849 Y-19.029 Z-4.139
X175.823 Y-18.958 Z-4.074
X175.8 Y-18.897 Z-3.998
X175.782 Y-18.848 Z-3.913
X175.769 Y-18.812 Z-3.821
X175.761 Y-18.791 Z-3.724
X175.758 Y-18.783 Z-3.625
G0 Z5
X74.371 Y-51.785
Z-2.99
G1 Z-3.625 F200
X74.373 Y-51.792 Z-3.724
X74.379 Y-51.815 Z-3.821
X74.388 Y-51.852 Z-3.913
X74.401 Y-51.902 Z-3.998
X74.417 Y-51.965 Z-4.074
X74.436 Y-52.039 Z-4.139
X74.457 Y-52.121 Z-4.191
X74.479 Y-52.21 Z-4.229
X74.503 Y-52.304 Z-4.252
X74.528 Y-52.4 Z-4.26
G3 X74.904 Y-53.09 I1.534 J0.39
G1 X82.485 Y-60.671
X83.213 Y-61.329
X84.02 Y-61.887
X84.89 Y-62.341
X85.799 Y-62.712
X86.731 Y-63.019
X87.679 Y-63.276
X88.635 Y-63.496
X89.598 Y-63.686
X90.566 Y-63.851
X91.536 Y-63.996
X92.51 Y-64.123
X93.485 Y-64.235
X94.461 Y-64.333
X95.439 Y-64.418
X96.418 Y-64.491
X97.398 Y-64.553
X98.378 Y-64.606
X99.358 Y-64.65
X100.339 Y-64.686
X101.32 Y-64.716
X102.301 Y-64.741
X103.283 Y-64.76
X104.264 Y-64.776
X105.246 Y-64.788
X106.227 Y-64.797
X107.208 Y-64.804
X108.19 Y-64.808
X109.172 Y-64.81
X110.153 Y-64.808
X111.135 Y-64.803
X112.116 Y-64.793
X113.097 Y-64.777
X114.079 Y-64.755
X115.06 Y-64.725
X116.041 Y-64.687
X117.021 Y-64.64
X118.001 Y-64.582
X118.98 Y-64.514
X119.958 Y-64.434
X120.935 Y-64.342
X121.911 Y-64.237
X122.886 Y-64.12
X123.859 Y-63.99
X124.83 Y-63.847
X125.799 Y-63.69
X126.765 Y-63.519
X127.729 Y-63.335
X128.69 Y-63.135
X129.648 Y-62.922
X130.603 Y-62.695
X131.554 Y-62.453
X132.502 Y-62.197
X133.445 Y-61.927
X133.66 Y-61.862
X133.757 Y-61.824
X133.846 Y-61.77
X133.925 Y-61.703
X142.869 Y-52.759
G3 X142.966 Y-52.029 I-0.464 J0.433
G1 X142.92 Y-51.941 Z-4.252
X142.874 Y-51.855 Z-4.229
X142.831 Y-51.774 Z-4.191
X142.792 Y-51.699 Z-4.139
X142.756 Y-51.632 Z-4.074
X142.726 Y-51.575 Z-3.998
X142.702 Y-51.529 Z-3.913
X142.684 Y-51.495 Z-3.821
X142.673 Y-51.474 Z-3.724
X142.669 Y-51.468 Z-3.625
G0 Z5
X81.952 Y-59.366
Z-2.99
G1 Z-3.625 F200
X81.954 Y-59.373 Z-3.724
X81.96 Y-59.396 Z-3.821
X81.969 Y-59.433 Z-3.913
X81.982 Y-59.483 Z-3.998
X81.998 Y-59.546 Z-4.074
X82.017 Y-59.62 Z-4.139
X82.038 Y-59.702 Z-4.191
X82.06 Y-59.791 Z-4.229
X82.084 Y-59.885 Z-4.252
X82.109 Y-59.981 Z-4.26
G3 X82.485 Y-60.671 I1.534 J0.39
G1 X88.505 Y-66.691
X89.233 Y-67.349
X90.044 Y-67.903
X90.927 Y-68.331
X91.852 Y-68.658
X92.801 Y-68.907
X93.764 Y-69.098
X94.735 Y-69.245
X95.709 Y-69.361
X96.687 Y-69.453
X97.665 Y-69.527
X98.645 Y-69.587
X99.625 Y-69.635
X100.606 Y-69.675
X101.587 Y-69.707
X102.568 Y-69.732
X103.549 Y-69.753
X104.531 Y-69.769
X105.512 Y-69.782
X106.494 Y-69.792
X107.475 Y-69.798
X108.457 Y-69.802
X109.438
X110.42 Y-69.799
X111.401 Y-69.792
X112.383 Y-69.779
X113.364 Y-69.76
X114.345 Y-69.735
X115.326 Y-69.703
X116.307 Y-69.662
X117.287 Y-69.613
X118.267 Y-69.554
X119.246 Y-69.484
X120.224 Y-69.405
X121.202 Y-69.314
X122.178 Y-69.212
X123.153 Y-69.098
X124.126 Y-68.973
X125.098 Y-68.835
X126.068 Y-68.684
X126.921 Y-68.54
X127.047 Y-68.506
X127.163 Y-68.446
X127.265 Y-68.363
X133.925 Y-61.703
G3 X134.022 Y-60.973 I-0.464 J0.433
G1 X133.976 Y-60.885 Z-4.252
X133.93 Y-60.8 Z-4.229
X133.887 Y-60.718 Z-4.191
X133.848 Y-60.643 Z-4.139
X133.812 Y-60.576 Z-4.074
X133.782 Y-60.519 Z-3.998
X133.758 Y-60.473 Z-3.913
X133.74 Y-60.439 Z-3.821
X133.729 Y-60.419 Z-3.724
X133.725 Y-60.412 Z-3.625
G0 Z5
X87.972 Y-65.386
Z-2.99
G1 Z-3.625 F200
X87.974 Y-65.394 Z-3.724
X87.98 Y-65.416 Z-3.821
X87.989 Y-65.453 Z-3.913
X88.002 Y-65.504 Z-3.998
X88.018 Y-65.566 Z-4.074
X88.037 Y-65.64 Z-4.139
X88.058 Y-65.722 Z-4.191
X88.08 Y-65.811 Z-4.229
X88.104 Y-65.905 Z-4.252
X88.129 Y-66.002 Z-4.26
G3 X88.505 Y-66.691 I1.534 J0.39
G1 X94.079 Y-72.265
X94.807 Y-72.924
X95.644 Y-73.437
X96.547 Y-73.82
X97.488 Y-74.1
X98.449 Y-74.3
X99.42 Y-74.443
X100.396 Y-74.546
X101.375 Y-74.619
X102.355 Y-74.672
X103.336 Y-74.711
X104.317 Y-74.739
X105.298 Y-74.76
X106.28 Y-74.775
X107.261 Y-74.785
X108.243 Y-74.791
X109.224 Y-74.793
X110.206 Y-74.791
X111.187 Y-74.783
X112.169 Y-74.771
X113.15 Y-74.753
X114.131 Y-74.729
X115.112 Y-74.698
X116.093 Y-74.66
X117.073 Y-74.613
X118.053 Y-74.557
X119.033 Y-74.493
X120.011 Y-74.418
X120.989 Y-74.334
X121.101 Y-74.323
X121.243 Y-74.293
X121.374 Y-74.23
X121.488 Y-74.14
X127.265 Y-68.363
G3 X127.362 Y-67.633 I-0.464 J0.433
G1 X127.315 Y-67.546 Z-4.252
X127.27 Y-67.46 Z-4.229
X127.227 Y-67.379 Z-4.191
X127.187 Y-67.303 Z-4.139
X127.152 Y-67.236 Z-4.074
X127.122 Y-67.179 Z-3.998
X127.097 Y-67.133 Z-3.913
X127.08 Y-67.1 Z-3.821
X127.069 Y-67.079 Z-3.724
X127.065 Y-67.072 Z-3.625
G0 Z5
X93.547 Y-70.96
Z-2.99
G1 Z-3.625 F200
X93.549 Y-70.968 Z-3.724
X93.554 Y-70.991 Z-3.821
X93.564 Y-71.027 Z-3.913
X93.576 Y-71.078 Z-3.998
X93.592 Y-71.141 Z-4.074
X93.611 Y-71.214 Z-4.139
X93.632 Y-71.296 Z-4.191
X93.655 Y-71.386 Z-4.229
X93.679 Y-71.48 Z-4.252
X93.703 Y-71.576 Z-4.26
G3 X94.079 Y-72.265 I1.534 J0.39
G1 X99.208 Y-77.394
X99.936 Y-78.052
X100.768 Y-78.572
X101.672 Y-78.954
X102.615 Y-79.227
X103.578 Y-79.417
X104.551 Y-79.547
X105.529 Y-79.634
X106.508 Y-79.692
X107.489 Y-79.73
X108.47 Y-79.753
X109.452 Y-79.765
X110.433 Y-79.768
X111.415 Y-79.763
X112.396 Y-79.752
X113.378 Y-79.734
X114.359 Y-79.709
X115.34 Y-79.677
X115.729 Y-79.661
X115.884 Y-79.635
X116.028 Y-79.572
X116.153 Y-79.476
X121.488 Y-74.14
G3 X121.457 Y-73.243 Z-4.06 I-0.464 J0.433
X120.928 Y-73.079 I-0.433 J-0.464
G1 X99.576 Y-76.333
G3 X99.239 Y-76.496 I0.096 J-0.628
X99.208 Y-77.394 Z-4.26 I0.433 J-0.464
G1 X101.92 Y-80.106
X102.143 Y-80.314
X102.366 Y-80.519
X102.622 Y-80.738
X103.481 Y-81.459
X103.704 Y-81.599
X104.596 Y-82.114
X104.819 Y-82.225
X105.042 Y-82.33
X105.265 Y-82.421
X106.157 Y-82.745
X106.38 Y-82.823
X106.603 Y-82.865
X107.495 Y-83.022
X107.718 Y-83.045
X108.164 Y-83.085
X108.387 Y-83.099
X109.055
X109.278 Y-83.085
X109.724 Y-83.045
X109.947 Y-83.022
X110.839 Y-82.865
X111.062 Y-82.823
X111.287 Y-82.745
X112.177 Y-82.421
X112.4 Y-82.33
X112.623 Y-82.225
X112.846 Y-82.114
X113.738 Y-81.599
X113.961 Y-81.459
X114.853 Y-80.711
X115.08 Y-80.515
X115.323 Y-80.292
X115.522 Y-80.107
X116.153 Y-79.476
G3 X116.25 Y-78.746 I-0.464 J0.433
G1 X116.203 Y-78.658 Z-4.252
X116.158 Y-78.572 Z-4.229
X116.115 Y-78.491 Z-4.191
X116.075 Y-78.416 Z-4.139
X116.04 Y-78.349 Z-4.074
X116.009 Y-78.292 Z-3.998
X115.985 Y-78.246 Z-3.913
X115.967 Y-78.212 Z-3.821
X115.956 Y-78.191 Z-3.724
X115.953 Y-78.184 Z-3.625
G0 Z5
X197.505 Y-42.374
Z-2.99
G1 Z-3.625 F200
X197.498 Y-42.376 Z-3.724
X197.476 Y-42.384 Z-3.821
X197.44 Y-42.395 Z-3.913
X197.39 Y-42.411 Z-3.998
X197.329 Y-42.431 Z-4.074
X197.256 Y-42.455 Z-4.139
X197.176 Y-42.481 Z-4.191
X197.088 Y-42.509 Z-4.229
X196.996 Y-42.539 Z-4.252
X196.901 Y-42.569 Z-4.26
G3 X196.237 Y-42.989 I0.487 J-1.506
G1 X196.014 Y-43.242
X163.683 Y-75.573
X163.025 Y-76.301
X162.429 Y-77.081
X161.909 Y-77.913
X161.449 Y-78.78
X161.036 Y-79.67
X160.659 Y-80.577
X160.313 Y-81.495
X159.992 Y-82.423
X159.693 Y-83.358
X159.413 Y-84.299
X159.152 Y-85.245
X158.908 Y-86.195
X158.68 Y-87.15
X158.469 Y-88.108
X158.273 Y-89.07
X158.093 Y-90.035
X157.929 Y-91.003
X157.78 Y-91.973
X157.647 Y-92.946
X157.529 Y-93.92
X157.426 Y-94.896
X157.335 Y-95.873
X157.258 Y-96.852
X157.192 Y-97.831
X157.137 Y-98.811
X157.092 Y-99.792
X157.054 Y-100.772
X157.024 Y-101.753
X157 Y-102.735
X156.981 Y-103.716
X156.966 Y-104.697
X156.955 Y-105.679
X156.946 Y-106.66
X156.94 Y-107.642
X156.935 Y-108.623
X156.932 Y-109.605
X156.93 Y-110.586
X156.931 Y-111.568
X156.935 Y-112.549
X156.943 Y-113.531
X156.956 Y-114.512
X156.975 Y-115.494
X157.001 Y-116.475
X157.035 Y-117.456
X157.079 Y-118.436
X157.133 Y-119.416
X157.2 Y-120.395
X157.279 Y-121.374
X157.371 Y-122.351
X157.477 Y-123.327
X157.597 Y-124.301
X157.731 Y-125.273
X157.88 Y-126.243
X158.044 Y-127.211
X158.222 Y-128.176
X158.416 Y-129.138
X158.625 Y-130.098
X158.848 Y-131.053
X159.087 Y-132.005
X159.342 Y-132.953
X159.613 Y-133.896
X159.899 Y-134.835
X160.201 Y-135.769
X160.518 Y-136.698
X160.85 Y-137.622
X161.197 Y-138.54
X161.559 Y-139.452
X161.719 Y-139.837
X161.756 Y-139.911
X161.802 Y-139.98
X161.856 Y-140.042
X196.014 Y-174.201
X196.237 Y-174.453
X196.373 Y-174.609
X197.024 Y-175.384
G3 X197.742 Y-175.544 I0.472 J0.425
G1 X197.834 Y-175.506 Z-4.252
X197.923 Y-175.468 Z-4.229
X198.008 Y-175.432 Z-4.191
X198.086 Y-175.399 Z-4.139
X198.156 Y-175.37 Z-4.074
X198.216 Y-175.344 Z-3.998
X198.263 Y-175.324 Z-3.913
X198.299 Y-175.309 Z-3.821
X198.32 Y-175.3 Z-3.724
X198.327 Y-175.297 Z-3.625
G0 Z5
X164.988 Y-75.04
Z-2.99
G1 Z-3.625 F200
X164.981 Y-75.042 Z-3.724
X164.958 Y-75.048 Z-3.821
X164.921 Y-75.057 Z-3.913
X164.871 Y-75.07 Z-3.998
X164.808 Y-75.086 Z-4.074
X164.735 Y-75.105 Z-4.139
X164.652 Y-75.126 Z-4.191
X164.563 Y-75.148 Z-4.229
X164.469 Y-75.172 Z-4.252
X164.373 Y-75.197 Z-4.26
G3 X163.683 Y-75.573 I0.39 J-1.534
G1 X156.102 Y-83.154
X155.444 Y-83.882
X154.881 Y-84.686
X154.423 Y-85.554
X154.05 Y-86.462
X153.74 Y-87.394
X153.481 Y-88.34
X153.26 Y-89.296
X153.069 Y-90.259
X152.903 Y-91.226
X152.757 Y-92.197
X152.628 Y-93.17
X152.516 Y-94.145
X152.418 Y-95.122
X152.332 Y-96.1
X152.259 Y-97.078
X152.196 Y-98.058
X152.143 Y-99.038
X152.099 Y-100.019
X152.062 Y-100.999
X152.032 Y-101.98
X152.008 Y-102.962
X151.988 Y-103.943
X151.973 Y-104.924
X151.961 Y-105.906
X151.951 Y-106.887
X151.944 Y-107.869
X151.939 Y-108.85
X151.936 Y-109.832
X151.935 Y-110.813
X151.938 Y-111.795
X151.944 Y-112.776
X151.954 Y-113.758
X151.97 Y-114.739
X151.992 Y-115.72
X152.021 Y-116.701
X152.058 Y-117.682
X152.104 Y-118.663
X152.161 Y-119.643
X152.228 Y-120.622
X152.306 Y-121.6
X152.397 Y-122.577
X152.5 Y-123.554
X152.615 Y-124.528
X152.744 Y-125.501
X152.886 Y-126.473
X153.041 Y-127.442
X153.211 Y-128.408
X153.394 Y-129.373
X153.591 Y-130.334
X153.802 Y-131.293
X153.976 Y-132.027
X154.013 Y-132.138
X154.07 Y-132.24
X154.145 Y-132.33
X161.856 Y-140.042
G3 X162.586 Y-140.139 I0.433 J0.464
G1 X162.674 Y-140.093 Z-4.252
X162.76 Y-140.047 Z-4.229
X162.841 Y-140.004 Z-4.191
X162.916 Y-139.965 Z-4.139
X162.983 Y-139.929 Z-4.074
X163.04 Y-139.899 Z-3.998
X163.086 Y-139.875 Z-3.913
X163.12 Y-139.857 Z-3.821
X163.141 Y-139.846 Z-3.724
X163.147 Y-139.842 Z-3.625
G0 Z5
X157.407 Y-82.621
Z-2.99
G1 Z-3.625 F200
X157.4 Y-82.623 Z-3.724
X157.377 Y-82.629 Z-3.821
X157.34 Y-82.638 Z-3.913
X157.29 Y-82.651 Z-3.998
X157.227 Y-82.667 Z-4.074
X157.154 Y-82.686 Z-4.139
X157.071 Y-82.707 Z-4.191
X156.982 Y-82.729 Z-4.229
X156.888 Y-82.753 Z-4.252
X156.792 Y-82.778 Z-4.26
G3 X156.102 Y-83.154 I0.39 J-1.534
G1 X150.082 Y-89.174
X149.424 Y-89.902
X148.864 Y-90.709
X148.431 Y-91.59
X148.1 Y-92.514
X147.849 Y-93.462
X147.656 Y-94.425
X147.507 Y-95.395
X147.39 Y-96.369
X147.297 Y-97.347
X147.223 Y-98.325
X147.163 Y-99.305
X147.114 Y-100.285
X147.074 Y-101.266
X147.042 Y-102.247
X147.016 Y-103.228
X146.995 Y-104.209
X146.979 Y-105.191
X146.966 Y-106.172
X146.956 Y-107.154
X146.948 Y-108.135
X146.943 Y-109.117
X146.941 Y-110.098
X146.942 Y-111.08
X146.946 Y-112.061
X146.954 Y-113.043
X146.967 Y-114.024
X146.986 Y-115.005
X147.011 Y-115.987
X147.043 Y-116.968
X147.083 Y-117.948
X147.131 Y-118.929
X147.189 Y-119.908
X147.257 Y-120.888
X147.335 Y-121.866
X147.425 Y-122.843
X147.525 Y-123.82
X147.638 Y-124.795
X147.761 Y-125.759
X147.794 Y-125.894
X147.855 Y-126.019
X147.942 Y-126.128
X154.145 Y-132.33
G3 X154.875 Y-132.427 I0.433 J0.464
G1 X154.962 Y-132.381 Z-4.252
X155.048 Y-132.336 Z-4.229
X155.129 Y-132.293 Z-4.191
X155.205 Y-132.253 Z-4.139
X155.272 Y-132.218 Z-4.074
X155.329 Y-132.187 Z-3.998
X155.375 Y-132.163 Z-3.913
X155.408 Y-132.145 Z-3.821
X155.429 Y-132.134 Z-3.724
X155.436 Y-132.131 Z-3.625
G0 Z5
X151.387 Y-88.642
Z-2.99
G1 Z-3.625 F200
X151.379 Y-88.644 Z-3.724
X151.357 Y-88.649 Z-3.821
X151.32 Y-88.659 Z-3.913
X151.269 Y-88.671 Z-3.998
X151.207 Y-88.687 Z-4.074
X151.133 Y-88.706 Z-4.139
X151.051 Y-88.727 Z-4.191
X150.962 Y-88.75 Z-4.229
X150.868 Y-88.774 Z-4.252
X150.772 Y-88.798 Z-4.26
G3 X150.082 Y-89.174 I0.39 J-1.534
G1 X144.508 Y-94.749
X143.849 Y-95.477
X143.33 Y-96.309
X142.941 Y-97.211
X142.658 Y-98.15
X142.454 Y-99.111
X142.309 Y-100.081
X142.206 Y-101.057
X142.131 Y-102.036
X142.078 Y-103.016
X142.038 Y-103.997
X142.009 Y-104.978
X141.988 Y-105.959
X141.972 Y-106.941
X141.961 Y-107.922
X141.954 Y-108.903
X141.95 Y-109.885
Y-110.867
X141.954 Y-111.848
X141.962 Y-112.83
X141.974 Y-113.811
X141.992 Y-114.792
X142.016 Y-115.774
X142.047 Y-116.755
X142.085 Y-117.735
X142.131 Y-118.716
X142.185 Y-119.696
X142.217 Y-120.179
X142.245 Y-120.329
X142.308 Y-120.468
X142.402 Y-120.587
X147.942 Y-126.128
G3 X148.672 Y-126.225 I0.433 J0.464
G1 X148.76 Y-126.178 Z-4.252
X148.845 Y-126.133 Z-4.229
X148.927 Y-126.09 Z-4.191
X149.002 Y-126.05 Z-4.139
X149.069 Y-126.015 Z-4.074
X149.126 Y-125.985 Z-3.998
X149.172 Y-125.96 Z-3.913
X149.206 Y-125.942 Z-3.821
X149.226 Y-125.932 Z-3.724
X149.233 Y-125.928 Z-3.625
G0 Z5
X145.813 Y-94.216
Z-2.99
G1 Z-3.625 F200
X145.805 Y-94.218 Z-3.724
X145.783 Y-94.224 Z-3.821
X145.746 Y-94.233 Z-3.913
X145.695 Y-94.246 Z-3.998
X145.632 Y-94.262 Z-4.074
X145.559 Y-94.28 Z-4.139
X145.477 Y-94.301 Z-4.191
X145.387 Y-94.324 Z-4.229
X145.294 Y-94.348 Z-4.252
X145.197 Y-94.372 Z-4.26
G3 X144.508 Y-94.749 I0.39 J-1.534
G1 X139.38 Y-99.877
X138.721 Y-100.605
X138.195 Y-101.434
X137.807 Y-102.335
X137.531 Y-103.277
X137.338 Y-104.239
X137.205 Y-105.212
X137.116 Y-106.189
X137.056 Y-107.169
X137.016 Y-108.15
X136.991 Y-109.131
X136.977 Y-110.112
X136.971 Y-111.094
Y-112.075
X136.978 Y-113.057
X136.991 Y-114.038
X137.008 Y-114.933
X137.03 Y-115.086
X137.088 Y-115.229
X137.179 Y-115.354
X137.336 Y-115.522
X142.402 Y-120.587
G3 X143.299 Y-120.556 Z-4.06 I0.433 J0.464
X143.462 Y-120.027 I-0.464 J0.433
G1 X140.44 Y-100.246
G3 X140.277 Y-99.908 I-0.628 J-0.096
G1 X140.222 Y-99.856 Z-4.075
X140.161 Y-99.811 Z-4.09
X140.096 Y-99.773 Z-4.106
G3 X139.38 Y-99.877 Z-4.26 I-0.283 J-0.568
G1 X137.336 Y-101.92
X137.128 Y-102.143
X136.924 Y-102.366
X136.704 Y-102.622
X135.983 Y-103.481
X135.843 Y-103.704
X135.328 Y-104.596
X135.217 Y-104.819
X135.112 Y-105.042
X135.022 Y-105.265
X134.697 Y-106.157
X134.619 Y-106.38
X134.577 Y-106.603
X134.381 Y-107.718
X134.345 Y-107.941
X134.343 Y-108.164
Y-109.278
X134.345 Y-109.501
X134.381 Y-109.724
X134.577 Y-110.839
X134.619 Y-111.062
X134.697 Y-111.286
X135.022 Y-112.177
X135.112 Y-112.4
X135.217 Y-112.623
X135.328 Y-112.846
X135.843 Y-113.738
X135.983 Y-113.961
X136.731 Y-114.853
X136.927 Y-115.08
X137.179 Y-115.354
G3 X137.906 Y-115.476 I0.448 J0.45
G1 X137.995 Y-115.432 Z-4.252
X138.082 Y-115.39 Z-4.229
X138.165 Y-115.349 Z-4.191
X138.241 Y-115.312 Z-4.139
X138.309 Y-115.279 Z-4.074
X138.367 Y-115.251 Z-3.998
X138.414 Y-115.228 Z-3.913
X138.449 Y-115.211 Z-3.821
X138.469 Y-115.201 Z-3.724
X138.477 Y-115.198 Z-3.625
G0 Z5
X175.068 Y-197.506
Z-2.99
G1 Z-3.625 F200
X175.066 Y-197.498 Z-3.724
X175.058 Y-197.476 Z-3.821
X175.047 Y-197.44 Z-3.913
X175.031 Y-197.39 Z-3.998
X175.011 Y-197.329 Z-4.074
X174.987 Y-197.256 Z-4.139
X174.961 Y-197.176 Z-4.191
X174.933 Y-197.088 Z-4.229
X174.903 Y-196.996 Z-4.252
X174.873 Y-196.901 Z-4.26
G3 X174.453 Y-196.237 I-1.506 J-0.487
G1 X174.201 Y-196.014
X137.187 Y-159.001
X136.459 Y-158.343
X135.68 Y-157.746
X134.848 Y-157.225
X133.981 Y-156.765
X133.09 Y-156.352
X132.183 Y-155.977
X131.265 Y-155.631
X130.337 Y-155.311
X129.402 Y-155.011
X128.462 Y-154.731
X127.516 Y-154.468
X126.566 Y-154.223
X125.611 Y-153.994
X124.653 Y-153.782
X123.691 Y-153.587
X122.726 Y-153.408
X121.758 Y-153.245
X120.788 Y-153.097
X119.815 Y-152.965
X118.841 Y-152.847
X117.865 Y-152.743
X116.887 Y-152.653
X115.909 Y-152.575
X114.93 Y-152.509
X113.95 Y-152.453
X112.969 Y-152.407
X111.988 Y-152.371
X111.007 Y-152.342
X110.026 Y-152.322
X109.044 Y-152.31
X108.063 Y-152.306
X107.081 Y-152.311
X106.1 Y-152.326
X105.119 Y-152.351
X104.138 Y-152.387
X103.158 Y-152.434
X102.178 Y-152.493
X101.199 Y-152.565
X100.221 Y-152.649
X99.245 Y-152.747
X98.269 Y-152.86
X97.296 Y-152.986
X96.325 Y-153.127
X95.356 Y-153.282
X94.389 Y-153.453
X93.425 Y-153.64
X92.465 Y-153.842
X91.508 Y-154.06
X90.555 Y-154.293
X89.605 Y-154.542
X88.66 Y-154.806
X87.719 Y-155.085
X86.782 Y-155.379
X85.851 Y-155.688
X84.924 Y-156.013
X84.004 Y-156.352
X83.088 Y-156.707
X82.3 Y-157.027
X82.224 Y-157.064
X82.154 Y-157.111
X82.09 Y-157.166
X43.242 Y-196.014
X42.989 Y-196.237
X42.833 Y-196.373
X42.065 Y-197.018
G3 X41.905 Y-197.736 I0.425 J-0.472
G1 X41.943 Y-197.828 Z-4.252
X41.981 Y-197.917 Z-4.229
X42.017 Y-198.002 Z-4.191
X42.05 Y-198.08 Z-4.139
X42.079 Y-198.15 Z-4.074
X42.105 Y-198.21 Z-3.998
X42.125 Y-198.257 Z-3.913
X42.14 Y-198.293 Z-3.821
X42.149 Y-198.314 Z-3.724
X42.152 Y-198.321 Z-3.625
G0 Z5
X137.72 Y-160.306
Z-2.99
G1 Z-3.625 F200
X137.718 Y-160.298 Z-3.724
X137.712 Y-160.276 Z-3.821
X137.703 Y-160.239 Z-3.913
X137.69 Y-160.188 Z-3.998
X137.674 Y-160.126 Z-4.074
X137.655 Y-160.052 Z-4.139
X137.634 Y-159.97 Z-4.191
X137.612 Y-159.881 Z-4.229
X137.588 Y-159.787 Z-4.252
X137.563 Y-159.69 Z-4.26
G3 X137.187 Y-159.001 I-1.534 J-0.39
G1 X129.606 Y-151.42
X128.878 Y-150.762
X128.075 Y-150.198
X127.207 Y-149.739
X126.299 Y-149.365
X125.368 Y-149.055
X124.421 Y-148.796
X123.465 Y-148.576
X122.502 Y-148.385
X121.535 Y-148.219
X120.564 Y-148.074
X119.591 Y-147.946
X118.616 Y-147.833
X117.639 Y-147.735
X116.661 Y-147.649
X115.683 Y-147.576
X114.703 Y-147.513
X113.723 Y-147.46
X112.743 Y-147.416
X111.762 Y-147.381
X110.781 Y-147.355
X109.799 Y-147.337
X108.818 Y-147.327
X107.836 Y-147.326
X106.855 Y-147.334
X105.873 Y-147.351
X104.892 Y-147.378
X103.911 Y-147.415
X102.931 Y-147.464
X101.951 Y-147.523
X100.972 Y-147.594
X99.994 Y-147.677
X99.018 Y-147.773
X98.042 Y-147.881
X97.068 Y-148.002
X96.096 Y-148.137
X95.125 Y-148.285
X94.157 Y-148.447
X93.192 Y-148.624
X92.229 Y-148.815
X91.269 Y-149.02
X90.313 Y-149.24
X90.093 Y-149.294
X89.984 Y-149.331
X89.884 Y-149.387
X89.795 Y-149.461
X82.09 Y-157.166
G3 X81.993 Y-157.896 I0.464 J-0.433
G1 X82.04 Y-157.984 Z-4.252
X82.085 Y-158.07 Z-4.229
X82.128 Y-158.151 Z-4.191
X82.168 Y-158.226 Z-4.139
X82.203 Y-158.293 Z-4.074
X82.233 Y-158.35 Z-3.998
X82.258 Y-158.397 Z-3.913
X82.275 Y-158.43 Z-3.821
X82.286 Y-158.451 Z-3.724
X82.29 Y-158.458 Z-3.625
G0 Z5
X130.139 Y-152.725
Z-2.99
G1 Z-3.625 F200
X130.137 Y-152.717 Z-3.724
X130.131 Y-152.695 Z-3.821
X130.122 Y-152.658 Z-3.913
X130.109 Y-152.607 Z-3.998
X130.093 Y-152.545 Z-4.074
X130.074 Y-152.471 Z-4.139
X130.053 Y-152.389 Z-4.191
X130.031 Y-152.3 Z-4.229
X130.007 Y-152.206 Z-4.252
X129.982 Y-152.109 Z-4.26
G3 X129.606 Y-151.42 I-1.534 J-0.39
G1 X123.586 Y-145.4
X122.858 Y-144.741
X122.051 Y-144.182
X121.171 Y-143.748
X120.247 Y-143.418
X119.298 Y-143.166
X118.335 Y-142.973
X117.365 Y-142.824
X116.391 Y-142.707
X115.414 Y-142.614
X114.435 Y-142.539
X113.455 Y-142.48
X112.475 Y-142.433
X111.494 Y-142.397
X110.513 Y-142.371
X109.532 Y-142.354
X108.55 Y-142.346
X107.569 Y-142.347
X106.587 Y-142.357
X105.606 Y-142.377
X104.625 Y-142.406
X103.644 Y-142.445
X102.664 Y-142.495
X101.684 Y-142.555
X100.705 Y-142.626
X99.727 Y-142.708
X98.75 Y-142.801
X97.774 Y-142.907
X96.8 Y-143.024
X96.359 Y-143.083
X96.225 Y-143.116
X96.101 Y-143.177
X95.993 Y-143.263
X89.795 Y-149.461
G3 X89.698 Y-150.191 I0.464 J-0.433
G1 X89.745 Y-150.279 Z-4.252
X89.79 Y-150.365 Z-4.229
X89.833 Y-150.446 Z-4.191
X89.873 Y-150.521 Z-4.139
X89.908 Y-150.588 Z-4.074
X89.939 Y-150.645 Z-3.998
X89.963 Y-150.691 Z-3.913
X89.981 Y-150.725 Z-3.821
X89.992 Y-150.746 Z-3.724
X89.995 Y-150.752 Z-3.625
G0 Z5
X124.118 Y-146.705
Z-2.99
G1 Z-3.625 F200
X124.116 Y-146.697 Z-3.724
X124.111 Y-146.674 Z-3.821
X124.101 Y-146.637 Z-3.913
X124.089 Y-146.587 Z-3.998
X124.073 Y-146.524 Z-4.074
X124.054 Y-146.451 Z-4.139
X124.033 Y-146.369 Z-4.191
X124.01 Y-146.279 Z-4.229
X123.986 Y-146.185 Z-4.252
X123.962 Y-146.089 Z-4.26
G3 X123.586 Y-145.4 I-1.534 J-0.39
G1 X118.011 Y-139.826
X117.283 Y-139.167
X116.451 Y-138.647
X115.549 Y-138.259
X114.609 Y-137.976
X113.649 Y-137.774
X112.678 Y-137.632
X111.701 Y-137.533
X110.722 Y-137.465
X109.742 Y-137.421
X108.76 Y-137.395
X107.779 Y-137.384
X106.797 Y-137.386
X105.816 Y-137.399
X104.835 Y-137.422
X103.854 Y-137.456
X102.873 Y-137.5
X101.933 Y-137.553
X101.781 Y-137.58
X101.641 Y-137.643
X101.519 Y-137.738
X95.993 Y-143.263
G3 X96.024 Y-144.16 Z-4.06 I0.464 J-0.433
X96.56 Y-144.323 I0.433 J0.464
G1 X117.649 Y-140.885
G3 X117.98 Y-140.723 I-0.102 J0.627
X118.011 Y-139.826 Z-4.26 I-0.433 J0.464
G1 X115.522 Y-137.336
X115.299 Y-137.128
X115.076 Y-136.923
X114.82 Y-136.704
X113.961 Y-135.983
X113.738 Y-135.843
X112.846 Y-135.328
X112.623 Y-135.217
X112.4 Y-135.112
X112.177 Y-135.022
X111.285 Y-134.697
X111.062 Y-134.619
X110.839 Y-134.577
X109.724 Y-134.381
X109.501 Y-134.345
X109.278 Y-134.343
X108.164
X107.941 Y-134.345
X107.718 Y-134.381
X106.603 Y-134.577
X106.38 Y-134.619
X106.156 Y-134.697
X105.265 Y-135.022
X105.042 Y-135.112
X104.819 Y-135.217
X104.596 Y-135.328
X103.704 Y-135.843
X103.481 Y-135.983
X102.589 Y-136.731
X102.363 Y-136.927
X102.12 Y-137.15
X101.92 Y-137.336
X101.519 Y-137.738
G3 X101.422 Y-138.467 I0.464 J-0.433
G1 X101.469 Y-138.555 Z-4.252
X101.514 Y-138.641 Z-4.229
X101.557 Y-138.722 Z-4.191
X101.597 Y-138.797 Z-4.139
X101.632 Y-138.864 Z-4.074
X101.662 Y-138.922 Z-3.998
X101.687 Y-138.968 Z-3.913
X101.705 Y-139.001 Z-3.821
X101.715 Y-139.022 Z-3.724
X101.719 Y-139.029 Z-3.625
G0 Z15
G28 G91 Z0
G90
G28 G91 X0 Y0
G90
M5
M30
