(1001)
(T39  D=6.35 CR=0 - ZMIN=-4.76 - flat end mill)
G90 G94
G17
G21
G28 G91 Z0
G90

(2D Adaptive1)
T39
S5000 M3
G54
M8
G0 X-7.297 Y0.655
Z15
Z5
Z-3.49
G1 Z-4.125 F150
X-7.29 Y0.653 Z-4.224
X-7.267 Y0.647 Z-4.321
X-7.23 Y0.638 Z-4.413
X-7.18 Y0.625 Z-4.498
X-7.117 Y0.609 Z-4.574
X-7.044 Y0.59 Z-4.639
X-6.961 Y0.569 Z-4.691
X-6.872 Y0.546 Z-4.729
X-6.778 Y0.522 Z-4.752
X-6.682 Y0.497 Z-4.76
G3 X-3.225 Y0 I4.023 J15.704
G1 X-3.075
X-2.182 Y0.182
X-1.279 Y0.313
X-0.372 Y0.406
X0.537 Y0.473
X1.448 Y0.52
X2.359 Y0.554
X3.27 Y0.577
X4.182 Y0.594
X5.094 Y0.606
X6.006 Y0.615
X6.917 Y0.621
X7.829 Y0.625
X9.653 Y0.63
X12.388 Y0.633
X18.771 Y0.635
X47.037
X97.187
X117.247
X117.679 Y0.492
X118.457 Y0.015
X119.05 Y-0.677
X119.492 Y-1.475
X119.815 Y-2.328
X120.049 Y-3.209
X120.217 Y-4.105
X120.338 Y-5.009
X120.424 Y-5.916
X120.486 Y-6.826
X120.529 Y-7.737
X120.56 Y-8.648
X120.582 Y-9.56
X120.598 Y-10.471
X120.608 Y-11.383
X120.616 Y-12.295
X120.622 Y-13.207
X120.626 Y-14.119
X120.63 Y-15.942
X120.633 Y-18.678
X120.635 Y-25.972
Y-28.708
Y-78.857
Y-129.007
Y-179.157
Y-229.307
Y-237.057
X120.552 Y-237.505
X120.143 Y-238.32
X119.481 Y-238.947
X118.699 Y-239.416
X117.854 Y-239.759
X116.977 Y-240.009
X116.083 Y-240.189
X115.181 Y-240.318
X114.273 Y-240.41
X113.364 Y-240.475
X112.453 Y-240.522
X111.542 Y-240.555
X110.631 Y-240.578
X109.719 Y-240.595
X108.807 Y-240.607
X107.895 Y-240.615
X106.984 Y-240.621
X106.072 Y-240.625
X104.248 Y-240.63
X101.513 Y-240.633
X95.13 Y-240.635
X79.629
X29.48
X3.037
X2.81 Y-240.613
X2.368 Y-240.501
X1.58 Y-240.042
X0.977 Y-239.358
X0.529 Y-238.564
X0.2 Y-237.714
X-0.038 Y-236.834
X-0.21 Y-235.938
X-0.333 Y-235.035
X-0.42 Y-234.127
X-0.483 Y-233.217
X-0.527 Y-232.307
X-0.559 Y-231.395
X-0.581 Y-230.484
X-0.597 Y-229.572
X-0.608 Y-228.66
X-0.616 Y-227.749
X-0.621 Y-226.837
X-0.625 Y-225.925
X-0.63 Y-224.101
X-0.633 Y-221.366
X-0.635 Y-217.719
Y-167.569
Y-117.419
Y-67.27
Y-17.12
Y-5.722
X-0.576 Y-5.27
X-0.394 Y-4.852
X0.12 Y-4.099
X0.823 Y-3.518
X1.624 Y-3.082
X2.476 Y-2.759
X3.357 Y-2.522
X4.252 Y-2.349
X5.156 Y-2.224
X6.063 Y-2.134
X6.972 Y-2.069
X7.883 Y-2.023
X8.794 Y-1.989
X9.706 Y-1.965
X10.617 Y-1.948
X11.529 Y-1.936
X12.441 Y-1.927
X13.353 Y-1.921
X14.264 Y-1.916
X16.088 Y-1.911
X18.823 Y-1.907
X24.294 Y-1.905
X37.06
X87.209
X113.652
X114.104 Y-1.965
X114.969 Y-2.253
X115.7 Y-2.798
X116.284 Y-3.498
X116.738 Y-4.289
X117.085 Y-5.132
X117.347 Y-6.006
X117.544 Y-6.896
X117.69 Y-7.796
X117.798 Y-8.702
X117.878 Y-9.61
X117.936 Y-10.52
X117.979 Y-11.431
X118.011 Y-12.342
X118.034 Y-13.253
X118.05 Y-14.165
X118.063 Y-15.077
X118.072 Y-15.989
X118.078 Y-16.9
X118.083 Y-17.812
X118.089 Y-19.636
X118.093 Y-22.371
X118.094 Y-24.195
X118.095 Y-34.225
Y-74.345
Y-124.494
Y-174.644
Y-224.794
Y-233.912
X117.875 Y-234.797
X117.373 Y-235.557
X116.698 Y-236.171
X115.922 Y-236.65
X115.088 Y-237.018
X114.22 Y-237.297
X113.332 Y-237.506
X112.434 Y-237.661
X111.529 Y-237.777
X110.622 Y-237.862
X109.712 Y-237.925
X108.801 Y-237.971
X107.89 Y-238.005
X106.979 Y-238.029
X106.067 Y-238.047
X105.155 Y-238.06
X104.243 Y-238.07
X103.332 Y-238.077
X102.42 Y-238.082
X101.508 Y-238.085
X99.684 Y-238.09
X96.949 Y-238.093
X90.566 Y-238.095
X78.713
X28.563
X6.224
X5.776 Y-238.01
X4.926 Y-237.68
X4.215 Y-237.109
X3.649 Y-236.394
X3.211 Y-235.594
X2.876 Y-234.746
X2.623 Y-233.87
X2.435 Y-232.978
X2.294 Y-232.077
X2.19 Y-231.171
X2.114 Y-230.263
X2.057 Y-229.353
X2.016 Y-228.442
X1.986 Y-227.53
X1.964 Y-226.619
X1.948 Y-225.707
X1.936 Y-224.795
X1.927 Y-223.884
X1.921 Y-222.972
X1.917 Y-222.06
X1.911 Y-220.236
X1.907 Y-217.501
X1.905 Y-212.03
Y-161.88
Y-111.731
Y-61.581
Y-11.431
Y-8.696
X2.133 Y-7.813
X2.633 Y-7.051
X3.302 Y-6.431
X4.073 Y-5.944
X4.903 Y-5.567
X5.769 Y-5.281
X6.655 Y-5.065
X7.552 Y-4.903
X8.456 Y-4.783
X9.364 Y-4.694
X10.273 Y-4.628
X11.184 Y-4.579
X12.095 Y-4.543
X13.006 Y-4.517
X13.918 Y-4.497
X14.829 Y-4.483
X15.741 Y-4.473
X16.653 Y-4.465
X17.565 Y-4.46
X18.477 Y-4.456
X20.3 Y-4.451
X23.036 Y-4.447
X28.507 Y-4.445
X47.655
X97.804
X110.57
X111.48 Y-4.503
X112.323 Y-4.851
X113.039 Y-5.415
X113.622 Y-6.116
X114.083 Y-6.902
X114.442 Y-7.741
X114.717 Y-8.61
X114.927 Y-9.497
X115.085 Y-10.395
X115.205 Y-11.299
X115.295 Y-12.207
X115.362 Y-13.116
X115.412 Y-14.026
X115.449 Y-14.937
X115.477 Y-15.849
X115.497 Y-16.76
X115.512 Y-17.672
X115.524 Y-18.584
X115.532 Y-19.496
X115.538 Y-20.407
X115.542 Y-21.319
X115.548 Y-23.143
X115.552 Y-25.878
X115.555 Y-31.349
Y-39.555
Y-89.705
Y-139.855
Y-190.005
Y-231.036
X115.35 Y-231.925
X114.883 Y-232.708
X114.241 Y-233.356
X113.491 Y-233.874
X112.675 Y-234.281
X111.819 Y-234.594
X110.939 Y-234.834
X110.046 Y-235.016
X109.144 Y-235.153
X108.238 Y-235.256
X107.33 Y-235.333
X106.42 Y-235.39
X105.509 Y-235.433
X104.598 Y-235.465
X103.686 Y-235.488
X102.774 Y-235.506
X101.863 Y-235.519
X100.951 Y-235.528
X100.039 Y-235.535
X99.127 Y-235.541
X98.216 Y-235.544
X96.392 Y-235.549
X93.657 Y-235.553
X88.186 Y-235.555
X58.096
X8.858
X7.98 Y-235.308
X7.213 Y-234.816
X6.581 Y-234.158
X6.077 Y-233.398
X5.683 Y-232.576
X5.379 Y-231.717
X5.146 Y-230.835
X4.969 Y-229.94
X4.836 Y-229.038
X4.736 Y-228.132
X4.661 Y-227.223
X4.605 Y-226.313
X4.564 Y-225.402
X4.533 Y-224.491
X4.51 Y-223.58
X4.493 Y-222.668
X4.48 Y-221.756
X4.471 Y-220.844
X4.464 Y-219.933
X4.459 Y-219.021
X4.453 Y-217.197
X4.448 Y-214.462
X4.446 Y-209.903
X4.445 Y-186.196
Y-136.046
Y-85.896
Y-35.746
Y-12.039
X4.492 Y-11.129
X4.829 Y-10.281
X5.382 Y-9.557
X6.077 Y-8.966
X6.859 Y-8.498
X7.695 Y-8.132
X8.562 Y-7.851
X9.448 Y-7.636
X10.345 Y-7.473
X11.249 Y-7.35
X12.156 Y-7.257
X13.065 Y-7.187
X13.975 Y-7.135
X14.886 Y-7.097
X15.797 Y-7.068
X16.709 Y-7.046
X17.621 Y-7.03
X18.532 Y-7.019
X19.444 Y-7.01
X20.356 Y-7.003
X21.268 Y-6.998
X23.091 Y-6.992
X25.827 Y-6.988
X28.562 Y-6.986
X40.416 Y-6.985
X78.712
X107.89
X108.799 Y-7.055
X109.645 Y-7.397
X110.37 Y-7.95
X110.965 Y-8.641
X111.44 Y-9.419
X111.813 Y-10.251
X112.103 Y-11.115
X112.325 Y-12
X112.494 Y-12.896
X112.623 Y-13.798
X112.721 Y-14.705
X112.795 Y-15.614
X112.85 Y-16.524
X112.892 Y-17.435
X112.923 Y-18.346
X112.946 Y-19.257
X112.964 Y-20.169
X112.977 Y-21.081
X112.987 Y-21.993
X112.994 Y-22.904
X112.999 Y-23.816
X113.003 Y-24.728
X113.006 Y-25.64
X113.01 Y-27.463
X113.014 Y-31.111
X113.015 Y-41.141
Y-75.789
Y-125.939
Y-176.089
Y-226.239
Y-228.062
X112.895 Y-228.966
X112.508 Y-229.792
X111.925 Y-230.493
X111.215 Y-231.064
X110.424 Y-231.519
X109.585 Y-231.875
X108.715 Y-232.15
X107.828 Y-232.361
X106.931 Y-232.522
X106.027 Y-232.645
X105.12 Y-232.737
X104.211 Y-232.807
X103.301 Y-232.859
X102.39 Y-232.899
X101.478 Y-232.928
X100.567 Y-232.95
X99.655 Y-232.967
X98.743 Y-232.979
X97.832 Y-232.988
X96.92 Y-232.995
X96.008 Y-233
X94.184 Y-233.007
X91.449 Y-233.012
X86.89 Y-233.014
X66.83 Y-233.015
X16.68
X12.121
X11.212 Y-232.949
X10.366 Y-232.609
X9.639 Y-232.059
X9.042 Y-231.369
X8.566 Y-230.592
X8.192 Y-229.76
X7.902 Y-228.896
X7.679 Y-228.011
X7.509 Y-227.116
X7.379 Y-226.213
X7.281 Y-225.307
X7.207 Y-224.398
X7.151 Y-223.488
X7.109 Y-222.577
X7.078 Y-221.666
X7.054 Y-220.754
X7.037 Y-219.842
X7.023 Y-218.931
X7.014 Y-218.019
X7.006 Y-217.107
X7.001 Y-216.195
X6.997 Y-215.284
X6.991 Y-213.46
X6.988 Y-210.725
X6.985 Y-205.254
Y-189.753
Y-139.603
Y-89.453
Y-39.304
Y-14.685
X7.052 Y-13.775
X7.388 Y-12.928
X7.937 Y-12.2
X8.625 Y-11.601
X9.4 Y-11.121
X10.231 Y-10.745
X11.095 Y-10.453
X11.978 Y-10.228
X12.874 Y-10.056
X13.776 Y-9.925
X14.682 Y-9.826
X15.591 Y-9.751
X16.501 Y-9.694
X17.412 Y-9.652
X18.323 Y-9.62
X19.235 Y-9.596
X20.146 Y-9.578
X21.058 Y-9.564
X21.97 Y-9.554
X22.882 Y-9.547
X23.794 Y-9.541
X24.705 Y-9.537
X26.529 Y-9.532
X29.264 Y-9.528
X30.176 Y-9.527
X36.559 Y-9.525
X80.326
X104.945
X105.857 Y-9.531
X106.733 Y-9.784
X107.507 Y-10.265
X108.154 Y-10.908
X108.677 Y-11.655
X109.092 Y-12.466
X109.417 Y-13.318
X109.669 Y-14.195
X109.863 Y-15.086
X110.012 Y-15.985
X110.125 Y-16.89
X110.211 Y-17.798
X110.276 Y-18.707
X110.325 Y-19.618
X110.362 Y-20.529
X110.39 Y-21.44
X110.412 Y-22.352
X110.427 Y-23.263
X110.439 Y-24.175
X110.448 Y-25.087
X110.455 Y-25.999
X110.46 Y-26.911
X110.467 Y-28.734
X110.472 Y-31.47
Y-32.381
X110.475 Y-37.852
Y-82.531
Y-132.681
Y-182.831
Y-224.774
X110.474 Y-225.686
X110.272 Y-226.575
X109.828 Y-227.371
X109.211 Y-228.043
X108.481 Y-228.589
X107.679 Y-229.024
X106.834 Y-229.364
X105.961 Y-229.628
X105.072 Y-229.832
X104.174 Y-229.988
X103.27 Y-230.107
X102.362 Y-230.197
X101.453 Y-230.265
X100.543 Y-230.317
X99.632 Y-230.356
X98.721 Y-230.386
X97.809 Y-230.408
X96.897 Y-230.425
X95.986 Y-230.437
X95.074 Y-230.447
X94.162 Y-230.454
X93.25 Y-230.459
X91.427 Y-230.466
X89.603 Y-230.47
X85.956 Y-230.473
X76.838 Y-230.475
X54.954
X14.834
X13.924 Y-230.423
X13.068 Y-230.109
X12.324 Y-229.582
X11.708 Y-228.909
X11.212 Y-228.144
X10.82 Y-227.321
X10.514 Y-226.462
X10.278 Y-225.581
X10.096 Y-224.688
X9.957 Y-223.787
X9.851 Y-222.881
X9.771 Y-221.973
X9.71 Y-221.063
X9.664 Y-220.152
X9.63 Y-219.241
X9.604 Y-218.33
X9.584 Y-217.418
X9.569 Y-216.506
X9.558 Y-215.595
X9.55 Y-214.683
X9.544 Y-213.771
X9.539 Y-212.859
X9.533 Y-211.036
X9.528 Y-208.3
X9.526 Y-203.741
X9.525 Y-172.739
Y-122.59
Y-72.44
Y-22.29
Y-17.731
X9.529 Y-16.819
X9.742 Y-15.933
X10.196 Y-15.142
X10.82 Y-14.477
X11.554 Y-13.936
X12.358 Y-13.506
X13.205 Y-13.169
X14.079 Y-12.907
X14.968 Y-12.705
X15.866 Y-12.551
X16.77 Y-12.432
X17.678 Y-12.343
X18.587 Y-12.274
X19.497 Y-12.223
X20.408 Y-12.184
X21.32 Y-12.154
X22.231 Y-12.132
X23.143 Y-12.115
X24.055 Y-12.103
X24.966 Y-12.093
X25.878 Y-12.086
X26.79 Y-12.081
X27.702 Y-12.077
X29.525 Y-12.072
X32.261 Y-12.068
X37.732 Y-12.065
X52.321
X102.47
X103.382 Y-12.096
X104.248 Y-12.38
X105.008 Y-12.883
X105.643 Y-13.538
X106.157 Y-14.291
X106.565 Y-15.107
X106.884 Y-15.961
X107.132 Y-16.838
X107.323 Y-17.73
X107.47 Y-18.63
X107.582 Y-19.535
X107.668 Y-20.442
X107.733 Y-21.352
X107.782 Y-22.262
X107.82 Y-23.173
X107.848 Y-24.085
X107.869 Y-24.996
X107.886 Y-25.908
X107.898 Y-26.82
X107.907 Y-27.732
X107.914 Y-28.643
X107.919 Y-29.555
X107.926 Y-31.379
X107.93 Y-33.202
X107.933 Y-36.85
X107.935 Y-45.968
Y-59.645
Y-109.795
Y-159.944
Y-210.094
Y-222.86
X107.801 Y-223.761
X107.416 Y-224.588
X106.841 Y-225.295
X106.138 Y-225.876
X105.354 Y-226.343
X104.52 Y-226.711
X103.655 Y-226.998
X102.77 Y-227.22
X101.875 Y-227.391
X100.972 Y-227.522
X100.066 Y-227.622
X99.158 Y-227.698
X98.248 Y-227.756
X97.337 Y-227.8
X96.426 Y-227.833
X95.514 Y-227.858
X94.602 Y-227.877
X93.691 Y-227.891
X92.779 Y-227.902
X91.867 Y-227.91
X90.955 Y-227.917
X90.044 Y-227.921
X88.22 Y-227.927
X85.485 Y-227.932
X80.926 Y-227.934
X72.719 Y-227.935
X22.569
X17.099
X16.199 Y-227.788
X15.377 Y-227.392
X14.675 Y-226.81
X14.099 Y-226.103
X13.638 Y-225.317
X13.274 Y-224.481
X12.991 Y-223.614
X12.771 Y-222.729
X12.602 Y-221.833
X12.473 Y-220.931
X12.374 Y-220.024
X12.299 Y-219.115
X12.242 Y-218.205
X12.199 Y-217.295
X12.166 Y-216.383
X12.141 Y-215.472
X12.122 Y-214.56
X12.108 Y-213.649
X12.097 Y-212.737
X12.089 Y-211.825
X12.083 Y-210.913
X12.079 Y-210.001
X12.073 Y-208.178
X12.068 Y-205.442
X12.066 Y-200.883
X12.065 Y-185.383
Y-135.233
Y-85.083
Y-34.933
Y-20.344
X12.066 Y-19.433
X12.275 Y-18.545
X12.72 Y-17.749
X13.337 Y-17.078
X14.065 Y-16.529
X14.865 Y-16.091
X15.709 Y-15.747
X16.581 Y-15.478
X17.469 Y-15.271
X18.367 Y-15.112
X19.27 Y-14.99
X20.177 Y-14.897
X21.086 Y-14.826
X21.996 Y-14.772
X22.907 Y-14.731
X23.819 Y-14.7
X24.73 Y-14.677
X25.642 Y-14.659
X26.554 Y-14.646
X27.465 Y-14.636
X28.377 Y-14.628
X29.289 Y-14.622
X30.201 Y-14.618
X32.024 Y-14.612
X34.76 Y-14.608
X39.319 Y-14.606
X44.79 Y-14.605
X94.939
X99.498
X100.41 Y-14.607
X101.306 Y-14.776
X102.119 Y-15.19
X102.811 Y-15.783
X103.379 Y-16.497
X103.834 Y-17.287
X104.193 Y-18.125
X104.473 Y-18.993
X104.69 Y-19.879
X104.858 Y-20.775
X104.986 Y-21.678
X105.084 Y-22.584
X105.159 Y-23.493
X105.216 Y-24.403
X105.26 Y-25.314
X105.293 Y-26.225
X105.318 Y-27.136
X105.336 Y-28.048
X105.351 Y-28.96
X105.362 Y-29.871
X105.37 Y-30.783
X105.376 Y-31.695
X105.381 Y-32.607
X105.387 Y-34.43
X105.392 Y-37.166
X105.394 Y-41.725
X105.395 Y-57.226
Y-107.375
Y-157.525
Y-207.675
Y-219.528
X105.394 Y-220.44
X105.213 Y-221.334
X104.792 Y-222.142
X104.193 Y-222.83
X103.477 Y-223.395
X102.685 Y-223.847
X101.846 Y-224.203
X100.977 Y-224.481
X100.091 Y-224.696
X99.195 Y-224.862
X98.292 Y-224.99
X97.385 Y-225.087
X96.477 Y-225.161
X95.566 Y-225.218
X94.656 Y-225.261
X93.744 Y-225.293
X92.833 Y-225.318
X91.921 Y-225.337
X91.01 Y-225.351
X90.098 Y-225.362
X89.186 Y-225.37
X88.274 Y-225.376
X87.363 Y-225.381
X85.539 Y-225.387
X82.803 Y-225.392
X78.244 Y-225.394
X70.038 Y-225.395
X19.888
X18.981 Y-225.306
X18.135 Y-224.965
X17.402 Y-224.423
X16.795 Y-223.742
X16.305 Y-222.973
X15.916 Y-222.149
X15.612 Y-221.289
X15.375 Y-220.409
X15.193 Y-219.515
X15.052 Y-218.614
X14.945 Y-217.709
X14.863 Y-216.801
X14.801 Y-215.891
X14.753 Y-214.98
X14.717 Y-214.069
X14.69 Y-213.158
X14.669 Y-212.246
X14.653 Y-211.335
X14.642 Y-210.423
X14.633 Y-209.511
X14.626 Y-208.599
X14.621 Y-207.688
X14.614 Y-205.864
X14.609 Y-203.129
X14.606 Y-198.57
X14.605 Y-178.51
Y-177.598
Y-127.448
Y-77.298
Y-27.149
Y-22.59
X14.654 Y-21.679
X14.952 Y-20.817
X15.465 Y-20.063
X16.124 Y-19.434
X16.881 Y-18.924
X17.698 Y-18.519
X18.552 Y-18.201
X19.43 Y-17.954
X20.321 Y-17.763
X21.221 Y-17.616
X22.126 Y-17.503
X23.034 Y-17.417
X23.943 Y-17.352
X24.854 Y-17.302
X25.765 Y-17.264
X26.676 Y-17.235
X27.588 Y-17.213
X28.499 Y-17.196
X29.411 Y-17.184
X30.323 Y-17.174
X31.235 Y-17.167
X32.146 Y-17.162
X33.058 Y-17.158
X34.882 Y-17.152
X37.617 Y-17.148
X42.176 Y-17.146
X57.677 Y-17.145
X97.797
X98.695 Y-17.301
X99.515 Y-17.7
X100.215 Y-18.285
X100.791 Y-18.992
X101.254 Y-19.777
X101.62 Y-20.612
X101.907 Y-21.478
X102.129 Y-22.362
X102.301 Y-23.257
X102.432 Y-24.16
X102.533 Y-25.066
X102.611 Y-25.974
X102.669 Y-26.884
X102.714 Y-27.795
X102.748 Y-28.706
X102.774 Y-29.618
X102.794 Y-30.529
X102.809 Y-31.441
X102.82 Y-32.353
X102.828 Y-33.265
X102.835 Y-34.176
X102.84 Y-35.088
X102.846 Y-36.912
X102.851 Y-39.647
X102.854 Y-44.206
X102.855 Y-64.266
Y-75.208
Y-125.358
Y-175.507
Y-217.451
X102.791 Y-218.36
X102.477 Y-219.216
X101.955 Y-219.964
X101.288 Y-220.586
X100.528 Y-221.09
X99.709 Y-221.491
X98.854 Y-221.805
X97.975 Y-222.05
X97.083 Y-222.24
X96.183 Y-222.386
X95.278 Y-222.497
X94.371 Y-222.583
X93.461 Y-222.648
X92.551 Y-222.698
X91.64 Y-222.736
X90.728 Y-222.765
X89.817 Y-222.787
X88.905 Y-222.803
X87.993 Y-222.816
X87.082 Y-222.825
X86.17 Y-222.833
X85.258 Y-222.838
X84.346 Y-222.842
X82.522 Y-222.848
X79.787 Y-222.852
X75.228 Y-222.854
X46.962 Y-222.855
X22.343
X21.439 Y-222.738
X20.604 Y-222.372
X19.885 Y-221.811
X19.29 Y-221.12
X18.81 Y-220.344
X18.43 Y-219.515
X18.133 Y-218.653
X17.902 Y-217.771
X17.723 Y-216.877
X17.586 Y-215.976
X17.481 Y-215.07
X17.4 Y-214.162
X17.339 Y-213.252
X17.292 Y-212.341
X17.257 Y-211.43
X17.23 Y-210.519
X17.209 Y-209.607
X17.194 Y-208.696
X17.182 Y-207.784
X17.173 Y-206.872
X17.166 Y-205.96
X17.161 Y-205.049
X17.154 Y-203.225
X17.149 Y-200.489
X17.148 Y-199.578
X17.146 Y-194.107
X17.145 Y-149.428
Y-99.278
Y-49.129
Y-25.421
X17.151 Y-24.51
X17.375 Y-23.626
X17.829 Y-22.835
X18.45 Y-22.168
X19.181 Y-21.622
X19.982 Y-21.186
X20.826 Y-20.842
X21.698 Y-20.573
X22.585 Y-20.365
X23.483 Y-20.204
X24.386 Y-20.081
X25.293 Y-19.986
X26.202 Y-19.914
X27.112 Y-19.859
X28.023 Y-19.817
X28.934 Y-19.785
X29.846 Y-19.761
X30.757 Y-19.743
X31.669 Y-19.729
X32.581 Y-19.718
X33.591 Y-19.709
X33.885 Y-19.678
X34.167 Y-19.589
X34.425 Y-19.446
X34.529 Y-19.374
X34.944 Y-19.154
X35.151 Y-19.05
X36.393 Y-18.471
X36.566 Y-18.393
X37.075 Y-18.186
X37.221 Y-18.135
X37.843 Y-17.967
X39.085 Y-17.634
X39.292 Y-17.584
X39.383 Y-17.564
X39.499 Y-17.542
X39.706 Y-17.516
X39.913 Y-17.495
X41.502 Y-17.357
X41.777 Y-17.334
X41.984 Y-17.33
X42.398 Y-17.326
X42.813
X43.02 Y-17.327
X43.227 Y-17.337
X43.848 Y-17.387
X45.09 Y-17.496
X45.297 Y-17.524
X45.712 Y-17.587
X45.919 Y-17.635
X47.202 Y-17.979
X47.575 Y-18.079
X47.782 Y-18.137
X48.404 Y-18.376
X48.611 Y-18.473
X49.36 Y-18.777
X50.081 Y-19.005
X50.97 Y-19.209
X51.871 Y-19.351
X52.777 Y-19.45
X53.686 Y-19.519
X54.597 Y-19.568
X55.508 Y-19.603
X56.419 Y-19.627
X57.331 Y-19.644
X58.243 Y-19.656
X59.155 Y-19.664
X60.066 Y-19.67
X60.978 Y-19.675
X62.802 Y-19.68
X65.537 Y-19.683
X68.624 Y-19.684
X68.918 Y-19.655
X69.2 Y-19.568
X69.459 Y-19.427
X69.526 Y-19.381
X69.733 Y-19.26
X69.94 Y-19.154
X70.147 Y-19.052
X71.596 Y-18.376
X72.218 Y-18.137
X72.425 Y-18.079
X73.874 Y-17.691
X74.081 Y-17.635
X74.288 Y-17.587
X74.703 Y-17.524
X74.91 Y-17.496
X76.152 Y-17.387
X76.773 Y-17.337
X76.98 Y-17.327
X77.395 Y-17.326
X77.602
X78.016 Y-17.33
X78.223 Y-17.334
X79.258 Y-17.423
X80.087 Y-17.495
X80.294 Y-17.516
X80.501 Y-17.542
X80.617 Y-17.564
X80.708 Y-17.584
X80.915 Y-17.634
X82.202 Y-17.979
X82.779 Y-18.135
X82.925 Y-18.186
X83.434 Y-18.393
X83.607 Y-18.471
X84.361 Y-18.777
X85.082 Y-19.005
X85.97 Y-19.209
X86.871 Y-19.351
X87.778 Y-19.45
X88.687 Y-19.519
X89.597 Y-19.568
X90.508 Y-19.603
X91.42 Y-19.627
X92.332 Y-19.644
X93.243 Y-19.656
X94.155 Y-19.664
X95.067 Y-19.671
X95.972 Y-19.783
X96.81 Y-20.142
X97.535 Y-20.695
X98.135 Y-21.381
X98.62 Y-22.153
X99.005 Y-22.98
X99.307 Y-23.84
X99.543 Y-24.721
X99.724 Y-25.614
X99.864 Y-26.515
X99.971 Y-27.421
X100.053 Y-28.329
X100.116 Y-29.239
X100.164 Y-30.149
X100.2 Y-31.06
X100.228 Y-31.972
X100.249 Y-32.883
X100.265 Y-33.795
X100.277 Y-34.707
X100.286 Y-35.619
X100.293 Y-36.53
X100.298 Y-37.442
X100.306 Y-39.266
X100.31 Y-41.089
X100.313 Y-44.737
X100.315 Y-52.943
Y-56.59
Y-106.74
Y-156.89
Y-207.039
Y-214.334
X100.313 Y-215.246
X100.154 Y-216.143
X99.753 Y-216.962
X99.17 Y-217.664
X98.464 Y-218.241
X97.679 Y-218.704
X96.844 Y-219.071
X95.979 Y-219.358
X95.094 Y-219.582
X94.199 Y-219.754
X93.297 Y-219.887
X92.391 Y-219.989
X91.482 Y-220.067
X90.573 Y-220.126
X89.662 Y-220.171
X88.751 Y-220.206
X87.839 Y-220.232
X86.928 Y-220.252
X86.438 Y-220.26
X86.149 Y-220.294
X85.873 Y-220.382
X85.619 Y-220.524
X85.471 Y-220.626
X85.056 Y-220.845
X84.849 Y-220.95
X83.607 Y-221.529
X83.433 Y-221.607
X82.924 Y-221.814
X82.779 Y-221.864
X82.157 Y-222.033
X80.915 Y-222.366
X80.708 Y-222.408
X80.294 Y-222.48
X80.087 Y-222.504
X78.637 Y-222.631
X78.223 Y-222.666
X78.016 Y-222.67
X77.602 Y-222.674
X77.187
X76.98 Y-222.673
X76.773 Y-222.663
X76.152 Y-222.613
X74.91 Y-222.504
X74.703 Y-222.475
X74.288 Y-222.413
X74.081 Y-222.364
X72.8 Y-222.021
X72.425 Y-221.921
X72.218 Y-221.863
X71.596 Y-221.624
X71.389 Y-221.527
X70.64 Y-221.222
X69.919 Y-220.995
X69.03 Y-220.791
X68.129 Y-220.649
X67.223 Y-220.55
X66.314 Y-220.481
X65.403 Y-220.432
X64.492 Y-220.397
X63.581 Y-220.373
X62.669 Y-220.356
X61.757 Y-220.344
X60.845 Y-220.336
X59.934 Y-220.329
X59.022 Y-220.325
X57.198 Y-220.32
X54.463 Y-220.317
X51.376 Y-220.316
X51.082 Y-220.345
X50.8 Y-220.432
X50.541 Y-220.573
X50.474 Y-220.618
X50.267 Y-220.739
X50.06 Y-220.846
X49.853 Y-220.948
X48.404 Y-221.624
X47.782 Y-221.863
X47.575 Y-221.921
X46.126 Y-222.309
X45.919 Y-222.364
X45.712 Y-222.413
X45.297 Y-222.475
X45.09 Y-222.504
X43.848 Y-222.613
X43.227 Y-222.663
X43.02 Y-222.673
X42.605 Y-222.674
X42.398
X41.984 Y-222.67
X41.777 Y-222.666
X40.742 Y-222.577
X39.913 Y-222.504
X39.706 Y-222.48
X39.292 Y-222.408
X39.085 Y-222.366
X37.799 Y-222.021
X37.221 Y-221.864
X37.076 Y-221.814
X36.567 Y-221.607
X36.393 Y-221.529
X35.639 Y-221.222
X34.918 Y-220.995
X34.03 Y-220.791
X33.129 Y-220.649
X32.222 Y-220.55
X31.313 Y-220.481
X30.403 Y-220.432
X29.492 Y-220.397
X28.58 Y-220.373
X27.669 Y-220.356
X26.757 Y-220.344
X25.845 Y-220.336
X24.933 Y-220.329
X24.028 Y-220.217
X23.19 Y-219.859
X22.465 Y-219.305
X21.865 Y-218.619
X21.38 Y-217.847
X20.995 Y-217.02
X20.692 Y-216.16
X20.458 Y-215.279
X20.276 Y-214.385
X20.136 Y-213.484
X20.029 Y-212.579
X19.947 Y-211.671
X19.884 Y-210.761
X19.836 Y-209.851
X19.8 Y-208.939
X19.772 Y-208.028
X19.751 Y-207.116
X19.735 Y-206.205
X19.723 Y-205.293
X19.714 Y-204.381
X19.707 Y-203.47
X19.702 Y-202.558
X19.694 Y-200.734
X19.69 Y-198.91
X19.687 Y-195.263
X19.685 Y-187.057
Y-183.41
Y-133.26
Y-83.11
Y-32.961
Y-27.49
X19.789 Y-26.584
X20.143 Y-25.743
X20.692 Y-25.015
X21.376 Y-24.413
X22.148 Y-23.926
X22.974 Y-23.54
X23.834 Y-23.237
X24.715 Y-23.002
X25.608 Y-22.819
X26.509 Y-22.679
X27.414 Y-22.571
X28.322 Y-22.489
X29.232 Y-22.425
X30.143 Y-22.377
X30.385 Y-22.368
X30.658 Y-22.331
X30.92 Y-22.244
X31.161 Y-22.111
X31.373 Y-21.935
X32.252 Y-21.057
X32.459 Y-20.86
X32.666 Y-20.689
X32.969 Y-20.464
X33.08 Y-20.384
X33.908 Y-19.805
X34.425 Y-19.446
X34.45 Y-19.429 Z-4.754
X34.529 Y-19.374 Z-4.735
X34.944 Y-19.154 Z-4.641
X35.1 Y-19.076 Z-4.606
X35.151 Y-19.05 Z-4.594
X35.304 Y-18.978 Z-4.56
X36.393 Y-18.471
X36.566 Y-18.393
X37.075 Y-18.186
X37.221 Y-18.135
X37.798 Y-17.979
X39.085 Y-17.634
X39.292 Y-17.584
X39.383 Y-17.564
X39.499 Y-17.542
X39.706 Y-17.516
X39.913 Y-17.495
X41.156 Y-17.387
X41.777 Y-17.334
X41.984 Y-17.33
X42.398 Y-17.326
X42.605
X43.02 Y-17.327
X43.227 Y-17.337
X43.641 Y-17.37
X43.848 Y-17.387
X45.09 Y-17.496
X45.297 Y-17.524
X45.712 Y-17.587
X45.919 Y-17.635
X46.429 Y-17.771
X47.575 Y-18.079
X47.683 Y-18.109
X47.782 Y-18.137 Z-4.581
X47.898 Y-18.181 Z-4.606
X48.197 Y-18.296 Z-4.67
X48.404 Y-18.376 Z-4.714
X48.611 Y-18.473 Z-4.76
X49.853 Y-19.052
X50.06 Y-19.154
X50.267 Y-19.26
X50.474 Y-19.381
X50.889 Y-19.664
X51.147 Y-19.843
X51.924 Y-20.387
X52.032 Y-20.464
X52.423 Y-20.718
X52.836 Y-20.941
X53.361 Y-21.173
X54.056 Y-21.414
X54.939 Y-21.644
X55.836 Y-21.807
X56.74 Y-21.924
X57.648 Y-22.009
X58.558 Y-22.069
X59.469 Y-22.113
X60.38 Y-22.144
X61.291 Y-22.167
X62.203 Y-22.183
X63.115 Y-22.195
X64.027 Y-22.203
X64.938 Y-22.209
X65.475 Y-22.212
X65.766 Y-22.184
X66.046 Y-22.1
X66.304 Y-21.963
X66.53 Y-21.778
X67.248 Y-21.061
X67.455 Y-20.869
X67.662 Y-20.685
X67.968 Y-20.464
X68.076 Y-20.387
X68.904 Y-19.807
X69.203 Y-19.601
X69.459 Y-19.427
G3 X69.595 Y-18.539 Z-4.56 I-0.376 J0.512
X69.043 Y-18.281 I-0.512 J-0.376
G1 X52.382 Y-19.329
G3 X51.92 Y-19.574 I0.04 J-0.634
X52.032 Y-20.464 Z-4.76 I0.502 J-0.389
G1 X52.338 Y-20.685
X52.556 Y-20.879
X52.752 Y-21.061
X54.02 Y-22.329
X54.075 Y-22.389
X54.247 Y-22.561
X54.499 Y-22.775
X54.814 Y-23.001
X55.209 Y-23.239
X55.711 Y-23.489
X56.347 Y-23.745
X57.197 Y-24.009
X58.087 Y-24.209
X58.986 Y-24.356
X59.892 Y-24.464
X60.8 Y-24.543
X61.71 Y-24.602
X62.621 Y-24.645
X63.533 Y-24.674
X63.808 Y-24.641
X64.072 Y-24.558
X64.316 Y-24.427
X64.531 Y-24.253
X64.71 Y-24.042
X65.384 Y-23.081
X65.623 Y-22.743
X65.798 Y-22.53
X65.98 Y-22.329
X66.53 Y-21.778
G3 X66.499 Y-20.881 Z-4.56 I-0.464 J0.433
X66.031 Y-20.711 I-0.433 J-0.464
G1 X54.524 Y-21.345
G3 X54.149 Y-21.495 I0.035 J-0.634
X54.075 Y-22.389 Z-4.76 I0.411 J-0.484
G1 X54.207 Y-22.536
X54.377 Y-22.743
X54.616 Y-23.081
X55.444 Y-24.263
X55.679 Y-24.565
X55.878 Y-24.783
X56.125 Y-25.012
X56.439 Y-25.261
X56.817 Y-25.513
X57.295 Y-25.78
X57.901 Y-26.056
X58.675 Y-26.336
X59.554 Y-26.577
X60.448 Y-26.758
X61.35 Y-26.893
X61.992 Y-26.942
X62.28 Y-26.94
X62.611 Y-26.901
X62.926 Y-26.788
X63.207 Y-26.608
X63.44 Y-26.369
X63.615 Y-26.085
X64.11 Y-25.022
X64.326 Y-24.607
X64.349 Y-24.57
X64.46 Y-24.4
X64.71 Y-24.042
G3 X64.524 Y-23.164 Z-4.56 I-0.533 J0.346
X64.161 Y-23.062 I-0.346 J-0.532
G1 X55.96 Y-23.283
G3 X55.631 Y-23.385 I0.017 J-0.635
X55.444 Y-24.263 Z-4.76 I0.346 J-0.532
G1 X55.54 Y-24.4
X55.651 Y-24.57
X55.674 Y-24.607
X55.89 Y-25.022
X56.426 Y-26.171
X56.538 Y-26.383
X56.669 Y-26.589
X56.841 Y-26.817
X57.066 Y-27.07
X57.325 Y-27.317
X57.665 Y-27.594
X58.06 Y-27.866
X58.563 Y-28.155
X59.118 Y-28.417
X59.692 Y-28.634
X60.224 Y-28.788
X60.683 Y-28.881
X61.123 Y-28.934
X61.508 Y-28.95
X61.593 Y-28.946
X61.903 Y-28.901
X62.196 Y-28.791
X62.459 Y-28.623
X62.681 Y-28.403
X62.852 Y-28.141
X62.965 Y-27.849
X63.001 Y-27.715
X63.059 Y-27.507
X63.177 Y-27.093
X63.256 Y-26.886
X63.437 Y-26.472
X63.531 Y-26.265
X63.615 Y-26.085
G3 X63.279 Y-25.252 Z-4.56 I-0.585 J0.248
X63.021 Y-25.201 I-0.249 J-0.584
G1 X57.001 Y-25.288
X56.919 Y-25.295
X56.839 Y-25.312
X56.762 Y-25.339
G3 X56.426 Y-26.171 Z-4.76 I0.249 J-0.584
G1 X56.48 Y-26.287
X56.563 Y-26.472
X56.744 Y-26.886
X56.823 Y-27.093
X56.941 Y-27.507
X56.999 Y-27.715
X57.055 Y-27.922
X57.13 Y-28.157
X57.212 Y-28.353
X57.319 Y-28.564
X57.462 Y-28.795
X57.631 Y-29.025
X57.843 Y-29.27
X58.09 Y-29.513
X58.368 Y-29.746
X58.691 Y-29.974
X59.046 Y-30.185
X59.395 Y-30.356
X59.755 Y-30.498
X60.09 Y-30.6
X60.427 Y-30.673
X60.75 Y-30.717
X61.061 Y-30.734
X61.13 Y-30.732
X61.457 Y-30.686
X61.766 Y-30.569
X62.041 Y-30.387
X62.269 Y-30.148
X62.439 Y-29.864
X62.541 Y-29.55
X62.621 Y-29.165
X62.668 Y-28.958
X62.965 Y-27.849
G3 X62.489 Y-27.088 Z-4.56 I-0.619 J0.143
G1 X62.413 Y-27.075
X62.336 Y-27.072
X57.664 Y-27.144
X57.596 Y-27.149
X57.53 Y-27.16
G3 X57.055 Y-27.922 Z-4.76 I0.143 J-0.619
G1 X57.332 Y-28.958
X57.379 Y-29.165
X57.464 Y-29.579
X57.492 Y-29.786
X57.513 Y-29.935
X57.566 Y-30.114
X57.635 Y-30.296
X57.731 Y-30.497
X57.847 Y-30.697
X57.991 Y-30.905
X58.164 Y-31.116
X58.359 Y-31.319
X58.584 Y-31.518
X58.839 Y-31.71
X59.095 Y-31.871
X59.368 Y-32.014
X59.644 Y-32.132
X59.907 Y-32.22
X60.198 Y-32.292
X60.464 Y-32.335
X60.741 Y-32.358
X61.017
X61.041 Y-32.356
X61.333 Y-32.303
X61.609 Y-32.193
X61.857 Y-32.03
X62.067 Y-31.821
X62.232 Y-31.574
X62.344 Y-31.3
X62.4 Y-31.008
X62.499 Y-29.887
X62.508 Y-29.786
X62.536 Y-29.579
X62.541 Y-29.55
G3 X62.023 Y-28.818 Z-4.56 I-0.626 J0.107
G1 X61.944 Y-28.809
X61.864 Y-28.811
X58.091 Y-29.117
X58.075 Y-29.119 Z-4.563
G3 X57.492 Y-29.786 Z-4.76 I0.051 J-0.633
G1 X57.584 Y-30.822
X57.638 Y-31.443
X57.659 Y-31.592
X57.7 Y-31.759
X57.756 Y-31.931
X57.833 Y-32.112
X57.931 Y-32.302
X58.049 Y-32.49
X58.192 Y-32.681
X58.36 Y-32.873
X58.55 Y-33.057
X58.761 Y-33.232
X58.997 Y-33.396
X59.228 Y-33.532
X59.487 Y-33.656
X59.731 Y-33.75
X59.993 Y-33.828
X60.251 Y-33.882
X60.505 Y-33.915
X60.772 Y-33.927
X61.018 Y-33.919
X61.315 Y-33.853
X61.593 Y-33.728
X61.839 Y-33.548
X62.043 Y-33.321
X62.196 Y-33.057
X62.291 Y-32.768
X62.325 Y-32.465
X62.327 Y-32.272
X62.337 Y-31.858
X62.343 Y-31.65
X62.4 Y-31.008
G3 X61.799 Y-30.341 Z-4.56 I-0.634 J0.033
G1 X61.743 Y-30.34
X61.687 Y-30.345
X58.239 Y-30.774
X58.194 Y-30.78 Z-4.569
G3 X57.638 Y-31.443 Z-4.76 I0.079 J-0.63
G1 X57.657 Y-31.65
X57.663 Y-31.858
X57.673 Y-32.272
X57.675 Y-32.479
Y-32.893
X57.682 Y-33.043
X57.706 Y-33.196
X57.744 Y-33.355
X57.798 Y-33.524
X57.873 Y-33.704
X57.965 Y-33.883
X58.079 Y-34.068
X58.217 Y-34.255
X58.375 Y-34.438
X58.554 Y-34.614
X58.759 Y-34.785
X58.987 Y-34.946
X59.21 Y-35.078
X59.454 Y-35.197
X59.699 Y-35.293
X59.94 Y-35.366
X60.202 Y-35.423
X60.445 Y-35.455
X60.706 Y-35.469
X60.957 Y-35.462
X61.003 Y-35.457
X61.305 Y-35.392
X61.587 Y-35.266
X61.837 Y-35.084
X62.043 Y-34.854
X62.197 Y-34.586
X62.293 Y-34.292
X62.325 Y-33.984
Y-32.465
G3 X61.674 Y-31.847 Z-4.56 I-0.635 J-0.017
G1 X61.61 Y-31.852
X58.331 Y-32.273
X58.229 Y-32.286 Z-4.581
G3 X57.675 Y-32.893 Z-4.76 I0.081 J-0.63
G1 Y-34.457
X57.682 Y-34.607
X57.706 Y-34.759
X57.746 Y-34.921
X57.8 Y-35.088
X57.875 Y-35.266
X57.969 Y-35.447
X58.082 Y-35.627
X58.219 Y-35.812
X58.378 Y-35.994
X58.557 Y-36.168
X58.758 Y-36.335
X58.983 Y-36.492
X59.207 Y-36.623
X59.455 Y-36.743
X59.699 Y-36.838
X59.943 Y-36.91
X60.206 Y-36.966
X60.448 Y-36.998
X60.712 Y-37.01
X60.963 Y-37.002
X61.009 Y-36.997
X61.31 Y-36.931
X61.591 Y-36.804
X61.84 Y-36.621
X62.045 Y-36.392
X62.198 Y-36.124
X62.293 Y-35.831
X62.325 Y-35.525
Y-33.984
G3 X61.669 Y-33.372 Z-4.56 I-0.635 J-0.022
G1 X61.602 Y-33.378
X58.33 Y-33.835
X58.222 Y-33.851 Z-4.582
G3 X57.675 Y-34.457 Z-4.76 I0.088 J-0.629
G1 Y-36.001
X57.682 Y-36.15
X57.706 Y-36.302
X57.744 Y-36.461
X57.798 Y-36.627
X57.872 Y-36.805
X57.964 Y-36.984
X58.076 Y-37.164
X58.213 Y-37.349
X58.37 Y-37.53
X58.547 Y-37.703
X58.748 Y-37.87
X58.973 Y-38.028
X59.197 Y-38.161
X59.443 Y-38.28
X59.69 Y-38.376
X59.932 Y-38.449
X60.196 Y-38.506
X60.439 Y-38.538
X60.702 Y-38.552
X60.954 Y-38.544
X61.006 Y-38.539
X61.307 Y-38.473
X61.589 Y-38.346
X61.838 Y-38.164
X62.044 Y-37.934
X62.198 Y-37.666
X62.293 Y-37.373
X62.325 Y-37.066
Y-35.525
G3 X61.669 Y-34.912 Z-4.56 I-0.635 J-0.022
G1 X61.602 Y-34.918
X58.33 Y-35.379
X58.221 Y-35.394 Z-4.582
G3 X57.675 Y-36.001 Z-4.76 I0.089 J-0.629
G1 Y-37.451
X57.685 Y-37.655
X57.705 Y-37.804
X57.738 Y-37.958
X57.787 Y-38.123
X57.855 Y-38.298
X57.94 Y-38.473
X58.047 Y-38.654
X58.177 Y-38.839
X58.326 Y-39.019
X58.496 Y-39.193
X58.692 Y-39.364
X58.911 Y-39.526
X59.135 Y-39.665
X59.371 Y-39.787
X59.621 Y-39.892
X59.859 Y-39.969
X60.122 Y-40.032
X60.371 Y-40.071
X60.625 Y-40.09
X60.884 Y-40.088
X60.971 Y-40.081
X61.279 Y-40.021
X61.567 Y-39.898
X61.823 Y-39.716
X62.035 Y-39.485
X62.194 Y-39.215
X62.292 Y-38.917
X62.325 Y-38.605
Y-37.066
G3 X61.669 Y-36.453 Z-4.56 I-0.635 J-0.022
G1 X61.619 Y-36.457
X58.331 Y-36.831
X58.238 Y-36.842 Z-4.579
G3 X57.675 Y-37.451 Z-4.76 I0.072 J-0.631
G1 Y-39.015
X57.684 Y-39.195
X57.704 Y-39.343
X57.738 Y-39.503
X57.787 Y-39.665
X57.855 Y-39.84
X57.943 Y-40.02
X58.049 Y-40.198
X58.178 Y-40.381
X58.33 Y-40.564
X58.503 Y-40.74
X58.696 Y-40.908
X58.914 Y-41.068
X59.135 Y-41.205
X59.38 Y-41.331
X59.625 Y-41.433
X59.865 Y-41.511
X60.129 Y-41.573
X60.373 Y-41.611
X60.634 Y-41.63
X60.889 Y-41.628
X60.974 Y-41.62
X61.281 Y-41.56
X61.569 Y-41.436
X61.824 Y-41.255
X62.036 Y-41.024
X62.194 Y-40.753
X62.292 Y-40.456
X62.325 Y-40.144
Y-38.605
G3 X61.669 Y-37.992 Z-4.56 I-0.635 J-0.022
G1 X61.614 Y-37.997
X58.331 Y-38.395
X58.233 Y-38.406 Z-4.58
G3 X57.675 Y-39.015 Z-4.76 I0.076 J-0.63
G1 Y-40.558
X57.684 Y-40.734
X57.703 Y-40.883
X57.738 Y-41.043
X57.787 Y-41.205
X57.855 Y-41.38
X57.943 Y-41.559
X58.048 Y-41.738
X58.178 Y-41.921
X58.33 Y-42.103
X58.502 Y-42.279
X58.696 Y-42.447
X58.914 Y-42.608
X59.135 Y-42.745
X59.38 Y-42.87
X59.625 Y-42.972
X59.865 Y-43.05
X60.129 Y-43.113
X60.373 Y-43.15
X60.634 Y-43.169
X60.889 Y-43.167
X60.974 Y-43.16
X61.281 Y-43.099
X61.569 Y-42.975
X61.824 Y-42.794
X62.036 Y-42.563
X62.194 Y-42.293
X62.292 Y-41.995
X62.325 Y-41.684
Y-40.144
G3 X61.669 Y-39.532 Z-4.56 I-0.635 J-0.022
G1 X61.613 Y-39.536
X58.331 Y-39.938
X58.232 Y-39.95 Z-4.58
G3 X57.675 Y-40.558 Z-4.76 I0.077 J-0.63
G1 Y-42.122
X57.683 Y-42.273
X57.702 Y-42.422
X57.737 Y-42.581
X57.786 Y-42.744
X57.854 Y-42.919
X57.942 Y-43.098
X58.047 Y-43.277
X58.177 Y-43.46
X58.329 Y-43.643
X58.501 Y-43.818
X58.695 Y-43.987
X58.913 Y-44.147
X59.135 Y-44.285
X59.379 Y-44.41
X59.624 Y-44.512
X59.864 Y-44.59
X60.128 Y-44.652
X60.373 Y-44.69
X60.633 Y-44.709
X60.888 Y-44.707
X60.974 Y-44.699
X61.281 Y-44.639
X61.569 Y-44.515
X61.824 Y-44.334
X62.036 Y-44.103
X62.194 Y-43.832
X62.292 Y-43.535
X62.325 Y-43.223
Y-41.684
G3 X61.669 Y-41.071 Z-4.56 I-0.635 J-0.022
G1 X61.609 Y-41.076
X58.331 Y-41.501
X58.228 Y-41.514 Z-4.581
G3 X57.675 Y-42.122 Z-4.76 I0.082 J-0.63
G1 Y-43.665
X57.682 Y-43.815
X57.702 Y-43.964
X57.737 Y-44.123
X57.786 Y-44.286
X57.855 Y-44.46
X57.943 Y-44.64
X58.048 Y-44.819
X58.178 Y-45.002
X58.331 Y-45.185
X58.503 Y-45.36
X58.697 Y-45.528
X58.915 Y-45.689
X59.137 Y-45.826
X59.382 Y-45.951
X59.627 Y-46.053
X59.867 Y-46.13
X60.131 Y-46.193
X60.375 Y-46.23
X60.636 Y-46.249
X60.891 Y-46.247
X60.975 Y-46.239
X61.282 Y-46.178
X61.57 Y-46.055
X61.825 Y-45.873
X62.036 Y-45.642
X62.194 Y-45.372
X62.292 Y-45.074
X62.325 Y-44.763
Y-43.223
G3 X61.669 Y-42.611 Z-4.56 I-0.635 J-0.022
G1 X61.608 Y-42.616
X58.331 Y-43.044
X58.227 Y-43.058 Z-4.581
G3 X57.675 Y-43.665 Z-4.76 I0.082 J-0.63
G1 Y-45.229
X57.682 Y-45.379
X57.704 Y-45.527
X57.742 Y-45.689
X57.794 Y-45.854
X57.865 Y-46.028
X57.957 Y-46.21
X58.067 Y-46.389
X58.199 Y-46.571
X58.356 Y-46.753
X58.533 Y-46.93
X58.731 Y-47.096
X58.951 Y-47.254
X59.173 Y-47.387
X59.422 Y-47.51
X59.665 Y-47.607
X59.91 Y-47.683
X60.173 Y-47.741
X60.415 Y-47.775
X60.68 Y-47.79
X60.931 Y-47.785
X60.995 Y-47.778
X61.299 Y-47.714
X61.582 Y-47.588
X61.833 Y-47.406
X62.041 Y-47.176
X62.197 Y-46.908
X62.293 Y-46.613
X62.325 Y-46.304
Y-44.763
G3 X61.669 Y-44.151 Z-4.56 I-0.635 J-0.022
G1 X61.604 Y-44.156
X58.331 Y-44.607
X58.223 Y-44.622 Z-4.582
G3 X57.675 Y-45.229 Z-4.76 I0.087 J-0.629
G1 Y-46.772
X57.682 Y-46.922
X57.705 Y-47.071
X57.742 Y-47.231
X57.794 Y-47.395
X57.866 Y-47.572
X57.957 Y-47.751
X58.067 Y-47.93
X58.201 Y-48.114
X58.357 Y-48.296
X58.533 Y-48.47
X58.732 Y-48.637
X58.954 Y-48.796
X59.177 Y-48.93
X59.424 Y-49.052
X59.669 Y-49.149
X59.911 Y-49.224
X60.175 Y-49.282
X60.419 Y-49.316
X60.681 Y-49.331
X60.934 Y-49.325
X60.996 Y-49.319
X61.3 Y-49.255
X61.583 Y-49.129
X61.834 Y-48.947
X62.042 Y-48.717
X62.197 Y-48.448
X62.293 Y-48.153
X62.325 Y-47.845
Y-46.304
G3 X61.669 Y-45.692 Z-4.56 I-0.635 J-0.022
G1 X61.603 Y-45.697
X58.331 Y-46.151
X58.222 Y-46.166 Z-4.582
G3 X57.675 Y-46.772 Z-4.76 I0.087 J-0.629
G1 Y-48.222
X57.686 Y-48.436
X57.705 Y-48.584
X57.738 Y-48.74
X57.788 Y-48.903
X57.856 Y-49.079
X57.942 Y-49.255
X58.047 Y-49.434
X58.178 Y-49.619
X58.328 Y-49.8
X58.498 Y-49.974
X58.693 Y-50.144
X58.912 Y-50.306
X59.135 Y-50.445
X59.373 Y-50.567
X59.622 Y-50.671
X59.86 Y-50.749
X60.124 Y-50.812
X60.371 Y-50.85
X60.627 Y-50.869
X60.885 Y-50.868
X60.971 Y-50.86
X61.279 Y-50.8
X61.567 Y-50.677
X61.823 Y-50.495
X62.035 Y-50.264
X62.194 Y-49.994
X62.292 Y-49.696
X62.325 Y-49.384
Y-47.845
G3 X61.669 Y-47.233 Z-4.56 I-0.635 J-0.022
G1 X61.62 Y-47.236
X58.331 Y-47.603
X58.239 Y-47.614 Z-4.579
G3 X57.675 Y-48.222 Z-4.76 I0.07 J-0.631
G1 Y-49.88
X57.682 Y-50.03
X57.707 Y-50.178
X57.747 Y-50.34
X57.804 Y-50.51
X57.878 Y-50.683
X57.974 Y-50.865
X58.09 Y-51.048
X58.226 Y-51.229
X58.386 Y-51.409
X58.57 Y-51.585
X58.774 Y-51.752
X58.995 Y-51.904
X59.219 Y-52.034
X59.472 Y-52.154
X59.711 Y-52.245
X59.965 Y-52.318
X60.222 Y-52.371
X60.466 Y-52.401
X60.732 Y-52.412
X60.978 Y-52.403
X61.019 Y-52.398
X61.318 Y-52.33
X61.597 Y-52.202
X61.844 Y-52.02
X62.047 Y-51.79
X62.199 Y-51.524
X62.293 Y-51.232
X62.325 Y-50.927
Y-49.384
G3 X61.669 Y-48.772 Z-4.56 I-0.635 J-0.022
G1 X61.598 Y-48.778
X58.33 Y-49.257
X58.218 Y-49.274 Z-4.583
G3 X57.675 Y-49.88 Z-4.76 I0.092 J-0.628
G1 Y-51.33
X57.684 Y-51.517
X57.704 Y-51.666
X57.737 Y-51.818
X57.787 Y-51.986
X57.854 Y-52.159
X57.939 Y-52.333
X58.047 Y-52.517
X58.176 Y-52.7
X58.324 Y-52.879
X58.496 Y-53.054
X58.693 Y-53.226
X58.91 Y-53.387
X59.137 Y-53.527
X59.369 Y-53.647
X59.622 Y-53.753
X59.86 Y-53.831
X60.122 Y-53.893
X60.372 Y-53.932
X60.624 Y-53.951
X60.885 Y-53.949
X60.971 Y-53.942
X61.279 Y-53.882
X61.567 Y-53.759
X61.823 Y-53.577
X62.035 Y-53.346
X62.194 Y-53.076
X62.292 Y-52.778
X62.325 Y-52.466
Y-50.927
G3 X61.669 Y-50.314 Z-4.56 I-0.635 J-0.022
G1 X61.615 Y-50.318
X58.331 Y-50.71
X58.234 Y-50.721 Z-4.579
G3 X57.675 Y-51.33 Z-4.76 I0.075 J-0.631
G1 Y-52.894
X57.683 Y-53.055
X57.703 Y-53.204
X57.737 Y-53.363
X57.786 Y-53.526
X57.854 Y-53.7
X57.942 Y-53.88
X58.048 Y-54.059
X58.177 Y-54.242
X58.329 Y-54.425
X58.502 Y-54.601
X58.695 Y-54.768
X58.913 Y-54.929
X59.134 Y-55.066
X59.379 Y-55.192
X59.624 Y-55.294
X59.864 Y-55.372
X60.128 Y-55.434
X60.372 Y-55.472
X60.633 Y-55.491
X60.888 Y-55.489
X60.974 Y-55.481
X61.281 Y-55.421
X61.569 Y-55.297
X61.824 Y-55.116
X62.036 Y-54.885
X62.194 Y-54.614
X62.292 Y-54.317
X62.325 Y-54.005
Y-52.466
G3 X61.669 Y-51.853 Z-4.56 I-0.635 J-0.022
G1 X61.611 Y-51.858
X58.331 Y-52.273
X58.23 Y-52.286 Z-4.58
G3 X57.675 Y-52.894 Z-4.76 I0.08 J-0.63
G1 Y-54.437
X57.683 Y-54.595
X57.702 Y-54.744
X57.737 Y-54.904
X57.786 Y-55.066
X57.854 Y-55.241
X57.942 Y-55.42
X58.048 Y-55.599
X58.177 Y-55.782
X58.329 Y-55.965
X58.502 Y-56.14
X58.695 Y-56.309
X58.913 Y-56.469
X59.135 Y-56.606
X59.379 Y-56.732
X59.624 Y-56.834
X59.865 Y-56.911
X60.129 Y-56.974
X60.373 Y-57.012
X60.633 Y-57.031
X60.889 Y-57.029
X60.974 Y-57.021
X61.281 Y-56.961
X61.569 Y-56.837
X61.824 Y-56.655
X62.036 Y-56.424
X62.194 Y-56.154
X62.292 Y-55.857
X62.325 Y-55.545
Y-54.005
G3 X61.669 Y-53.393 Z-4.56 I-0.635 J-0.022
G1 X61.61 Y-53.398
X58.331 Y-53.816
X58.229 Y-53.829 Z-4.581
G3 X57.675 Y-54.437 Z-4.76 I0.08 J-0.63
G1 Y-56.001
X57.682 Y-56.151
X57.703 Y-56.299
X57.74 Y-56.46
X57.791 Y-56.624
X57.861 Y-56.798
X57.951 Y-56.979
X58.059 Y-57.159
X58.19 Y-57.341
X58.345 Y-57.523
X58.521 Y-57.7
X58.717 Y-57.867
X58.936 Y-58.025
X59.158 Y-58.16
X59.406 Y-58.284
X59.65 Y-58.383
X59.893 Y-58.46
X60.156 Y-58.52
X60.399 Y-58.555
X60.662 Y-58.571
X60.915 Y-58.567
X60.987 Y-58.56
X61.292 Y-58.498
X61.577 Y-58.373
X61.83 Y-58.191
X62.039 Y-57.96
X62.196 Y-57.691
X62.292 Y-57.395
X62.325 Y-57.086
Y-55.545
G3 X61.669 Y-54.933 Z-4.56 I-0.635 J-0.022
G1 X61.606 Y-54.938
X58.331 Y-55.38
X58.225 Y-55.394 Z-4.581
G3 X57.675 Y-56.001 Z-4.76 I0.085 J-0.629
G1 Y-57.544
X57.682 Y-57.694
X57.704 Y-57.843
X57.74 Y-58.003
X57.791 Y-58.167
X57.862 Y-58.342
X57.952 Y-58.522
X58.06 Y-58.701
X58.193 Y-58.884
X58.348 Y-59.067
X58.522 Y-59.241
X58.719 Y-59.409
X58.94 Y-59.568
X59.163 Y-59.703
X59.408 Y-59.826
X59.654 Y-59.925
X59.896 Y-60.001
X60.16 Y-60.061
X60.403 Y-60.096
X60.665 Y-60.112
X60.919 Y-60.107
X60.989 Y-60.101
X61.293 Y-60.038
X61.578 Y-59.913
X61.831 Y-59.731
X62.04 Y-59.5
X62.196 Y-59.231
X62.292 Y-58.935
X62.325 Y-58.626
Y-57.086
G3 X61.669 Y-56.473 Z-4.56 I-0.635 J-0.022
G1 X61.605 Y-56.478
X58.331 Y-56.923
X58.224 Y-56.937 Z-4.582
G3 X57.675 Y-57.544 Z-4.76 I0.085 J-0.629
G1 Y-59.108
X57.682 Y-59.258
X57.706 Y-59.406
X57.745 Y-59.569
X57.799 Y-59.734
X57.873 Y-59.91
X57.966 Y-60.092
X58.078 Y-60.271
X58.214 Y-60.454
X58.373 Y-60.636
X58.552 Y-60.811
X58.752 Y-60.977
X58.976 Y-61.133
X59.198 Y-61.264
X59.449 Y-61.385
X59.692 Y-61.48
X59.938 Y-61.553
X60.2 Y-61.609
X60.443 Y-61.641
X60.708 Y-61.654
X60.958 Y-61.646
X61.008 Y-61.64
X61.309 Y-61.574
X61.59 Y-61.447
X61.839 Y-61.265
X62.045 Y-61.035
X62.198 Y-60.768
X62.293 Y-60.474
X62.325 Y-60.168
Y-58.626
G3 X61.669 Y-58.014 Z-4.56 I-0.635 J-0.022
G1 X61.601 Y-58.02
X58.33 Y-58.486
X58.22 Y-58.502 Z-4.582
G3 X57.675 Y-59.108 Z-4.76 I0.09 J-0.629
G1 Y-60.652
X57.682 Y-60.801
X57.706 Y-60.952
X57.745 Y-61.112
X57.8 Y-61.278
X57.874 Y-61.456
X57.968 Y-61.635
X58.08 Y-61.815
X58.217 Y-61.999
X58.376 Y-62.18
X58.554 Y-62.353
X58.755 Y-62.52
X58.98 Y-62.677
X59.204 Y-62.808
X59.452 Y-62.928
X59.698 Y-63.023
X59.941 Y-63.095
X60.205 Y-63.151
X60.448 Y-63.183
X60.712 Y-63.195
X60.963 Y-63.187
X61.01 Y-63.182
X61.311 Y-63.115
X61.592 Y-62.988
X61.84 Y-62.806
X62.045 Y-62.576
X62.198 Y-62.309
X62.293 Y-62.016
X62.325 Y-61.709
Y-60.168
G3 X61.669 Y-59.555 Z-4.56 I-0.635 J-0.022
G1 X61.6 Y-59.561
X58.33 Y-60.029
X58.22 Y-60.045 Z-4.582
G3 X57.675 Y-60.652 Z-4.76 I0.09 J-0.629
G1 Y-62.102
X57.685 Y-62.299
X57.704 Y-62.448
X57.737 Y-62.601
X57.787 Y-62.767
X57.855 Y-62.941
X57.94 Y-63.117
X58.047 Y-63.298
X58.176 Y-63.482
X58.325 Y-63.662
X58.496 Y-63.837
X58.692 Y-64.008
X58.91 Y-64.169
X59.135 Y-64.309
X59.37 Y-64.43
X59.621 Y-64.535
X59.859 Y-64.613
X60.122 Y-64.676
X60.371 Y-64.715
X60.624 Y-64.734
X60.884 Y-64.732
X60.971 Y-64.725
X61.279 Y-64.665
X61.567 Y-64.541
X61.823 Y-64.36
X62.035 Y-64.129
X62.194 Y-63.858
X62.292 Y-63.56
X62.325 Y-63.249
Y-61.709
G3 X61.669 Y-61.097 Z-4.56 I-0.635 J-0.022
G1 X61.617 Y-61.101
X58.331 Y-61.482
X58.236 Y-61.493 Z-4.579
G3 X57.675 Y-62.102 Z-4.76 I0.073 J-0.631
G1 Y-63.666
X57.684 Y-63.838
X57.703 Y-63.987
X57.738 Y-64.146
X57.787 Y-64.309
X57.855 Y-64.483
X57.943 Y-64.663
X58.048 Y-64.842
X58.177 Y-65.025
X58.33 Y-65.208
X58.503 Y-65.384
X58.696 Y-65.551
X58.913 Y-65.712
X59.135 Y-65.849
X59.38 Y-65.975
X59.624 Y-66.076
X59.865 Y-66.154
X60.129 Y-66.217
X60.373 Y-66.255
X60.634 Y-66.273
X60.888 Y-66.271
X60.974 Y-66.264
X61.281 Y-66.203
X61.569 Y-66.08
X61.824 Y-65.898
X62.036 Y-65.667
X62.194 Y-65.397
X62.292 Y-65.099
X62.325 Y-64.788
Y-63.249
G3 X61.669 Y-62.636 Z-4.56 I-0.635 J-0.022
G1 X61.613 Y-62.64
X58.331 Y-63.045
X58.232 Y-63.057 Z-4.58
G3 X57.675 Y-63.666 Z-4.76 I0.078 J-0.63
G1 Y-65.209
X57.683 Y-65.378
X57.703 Y-65.527
X57.737 Y-65.686
X57.787 Y-65.849
X57.855 Y-66.023
X57.943 Y-66.203
X58.048 Y-66.381
X58.178 Y-66.565
X58.33 Y-66.747
X58.502 Y-66.923
X58.696 Y-67.091
X58.913 Y-67.252
X59.135 Y-67.389
X59.379 Y-67.514
X59.625 Y-67.616
X59.865 Y-67.694
X60.129 Y-67.757
X60.373 Y-67.794
X60.634 Y-67.813
X60.889 Y-67.811
X60.974 Y-67.803
X61.281 Y-67.743
X61.569 Y-67.619
X61.824 Y-67.438
X62.036 Y-67.207
X62.194 Y-66.937
X62.292 Y-66.639
X62.325 Y-66.328
Y-64.788
G3 X61.669 Y-64.176 Z-4.56 I-0.635 J-0.022
G1 X61.612 Y-64.18
X58.331 Y-64.588
X58.231 Y-64.601 Z-4.58
G3 X57.675 Y-65.209 Z-4.76 I0.078 J-0.63
G1 Y-66.773
X57.682 Y-66.923
X57.702 Y-67.071
X57.738 Y-67.231
X57.787 Y-67.394
X57.856 Y-67.569
X57.945 Y-67.749
X58.051 Y-67.927
X58.181 Y-68.11
X58.334 Y-68.293
X58.508 Y-68.469
X58.702 Y-68.637
X58.921 Y-68.797
X59.142 Y-68.933
X59.388 Y-69.058
X59.633 Y-69.159
X59.874 Y-69.236
X60.138 Y-69.298
X60.381 Y-69.335
X60.643 Y-69.353
X60.897 Y-69.35
X60.978 Y-69.343
X61.285 Y-69.282
X61.572 Y-69.158
X61.826 Y-68.976
X62.037 Y-68.745
X62.195 Y-68.475
X62.292 Y-68.178
X62.325 Y-67.868
Y-66.328
G3 X61.669 Y-65.715 Z-4.56 I-0.635 J-0.022
G1 X61.607 Y-65.72
X58.331 Y-66.152
X58.227 Y-66.165 Z-4.581
G3 X57.675 Y-66.773 Z-4.76 I0.083 J-0.63
G1 Y-68.316
X57.682 Y-68.466
X57.703 Y-68.614
X57.738 Y-68.774
X57.788 Y-68.938
X57.858 Y-69.112
X57.946 Y-69.292
X58.053 Y-69.471
X58.184 Y-69.654
X58.337 Y-69.837
X58.511 Y-70.012
X58.706 Y-70.18
X58.925 Y-70.34
X59.147 Y-70.476
X59.392 Y-70.6
X59.638 Y-70.701
X59.879 Y-70.778
X60.143 Y-70.839
X60.386 Y-70.876
X60.648 Y-70.893
X60.902 Y-70.89
X60.981 Y-70.883
X61.287 Y-70.821
X61.573 Y-70.697
X61.827 Y-70.515
X62.038 Y-70.285
X62.195 Y-70.015
X62.292 Y-69.718
X62.325 Y-69.408
Y-67.868
G3 X61.669 Y-67.255 Z-4.56 I-0.635 J-0.022
G1 X61.607 Y-67.26
X58.331 Y-67.695
X58.226 Y-67.709 Z-4.581
G3 X57.675 Y-68.316 Z-4.76 I0.084 J-0.629
G1 Y-69.88
X57.682 Y-70.03
X57.705 Y-70.178
X57.743 Y-70.34
X57.796 Y-70.506
X57.868 Y-70.68
X57.961 Y-70.862
X58.071 Y-71.041
X58.205 Y-71.223
X58.362 Y-71.406
X58.541 Y-71.581
X58.739 Y-71.748
X58.961 Y-71.905
X59.183 Y-72.037
X59.433 Y-72.16
X59.676 Y-72.255
X59.921 Y-72.33
X60.184 Y-72.387
X60.426 Y-72.42
X60.691 Y-72.435
X60.942 Y-72.428
X61 Y-72.422
X61.303 Y-72.357
X61.585 Y-72.231
X61.836 Y-72.049
X62.043 Y-71.819
X62.197 Y-71.551
X62.293 Y-71.257
X62.325 Y-70.949
Y-69.408
G3 X61.669 Y-68.795 Z-4.56 I-0.635 J-0.022
G1 X61.603 Y-68.801
X58.33 Y-69.258
X58.222 Y-69.273 Z-4.582
G3 X57.675 Y-69.88 Z-4.76 I0.088 J-0.629
G1 Y-71.423
X57.682 Y-71.573
X57.705 Y-71.722
X57.743 Y-71.883
X57.796 Y-72.048
X57.869 Y-72.224
X57.961 Y-72.404
X58.072 Y-72.583
X58.207 Y-72.767
X58.364 Y-72.949
X58.541 Y-73.123
X58.741 Y-73.289
X58.964 Y-73.448
X59.188 Y-73.58
X59.435 Y-73.701
X59.68 Y-73.798
X59.923 Y-73.872
X60.187 Y-73.929
X60.43 Y-73.962
X60.693 Y-73.976
X60.945 Y-73.969
X61.002 Y-73.963
X61.304 Y-73.898
X61.586 Y-73.772
X61.836 Y-73.59
X62.043 Y-73.36
X62.197 Y-73.092
X62.293 Y-72.798
X62.325 Y-72.49
Y-70.949
G3 X61.669 Y-70.336 Z-4.56 I-0.635 J-0.022
G1 X61.602 Y-70.342
X58.33 Y-70.801
X58.221 Y-70.817 Z-4.582
G3 X57.675 Y-71.423 Z-4.76 I0.088 J-0.629
G1 Y-72.873
X57.685 Y-73.08
X57.705 Y-73.229
X57.738 Y-73.383
X57.787 Y-73.548
X57.856 Y-73.723
X57.941 Y-73.898
X58.047 Y-74.079
X58.177 Y-74.264
X58.327 Y-74.444
X58.497 Y-74.618
X58.692 Y-74.789
X58.911 Y-74.95
X59.135 Y-75.09
X59.371 Y-75.212
X59.621 Y-75.316
X59.859 Y-75.394
X60.123 Y-75.457
X60.371 Y-75.495
X60.625 Y-75.514
X60.884 Y-75.513
X60.971 Y-75.505
X61.279 Y-75.445
X61.567 Y-75.322
X61.823 Y-75.141
X62.035 Y-74.909
X62.194 Y-74.639
X62.292 Y-74.341
X62.325 Y-74.029
Y-72.49
G3 X61.669 Y-71.878 Z-4.56 I-0.635 J-0.022
G1 X61.619 Y-71.881
X58.331 Y-72.254
X58.238 Y-72.265 Z-4.579
G3 X57.675 Y-72.873 Z-4.76 I0.072 J-0.631
G1 Y-74.531
X57.682 Y-74.68
X57.707 Y-74.829
X57.748 Y-74.991
X57.806 Y-75.162
X57.881 Y-75.335
X57.978 Y-75.517
X58.095 Y-75.701
X58.232 Y-75.881
X58.392 Y-76.061
X58.577 Y-76.237
X58.783 Y-76.404
X59.004 Y-76.555
X59.229 Y-76.684
X59.482 Y-76.803
X59.72 Y-76.893
X59.976 Y-76.966
X60.232 Y-77.018
X60.476 Y-77.047
X60.743 Y-77.057
X60.988 Y-77.047
X61.024 Y-77.043
X61.322 Y-76.974
X61.6 Y-76.846
X61.846 Y-76.663
X62.049 Y-76.434
X62.2 Y-76.168
X62.293 Y-75.876
X62.325 Y-75.572
Y-74.029
G3 X61.669 Y-73.417 Z-4.56 I-0.635 J-0.022
G1 X61.597 Y-73.423
X58.33 Y-73.908
X58.216 Y-73.925 Z-4.583
G3 X57.675 Y-74.531 Z-4.76 I0.093 J-0.628
G1 Y-75.981
X57.684 Y-76.162
X57.704 Y-76.311
X57.736 Y-76.463
X57.787 Y-76.631
X57.854 Y-76.804
X57.939 Y-76.979
X58.047 Y-77.163
X58.176 Y-77.345
X58.324 Y-77.524
X58.496 Y-77.7
X58.693 Y-77.872
X58.91 Y-78.032
X59.138 Y-78.173
X59.369 Y-78.293
X59.623 Y-78.399
X59.861 Y-78.476
X60.123 Y-78.539
X60.374 Y-78.578
X60.624 Y-78.596
X60.885 Y-78.595
X60.972 Y-78.587
X61.279 Y-78.527
X61.568 Y-78.404
X61.823 Y-78.223
X62.035 Y-77.991
X62.194 Y-77.721
X62.292 Y-77.423
X62.325 Y-77.111
Y-75.572
G3 X61.669 Y-74.96 Z-4.56 I-0.635 J-0.022
G1 X61.614 Y-74.964
X58.331 Y-75.361
X58.233 Y-75.372 Z-4.58
G3 X57.675 Y-75.981 Z-4.76 I0.076 J-0.63
G1 Y-77.545
X57.683 Y-77.701
X57.702 Y-77.849
X57.737 Y-78.009
X57.786 Y-78.171
X57.854 Y-78.345
X57.942 Y-78.525
X58.047 Y-78.704
X58.176 Y-78.887
X58.329 Y-79.07
X58.501 Y-79.246
X58.694 Y-79.414
X58.912 Y-79.574
X59.134 Y-79.712
X59.379 Y-79.837
X59.624 Y-79.939
X59.864 Y-80.017
X60.128 Y-80.08
X60.372 Y-80.117
X60.633 Y-80.136
X60.888 Y-80.134
X60.974 Y-80.127
X61.281 Y-80.066
X61.569 Y-79.943
X61.824 Y-79.761
X62.036 Y-79.53
X62.194 Y-79.26
X62.292 Y-78.962
X62.325 Y-78.651
Y-77.111
G3 X61.669 Y-76.499 Z-4.56 I-0.635 J-0.022
G1 X61.61 Y-76.504
X58.331 Y-76.924
X58.229 Y-76.937 Z-4.581
G3 X57.675 Y-77.545 Z-4.76 I0.081 J-0.63
G1 Y-79.088
X57.683 Y-79.241
X57.702 Y-79.39
X57.737 Y-79.549
X57.786 Y-79.712
X57.854 Y-79.886
X57.942 Y-80.066
X58.047 Y-80.244
X58.177 Y-80.427
X58.329 Y-80.61
X58.501 Y-80.786
X58.695 Y-80.954
X58.913 Y-81.114
X59.135 Y-81.252
X59.379 Y-81.377
X59.624 Y-81.479
X59.865 Y-81.557
X60.129 Y-81.62
X60.373 Y-81.657
X60.633 Y-81.676
X60.888 Y-81.674
X60.974 Y-81.666
X61.281 Y-81.606
X61.569 Y-81.482
X61.824 Y-81.301
X62.036 Y-81.07
X62.194 Y-80.8
X62.292 Y-80.502
X62.325 Y-80.191
Y-78.651
G3 X61.669 Y-78.038 Z-4.56 I-0.635 J-0.022
G1 X61.609 Y-78.043
X58.331 Y-78.467
X58.228 Y-78.48 Z-4.581
G3 X57.675 Y-79.088 Z-4.76 I0.081 J-0.63
G1 Y-80.652
X57.682 Y-80.802
X57.704 Y-80.95
X57.741 Y-81.112
X57.793 Y-81.276
X57.863 Y-81.45
X57.954 Y-81.631
X58.063 Y-81.811
X58.195 Y-81.993
X58.351 Y-82.175
X58.528 Y-82.352
X58.724 Y-82.518
X58.944 Y-82.676
X59.166 Y-82.81
X59.415 Y-82.934
X59.658 Y-83.032
X59.902 Y-83.108
X60.165 Y-83.167
X60.408 Y-83.201
X60.672 Y-83.217
X60.923 Y-83.212
X60.991 Y-83.205
X61.296 Y-83.142
X61.58 Y-83.017
X61.832 Y-82.835
X62.04 Y-82.605
X62.196 Y-82.336
X62.292 Y-82.04
X62.325 Y-81.731
Y-80.191
G3 X61.669 Y-79.578 Z-4.56 I-0.635 J-0.022
G1 X61.605 Y-79.584
X58.331 Y-80.03
X58.224 Y-80.045 Z-4.582
G3 X57.675 Y-80.652 Z-4.76 I0.086 J-0.629
G1 Y-82.195
X57.682 Y-82.345
X57.704 Y-82.493
X57.741 Y-82.654
X57.793 Y-82.818
X57.864 Y-82.994
X57.955 Y-83.174
X58.064 Y-83.352
X58.197 Y-83.536
X58.353 Y-83.718
X58.528 Y-83.893
X58.726 Y-84.06
X58.947 Y-84.219
X59.17 Y-84.353
X59.417 Y-84.475
X59.662 Y-84.574
X59.904 Y-84.649
X60.168 Y-84.708
X60.412 Y-84.742
X60.674 Y-84.758
X60.927 Y-84.753
X60.993 Y-84.746
X61.297 Y-84.683
X61.581 Y-84.557
X61.832 Y-84.375
X62.041 Y-84.145
X62.196 Y-83.876
X62.292 Y-83.581
X62.325 Y-83.272
Y-81.731
G3 X61.669 Y-81.119 Z-4.56 I-0.635 J-0.022
G1 X61.604 Y-81.124
X58.331 Y-81.573
X58.223 Y-81.588 Z-4.582
G3 X57.675 Y-82.195 Z-4.76 I0.086 J-0.629
G1 Y-83.759
X57.682 Y-83.909
X57.706 Y-84.057
X57.746 Y-84.22
X57.801 Y-84.386
X57.875 Y-84.562
X57.969 Y-84.743
X58.082 Y-84.923
X58.218 Y-85.105
X58.378 Y-85.287
X58.558 Y-85.462
X58.759 Y-85.628
X58.983 Y-85.784
X59.206 Y-85.914
X59.457 Y-86.035
X59.7 Y-86.128
X59.947 Y-86.201
X60.208 Y-86.256
X60.451 Y-86.287
X60.716 Y-86.3
X60.966 Y-86.291
X61.012 Y-86.286
X61.313 Y-86.219
X61.593 Y-86.092
X61.841 Y-85.91
X62.046 Y-85.68
X62.199 Y-85.413
X62.293 Y-85.12
X62.325 Y-84.814
Y-83.272
G3 X61.669 Y-82.659 Z-4.56 I-0.635 J-0.022
G1 X61.6 Y-82.666
X58.33 Y-83.137
X58.219 Y-83.153 Z-4.583
G3 X57.675 Y-83.759 Z-4.76 I0.091 J-0.629
G1 Y-85.302
X57.682 Y-85.452
X57.707 Y-85.603
X57.746 Y-85.764
X57.801 Y-85.93
X57.877 Y-86.108
X57.971 Y-86.288
X58.084 Y-86.467
X58.222 Y-86.652
X58.381 Y-86.833
X58.56 Y-87.006
X58.762 Y-87.172
X58.988 Y-87.329
X59.213 Y-87.459
X59.461 Y-87.578
X59.706 Y-87.672
X59.95 Y-87.744
X60.214 Y-87.799
X60.457 Y-87.83
X60.721 Y-87.842
X60.972 Y-87.833
X61.014 Y-87.828
X61.314 Y-87.761
X61.594 Y-87.633
X61.842 Y-87.451
X62.046 Y-87.221
X62.199 Y-86.954
X62.293 Y-86.662
X62.325 Y-86.356
Y-84.814
G3 X61.669 Y-84.201 Z-4.56 I-0.635 J-0.022
G1 X61.6 Y-84.208
X58.33 Y-84.68
X58.219 Y-84.696 Z-4.583
G3 X57.675 Y-85.302 Z-4.76 I0.091 J-0.628
G1 Y-86.752
X57.685 Y-86.945
X57.704 Y-87.094
X57.737 Y-87.247
X57.787 Y-87.414
X57.855 Y-87.588
X57.94 Y-87.763
X58.047 Y-87.945
X58.176 Y-88.129
X58.325 Y-88.308
X58.496 Y-88.483
X58.693 Y-88.655
X58.91 Y-88.816
X59.136 Y-88.956
X59.369 Y-89.077
X59.622 Y-89.182
X59.859 Y-89.259
X60.122 Y-89.322
X60.372 Y-89.361
X60.624 Y-89.38
X60.884 Y-89.379
X60.971 Y-89.371
X61.279 Y-89.311
X61.567 Y-89.188
X61.823 Y-89.007
X62.035 Y-88.775
X62.194 Y-88.505
X62.292 Y-88.207
X62.325 Y-87.895
Y-86.356
G3 X61.669 Y-85.743 Z-4.56 I-0.635 J-0.022
G1 X61.616 Y-85.747
X58.331 Y-86.133
X58.236 Y-86.144 Z-4.579
G3 X57.675 Y-86.752 Z-4.76 I0.074 J-0.631
G1 Y-88.316
X57.683 Y-88.485
X57.703 Y-88.633
X57.737 Y-88.793
X57.786 Y-88.955
X57.855 Y-89.13
X57.942 Y-89.309
X58.048 Y-89.488
X58.177 Y-89.671
X58.33 Y-89.854
X58.502 Y-90.03
X58.695 Y-90.198
X58.913 Y-90.358
X59.135 Y-90.495
X59.379 Y-90.621
X59.624 Y-90.723
X59.865 Y-90.801
X60.129 Y-90.863
X60.372 Y-90.901
X60.633 Y-90.92
X60.888 Y-90.918
X60.974 Y-90.91
X61.281 Y-90.85
X61.569 Y-90.726
X61.824 Y-90.545
X62.036 Y-90.314
X62.194 Y-90.044
X62.292 Y-89.746
X62.325 Y-89.435
Y-87.895
G3 X61.669 Y-87.283 Z-4.56 I-0.635 J-0.022
G1 X61.612 Y-87.287
X58.331 Y-87.696
X58.231 Y-87.708 Z-4.58
G3 X57.675 Y-88.316 Z-4.76 I0.079 J-0.63
G1 Y-89.86
X57.683 Y-90.025
X57.703 Y-90.173
X57.737 Y-90.333
X57.786 Y-90.495
X57.855 Y-90.67
X57.942 Y-90.849
X58.048 Y-91.028
X58.177 Y-91.211
X58.33 Y-91.394
X58.502 Y-91.57
X58.695 Y-91.738
X58.913 Y-91.898
X59.135 Y-92.035
X59.379 Y-92.161
X59.625 Y-92.263
X59.865 Y-92.34
X60.129 Y-92.403
X60.373 Y-92.441
X60.634 Y-92.46
X60.889 Y-92.458
X60.974 Y-92.45
X61.281 Y-92.39
X61.569 Y-92.266
X61.824 Y-92.084
X62.036 Y-91.853
X62.194 Y-91.583
X62.292 Y-91.286
X62.325 Y-90.974
Y-89.435
G3 X61.669 Y-88.822 Z-4.56 I-0.635 J-0.022
G1 X61.611 Y-88.827
X58.331 Y-89.239
X58.23 Y-89.252 Z-4.58
G3 X57.675 Y-89.86 Z-4.76 I0.079 J-0.63
G1 Y-91.424
X57.682 Y-91.573
X57.703 Y-91.722
X57.738 Y-91.883
X57.789 Y-92.046
X57.858 Y-92.22
X57.947 Y-92.401
X58.054 Y-92.579
X58.185 Y-92.762
X58.339 Y-92.945
X58.513 Y-93.121
X58.708 Y-93.288
X58.927 Y-93.448
X59.149 Y-93.583
X59.395 Y-93.708
X59.64 Y-93.808
X59.881 Y-93.885
X60.145 Y-93.946
X60.388 Y-93.982
X60.651 Y-94
X60.904 Y-93.997
X60.982 Y-93.989
X61.288 Y-93.928
X61.574 Y-93.803
X61.828 Y-93.622
X62.038 Y-93.391
X62.195 Y-93.121
X62.292 Y-92.825
X62.325 Y-92.514
Y-90.974
G3 X61.669 Y-90.362 Z-4.56 I-0.635 J-0.022
G1 X61.607 Y-90.367
X58.331 Y-90.802
X58.226 Y-90.816 Z-4.581
G3 X57.675 Y-91.424 Z-4.76 I0.084 J-0.629
G1 Y-92.967
X57.682 Y-93.117
X57.703 Y-93.265
X57.739 Y-93.425
X57.789 Y-93.589
X57.859 Y-93.764
X57.949 Y-93.944
X58.056 Y-94.122
X58.187 Y-94.306
X58.342 Y-94.488
X58.516 Y-94.663
X58.711 Y-94.831
X58.931 Y-94.991
X59.153 Y-95.126
X59.399 Y-95.25
X59.644 Y-95.35
X59.885 Y-95.427
X60.149 Y-95.487
X60.393 Y-95.523
X60.655 Y-95.54
X60.909 Y-95.537
X60.984 Y-95.529
X61.29 Y-95.467
X61.575 Y-95.343
X61.829 Y-95.161
X62.038 Y-94.93
X62.195 Y-94.661
X62.292 Y-94.365
X62.325 Y-94.055
Y-92.514
G3 X61.669 Y-91.902 Z-4.56 I-0.635 J-0.022
G1 X61.606 Y-91.907
X58.331 Y-92.346
X58.225 Y-92.36 Z-4.581
G3 X57.675 Y-92.967 Z-4.76 I0.084 J-0.629
G1 Y-94.531
X57.682 Y-94.681
X57.705 Y-94.829
X57.744 Y-94.991
X57.797 Y-95.157
X57.87 Y-95.332
X57.963 Y-95.513
X58.074 Y-95.693
X58.208 Y-95.875
X58.366 Y-96.057
X58.546 Y-96.233
X58.745 Y-96.399
X58.967 Y-96.556
X59.189 Y-96.687
X59.439 Y-96.809
X59.682 Y-96.905
X59.928 Y-96.979
X60.19 Y-97.036
X60.433 Y-97.068
X60.698 Y-97.082
X60.948 Y-97.075
X61.003 Y-97.069
X61.306 Y-97.004
X61.587 Y-96.877
X61.837 Y-96.695
X62.043 Y-96.465
X62.198 Y-96.197
X62.293 Y-95.903
X62.325 Y-95.596
Y-94.055
G3 X61.669 Y-93.442 Z-4.56 I-0.635 J-0.022
G1 X61.602 Y-93.448
X58.33 Y-93.909
X58.221 Y-93.924 Z-4.582
G3 X57.675 Y-94.531 Z-4.76 I0.089 J-0.629
G1 Y-96.074
X57.682 Y-96.224
X57.706 Y-96.373
X57.744 Y-96.534
X57.798 Y-96.699
X57.871 Y-96.877
X57.964 Y-97.056
X58.075 Y-97.235
X58.211 Y-97.42
X58.369 Y-97.601
X58.546 Y-97.775
X58.747 Y-97.941
X58.971 Y-98.099
X59.195 Y-98.231
X59.442 Y-98.352
X59.687 Y-98.448
X59.93 Y-98.521
X60.194 Y-98.577
X60.438 Y-98.61
X60.701 Y-98.623
X60.953 Y-98.616
X61.005 Y-98.61
X61.307 Y-98.545
X61.588 Y-98.418
X61.838 Y-98.236
X62.044 Y-98.006
X62.198 Y-97.738
X62.293 Y-97.444
X62.325 Y-97.137
Y-95.596
G3 X61.669 Y-94.983 Z-4.56 I-0.635 J-0.022
G1 X61.601 Y-94.989
X58.33 Y-95.452
X58.221 Y-95.468 Z-4.582
G3 X57.675 Y-96.074 Z-4.76 I0.089 J-0.629
G1 Y-97.524
X57.685 Y-97.727
X57.705 Y-97.876
X57.738 Y-98.03
X57.787 Y-98.195
X57.855 Y-98.37
X57.94 Y-98.545
X58.047 Y-98.726
X58.177 Y-98.911
X58.326 Y-99.09
X58.496 Y-99.265
X58.692 Y-99.436
X58.911 Y-99.597
X59.135 Y-99.737
X59.371 Y-99.859
X59.621 Y-99.963
X59.859 Y-100.041
X60.123 Y-100.104
X60.371 Y-100.143
X60.625 Y-100.162
X60.884 Y-100.16
X60.971 Y-100.153
X61.279 Y-100.093
X61.567 Y-99.969
X61.823 Y-99.788
X62.035 Y-99.557
X62.194 Y-99.286
X62.292 Y-98.988
X62.325 Y-98.676
Y-97.137
G3 X61.669 Y-96.525 Z-4.56 I-0.635 J-0.022
G1 X61.618 Y-96.529
X58.331 Y-96.905
X58.237 Y-96.915 Z-4.579
G3 X57.675 Y-97.524 Z-4.76 I0.072 J-0.631
G1 Y-99.088
X57.684 Y-99.266
X57.703 Y-99.415
X57.738 Y-99.575
X57.787 Y-99.737
X57.855 Y-99.911
X57.943 Y-100.091
X58.049 Y-100.27
X58.178 Y-100.453
X58.33 Y-100.636
X58.503 Y-100.812
X58.696 Y-100.979
X58.914 Y-101.14
X59.135 Y-101.277
X59.38 Y-101.403
X59.625 Y-101.504
X59.865 Y-101.582
X60.129 Y-101.645
X60.373 Y-101.682
X60.634 Y-101.701
X60.889 Y-101.699
X60.974 Y-101.692
X61.281 Y-101.631
X61.569 Y-101.508
X61.824 Y-101.326
X62.036 Y-101.095
X62.194 Y-100.825
X62.292 Y-100.527
X62.325 Y-100.216
Y-98.676
G3 X61.669 Y-98.064 Z-4.56 I-0.635 J-0.022
G1 X61.614 Y-98.068
X58.331 Y-98.468
X58.233 Y-98.48 Z-4.58
G3 X57.675 Y-99.088 Z-4.76 I0.077 J-0.63
G1 Y-100.631
X57.684 Y-100.806
X57.703 Y-100.955
X57.738 Y-101.114
X57.787 Y-101.277
X57.855 Y-101.451
X57.943 Y-101.631
X58.048 Y-101.809
X58.178 Y-101.993
X58.33 Y-102.175
X58.502 Y-102.351
X58.696 Y-102.519
X58.914 Y-102.679
X59.135 Y-102.817
X59.38 Y-102.942
X59.625 Y-103.044
X59.865 Y-103.122
X60.129 Y-103.184
X60.373 Y-103.222
X60.634 Y-103.241
X60.889 Y-103.239
X60.974 Y-103.231
X61.281 Y-103.171
X61.569 Y-103.047
X61.824 Y-102.866
X62.036 Y-102.635
X62.194 Y-102.364
X62.292 Y-102.067
X62.325 Y-101.755
Y-100.216
G3 X61.669 Y-99.603 Z-4.56 I-0.635 J-0.022
G1 X61.613 Y-99.608
X58.331 Y-100.011
X58.232 Y-100.023 Z-4.58
G3 X57.675 Y-100.631 Z-4.76 I0.077 J-0.63
G1 Y-102.195
X57.682 Y-102.345
X57.702 Y-102.494
X57.737 Y-102.653
X57.786 Y-102.816
X57.854 Y-102.991
X57.942 Y-103.17
X58.047 Y-103.349
X58.177 Y-103.532
X58.329 Y-103.715
X58.501 Y-103.89
X58.695 Y-104.059
X58.913 Y-104.219
X59.135 Y-104.356
X59.379 Y-104.482
X59.624 Y-104.584
X59.865 Y-104.662
X60.129 Y-104.724
X60.373 Y-104.762
X60.633 Y-104.781
X60.889 Y-104.779
X60.974 Y-104.771
X61.281 Y-104.711
X61.569 Y-104.587
X61.824 Y-104.405
X62.036 Y-104.174
X62.194 Y-103.904
X62.292 Y-103.607
X62.325 Y-103.295
Y-101.755
G3 X61.669 Y-101.143 Z-4.56 I-0.635 J-0.022
G1 X61.608 Y-101.148
X58.331 Y-101.575
X58.228 Y-101.588 Z-4.581
G3 X57.675 Y-102.195 Z-4.76 I0.082 J-0.63
G1 Y-103.739
X57.682 Y-103.889
X57.702 Y-104.037
X57.737 Y-104.197
X57.787 Y-104.36
X57.855 Y-104.534
X57.944 Y-104.714
X58.05 Y-104.893
X58.18 Y-105.076
X58.332 Y-105.259
X58.505 Y-105.434
X58.699 Y-105.602
X58.918 Y-105.762
X59.14 Y-105.899
X59.385 Y-106.024
X59.63 Y-106.126
X59.87 Y-106.203
X60.134 Y-106.265
X60.378 Y-106.302
X60.639 Y-106.321
X60.894 Y-106.318
X60.977 Y-106.311
X61.284 Y-106.25
X61.571 Y-106.126
X61.826 Y-105.944
X62.037 Y-105.713
X62.194 Y-105.443
X62.292 Y-105.146
X62.325 Y-104.835
Y-103.295
G3 X61.669 Y-102.683 Z-4.56 I-0.635 J-0.022
G1 X61.608 Y-102.688
X58.331 Y-103.118
X58.227 Y-103.131 Z-4.581
G3 X57.675 Y-103.739 Z-4.76 I0.083 J-0.63
G1 Y-105.303
X57.682 Y-105.453
X57.704 Y-105.601
X57.742 Y-105.763
X57.795 Y-105.928
X57.866 Y-106.102
X57.958 Y-106.283
X58.068 Y-106.463
X58.201 Y-106.645
X58.357 Y-106.827
X58.535 Y-107.003
X58.733 Y-107.17
X58.954 Y-107.327
X59.176 Y-107.46
X59.425 Y-107.583
X59.668 Y-107.68
X59.913 Y-107.755
X60.176 Y-107.813
X60.418 Y-107.847
X60.683 Y-107.862
X60.934 Y-107.856
X60.997 Y-107.85
X61.3 Y-107.786
X61.583 Y-107.66
X61.834 Y-107.478
X62.042 Y-107.247
X62.197 Y-106.979
X62.293 Y-106.684
X62.325 Y-106.376
Y-104.835
G3 X61.669 Y-104.223 Z-4.56 I-0.635 J-0.022
G1 X61.603 Y-104.228
X58.331 Y-104.681
X58.223 Y-104.696 Z-4.582
G3 X57.675 Y-105.303 Z-4.76 I0.087 J-0.629
G1 Y-106.846
X57.682 Y-106.996
X57.705 Y-107.144
X57.742 Y-107.305
X57.795 Y-107.469
X57.867 Y-107.646
X57.958 Y-107.825
X58.068 Y-108.004
X58.202 Y-108.188
X58.359 Y-108.37
X58.535 Y-108.544
X58.734 Y-108.711
X58.956 Y-108.87
X59.18 Y-109.003
X59.426 Y-109.125
X59.672 Y-109.222
X59.914 Y-109.296
X60.178 Y-109.355
X60.422 Y-109.388
X60.684 Y-109.403
X60.937 Y-109.397
X60.998 Y-109.391
X61.301 Y-109.326
X61.584 Y-109.2
X61.834 Y-109.018
X62.042 Y-108.788
X62.197 Y-108.52
X62.293 Y-108.225
X62.325 Y-107.917
Y-106.376
G3 X61.669 Y-105.764 Z-4.56 I-0.635 J-0.022
G1 X61.603 Y-105.769
X58.331 Y-106.224
X58.222 Y-106.239 Z-4.582
G3 X57.675 Y-106.846 Z-4.76 I0.087 J-0.629
G1 Y-108.296
X57.686 Y-108.507
X57.705 Y-108.656
X57.738 Y-108.811
X57.787 Y-108.975
X57.856 Y-109.15
X57.941 Y-109.326
X58.047 Y-109.506
X58.177 Y-109.691
X58.327 Y-109.872
X58.497 Y-110.046
X58.693 Y-110.216
X58.911 Y-110.378
X59.135 Y-110.517
X59.372 Y-110.639
X59.622 Y-110.743
X59.86 Y-110.821
X60.124 Y-110.884
X60.371 Y-110.922
X60.626 Y-110.941
X60.885 Y-110.94
X60.971 Y-110.932
X61.279 Y-110.872
X61.567 Y-110.749
X61.823 Y-110.567
X62.035 Y-110.336
X62.194 Y-110.066
X62.292 Y-109.768
X62.325 Y-109.456
Y-107.917
G3 X61.669 Y-107.305 Z-4.56 I-0.635 J-0.022
G1 X61.62 Y-107.308
X58.331 Y-107.677
X58.239 Y-107.687 Z-4.579
G3 X57.675 Y-108.296 Z-4.76 I0.071 J-0.631
G1 Y-109.953
X57.682 Y-110.103
X57.707 Y-110.251
X57.748 Y-110.414
X57.805 Y-110.584
X57.879 Y-110.757
X57.975 Y-110.939
X58.092 Y-111.122
X58.228 Y-111.303
X58.387 Y-111.483
X58.572 Y-111.659
X58.776 Y-111.826
X58.997 Y-111.978
X59.221 Y-112.107
X59.474 Y-112.227
X59.713 Y-112.317
X59.968 Y-112.391
X60.225 Y-112.444
X60.468 Y-112.473
X60.735 Y-112.484
X60.981 Y-112.475
X61.02 Y-112.47
X61.319 Y-112.402
X61.598 Y-112.274
X61.844 Y-112.091
X62.048 Y-111.862
X62.199 Y-111.595
X62.293 Y-111.304
X62.325 Y-110.999
Y-109.456
G3 X61.669 Y-108.844 Z-4.56 I-0.635 J-0.022
G1 X61.598 Y-108.85
X58.33 Y-109.33
X58.217 Y-109.347 Z-4.583
G3 X57.675 Y-109.953 Z-4.76 I0.092 J-0.628
G1 Y-111.403
X57.684 Y-111.589
X57.704 Y-111.738
X57.736 Y-111.89
X57.787 Y-112.058
X57.854 Y-112.231
X57.939 Y-112.406
X58.047 Y-112.589
X58.176 Y-112.772
X58.324 Y-112.951
X58.496 Y-113.126
X58.693 Y-113.298
X58.91 Y-113.459
X59.137 Y-113.6
X59.369 Y-113.719
X59.622 Y-113.825
X59.86 Y-113.903
X60.123 Y-113.965
X60.373 Y-114.004
X60.624 Y-114.023
X60.885 Y-114.022
X60.971 Y-114.014
X61.279 Y-113.954
X61.567 Y-113.831
X61.823 Y-113.649
X62.035 Y-113.418
X62.194 Y-113.148
X62.292 Y-112.85
X62.325 Y-112.538
Y-110.999
G3 X61.669 Y-110.386 Z-4.56 I-0.635 J-0.022
G1 X61.615 Y-110.39
X58.331 Y-110.783
X58.234 Y-110.795 Z-4.58
G3 X57.675 Y-111.403 Z-4.76 I0.075 J-0.631
G1 Y-112.967
X57.683 Y-113.127
X57.703 Y-113.276
X57.737 Y-113.435
X57.786 Y-113.598
X57.854 Y-113.772
X57.942 Y-113.952
X58.048 Y-114.131
X58.177 Y-114.314
X58.329 Y-114.497
X58.502 Y-114.673
X58.695 Y-114.841
X58.913 Y-115.001
X59.134 Y-115.138
X59.379 Y-115.264
X59.624 Y-115.366
X59.864 Y-115.444
X60.128 Y-115.506
X60.372 Y-115.544
X60.633 Y-115.563
X60.888 Y-115.561
X60.974 Y-115.553
X61.281 Y-115.493
X61.569 Y-115.369
X61.824 Y-115.188
X62.036 Y-114.957
X62.194 Y-114.687
X62.292 Y-114.389
X62.325 Y-114.077
Y-112.538
G3 X61.669 Y-111.925 Z-4.56 I-0.635 J-0.022
G1 X61.61 Y-111.93
X58.331 Y-112.347
X58.23 Y-112.359 Z-4.58
G3 X57.675 Y-112.967 Z-4.76 I0.08 J-0.63
G1 Y-114.511
X57.683 Y-114.668
X57.702 Y-114.816
X57.737 Y-114.976
X57.786 Y-115.138
X57.854 Y-115.313
X57.942 Y-115.492
X58.048 Y-115.671
X58.177 Y-115.854
X58.329 Y-116.037
X58.501 Y-116.213
X58.695 Y-116.381
X58.913 Y-116.541
X59.135 Y-116.678
X59.379 Y-116.804
X59.624 Y-116.906
X59.865 Y-116.984
X60.129 Y-117.046
X60.373 Y-117.084
X60.633 Y-117.103
X60.889 Y-117.101
X60.974 Y-117.093
X61.281 Y-117.033
X61.569 Y-116.909
X61.824 Y-116.728
X62.036 Y-116.497
X62.194 Y-116.226
X62.292 Y-115.929
X62.325 Y-115.617
Y-114.077
G3 X61.669 Y-113.465 Z-4.56 I-0.635 J-0.022
G1 X61.61 Y-113.47
X58.331 Y-113.89
X58.229 Y-113.903 Z-4.581
G3 X57.675 Y-114.511 Z-4.76 I0.081 J-0.63
G1 Y-116.075
X57.682 Y-116.224
X57.703 Y-116.373
X57.74 Y-116.534
X57.791 Y-116.698
X57.861 Y-116.872
X57.952 Y-117.053
X58.06 Y-117.233
X58.192 Y-117.415
X58.347 Y-117.597
X58.523 Y-117.773
X58.719 Y-117.94
X58.939 Y-118.099
X59.16 Y-118.233
X59.408 Y-118.358
X59.652 Y-118.456
X59.895 Y-118.532
X60.158 Y-118.592
X60.401 Y-118.627
X60.665 Y-118.644
X60.917 Y-118.639
X60.988 Y-118.632
X61.293 Y-118.569
X61.578 Y-118.444
X61.83 Y-118.263
X62.039 Y-118.032
X62.196 Y-117.763
X62.292 Y-117.467
X62.325 Y-117.158
Y-115.617
G3 X61.669 Y-115.005 Z-4.56 I-0.635 J-0.022
G1 X61.605 Y-115.01
X58.331 Y-115.453
X58.224 Y-115.467 Z-4.581
G3 X57.675 Y-116.075 Z-4.76 I0.085 J-0.629
G1 Y-117.618
X57.682 Y-117.768
X57.704 Y-117.916
X57.74 Y-118.076
X57.792 Y-118.24
X57.863 Y-118.416
X57.953 Y-118.596
X58.061 Y-118.774
X58.194 Y-118.958
X58.349 Y-119.14
X58.524 Y-119.315
X58.721 Y-119.482
X58.942 Y-119.642
X59.165 Y-119.776
X59.411 Y-119.899
X59.656 Y-119.998
X59.898 Y-120.073
X60.162 Y-120.133
X60.405 Y-120.168
X60.668 Y-120.184
X60.921 Y-120.179
X60.99 Y-120.173
X61.294 Y-120.11
X61.579 Y-119.984
X61.831 Y-119.803
X62.04 Y-119.572
X62.196 Y-119.303
X62.292 Y-119.007
X62.325 Y-118.698
Y-117.158
G3 X61.669 Y-116.545 Z-4.56 I-0.635 J-0.022
G1 X61.605 Y-116.551
X58.331 Y-116.996
X58.224 Y-117.011 Z-4.582
G3 X57.675 Y-117.618 Z-4.76 I0.086 J-0.629
G1 Y-119.182
X57.682 Y-119.332
X57.706 Y-119.48
X57.745 Y-119.643
X57.799 Y-119.808
X57.873 Y-119.984
X57.967 Y-120.165
X58.079 Y-120.345
X58.215 Y-120.527
X58.374 Y-120.709
X58.554 Y-120.884
X58.754 Y-121.05
X58.977 Y-121.206
X59.2 Y-121.337
X59.451 Y-121.458
X59.694 Y-121.552
X59.94 Y-121.626
X60.202 Y-121.682
X60.445 Y-121.713
X60.71 Y-121.726
X60.96 Y-121.718
X61.009 Y-121.712
X61.31 Y-121.646
X61.591 Y-121.519
X61.839 Y-121.337
X62.045 Y-121.107
X62.198 Y-120.84
X62.293 Y-120.547
X62.325 Y-120.24
Y-118.698
G3 X61.669 Y-118.086 Z-4.56 I-0.635 J-0.022
G1 X61.6 Y-118.092
X58.33 Y-118.559
X58.22 Y-118.575 Z-4.582
G3 X57.675 Y-119.182 Z-4.76 I0.09 J-0.629
G1 Y-120.725
X57.682 Y-120.875
X57.706 Y-121.025
X57.746 Y-121.186
X57.8 Y-121.352
X57.875 Y-121.53
X57.968 Y-121.709
X58.081 Y-121.889
X58.218 Y-122.073
X58.377 Y-122.254
X58.556 Y-122.427
X58.757 Y-122.594
X58.982 Y-122.751
X59.207 Y-122.882
X59.454 Y-123.001
X59.7 Y-123.096
X59.944 Y-123.168
X60.207 Y-123.224
X60.451 Y-123.255
X60.714 Y-123.268
X60.965 Y-123.259
X61.011 Y-123.254
X61.312 Y-123.187
X61.592 Y-123.06
X61.84 Y-122.878
X62.045 Y-122.648
X62.198 Y-122.381
X62.293 Y-122.088
X62.325 Y-121.782
Y-120.24
G3 X61.669 Y-119.628 Z-4.56 I-0.635 J-0.022
G1 X61.6 Y-119.634
X58.33 Y-120.103
X58.219 Y-120.119 Z-4.582
G3 X57.675 Y-120.725 Z-4.76 I0.09 J-0.629
G1 Y-122.175
X57.685 Y-122.371
X57.704 Y-122.52
X57.737 Y-122.673
X57.787 Y-122.839
X57.855 Y-123.014
X57.94 Y-123.189
X58.047 Y-123.37
X58.176 Y-123.555
X58.325 Y-123.734
X58.496 Y-123.909
X58.692 Y-124.08
X58.91 Y-124.242
X59.135 Y-124.382
X59.37 Y-124.503
X59.621 Y-124.608
X59.859 Y-124.685
X60.122 Y-124.748
X60.371 Y-124.787
X60.624 Y-124.806
X60.884 Y-124.805
X60.971 Y-124.797
X61.279 Y-124.737
X61.567 Y-124.614
X61.823 Y-124.432
X62.035 Y-124.201
X62.194 Y-123.931
X62.292 Y-123.633
X62.325 Y-123.321
Y-121.782
G3 X61.669 Y-121.169 Z-4.56 I-0.635 J-0.022
G1 X61.617 Y-121.173
X58.331 Y-121.555
X58.236 Y-121.566 Z-4.579
G3 X57.675 Y-122.175 Z-4.76 I0.073 J-0.631
G1 Y-123.739
X57.684 Y-123.911
X57.703 Y-124.059
X57.738 Y-124.219
X57.787 Y-124.381
X57.855 Y-124.556
X57.943 Y-124.735
X58.048 Y-124.914
X58.177 Y-125.097
X58.33 Y-125.28
X58.502 Y-125.456
X58.696 Y-125.624
X58.913 Y-125.784
X59.135 Y-125.921
X59.38 Y-126.047
X59.624 Y-126.149
X59.865 Y-126.227
X60.129 Y-126.289
X60.373 Y-126.327
X60.634 Y-126.346
X60.888 Y-126.344
X60.974 Y-126.336
X61.281 Y-126.276
X61.569 Y-126.152
X61.824 Y-125.971
X62.036 Y-125.74
X62.194 Y-125.469
X62.292 Y-125.172
X62.325 Y-124.86
Y-123.321
G3 X61.669 Y-122.708 Z-4.56 I-0.635 J-0.022
G1 X61.612 Y-122.713
X58.331 Y-123.119
X58.232 Y-123.131 Z-4.58
G3 X57.675 Y-123.739 Z-4.76 I0.078 J-0.63
G1 Y-125.282
X57.683 Y-125.451
X57.703 Y-125.599
X57.737 Y-125.759
X57.787 Y-125.921
X57.855 Y-126.096
X57.942 Y-126.275
X58.048 Y-126.454
X58.177 Y-126.637
X58.33 Y-126.82
X58.502 Y-126.995
X58.695 Y-127.163
X58.913 Y-127.324
X59.135 Y-127.461
X59.379 Y-127.587
X59.625 Y-127.688
X59.865 Y-127.766
X60.129 Y-127.829
X60.373 Y-127.867
X60.634 Y-127.885
X60.889 Y-127.883
X60.974 Y-127.876
X61.281 Y-127.815
X61.569 Y-127.692
X61.824 Y-127.51
X62.036 Y-127.279
X62.194 Y-127.009
X62.292 Y-126.711
X62.325 Y-126.4
Y-124.86
G3 X61.669 Y-124.248 Z-4.56 I-0.635 J-0.022
G1 X61.612 Y-124.252
X58.331 Y-124.662
X58.231 Y-124.674 Z-4.58
G3 X57.675 Y-125.282 Z-4.76 I0.079 J-0.63
G1 Y-126.846
X57.682 Y-126.996
X57.703 Y-127.145
X57.738 Y-127.305
X57.788 Y-127.468
X57.857 Y-127.642
X57.945 Y-127.823
X58.052 Y-128.001
X58.182 Y-128.184
X58.336 Y-128.367
X58.509 Y-128.543
X58.704 Y-128.71
X58.922 Y-128.87
X59.144 Y-129.007
X59.39 Y-129.132
X59.635 Y-129.232
X59.876 Y-129.309
X60.14 Y-129.371
X60.383 Y-129.408
X60.645 Y-129.426
X60.899 Y-129.423
X60.979 Y-129.415
X61.286 Y-129.354
X61.572 Y-129.23
X61.827 Y-129.048
X62.037 Y-128.817
X62.195 Y-128.548
X62.292 Y-128.251
X62.325 Y-127.94
Y-126.4
G3 X61.669 Y-125.787 Z-4.56 I-0.635 J-0.022
G1 X61.607 Y-125.793
X58.331 Y-126.225
X58.226 Y-126.239 Z-4.581
G3 X57.675 Y-126.846 Z-4.76 I0.083 J-0.63
G1 Y-128.39
X57.682 Y-128.539
X57.703 Y-128.688
X57.738 Y-128.848
X57.789 Y-129.011
X57.858 Y-129.186
X57.947 Y-129.366
X58.054 Y-129.545
X58.185 Y-129.728
X58.339 Y-129.91
X58.512 Y-130.086
X58.707 Y-130.253
X58.927 Y-130.413
X59.149 Y-130.549
X59.394 Y-130.674
X59.639 Y-130.774
X59.88 Y-130.851
X60.144 Y-130.912
X60.388 Y-130.948
X60.65 Y-130.966
X60.904 Y-130.963
X60.982 Y-130.955
X61.288 Y-130.894
X61.574 Y-130.769
X61.828 Y-130.588
X62.038 Y-130.357
X62.195 Y-130.087
X62.292 Y-129.79
X62.325 Y-129.48
Y-127.94
G3 X61.669 Y-127.327 Z-4.56 I-0.635 J-0.022
G1 X61.607 Y-127.333
X58.331 Y-127.768
X58.226 Y-127.782 Z-4.581
G3 X57.675 Y-128.39 Z-4.76 I0.084 J-0.629
G1 Y-129.954
X57.682 Y-130.103
X57.705 Y-130.252
X57.743 Y-130.414
X57.796 Y-130.579
X57.869 Y-130.754
X57.961 Y-130.935
X58.072 Y-131.115
X58.206 Y-131.297
X58.363 Y-131.479
X58.542 Y-131.655
X58.741 Y-131.821
X58.962 Y-131.978
X59.185 Y-132.11
X59.435 Y-132.233
X59.677 Y-132.328
X59.923 Y-132.403
X60.185 Y-132.46
X60.428 Y-132.493
X60.693 Y-132.507
X60.943 Y-132.501
X61.001 Y-132.495
X61.304 Y-132.43
X61.586 Y-132.303
X61.836 Y-132.121
X62.043 Y-131.891
X62.197 Y-131.623
X62.293 Y-131.329
X62.325 Y-131.021
Y-129.48
G3 X61.669 Y-128.868 Z-4.56 I-0.635 J-0.022
G1 X61.602 Y-128.873
X58.33 Y-129.332
X58.222 Y-129.347 Z-4.582
G3 X57.675 Y-129.954 Z-4.76 I0.088 J-0.629
G1 Y-131.497
X57.682 Y-131.647
X57.705 Y-131.796
X57.743 Y-131.956
X57.797 Y-132.121
X57.87 Y-132.298
X57.962 Y-132.478
X58.073 Y-132.657
X58.208 Y-132.841
X58.366 Y-133.023
X58.543 Y-133.197
X58.742 Y-133.363
X58.966 Y-133.521
X59.19 Y-133.654
X59.437 Y-133.775
X59.682 Y-133.871
X59.925 Y-133.945
X60.189 Y-134.002
X60.432 Y-134.035
X60.695 Y-134.049
X60.947 Y-134.042
X61.003 Y-134.036
X61.305 Y-133.971
X61.587 Y-133.844
X61.837 Y-133.662
X62.043 Y-133.432
X62.197 Y-133.164
X62.293 Y-132.87
X62.325 Y-132.563
Y-131.021
G3 X61.669 Y-130.409 Z-4.56 I-0.635 J-0.022
G1 X61.602 Y-130.415
X58.33 Y-130.875
X58.221 Y-130.89 Z-4.582
G3 X57.675 Y-131.497 Z-4.76 I0.088 J-0.629
G1 Y-132.947
X57.685 Y-133.153
X57.705 Y-133.301
X57.738 Y-133.455
X57.787 Y-133.62
X57.855 Y-133.795
X57.941 Y-133.971
X58.047 Y-134.151
X58.177 Y-134.336
X58.326 Y-134.516
X58.496 Y-134.69
X58.692 Y-134.861
X58.911 Y-135.023
X59.135 Y-135.162
X59.371 Y-135.284
X59.621 Y-135.389
X59.859 Y-135.466
X60.123 Y-135.529
X60.371 Y-135.568
X60.625 Y-135.587
X60.884 Y-135.585
X60.971 Y-135.578
X61.279 Y-135.518
X61.567 Y-135.395
X61.823 Y-135.213
X62.035 Y-134.982
X62.194 Y-134.712
X62.292 Y-134.414
X62.325 Y-134.102
Y-132.563
G3 X61.669 Y-131.95 Z-4.56 I-0.635 J-0.022
G1 X61.619 Y-131.954
X58.331 Y-132.328
X58.238 Y-132.338 Z-4.579
G3 X57.675 Y-132.947 Z-4.76 I0.072 J-0.631
G1 Y-134.604
X57.682 Y-134.754
X57.708 Y-134.902
X57.749 Y-135.065
X57.807 Y-135.236
X57.882 Y-135.409
X57.978 Y-135.591
X58.096 Y-135.775
X58.233 Y-135.955
X58.393 Y-136.135
X58.578 Y-136.311
X58.784 Y-136.478
X59.005 Y-136.629
X59.23 Y-136.758
X59.483 Y-136.877
X59.722 Y-136.966
X59.978 Y-137.039
X60.234 Y-137.091
X60.478 Y-137.12
X60.745 Y-137.13
X60.989 Y-137.12
X61.025 Y-137.115
X61.323 Y-137.046
X61.601 Y-136.918
X61.846 Y-136.735
X62.049 Y-136.506
X62.2 Y-136.24
X62.293 Y-135.949
X62.325 Y-135.645
Y-134.102
G3 X61.669 Y-133.489 Z-4.56 I-0.635 J-0.022
G1 X61.597 Y-133.496
X58.33 Y-133.981
X58.216 Y-133.998 Z-4.583
G3 X57.675 Y-134.604 Z-4.76 I0.093 J-0.628
G1 Y-136.054
X57.684 Y-136.235
X57.704 Y-136.384
X57.736 Y-136.536
X57.787 Y-136.704
X57.854 Y-136.877
X57.939 Y-137.052
X58.047 Y-137.235
X58.176 Y-137.418
X58.324 Y-137.597
X58.496 Y-137.773
X58.694 Y-137.945
X58.911 Y-138.105
X59.138 Y-138.246
X59.369 Y-138.366
X59.623 Y-138.471
X59.861 Y-138.549
X60.123 Y-138.612
X60.374 Y-138.651
X60.624 Y-138.669
X60.886 Y-138.667
X60.972 Y-138.66
X61.279 Y-138.6
X61.568 Y-138.476
X61.823 Y-138.295
X62.035 Y-138.064
X62.194 Y-137.793
X62.292 Y-137.496
X62.325 Y-137.184
Y-135.645
G3 X61.669 Y-135.032 Z-4.56 I-0.635 J-0.022
G1 X61.614 Y-135.036
X58.331 Y-135.434
X58.233 Y-135.446 Z-4.58
G3 X57.675 Y-136.054 Z-4.76 I0.076 J-0.63
G1 Y-137.618
X57.683 Y-137.773
X57.702 Y-137.922
X57.737 Y-138.081
X57.786 Y-138.244
X57.854 Y-138.418
X57.942 Y-138.598
X58.047 Y-138.776
X58.176 Y-138.959
X58.329 Y-139.143
X58.501 Y-139.319
X58.694 Y-139.486
X58.912 Y-139.647
X59.134 Y-139.784
X59.378 Y-139.91
X59.624 Y-140.012
X59.864 Y-140.09
X60.128 Y-140.152
X60.372 Y-140.19
X60.633 Y-140.209
X60.888 Y-140.207
X60.974 Y-140.199
X61.281 Y-140.139
X61.569 Y-140.015
X61.824 Y-139.834
X62.036 Y-139.603
X62.194 Y-139.333
X62.292 Y-139.035
X62.325 Y-138.723
Y-137.184
G3 X61.669 Y-136.571 Z-4.56 I-0.635 J-0.022
G1 X61.609 Y-136.576
X58.331 Y-136.997
X58.229 Y-137.01 Z-4.581
G3 X57.675 Y-137.618 Z-4.76 I0.081 J-0.63
G1 Y-139.161
X57.683 Y-139.313
X57.702 Y-139.462
X57.737 Y-139.622
X57.786 Y-139.784
X57.854 Y-139.959
X57.942 Y-140.138
X58.047 Y-140.317
X58.177 Y-140.5
X58.329 Y-140.683
X58.501 Y-140.859
X58.695 Y-141.027
X58.913 Y-141.187
X59.135 Y-141.324
X59.379 Y-141.45
X59.624 Y-141.552
X59.864 Y-141.63
X60.129 Y-141.692
X60.373 Y-141.73
X60.633 Y-141.749
X60.888 Y-141.747
X60.974 Y-141.739
X61.281 Y-141.679
X61.569 Y-141.555
X61.824 Y-141.374
X62.036 Y-141.143
X62.194 Y-140.872
X62.292 Y-140.575
X62.325 Y-140.263
Y-138.723
G3 X61.669 Y-138.111 Z-4.56 I-0.635 J-0.022
G1 X61.609 Y-138.116
X58.331 Y-138.541
X58.228 Y-138.554 Z-4.581
G3 X57.675 Y-139.161 Z-4.76 I0.082 J-0.63
G1 Y-140.725
X57.682 Y-140.875
X57.704 Y-141.024
X57.741 Y-141.185
X57.793 Y-141.35
X57.863 Y-141.524
X57.955 Y-141.705
X58.064 Y-141.885
X58.196 Y-142.067
X58.352 Y-142.249
X58.529 Y-142.425
X58.726 Y-142.592
X58.946 Y-142.75
X59.167 Y-142.884
X59.416 Y-143.007
X59.659 Y-143.105
X59.904 Y-143.181
X60.166 Y-143.24
X60.409 Y-143.274
X60.673 Y-143.29
X60.925 Y-143.285
X60.992 Y-143.278
X61.296 Y-143.215
X61.58 Y-143.089
X61.832 Y-142.907
X62.04 Y-142.677
X62.196 Y-142.408
X62.292 Y-142.113
X62.325 Y-141.804
Y-140.263
G3 X61.669 Y-139.651 Z-4.56 I-0.635 J-0.022
G1 X61.604 Y-139.656
X58.331 Y-140.104
X58.224 Y-140.118 Z-4.582
G3 X57.675 Y-140.725 Z-4.76 I0.086 J-0.629
G1 Y-142.269
X57.682 Y-142.418
X57.704 Y-142.567
X57.741 Y-142.727
X57.793 Y-142.891
X57.865 Y-143.068
X57.955 Y-143.247
X58.064 Y-143.426
X58.198 Y-143.61
X58.354 Y-143.792
X58.529 Y-143.966
X58.727 Y-144.133
X58.949 Y-144.292
X59.172 Y-144.426
X59.418 Y-144.549
X59.663 Y-144.647
X59.905 Y-144.722
X60.169 Y-144.781
X60.413 Y-144.815
X60.675 Y-144.831
X60.928 Y-144.825
X60.993 Y-144.819
X61.297 Y-144.755
X61.581 Y-144.63
X61.833 Y-144.448
X62.041 Y-144.217
X62.196 Y-143.949
X62.292 Y-143.653
X62.325 Y-143.345
Y-141.804
G3 X61.669 Y-141.191 Z-4.56 I-0.635 J-0.022
G1 X61.604 Y-141.197
X58.331 Y-141.647
X58.223 Y-141.662 Z-4.582
G3 X57.675 Y-142.269 Z-4.76 I0.086 J-0.629
G1 Y-143.833
X57.682 Y-143.982
X57.706 Y-144.131
X57.746 Y-144.294
X57.801 Y-144.459
X57.875 Y-144.635
X57.97 Y-144.817
X58.083 Y-144.997
X58.219 Y-145.179
X58.379 Y-145.361
X58.559 Y-145.536
X58.76 Y-145.701
X58.984 Y-145.857
X59.207 Y-145.988
X59.458 Y-146.108
X59.701 Y-146.201
X59.948 Y-146.274
X60.21 Y-146.329
X60.452 Y-146.36
X60.718 Y-146.372
X60.967 Y-146.364
X61.013 Y-146.359
X61.313 Y-146.292
X61.593 Y-146.165
X61.841 Y-145.982
X62.046 Y-145.753
X62.199 Y-145.486
X62.293 Y-145.193
X62.325 Y-144.887
Y-143.345
G3 X61.669 Y-142.732 Z-4.56 I-0.635 J-0.022
G1 X61.6 Y-142.738
X58.33 Y-143.21
X58.219 Y-143.226 Z-4.583
G3 X57.675 Y-143.833 Z-4.76 I0.091 J-0.628
G1 Y-145.376
X57.682 Y-145.526
X57.707 Y-145.677
X57.746 Y-145.838
X57.802 Y-146.004
X57.877 Y-146.182
X57.971 Y-146.361
X58.084 Y-146.541
X58.222 Y-146.725
X58.382 Y-146.906
X58.561 Y-147.079
X58.764 Y-147.245
X58.99 Y-147.402
X59.214 Y-147.533
X59.462 Y-147.651
X59.708 Y-147.746
X59.952 Y-147.817
X60.215 Y-147.872
X60.459 Y-147.903
X60.722 Y-147.914
X60.973 Y-147.905
X61.015 Y-147.9
X61.315 Y-147.833
X61.595 Y-147.706
X61.842 Y-147.523
X62.046 Y-147.294
X62.199 Y-147.027
X62.293 Y-146.734
X62.325 Y-146.429
Y-144.887
G3 X61.669 Y-144.274 Z-4.56 I-0.635 J-0.022
G1 X61.599 Y-144.28
X58.33 Y-144.753
X58.219 Y-144.77 Z-4.583
G3 X57.675 Y-145.376 Z-4.76 I0.091 J-0.628
G1 Y-146.826
X57.685 Y-147.018
X57.704 Y-147.167
X57.737 Y-147.32
X57.787 Y-147.487
X57.855 Y-147.66
X57.94 Y-147.835
X58.047 Y-148.018
X58.176 Y-148.202
X58.325 Y-148.381
X58.496 Y-148.556
X58.693 Y-148.727
X58.91 Y-148.889
X59.136 Y-149.029
X59.369 Y-149.149
X59.622 Y-149.255
X59.859 Y-149.332
X60.122 Y-149.395
X60.372 Y-149.434
X60.624 Y-149.453
X60.884 Y-149.452
X60.971 Y-149.444
X61.279 Y-149.384
X61.567 Y-149.261
X61.823 Y-149.079
X62.035 Y-148.848
X62.194 Y-148.578
X62.292 Y-148.28
X62.325 Y-147.968
Y-146.429
G3 X61.669 Y-145.816 Z-4.56 I-0.635 J-0.022
G1 X61.616 Y-145.82
X58.331 Y-146.206
X58.236 Y-146.217 Z-4.579
G3 X57.675 Y-146.826 Z-4.76 I0.074 J-0.631
G1 Y-148.39
X57.683 Y-148.557
X57.703 Y-148.706
X57.737 Y-148.866
X57.786 Y-149.028
X57.855 Y-149.202
X57.942 Y-149.382
X58.048 Y-149.561
X58.177 Y-149.744
X58.33 Y-149.927
X58.502 Y-150.103
X58.695 Y-150.271
X58.913 Y-150.431
X59.135 Y-150.568
X59.379 Y-150.694
X59.624 Y-150.796
X59.865 Y-150.874
X60.129 Y-150.936
X60.372 Y-150.974
X60.633 Y-150.993
X60.888 Y-150.991
X60.974 Y-150.983
X61.281 Y-150.923
X61.569 Y-150.799
X61.824 Y-150.618
X62.036 Y-150.387
X62.194 Y-150.116
X62.292 Y-149.819
X62.325 Y-149.507
Y-147.968
G3 X61.669 Y-147.355 Z-4.56 I-0.635 J-0.022
G1 X61.612 Y-147.36
X58.331 Y-147.77
X58.231 Y-147.782 Z-4.58
G3 X57.675 Y-148.39 Z-4.76 I0.079 J-0.63
G1 Y-149.933
X57.683 Y-150.097
X57.703 Y-150.246
X57.737 Y-150.406
X57.786 Y-150.568
X57.855 Y-150.743
X57.942 Y-150.922
X58.048 Y-151.101
X58.177 Y-151.284
X58.33 Y-151.467
X58.502 Y-151.642
X58.695 Y-151.81
X58.913 Y-151.971
X59.135 Y-152.108
X59.379 Y-152.234
X59.625 Y-152.335
X59.865 Y-152.413
X60.129 Y-152.476
X60.373 Y-152.514
X60.634 Y-152.532
X60.889 Y-152.53
X60.974 Y-152.523
X61.281 Y-152.462
X61.569 Y-152.339
X61.824 Y-152.157
X62.036 Y-151.926
X62.194 Y-151.656
X62.292 Y-151.358
X62.325 Y-151.047
Y-149.507
G3 X61.669 Y-148.895 Z-4.56 I-0.635 J-0.022
G1 X61.611 Y-148.899
X58.331 Y-149.313
X58.23 Y-149.325 Z-4.58
G3 X57.675 Y-149.933 Z-4.76 I0.079 J-0.63
G1 Y-151.497
X57.682 Y-151.647
X57.703 Y-151.796
X57.739 Y-151.956
X57.789 Y-152.12
X57.858 Y-152.294
X57.948 Y-152.474
X58.055 Y-152.653
X58.186 Y-152.836
X58.34 Y-153.019
X58.514 Y-153.195
X58.709 Y-153.362
X58.928 Y-153.521
X59.15 Y-153.657
X59.396 Y-153.782
X59.641 Y-153.882
X59.883 Y-153.958
X60.146 Y-154.019
X60.39 Y-154.055
X60.652 Y-154.073
X60.905 Y-154.07
X60.982 Y-154.062
X61.288 Y-154
X61.574 Y-153.876
X61.828 Y-153.694
X62.038 Y-153.464
X62.195 Y-153.194
X62.292 Y-152.897
X62.325 Y-152.587
Y-151.047
G3 X61.669 Y-150.434 Z-4.56 I-0.635 J-0.022
G1 X61.607 Y-150.44
X58.331 Y-150.876
X58.226 Y-150.89 Z-4.581
G3 X57.675 Y-151.497 Z-4.76 I0.084 J-0.629
G1 Y-153.04
X57.682 Y-153.19
X57.703 Y-153.339
X57.739 Y-153.499
X57.79 Y-153.662
X57.86 Y-153.838
X57.949 Y-154.017
X58.056 Y-154.196
X58.188 Y-154.38
X58.342 Y-154.562
X58.516 Y-154.737
X58.712 Y-154.905
X58.932 Y-155.064
X59.154 Y-155.2
X59.4 Y-155.324
X59.645 Y-155.423
X59.887 Y-155.5
X60.151 Y-155.56
X60.394 Y-155.596
X60.656 Y-155.613
X60.91 Y-155.609
X60.984 Y-155.602
X61.29 Y-155.54
X61.576 Y-155.415
X61.829 Y-155.234
X62.039 Y-155.003
X62.195 Y-154.734
X62.292 Y-154.437
X62.325 Y-154.127
Y-152.587
G3 X61.669 Y-151.975 Z-4.56 I-0.635 J-0.022
G1 X61.606 Y-151.98
X58.331 Y-152.419
X58.225 Y-152.433 Z-4.581
G3 X57.675 Y-153.04 Z-4.76 I0.084 J-0.629
G1 Y-154.604
X57.682 Y-154.754
X57.705 Y-154.902
X57.744 Y-155.065
X57.797 Y-155.23
X57.87 Y-155.405
X57.963 Y-155.587
X58.075 Y-155.767
X58.209 Y-155.949
X58.367 Y-156.131
X58.546 Y-156.306
X58.746 Y-156.472
X58.968 Y-156.629
X59.19 Y-156.761
X59.44 Y-156.883
X59.683 Y-156.978
X59.929 Y-157.052
X60.191 Y-157.109
X60.434 Y-157.141
X60.699 Y-157.155
X60.949 Y-157.148
X61.004 Y-157.142
X61.306 Y-157.076
X61.588 Y-156.95
X61.837 Y-156.768
X62.043 Y-156.538
X62.198 Y-156.27
X62.293 Y-155.976
X62.325 Y-155.669
Y-154.127
G3 X61.669 Y-153.515 Z-4.56 I-0.635 J-0.022
G1 X61.602 Y-153.521
X58.33 Y-153.982
X58.221 Y-153.998 Z-4.582
G3 X57.675 Y-154.604 Z-4.76 I0.089 J-0.629
G1 Y-156.148
X57.682 Y-156.298
X57.706 Y-156.447
X57.744 Y-156.608
X57.798 Y-156.773
X57.872 Y-156.95
X57.964 Y-157.13
X58.076 Y-157.309
X58.212 Y-157.493
X58.37 Y-157.675
X58.547 Y-157.848
X58.747 Y-158.015
X58.972 Y-158.173
X59.196 Y-158.305
X59.443 Y-158.425
X59.689 Y-158.521
X59.932 Y-158.594
X60.195 Y-158.651
X60.439 Y-158.683
X60.702 Y-158.696
X60.954 Y-158.689
X61.006 Y-158.683
X61.307 Y-158.617
X61.589 Y-158.491
X61.838 Y-158.309
X62.044 Y-158.079
X62.198 Y-157.811
X62.293 Y-157.517
X62.325 Y-157.21
Y-155.669
G3 X61.669 Y-155.056 Z-4.56 I-0.635 J-0.022
G1 X61.601 Y-155.062
X58.33 Y-155.526
X58.221 Y-155.541 Z-4.582
G3 X57.675 Y-156.148 Z-4.76 I0.089 J-0.629
G1 Y-157.598
X57.685 Y-157.8
X57.705 Y-157.949
X57.738 Y-158.103
X57.787 Y-158.268
X57.855 Y-158.443
X57.94 Y-158.618
X58.047 Y-158.799
X58.177 Y-158.984
X58.326 Y-159.163
X58.496 Y-159.338
X58.692 Y-159.509
X58.911 Y-159.67
X59.135 Y-159.81
X59.371 Y-159.931
X59.621 Y-160.036
X59.859 Y-160.114
X60.122 Y-160.177
X60.371 Y-160.216
X60.625 Y-160.235
X60.884 Y-160.233
X60.971 Y-160.226
X61.279 Y-160.166
X61.567 Y-160.042
X61.823 Y-159.861
X62.035 Y-159.63
X62.194 Y-159.359
X62.292 Y-159.061
X62.325 Y-158.749
Y-157.21
G3 X61.669 Y-156.598 Z-4.56 I-0.635 J-0.022
G1 X61.618 Y-156.602
X58.331 Y-156.978
X58.237 Y-156.989 Z-4.579
G3 X57.675 Y-157.598 Z-4.76 I0.072 J-0.631
G1 Y-159.162
X57.684 Y-159.339
X57.703 Y-159.488
X57.738 Y-159.648
X57.787 Y-159.81
X57.855 Y-159.984
X57.943 Y-160.164
X58.049 Y-160.343
X58.178 Y-160.526
X58.33 Y-160.709
X58.503 Y-160.885
X58.696 Y-161.052
X58.914 Y-161.213
X59.135 Y-161.35
X59.38 Y-161.476
X59.625 Y-161.577
X59.865 Y-161.655
X60.129 Y-161.718
X60.373 Y-161.755
X60.634 Y-161.774
X60.889 Y-161.772
X60.974 Y-161.765
X61.281 Y-161.704
X61.569 Y-161.581
X61.824 Y-161.399
X62.036 Y-161.168
X62.194 Y-160.898
X62.292 Y-160.6
X62.325 Y-160.289
Y-158.749
G3 X61.669 Y-158.137 Z-4.56 I-0.635 J-0.022
G1 X61.614 Y-158.141
X58.331 Y-158.542
X58.233 Y-158.554 Z-4.58
G3 X57.675 Y-159.162 Z-4.76 I0.077 J-0.63
G1 Y-160.705
X57.684 Y-160.879
X57.703 Y-161.028
X57.738 Y-161.187
X57.787 Y-161.35
X57.855 Y-161.524
X57.943 Y-161.704
X58.048 Y-161.882
X58.178 Y-162.066
X58.33 Y-162.248
X58.502 Y-162.424
X58.696 Y-162.592
X58.914 Y-162.752
X59.135 Y-162.89
X59.38 Y-163.015
X59.625 Y-163.117
X59.865 Y-163.195
X60.129 Y-163.257
X60.373 Y-163.295
X60.634 Y-163.314
X60.889 Y-163.312
X60.974 Y-163.304
X61.281 Y-163.244
X61.569 Y-163.12
X61.824 Y-162.939
X62.036 Y-162.708
X62.194 Y-162.437
X62.292 Y-162.14
X62.325 Y-161.828
Y-160.289
G3 X61.669 Y-159.676 Z-4.56 I-0.635 J-0.022
G1 X61.613 Y-159.681
X58.331 Y-160.085
X58.232 Y-160.097 Z-4.58
G3 X57.675 Y-160.705 Z-4.76 I0.078 J-0.63
G1 Y-162.269
X57.682 Y-162.419
X57.702 Y-162.568
X57.737 Y-162.727
X57.786 Y-162.89
X57.854 Y-163.064
X57.942 Y-163.244
X58.048 Y-163.422
X58.177 Y-163.606
X58.33 Y-163.788
X58.502 Y-163.964
X58.696 Y-164.132
X58.914 Y-164.293
X59.136 Y-164.43
X59.38 Y-164.555
X59.625 Y-164.657
X59.866 Y-164.735
X60.13 Y-164.797
X60.374 Y-164.835
X60.635 Y-164.854
X60.89 Y-164.852
X60.975 Y-164.844
X61.282 Y-164.783
X61.569 Y-164.66
X61.825 Y-164.478
X62.036 Y-164.247
X62.194 Y-163.977
X62.292 Y-163.679
X62.325 Y-163.368
Y-161.828
G3 X61.669 Y-161.216 Z-4.56 I-0.635 J-0.022
G1 X61.608 Y-161.221
X58.331 Y-161.648
X58.228 Y-161.661 Z-4.581
G3 X57.675 Y-162.269 Z-4.76 I0.082 J-0.63
G1 Y-163.812
X57.682 Y-163.962
X57.702 Y-164.111
X57.737 Y-164.271
X57.787 Y-164.433
X57.856 Y-164.608
X57.944 Y-164.788
X58.05 Y-164.966
X58.18 Y-165.149
X58.333 Y-165.332
X58.506 Y-165.508
X58.7 Y-165.676
X58.919 Y-165.836
X59.14 Y-165.973
X59.385 Y-166.098
X59.631 Y-166.199
X59.871 Y-166.276
X60.135 Y-166.338
X60.379 Y-166.375
X60.64 Y-166.394
X60.895 Y-166.391
X60.977 Y-166.384
X61.284 Y-166.323
X61.571 Y-166.199
X61.826 Y-166.017
X62.037 Y-165.786
X62.194 Y-165.516
X62.292 Y-165.219
X62.325 Y-164.908
Y-163.368
G3 X61.669 Y-162.756 Z-4.56 I-0.635 J-0.022
G1 X61.608 Y-162.761
X58.331 Y-163.191
X58.227 Y-163.205 Z-4.581
G3 X57.675 Y-163.812 Z-4.76 I0.083 J-0.63
G1 Y-165.376
X57.682 Y-165.526
X57.704 Y-165.674
X57.742 Y-165.836
X57.795 Y-166.001
X57.866 Y-166.176
X57.958 Y-166.357
X58.068 Y-166.537
X58.201 Y-166.719
X58.358 Y-166.901
X58.536 Y-167.077
X58.734 Y-167.244
X58.955 Y-167.401
X59.177 Y-167.534
X59.426 Y-167.657
X59.669 Y-167.753
X59.914 Y-167.829
X60.176 Y-167.887
X60.419 Y-167.92
X60.684 Y-167.935
X60.935 Y-167.929
X60.997 Y-167.923
X61.3 Y-167.859
X61.583 Y-167.733
X61.834 Y-167.551
X62.042 Y-167.32
X62.197 Y-167.052
X62.293 Y-166.757
X62.325 Y-166.449
Y-164.908
G3 X61.669 Y-164.296 Z-4.56 I-0.635 J-0.022
G1 X61.603 Y-164.301
X58.331 Y-164.754
X58.223 Y-164.769 Z-4.582
G3 X57.675 Y-165.376 Z-4.76 I0.087 J-0.629
G1 Y-166.919
X57.682 Y-167.069
X57.705 Y-167.218
X57.742 Y-167.378
X57.795 Y-167.543
X57.867 Y-167.719
X57.959 Y-167.899
X58.069 Y-168.078
X58.203 Y-168.262
X58.36 Y-168.444
X58.536 Y-168.618
X58.734 Y-168.785
X58.957 Y-168.943
X59.181 Y-169.077
X59.427 Y-169.198
X59.673 Y-169.296
X59.915 Y-169.37
X60.179 Y-169.428
X60.423 Y-169.461
X60.685 Y-169.476
X60.938 Y-169.47
X60.998 Y-169.464
X61.301 Y-169.399
X61.584 Y-169.273
X61.835 Y-169.091
X62.042 Y-168.861
X62.197 Y-168.593
X62.293 Y-168.298
X62.325 Y-167.99
Y-166.449
G3 X61.669 Y-165.837 Z-4.56 I-0.635 J-0.022
G1 X61.603 Y-165.842
X58.331 Y-166.298
X58.222 Y-166.313 Z-4.582
G3 X57.675 Y-166.919 Z-4.76 I0.088 J-0.629
G1 Y-168.37
X57.686 Y-168.58
X57.705 Y-168.729
X57.738 Y-168.884
X57.787 Y-169.048
X57.856 Y-169.223
X57.941 Y-169.399
X58.047 Y-169.579
X58.177 Y-169.764
X58.327 Y-169.945
X58.497 Y-170.119
X58.692 Y-170.289
X58.911 Y-170.451
X59.135 Y-170.59
X59.372 Y-170.712
X59.622 Y-170.816
X59.86 Y-170.894
X60.124 Y-170.957
X60.371 Y-170.995
X60.626 Y-171.014
X60.884 Y-171.013
X60.971 Y-171.005
X61.279 Y-170.945
X61.567 Y-170.822
X61.823 Y-170.641
X62.035 Y-170.409
X62.194 Y-170.139
X62.292 Y-169.841
X62.325 Y-169.529
Y-167.99
G3 X61.669 Y-167.378 Z-4.56 I-0.635 J-0.022
G1 X61.62 Y-167.381
X58.331 Y-167.75
X58.239 Y-167.761 Z-4.579
G3 X57.675 Y-168.37 Z-4.76 I0.071 J-0.631
G1 Y-170.027
X57.682 Y-170.177
X57.707 Y-170.325
X57.748 Y-170.487
X57.805 Y-170.657
X57.879 Y-170.831
X57.975 Y-171.012
X58.092 Y-171.196
X58.228 Y-171.376
X58.388 Y-171.556
X58.572 Y-171.733
X58.777 Y-171.899
X58.998 Y-172.051
X59.222 Y-172.181
X59.475 Y-172.3
X59.714 Y-172.391
X59.968 Y-172.464
X60.225 Y-172.517
X60.469 Y-172.546
X60.736 Y-172.557
X60.981 Y-172.548
X61.021 Y-172.543
X61.32 Y-172.475
X61.598 Y-172.347
X61.844 Y-172.164
X62.048 Y-171.935
X62.2 Y-171.668
X62.293 Y-171.377
X62.325 Y-171.072
Y-169.529
G3 X61.669 Y-168.917 Z-4.56 I-0.635 J-0.022
G1 X61.598 Y-168.923
X58.33 Y-169.404
X58.217 Y-169.421 Z-4.583
G3 X57.675 Y-170.027 Z-4.76 I0.092 J-0.628
G1 Y-171.477
X57.684 Y-171.662
X57.704 Y-171.811
X57.736 Y-171.963
X57.787 Y-172.131
X57.854 Y-172.304
X57.939 Y-172.479
X58.047 Y-172.662
X58.176 Y-172.845
X58.324 Y-173.024
X58.496 Y-173.199
X58.693 Y-173.371
X58.91 Y-173.532
X59.137 Y-173.673
X59.369 Y-173.793
X59.622 Y-173.898
X59.86 Y-173.976
X60.123 Y-174.039
X60.373 Y-174.078
X60.624 Y-174.096
X60.885 Y-174.095
X60.971 Y-174.087
X61.279 Y-174.027
X61.567 Y-173.904
X61.823 Y-173.722
X62.035 Y-173.491
X62.194 Y-173.221
X62.292 Y-172.923
X62.325 Y-172.611
Y-171.072
G3 X61.669 Y-170.459 Z-4.56 I-0.635 J-0.022
G1 X61.615 Y-170.463
X58.331 Y-170.857
X58.234 Y-170.868 Z-4.58
G3 X57.675 Y-171.477 Z-4.76 I0.076 J-0.63
G1 Y-173.041
X57.683 Y-173.2
X57.702 Y-173.349
X57.737 Y-173.509
X57.786 Y-173.671
X57.854 Y-173.845
X57.942 Y-174.025
X58.048 Y-174.204
X58.177 Y-174.387
X58.329 Y-174.57
X58.502 Y-174.746
X58.695 Y-174.914
X58.913 Y-175.074
X59.134 Y-175.211
X59.379 Y-175.337
X59.624 Y-175.439
X59.864 Y-175.517
X60.128 Y-175.579
X60.372 Y-175.617
X60.633 Y-175.636
X60.888 Y-175.634
X60.974 Y-175.627
X61.281 Y-175.566
X61.569 Y-175.442
X61.824 Y-175.261
X62.036 Y-175.03
X62.194 Y-174.76
X62.292 Y-174.462
X62.325 Y-174.151
Y-172.611
G3 X61.669 Y-171.999 Z-4.56 I-0.635 J-0.022
G1 X61.61 Y-172.003
X58.331 Y-172.42
X58.23 Y-172.433 Z-4.58
G3 X57.675 Y-173.041 Z-4.76 I0.08 J-0.63
G1 Y-174.584
X57.683 Y-174.741
X57.702 Y-174.889
X57.737 Y-175.049
X57.786 Y-175.211
X57.854 Y-175.386
X57.942 Y-175.565
X58.048 Y-175.744
X58.177 Y-175.927
X58.329 Y-176.11
X58.501 Y-176.286
X58.695 Y-176.454
X58.913 Y-176.614
X59.135 Y-176.752
X59.379 Y-176.877
X59.624 Y-176.979
X59.865 Y-177.057
X60.129 Y-177.119
X60.373 Y-177.157
X60.633 Y-177.176
X60.889 Y-177.174
X60.974 Y-177.166
X61.281 Y-177.106
X61.569 Y-176.982
X61.824 Y-176.801
X62.036 Y-176.57
X62.194 Y-176.299
X62.292 Y-176.002
X62.325 Y-175.69
Y-174.151
G3 X61.669 Y-173.538 Z-4.56 I-0.635 J-0.022
G1 X61.61 Y-173.543
X58.331 Y-173.963
X58.229 Y-173.976 Z-4.581
G3 X57.675 Y-174.584 Z-4.76 I0.081 J-0.63
G1 Y-176.148
X57.682 Y-176.298
X57.704 Y-176.446
X57.74 Y-176.608
X57.791 Y-176.772
X57.862 Y-176.946
X57.952 Y-177.127
X58.061 Y-177.306
X58.192 Y-177.488
X58.347 Y-177.671
X58.523 Y-177.847
X58.72 Y-178.014
X58.939 Y-178.173
X59.161 Y-178.307
X59.409 Y-178.431
X59.652 Y-178.529
X59.896 Y-178.606
X60.159 Y-178.665
X60.402 Y-178.7
X60.666 Y-178.717
X60.918 Y-178.712
X60.989 Y-178.705
X61.293 Y-178.642
X61.578 Y-178.517
X61.831 Y-178.336
X62.04 Y-178.105
X62.196 Y-177.836
X62.292 Y-177.54
X62.325 Y-177.231
Y-175.69
G3 X61.669 Y-175.078 Z-4.56 I-0.635 J-0.022
G1 X61.605 Y-175.083
X58.331 Y-175.527
X58.224 Y-175.541 Z-4.581
G3 X57.675 Y-176.148 Z-4.76 I0.085 J-0.629
G1 Y-177.691
X57.682 Y-177.841
X57.704 Y-177.99
X57.74 Y-178.15
X57.792 Y-178.314
X57.863 Y-178.49
X57.953 Y-178.669
X58.062 Y-178.848
X58.194 Y-179.032
X58.349 Y-179.214
X58.524 Y-179.389
X58.721 Y-179.556
X58.943 Y-179.715
X59.165 Y-179.85
X59.411 Y-179.973
X59.657 Y-180.071
X59.898 Y-180.147
X60.162 Y-180.206
X60.406 Y-180.241
X60.668 Y-180.257
X60.922 Y-180.253
X60.99 Y-180.246
X61.295 Y-180.183
X61.579 Y-180.057
X61.831 Y-179.876
X62.04 Y-179.645
X62.196 Y-179.376
X62.292 Y-179.081
X62.325 Y-178.771
Y-177.231
G3 X61.669 Y-176.618 Z-4.56 I-0.635 J-0.022
G1 X61.605 Y-176.624
X58.331 Y-177.07
X58.224 Y-177.084 Z-4.582
G3 X57.675 Y-177.691 Z-4.76 I0.086 J-0.629
G1 Y-179.255
X57.682 Y-179.405
X57.706 Y-179.553
X57.745 Y-179.716
X57.8 Y-179.882
X57.873 Y-180.057
X57.967 Y-180.239
X58.08 Y-180.419
X58.215 Y-180.601
X58.374 Y-180.783
X58.554 Y-180.958
X58.755 Y-181.124
X58.978 Y-181.28
X59.201 Y-181.411
X59.451 Y-181.532
X59.694 Y-181.626
X59.941 Y-181.699
X60.203 Y-181.755
X60.446 Y-181.786
X60.711 Y-181.799
X60.96 Y-181.791
X61.009 Y-181.785
X61.31 Y-181.719
X61.591 Y-181.592
X61.84 Y-181.41
X62.045 Y-181.18
X62.198 Y-180.913
X62.293 Y-180.62
X62.325 Y-180.313
Y-178.771
G3 X61.669 Y-178.159 Z-4.56 I-0.635 J-0.022
G1 X61.6 Y-178.165
X58.33 Y-178.633
X58.22 Y-178.649 Z-4.582
G3 X57.675 Y-179.255 Z-4.76 I0.09 J-0.629
G1 Y-180.799
X57.682 Y-180.948
X57.707 Y-181.099
X57.746 Y-181.26
X57.8 Y-181.426
X57.875 Y-181.603
X57.969 Y-181.783
X58.081 Y-181.962
X58.218 Y-182.147
X58.377 Y-182.328
X58.556 Y-182.501
X58.758 Y-182.667
X58.983 Y-182.824
X59.207 Y-182.956
X59.455 Y-183.075
X59.701 Y-183.17
X59.944 Y-183.242
X60.208 Y-183.297
X60.451 Y-183.328
X60.715 Y-183.341
X60.966 Y-183.332
X61.012 Y-183.327
X61.312 Y-183.26
X61.593 Y-183.133
X61.84 Y-182.951
X62.045 Y-182.721
X62.198 Y-182.454
X62.293 Y-182.161
X62.325 Y-181.855
Y-180.313
G3 X61.669 Y-179.701 Z-4.56 I-0.635 J-0.022
G1 X61.6 Y-179.707
X58.33 Y-180.176
X58.219 Y-180.192 Z-4.583
G3 X57.675 Y-180.799 Z-4.76 I0.09 J-0.629
G1 Y-182.249
X57.685 Y-182.445
X57.704 Y-182.593
X57.737 Y-182.746
X57.787 Y-182.912
X57.855 Y-183.087
X57.94 Y-183.262
X58.047 Y-183.444
X58.176 Y-183.628
X58.325 Y-183.807
X58.496 Y-183.982
X58.692 Y-184.154
X58.91 Y-184.315
X59.135 Y-184.455
X59.37 Y-184.576
X59.621 Y-184.681
X59.859 Y-184.758
X60.122 Y-184.822
X60.371 Y-184.86
X60.624 Y-184.879
X60.884 Y-184.878
X60.971 Y-184.87
X61.279 Y-184.81
X61.567 Y-184.687
X61.823 Y-184.506
X62.035 Y-184.274
X62.194 Y-184.004
X62.292 Y-183.706
X62.325 Y-183.394
Y-181.855
G3 X61.669 Y-181.243 Z-4.56 I-0.635 J-0.022
G1 X61.617 Y-181.246
X58.331 Y-181.629
X58.236 Y-181.64 Z-4.579
G3 X57.675 Y-182.249 Z-4.76 I0.073 J-0.631
G1 Y-183.813
X57.684 Y-183.984
X57.703 Y-184.133
X57.738 Y-184.292
X57.787 Y-184.454
X57.855 Y-184.629
X57.943 Y-184.809
X58.048 Y-184.987
X58.177 Y-185.17
X58.33 Y-185.353
X58.502 Y-185.529
X58.696 Y-185.697
X58.913 Y-185.857
X59.135 Y-185.995
X59.38 Y-186.12
X59.624 Y-186.222
X59.865 Y-186.3
X60.129 Y-186.363
X60.373 Y-186.4
X60.634 Y-186.419
X60.888 Y-186.417
X60.974 Y-186.409
X61.281 Y-186.349
X61.569 Y-186.225
X61.824 Y-186.044
X62.036 Y-185.813
X62.194 Y-185.543
X62.292 Y-185.245
X62.325 Y-184.934
Y-183.394
G3 X61.669 Y-182.782 Z-4.56 I-0.635 J-0.022
G1 X61.612 Y-182.786
X58.331 Y-183.192
X58.232 Y-183.205 Z-4.58
G3 X57.675 Y-183.813 Z-4.76 I0.078 J-0.63
G1 Y-185.356
X57.683 Y-185.524
X57.703 Y-185.672
X57.737 Y-185.832
X57.786 Y-185.995
X57.855 Y-186.169
X57.942 Y-186.348
X58.048 Y-186.527
X58.177 Y-186.71
X58.33 Y-186.893
X58.502 Y-187.069
X58.695 Y-187.237
X58.913 Y-187.397
X59.135 Y-187.534
X59.379 Y-187.66
X59.625 Y-187.762
X59.865 Y-187.839
X60.129 Y-187.902
X60.373 Y-187.94
X60.634 Y-187.959
X60.889 Y-187.957
X60.974 Y-187.949
X61.281 Y-187.889
X61.569 Y-187.765
X61.824 Y-187.583
X62.036 Y-187.352
X62.194 Y-187.082
X62.292 Y-186.785
X62.325 Y-186.473
Y-184.934
G3 X61.669 Y-184.321 Z-4.56 I-0.635 J-0.022
G1 X61.612 Y-184.326
X58.331 Y-184.735
X58.231 Y-184.748 Z-4.58
G3 X57.675 Y-185.356 Z-4.76 I0.079 J-0.63
G1 Y-186.92
X57.682 Y-187.07
X57.703 Y-187.218
X57.738 Y-187.378
X57.788 Y-187.542
X57.857 Y-187.716
X57.946 Y-187.896
X58.052 Y-188.075
X58.183 Y-188.258
X58.336 Y-188.441
X58.51 Y-188.616
X58.704 Y-188.784
X58.923 Y-188.944
X59.145 Y-189.08
X59.39 Y-189.205
X59.635 Y-189.306
X59.876 Y-189.383
X60.14 Y-189.444
X60.384 Y-189.481
X60.646 Y-189.499
X60.9 Y-189.496
X60.98 Y-189.489
X61.286 Y-189.427
X61.573 Y-189.303
X61.827 Y-189.121
X62.037 Y-188.891
X62.195 Y-188.621
X62.292 Y-188.324
X62.325 Y-188.013
Y-186.473
G3 X61.669 Y-185.861 Z-4.56 I-0.635 J-0.022
G1 X61.607 Y-185.866
X58.331 Y-186.299
X58.226 Y-186.312 Z-4.581
G3 X57.675 Y-186.92 Z-4.76 I0.083 J-0.63
G1 Y-188.463
X57.682 Y-188.613
X57.703 Y-188.762
X57.738 Y-188.922
X57.789 Y-189.085
X57.858 Y-189.26
X57.947 Y-189.44
X58.054 Y-189.618
X58.185 Y-189.802
X58.339 Y-189.984
X58.513 Y-190.159
X58.708 Y-190.327
X58.927 Y-190.487
X59.149 Y-190.623
X59.395 Y-190.747
X59.64 Y-190.847
X59.881 Y-190.924
X60.145 Y-190.985
X60.389 Y-191.022
X60.65 Y-191.039
X60.905 Y-191.036
X60.982 Y-191.028
X61.288 Y-190.967
X61.574 Y-190.842
X61.828 Y-190.661
X62.038 Y-190.43
X62.195 Y-190.16
X62.292 Y-189.864
X62.325 Y-189.553
Y-188.013
G3 X61.669 Y-187.401 Z-4.56 I-0.635 J-0.022
G1 X61.607 Y-187.406
X58.331 Y-187.842
X58.226 Y-187.856 Z-4.581
G3 X57.675 Y-188.463 Z-4.76 I0.084 J-0.629
G1 Y-190.027
X57.682 Y-190.177
X57.705 Y-190.325
X57.743 Y-190.488
X57.796 Y-190.653
X57.869 Y-190.827
X57.962 Y-191.009
X58.072 Y-191.189
X58.206 Y-191.371
X58.364 Y-191.553
X58.543 Y-191.729
X58.741 Y-191.895
X58.963 Y-192.052
X59.185 Y-192.184
X59.435 Y-192.306
X59.678 Y-192.402
X59.924 Y-192.477
X60.186 Y-192.534
X60.429 Y-192.566
X60.693 Y-192.581
X60.944 Y-192.574
X61.001 Y-192.568
X61.304 Y-192.503
X61.586 Y-192.377
X61.836 Y-192.194
X62.043 Y-191.964
X62.197 Y-191.696
X62.293 Y-191.402
X62.325 Y-191.095
Y-189.553
G3 X61.669 Y-188.941 Z-4.56 I-0.635 J-0.022
G1 X61.602 Y-188.947
X58.33 Y-189.405
X58.221 Y-189.42 Z-4.582
G3 X57.675 Y-190.027 Z-4.76 I0.088 J-0.629
G1 Y-191.57
X57.682 Y-191.72
X57.705 Y-191.869
X57.743 Y-192.03
X57.797 Y-192.195
X57.87 Y-192.372
X57.962 Y-192.552
X58.073 Y-192.731
X58.209 Y-192.915
X58.366 Y-193.096
X58.543 Y-193.27
X58.743 Y-193.437
X58.966 Y-193.595
X59.19 Y-193.727
X59.437 Y-193.848
X59.683 Y-193.945
X59.926 Y-194.018
X60.189 Y-194.075
X60.433 Y-194.108
X60.696 Y-194.122
X60.948 Y-194.115
X61.003 Y-194.109
X61.305 Y-194.044
X61.587 Y-193.917
X61.837 Y-193.735
X62.043 Y-193.505
X62.197 Y-193.237
X62.293 Y-192.943
X62.325 Y-192.636
Y-191.095
G3 X61.669 Y-190.482 Z-4.56 I-0.635 J-0.022
G1 X61.602 Y-190.488
X58.33 Y-190.948
X58.221 Y-190.964 Z-4.582
G3 X57.675 Y-191.57 Z-4.76 I0.088 J-0.629
G1 Y-193.02
X57.685 Y-193.226
X57.705 Y-193.375
X57.738 Y-193.529
X57.787 Y-193.693
X57.855 Y-193.869
X57.941 Y-194.044
X58.047 Y-194.224
X58.177 Y-194.409
X58.326 Y-194.589
X58.496 Y-194.764
X58.692 Y-194.934
X58.911 Y-195.096
X59.135 Y-195.235
X59.371 Y-195.357
X59.621 Y-195.462
X59.859 Y-195.539
X60.123 Y-195.603
X60.371 Y-195.641
X60.625 Y-195.66
X60.884 Y-195.659
X60.971 Y-195.651
X61.279 Y-195.591
X61.567 Y-195.468
X61.823 Y-195.286
X62.035 Y-195.055
X62.194 Y-194.785
X62.292 Y-194.487
X62.325 Y-194.175
Y-192.636
G3 X61.669 Y-192.023 Z-4.56 I-0.635 J-0.022
G1 X61.619 Y-192.027
X58.331 Y-192.401
X58.238 Y-192.412 Z-4.579
G3 X57.675 Y-193.02 Z-4.76 I0.072 J-0.631
G1 Y-194.584
X57.684 Y-194.765
X57.704 Y-194.914
X57.738 Y-195.073
X57.787 Y-195.236
X57.855 Y-195.41
X57.943 Y-195.59
X58.049 Y-195.768
X58.178 Y-195.951
X58.33 Y-196.134
X58.503 Y-196.31
X58.696 Y-196.478
X58.914 Y-196.638
X59.135 Y-196.775
X59.38 Y-196.901
X59.625 Y-197.003
X59.865 Y-197.081
X60.129 Y-197.143
X60.373 Y-197.181
X60.634 Y-197.2
X60.889 Y-197.198
X60.974 Y-197.19
X61.281 Y-197.13
X61.569 Y-197.006
X61.824 Y-196.825
X62.036 Y-196.594
X62.194 Y-196.323
X62.292 Y-196.026
X62.325 Y-195.714
Y-194.175
G3 X61.669 Y-193.563 Z-4.56 I-0.635 J-0.022
G1 X61.614 Y-193.567
X58.331 Y-193.964
X58.233 Y-193.976 Z-4.58
G3 X57.675 Y-194.584 Z-4.76 I0.076 J-0.63
G1 Y-196.128
X57.684 Y-196.305
X57.703 Y-196.453
X57.738 Y-196.613
X57.787 Y-196.775
X57.855 Y-196.95
X57.943 Y-197.129
X58.048 Y-197.308
X58.178 Y-197.491
X58.33 Y-197.674
X58.502 Y-197.849
X58.696 Y-198.017
X58.914 Y-198.178
X59.135 Y-198.315
X59.38 Y-198.44
X59.625 Y-198.542
X59.865 Y-198.62
X60.129 Y-198.683
X60.373 Y-198.72
X60.634 Y-198.739
X60.889 Y-198.737
X60.974 Y-198.73
X61.281 Y-198.669
X61.569 Y-198.546
X61.824 Y-198.364
X62.036 Y-198.133
X62.194 Y-197.863
X62.292 Y-197.565
X62.325 Y-197.254
Y-195.714
G3 X61.669 Y-195.102 Z-4.56 I-0.635 J-0.022
G1 X61.613 Y-195.106
X58.331 Y-195.508
X58.233 Y-195.52 Z-4.58
G3 X57.675 Y-196.128 Z-4.76 I0.077 J-0.63
G1 Y-197.692
X57.683 Y-197.844
X57.702 Y-197.992
X57.737 Y-198.152
X57.786 Y-198.314
X57.854 Y-198.489
X57.942 Y-198.668
X58.047 Y-198.847
X58.177 Y-199.03
X58.329 Y-199.213
X58.501 Y-199.389
X58.695 Y-199.557
X58.913 Y-199.717
X59.135 Y-199.855
X59.379 Y-199.98
X59.624 Y-200.082
X59.864 Y-200.16
X60.128 Y-200.223
X60.373 Y-200.26
X60.633 Y-200.279
X60.888 Y-200.277
X60.974 Y-200.269
X61.281 Y-200.209
X61.569 Y-200.085
X61.824 Y-199.904
X62.036 Y-199.673
X62.194 Y-199.403
X62.292 Y-199.105
X62.325 Y-198.794
Y-197.254
G3 X61.669 Y-196.641 Z-4.56 I-0.635 J-0.022
G1 X61.609 Y-196.646
X58.331 Y-197.071
X58.228 Y-197.084 Z-4.581
G3 X57.675 Y-197.692 Z-4.76 I0.082 J-0.63
G1 Y-199.235
X57.682 Y-199.385
X57.702 Y-199.533
X57.737 Y-199.693
X57.786 Y-199.856
X57.854 Y-200.03
X57.942 Y-200.21
X58.048 Y-200.388
X58.178 Y-200.572
X58.33 Y-200.754
X58.503 Y-200.93
X58.696 Y-201.098
X58.914 Y-201.258
X59.136 Y-201.396
X59.381 Y-201.521
X59.626 Y-201.623
X59.866 Y-201.7
X60.131 Y-201.763
X60.375 Y-201.8
X60.635 Y-201.819
X60.89 Y-201.817
X60.975 Y-201.809
X61.282 Y-201.749
X61.57 Y-201.625
X61.825 Y-201.443
X62.036 Y-201.212
X62.194 Y-200.942
X62.292 Y-200.645
X62.325 Y-200.333
Y-198.794
G3 X61.669 Y-198.181 Z-4.56 I-0.635 J-0.022
G1 X61.608 Y-198.186
X58.331 Y-198.614
X58.227 Y-198.627 Z-4.581
G3 X57.675 Y-199.235 Z-4.76 I0.082 J-0.63
G1 Y-200.799
X57.682 Y-200.949
X57.704 Y-201.097
X57.742 Y-201.259
X57.794 Y-201.424
X57.865 Y-201.598
X57.957 Y-201.779
X58.067 Y-201.959
X58.199 Y-202.141
X58.355 Y-202.323
X58.533 Y-202.499
X58.73 Y-202.666
X58.951 Y-202.824
X59.172 Y-202.957
X59.422 Y-203.08
X59.665 Y-203.177
X59.91 Y-203.253
X60.172 Y-203.311
X60.415 Y-203.345
X60.679 Y-203.36
X60.93 Y-203.355
X60.995 Y-203.348
X61.298 Y-203.284
X61.582 Y-203.159
X61.833 Y-202.977
X62.041 Y-202.746
X62.197 Y-202.478
X62.293 Y-202.183
X62.325 Y-201.874
Y-200.333
G3 X61.669 Y-199.721 Z-4.56 I-0.635 J-0.022
G1 X61.604 Y-199.726
X58.331 Y-200.177
X58.223 Y-200.192 Z-4.582
G3 X57.675 Y-200.799 Z-4.76 I0.087 J-0.629
G1 Y-202.342
X57.682 Y-202.492
X57.705 Y-202.64
X57.742 Y-202.801
X57.794 Y-202.965
X57.866 Y-203.142
X57.957 Y-203.321
X58.067 Y-203.5
X58.201 Y-203.684
X58.357 Y-203.866
X58.533 Y-204.04
X58.731 Y-204.207
X58.953 Y-204.366
X59.177 Y-204.5
X59.423 Y-204.621
X59.669 Y-204.719
X59.911 Y-204.794
X60.175 Y-204.852
X60.418 Y-204.886
X60.681 Y-204.901
X60.934 Y-204.895
X60.996 Y-204.889
X61.299 Y-204.825
X61.583 Y-204.699
X61.834 Y-204.517
X62.041 Y-204.287
X62.197 Y-204.018
X62.293 Y-203.724
X62.325 Y-203.415
Y-201.874
G3 X61.669 Y-201.262 Z-4.56 I-0.635 J-0.022
G1 X61.603 Y-201.267
X58.331 Y-201.72
X58.223 Y-201.735 Z-4.582
G3 X57.675 Y-202.342 Z-4.76 I0.087 J-0.629
G1 Y-203.792
X57.686 Y-204.006
X57.705 Y-204.154
X57.739 Y-204.31
X57.788 Y-204.473
X57.856 Y-204.649
X57.942 Y-204.825
X58.047 Y-205.004
X58.178 Y-205.19
X58.328 Y-205.37
X58.498 Y-205.544
X58.693 Y-205.714
X58.912 Y-205.876
X59.135 Y-206.015
X59.373 Y-206.137
X59.622 Y-206.241
X59.86 Y-206.319
X60.124 Y-206.382
X60.371 Y-206.421
X60.627 Y-206.44
X60.885 Y-206.438
X60.971 Y-206.43
X61.279 Y-206.37
X61.568 Y-206.247
X61.823 Y-206.066
X62.035 Y-205.834
X62.194 Y-205.564
X62.292 Y-205.266
X62.325 Y-204.954
Y-203.415
G3 X61.669 Y-202.803 Z-4.56 I-0.635 J-0.022
G1 X61.62 Y-202.806
X58.331 Y-203.173
X58.239 Y-203.183 Z-4.578
G3 X57.675 Y-203.792 Z-4.76 I0.07 J-0.631
G1 Y-205.449
X57.682 Y-205.599
X57.707 Y-205.747
