(1001)
(T39  D=6.35 CR=0 - ZMIN=-4.76 - flat end mill)
G90 G94
G17
G21
G28 G91 Z0
G90

(2D Adaptive1)
T39
S18000 M3
G54
M8
G0 X-7.297 Y0.655
Z15
Z5
Z-3.49
G1 Z-4.125 F200
X-7.29 Y0.653 Z-4.224
X-7.267 Y0.647 Z-4.321
X-7.23 Y0.638 Z-4.413
X-7.18 Y0.625 Z-4.498
X-7.117 Y0.609 Z-4.574
X-7.044 Y0.59 Z-4.639
X-6.961 Y0.569 Z-4.691
X-6.872 Y0.546 Z-4.729
X-6.778 Y0.522 Z-4.752
X-6.682 Y0.497 Z-4.76
G3 X-3.225 Y0 I4.023 J15.704
G1 X-3.111
X-2.258 Y-0.322
X-1.463 Y-0.768
X-0.612 Y-1.096
X0.269 Y-1.33
X1.166 Y-1.494
X2.071 Y-1.605
X2.98 Y-1.68
X3.89 Y-1.73
X4.802 Y-1.763
X5.713 Y-1.785
X6.625 Y-1.799
X7.537 Y-1.808
X8.449 Y-1.814
X9.36 Y-1.818
X11.184 Y-1.822
X13.919 Y-1.824
X29.42 Y-1.825
X46.745
X87.434
X87.541 Y-1.865
X87.626 Y-1.941
X87.733 Y-2.142
X87.899 Y-3.039
X88 Y-3.945
X88.063 Y-4.854
X88.103 Y-5.765
X88.128 Y-6.677
X88.145 Y-7.588
X88.155 Y-8.5
X88.162 Y-9.412
X88.167 Y-10.324
X88.17 Y-11.236
X88.173 Y-13.059
X88.175 Y-16.706
Y-61.385
Y-111.535
Y-161.685
Y-211.835
Y-237.479
X88.135 Y-237.586
X88.059 Y-237.671
X87.858 Y-237.778
X86.958 Y-237.926
X86.051 Y-238.017
X85.141 Y-238.073
X84.23 Y-238.11
X83.318 Y-238.133
X82.407 Y-238.148
X81.495 Y-238.157
X80.583 Y-238.164
X79.671 Y-238.168
X77.848 Y-238.172
X75.112 Y-238.174
X63.259 Y-238.175
X13.109
X2.509
X2.402 Y-238.135
X2.317 Y-238.059
X2.21 Y-237.858
X2.067 Y-236.958
X1.979 Y-236.05
X1.924 Y-235.14
X1.889 Y-234.229
X1.866 Y-233.317
X1.852 Y-232.406
X1.842 Y-231.494
X1.836 Y-230.582
X1.832 Y-229.67
X1.828 Y-227.847
X1.826 Y-225.111
X1.825 Y-209.61
Y-198.669
Y-148.519
Y-98.369
Y-48.219
Y-7.074
X1.865 Y-6.967
X1.941 Y-6.882
X2.041 Y-6.828
X2.946 Y-6.713
X3.857 Y-6.737
X4.769 Y-6.758
X5.68 Y-6.775
X6.592 Y-6.788
X7.504 Y-6.798
X8.416 Y-6.806
X9.327 Y-6.811
X10.239 Y-6.815
X11.151 Y-6.818
X12.975 Y-6.822
X16.622 Y-6.824
X42.153 Y-6.825
X61.301
X82.386
X82.493 Y-6.865
X82.579 Y-6.941
X82.792 Y-7.343
X82.93 Y-8.245
X83.016 Y-9.152
X83.072 Y-10.062
X83.107 Y-10.974
X83.131 Y-11.885
X83.146 Y-12.797
X83.156 Y-13.709
X83.162 Y-14.62
X83.167 Y-15.532
X83.171 Y-17.356
X83.174 Y-20.091
X83.175 Y-31.033
Y-35.592
Y-85.742
Y-135.891
Y-186.041
Y-232.316
X83.135 Y-232.422
X83.059 Y-232.508
X82.657 Y-232.722
X81.76 Y-232.888
X80.854 Y-232.99
X79.945 Y-233.055
X79.034 Y-233.097
X78.122 Y-233.124
X77.211 Y-233.142
X76.299 Y-233.153
X75.387 Y-233.161
X74.475 Y-233.166
X73.564 Y-233.169
X71.74 Y-233.172
X68.093 Y-233.175
X28.885
X7.685
X7.578 Y-233.135
X7.493 Y-233.059
X7.279 Y-232.657
X7.113 Y-231.76
X7.01 Y-230.854
X6.945 Y-229.945
X6.903 Y-229.034
X6.876 Y-228.122
X6.858 Y-227.211
X6.847 Y-226.299
X6.839 Y-225.387
X6.834 Y-224.476
X6.831 Y-223.564
X6.828 Y-221.74
X6.825 Y-218.093
Y-204.416
Y-154.266
Y-104.116
Y-53.966
Y-12.479
X6.865 Y-12.372
X6.941 Y-12.287
X7.142 Y-12.18
X8.043 Y-12.044
X8.952 Y-11.961
X9.862 Y-11.91
X10.773 Y-11.878
X11.685 Y-11.859
X12.597 Y-11.846
X13.508 Y-11.838
X14.42 Y-11.833
X15.332 Y-11.83
X17.156 Y-11.827
X20.803 Y-11.825
X65.482
X77.335
X77.442 Y-11.865
X77.527 Y-11.941
X77.741 Y-12.343
X77.898 Y-13.241
X77.996 Y-14.148
X78.059 Y-15.058
X78.099 Y-15.969
X78.125 Y-16.88
X78.142 Y-17.792
X78.154 Y-18.703
X78.161 Y-19.615
X78.166 Y-20.527
X78.169 Y-21.439
X78.172 Y-23.262
X78.174 Y-26.91
X78.175 Y-50.617
Y-100.766
Y-150.916
Y-201.066
Y-227.281
X78.135 Y-227.387
X78.059 Y-227.473
X77.657 Y-227.686
X76.763 Y-227.865
X75.857 Y-227.975
X74.948 Y-228.045
X74.038 Y-228.09
X73.126 Y-228.119
X72.215 Y-228.139
X71.303 Y-228.151
X70.391 Y-228.159
X69.479 Y-228.165
X68.568 Y-228.168
X66.744 Y-228.172
X63.097 Y-228.174
X53.979 Y-228.175
X12.719
X12.612 Y-228.135
X12.527 Y-228.059
X12.313 Y-227.657
X12.135 Y-226.763
X12.025 Y-225.857
X11.955 Y-224.948
X11.91 Y-224.038
X11.88 Y-223.126
X11.861 Y-222.215
X11.849 Y-221.303
X11.841 Y-220.391
X11.835 Y-219.479
X11.832 Y-218.568
X11.828 Y-216.744
X11.826 Y-213.097
X11.825 Y-169.33
Y-119.18
Y-69.03
Y-18.88
Y-17.627
X11.865 Y-17.52
X11.941 Y-17.435
X12.343 Y-17.221
X13.244 Y-17.076
X14.151 Y-16.987
X15.061 Y-16.93
X15.972 Y-16.893
X16.884 Y-16.869
X17.795 Y-16.854
X18.707 Y-16.844
X19.619 Y-16.837
X20.531 Y-16.833
X22.354 Y-16.828
X25.09 Y-16.826
X36.943 Y-16.825
X60.65
X72.276
X72.383 Y-16.865
X72.468 Y-16.941
X72.682 Y-17.343
X72.862 Y-18.237
X72.974 Y-19.142
X73.044 Y-20.051
X73.09 Y-20.962
X73.108 Y-21.525
X73.133 Y-21.682
X73.196 Y-21.828
X73.293 Y-21.954
X73.686 Y-22.346
X73.872 Y-22.536
X74.06 Y-22.743
X74.1 Y-22.792
X74.217 Y-22.95
X74.307 Y-23.073
X75.135 Y-24.257
X75.235 Y-24.4
X75.613 Y-25.022
X75.757 Y-25.326
X76.387 Y-26.679
X76.482 Y-26.886
X76.558 Y-27.093
X76.681 Y-27.507
X76.741 Y-27.715
X77.129 Y-29.165
X77.213 Y-29.579
X77.241 Y-29.786
X77.298 Y-30.408
X77.407 Y-31.65
X77.414 Y-31.882
X77.423 Y-32.272
X77.425 Y-32.479
Y-207.521
X77.423 Y-207.728
X77.413 Y-208.142
X77.407 Y-208.35
X77.279 Y-209.8
X77.241 Y-210.214
X77.213 Y-210.421
X77.129 Y-210.835
X76.792 Y-212.095
X76.741 Y-212.285
X76.681 Y-212.493
X76.559 Y-212.907
X76.482 Y-213.114
X76.291 Y-213.528
X75.711 Y-214.771
X75.613 Y-214.978
X75.235 Y-215.6
X74.946 Y-216.014
X74.461 Y-216.786
X74.071 Y-217.61
X73.788 Y-218.477
X73.588 Y-219.367
X73.451 Y-220.268
X73.357 Y-221.175
X73.326 Y-221.63
X73.301 Y-222.085
X73.296 Y-222.199
X73.251 Y-222.304
X73.171 Y-222.386
X72.346 Y-222.774
X71.446 Y-222.918
X70.539 Y-223.008
X69.629 Y-223.066
X68.718 Y-223.104
X67.806 Y-223.128
X66.895 Y-223.144
X65.983 Y-223.155
X65.071 Y-223.162
X64.159 Y-223.166
X63.247 Y-223.169
X61.424 Y-223.172
X57.777 Y-223.175
X29.51
X17.657
X17.55 Y-223.135
X17.465 Y-223.059
X17.251 Y-222.657
X17.098 Y-221.758
X17.002 Y-220.851
X16.941 Y-219.941
X16.901 Y-219.03
X16.885 Y-218.469
X16.86 Y-218.312
X16.797 Y-218.165
X16.699 Y-218.039
X16.314 Y-217.654
X16.133 Y-217.464
X15.792 Y-217.05
X15.693 Y-216.926
X14.865 Y-215.743
X14.765 Y-215.6
X14.387 Y-214.978
X14.243 Y-214.674
X13.613 Y-213.321
X13.518 Y-213.114
X13.441 Y-212.907
X13.319 Y-212.493
X13.259 Y-212.285
X12.926 Y-211.042
X12.871 Y-210.835
X12.787 Y-210.421
X12.759 Y-210.214
X12.702 Y-209.592
X12.593 Y-208.35
X12.586 Y-208.118
X12.577 Y-207.728
X12.575 Y-207.521
Y-32.479
X12.577 Y-32.272
X12.587 Y-31.858
X12.593 Y-31.65
X12.721 Y-30.2
X12.759 Y-29.786
X12.787 Y-29.579
X12.871 Y-29.165
X13.259 Y-27.715
X13.319 Y-27.507
X13.442 Y-27.093
X13.518 Y-26.886
X13.709 Y-26.472
X14.289 Y-25.229
X14.387 Y-25.022
X14.765 Y-24.4
X15.072 Y-23.961
X15.693 Y-23.073
X15.783 Y-22.95
X15.9 Y-22.792
X15.94 Y-22.743
X16.128 Y-22.536
X16.332 Y-22.329
X17.367 Y-21.293
X17.577 Y-21.086
X17.764 Y-20.938
X18.108 Y-20.672
X18.178 Y-20.619
X19.421 Y-19.749
X19.591 Y-19.636
X19.835 Y-19.483
X20.042 Y-19.378
X20.25 Y-19.279
X21.492 Y-18.7
X22.114 Y-18.43
X22.735 Y-18.254
X23.978 Y-17.92
X24.185 Y-17.869
X24.659 Y-17.771
X24.806 Y-17.755
X26.67 Y-17.592
X26.877 Y-17.583
X27.292 Y-17.577
X27.499 Y-17.575
X27.913 Y-17.576
X28.12 Y-17.579
X28.741 Y-17.628
X29.984 Y-17.736
X30.191 Y-17.755
X30.345 Y-17.771
X30.605 Y-17.819
X30.813 Y-17.865
X32.055 Y-18.197
X32.677 Y-18.365
X32.776 Y-18.393
X32.884 Y-18.428
X33.298 Y-18.604
X33.505 Y-18.698
X34.628 Y-19.221
X34.748 Y-19.279
X35.369 Y-19.605
X35.576 Y-19.747
X35.99 Y-20.038
X36.763 Y-20.523
X37.585 Y-20.917
X38.45 Y-21.203
X39.34 Y-21.405
X40.241 Y-21.545
X41.147 Y-21.64
X42.057 Y-21.703
X42.968 Y-21.745
X43.879 Y-21.773
X44.791 Y-21.791
X45.703 Y-21.803
X46.614 Y-21.811
X47.526 Y-21.816
X48.438 Y-21.819
X50.262 Y-21.822
X51.574 Y-21.824
X51.738 Y-21.802
X51.891 Y-21.739
X52.022 Y-21.639
X52.578 Y-21.086
X52.767 Y-20.932
X53.181 Y-20.623
X53.4 Y-20.464
X54.424 Y-19.747
X54.631 Y-19.605
X55.252 Y-19.279
X55.372 Y-19.221
X56.495 Y-18.698
X56.712 Y-18.6
X57.116 Y-18.428
X57.224 Y-18.393
X57.323 Y-18.365
X58.152 Y-18.142
X59.187 Y-17.865
X59.395 Y-17.819
X59.655 Y-17.771
X59.809 Y-17.755
X60.43 Y-17.7
X61.259 Y-17.628
X61.88 Y-17.579
X62.087 Y-17.576
X62.501 Y-17.575
X62.708 Y-17.577
X63.123 Y-17.583
X63.33 Y-17.592
X65.194 Y-17.755
X65.341 Y-17.771
X65.815 Y-17.869
X66.022 Y-17.92
X67.265 Y-18.254
X67.886 Y-18.43
X68.508 Y-18.7
X69.75 Y-19.279
X69.958 Y-19.378
X70.165 Y-19.483
X70.409 Y-19.636
X70.579 Y-19.749
X71.822 Y-20.619
X71.892 Y-20.672
X72.236 Y-20.938
X72.423 Y-21.086
X72.65 Y-21.31
X73.293 Y-21.954
G3 X74.023 Y-22.051 I0.433 J0.464
G1 X74.111 Y-22.004 Z-4.752
X74.197 Y-21.959 Z-4.729
X74.278 Y-21.916 Z-4.691
X74.353 Y-21.876 Z-4.639
X74.42 Y-21.841 Z-4.574
X74.478 Y-21.811 Z-4.498
X74.524 Y-21.786 Z-4.413
X74.557 Y-21.769 Z-4.321
X74.578 Y-21.758 Z-4.224
X74.585 Y-21.754 Z-4.125
G0 Z5
X35.239 Y-18.845
Z-3.49
G1 Z-4.125 F200
X35.242 Y-18.852 Z-4.224
X35.252 Y-18.873 Z-4.321
X35.268 Y-18.908 Z-4.413
X35.289 Y-18.956 Z-4.498
X35.316 Y-19.015 Z-4.574
X35.347 Y-19.084 Z-4.639
X35.382 Y-19.161 Z-4.691
X35.419 Y-19.245 Z-4.729
X35.459 Y-19.333 Z-4.752
X35.5 Y-19.424 Z-4.76
G3 X35.99 Y-20.038 I1.443 J0.65
G1 X36.612 Y-20.473
X36.819 Y-20.623
X37.233 Y-20.932
X37.422 Y-21.086
X38.062 Y-21.722
X38.683 Y-22.343
X38.89 Y-22.559
X39.06 Y-22.743
X39.216 Y-22.95
X39.304 Y-23.07
X39.926 Y-23.957
X40.469 Y-24.656
X41.165 Y-25.245
X41.955 Y-25.699
X42.802 Y-26.038
X43.68 Y-26.283
X44.575 Y-26.457
X45.479 Y-26.577
X46.387 Y-26.659
X47.297 Y-26.714
X48.149 Y-26.749
X48.334 Y-26.73
X48.505 Y-26.657
X48.648 Y-26.538
X48.75 Y-26.383
X49.288 Y-25.229
X49.387 Y-25.022
X49.765 Y-24.4
X50.074 Y-23.957
X50.696 Y-23.07
X50.784 Y-22.95
X50.94 Y-22.743
X51.132 Y-22.536
X51.332 Y-22.329
X52.022 Y-21.639
G3 X51.993 Y-20.741 Z-4.56 I-0.463 J0.434
X51.424 Y-20.584 I-0.434 J-0.463
G1 X40.324 Y-22.991
X40.25 Y-23.011
X40.179 Y-23.041
X40.112 Y-23.079
G3 X39.926 Y-23.957 Z-4.76 I0.346 J-0.532
G1 X40.235 Y-24.4
X40.613 Y-25.022
X40.712 Y-25.229
X41.291 Y-26.472
X41.384 Y-26.679
X41.477 Y-26.886
X41.558 Y-27.093
X41.681 Y-27.507
X41.741 Y-27.715
X41.943 Y-28.341
X42.337 Y-29.03
X42.942 Y-29.711
X43.669 Y-30.261
X44.475 Y-30.688
X45.328 Y-31.011
X46.208 Y-31.247
X46.943 Y-31.356
X47.15 Y-31.353
X47.344 Y-31.284
X47.506 Y-31.156
X47.618 Y-30.983
X47.669 Y-30.784
X47.721 Y-30.2
X47.759 Y-29.786
X47.788 Y-29.579
X47.877 Y-29.165
X47.926 Y-28.958
X48.259 Y-27.715
X48.319 Y-27.507
X48.38 Y-27.3
G3 X47.925 Y-26.527 Z-4.56 I-0.615 J0.159
G1 X47.856 Y-26.513
X47.786 Y-26.507
X47.715 Y-26.508
X42.31 Y-26.939
X42.217 Y-26.953
G3 X41.741 Y-27.715 Z-4.76 I0.143 J-0.619
G1 X42.074 Y-28.958
X42.123 Y-29.165
X42.212 Y-29.579
X42.241 Y-29.786
X42.298 Y-30.408
X42.407 Y-31.65
X42.458 Y-32.243
X42.672 Y-32.947
X43.065 Y-33.663
X43.658 Y-34.355
X44.375 Y-34.919
X45.183 Y-35.342
X46.055 Y-35.607
X46.961 Y-35.709
X46.988 Y-35.707
X47.172 Y-35.665
X47.336 Y-35.57
X47.465 Y-35.431
X47.547 Y-35.261
X47.575 Y-35.073
Y-32.479
X47.577 Y-32.272
X47.589 Y-31.776
X47.593 Y-31.65
X47.669 Y-30.784
G3 X47.069 Y-30.116 Z-4.56 I-0.634 J0.033
G1 X46.982 Y-30.118
X46.896 Y-30.131
X43.038 Y-31
X42.902 Y-31.03 Z-4.588
G3 X42.407 Y-31.65 Z-4.76 I0.14 J-0.619
G1 X42.411 Y-31.776
X42.423 Y-32.272
X42.425 Y-32.479
Y-35.793
X42.461 Y-36.522
X42.644 Y-37.216
X42.987 Y-37.901
X43.555 Y-38.615
X44.256 Y-39.198
X45.054 Y-39.638
X45.922 Y-39.92
X46.826 Y-40.033
X46.978 Y-40.024
X47.165 Y-39.984
X47.331 Y-39.89
X47.463 Y-39.751
X47.546 Y-39.579
X47.575 Y-39.39
Y-35.073
G3 X46.919 Y-34.461 Z-4.56 I-0.635 J-0.022
G1 X46.825 Y-34.471
X43.08 Y-35.166
X42.944 Y-35.191 Z-4.588
G3 X42.425 Y-35.793 Z-4.76 I0.116 J-0.624
G1 Y-40.144
X42.462 Y-40.874
X42.64 Y-41.552
X42.982 Y-42.235
X43.55 Y-42.949
X44.251 Y-43.532
X45.052 Y-43.967
X45.92 Y-44.246
X46.825 Y-44.357
X46.979 Y-44.348
X47.166 Y-44.308
X47.332 Y-44.214
X47.463 Y-44.075
X47.546 Y-43.903
X47.575 Y-43.714
Y-39.39
G3 X46.919 Y-38.778 Z-4.56 I-0.635 J-0.022
G1 X46.819 Y-38.789
X43.079 Y-39.515
X42.939 Y-39.542 Z-4.589
G3 X42.425 Y-40.144 Z-4.76 I0.121 J-0.623
G1 Y-44.494
X42.46 Y-45.201
X42.639 Y-45.878
X42.98 Y-46.56
X43.548 Y-47.274
X44.249 Y-47.856
X45.05 Y-48.292
X45.918 Y-48.57
X46.823 Y-48.682
X46.979 Y-48.672
X47.166 Y-48.632
X47.332 Y-48.538
X47.463 Y-48.399
X47.546 Y-48.227
X47.575 Y-48.038
Y-43.714
G3 X46.919 Y-43.102 Z-4.56 I-0.635 J-0.022
G1 X46.867 Y-43.105
X46.815 Y-43.114
X43.079 Y-43.864
X42.935 Y-43.893 Z-4.59
G3 X42.425 Y-44.494 Z-4.76 I0.125 J-0.623
G1 Y-48.844
X42.459 Y-49.525
X42.637 Y-50.203
X42.979 Y-50.884
X43.546 Y-51.598
X44.248 Y-52.181
X45.049 Y-52.617
X45.917 Y-52.895
X46.822 Y-53.007
X46.979 Y-52.997
X47.165 Y-52.957
X47.332 Y-52.863
X47.463 Y-52.724
X47.546 Y-52.552
X47.575 Y-52.363
Y-48.038
G3 X46.919 Y-47.426 Z-4.56 I-0.635 J-0.022
G1 X46.865 Y-47.43
X46.811 Y-47.439
X43.079 Y-48.214
X42.931 Y-48.244 Z-4.59
G3 X42.425 Y-48.844 Z-4.76 I0.129 J-0.622
G1 Y-53.194
X42.458 Y-53.85
X42.636 Y-54.527
X42.978 Y-55.209
X43.545 Y-55.923
X44.246 Y-56.506
X45.047 Y-56.941
X45.916 Y-57.22
X46.821 Y-57.331
X46.979 Y-57.322
X47.165 Y-57.282
X47.332 Y-57.188
X47.463 Y-57.049
X47.546 Y-56.877
X47.575 Y-56.688
Y-52.363
G3 X46.919 Y-51.751 Z-4.56 I-0.635 J-0.022
G1 X46.863 Y-51.755
X46.807 Y-51.764
X43.079 Y-52.563
X42.927 Y-52.595 Z-4.591
G3 X42.425 Y-53.194 Z-4.76 I0.133 J-0.621
G1 Y-57.544
X42.457 Y-58.175
X42.635 Y-58.852
X42.976 Y-59.534
X43.544 Y-60.248
X44.245 Y-60.831
X45.046 Y-61.266
X45.914 Y-61.545
X46.819 Y-61.657
X46.978 Y-61.647
X47.165 Y-61.607
X47.332 Y-61.513
X47.463 Y-61.374
X47.546 Y-61.202
X47.575 Y-61.013
Y-56.688
G3 X46.919 Y-56.076 Z-4.56 I-0.635 J-0.022
G1 X46.861 Y-56.08
X46.804 Y-56.09
X43.079 Y-56.912
X42.923 Y-56.946 Z-4.592
G3 X42.425 Y-57.544 Z-4.76 I0.137 J-0.62
G1 Y-61.894
X42.455 Y-62.5
X42.634 Y-63.177
X42.975 Y-63.859
X43.543 Y-64.573
X44.244 Y-65.156
X45.045 Y-65.591
X45.913 Y-65.87
X46.818 Y-65.982
X46.978 Y-65.972
X47.165 Y-65.932
X47.332 Y-65.838
X47.463 Y-65.699
X47.546 Y-65.527
X47.575 Y-65.339
Y-61.013
G3 X46.919 Y-60.401 Z-4.56 I-0.635 J-0.022
G1 X46.859 Y-60.406
X46.8 Y-60.416
X43.078 Y-61.261
X42.919 Y-61.297 Z-4.593
G3 X42.425 Y-61.894 Z-4.76 I0.141 J-0.619
G1 Y-66.245
X42.454 Y-66.825
X42.632 Y-67.503
X42.974 Y-68.185
X43.541 Y-68.898
X44.243 Y-69.481
X45.044 Y-69.917
X45.912 Y-70.196
X46.817 Y-70.308
X46.978 Y-70.298
X47.165 Y-70.258
X47.332 Y-70.164
X47.463 Y-70.025
X47.546 Y-69.853
X47.575 Y-69.664
Y-65.339
G3 X46.919 Y-64.726 Z-4.56 I-0.635 J-0.022
G1 X46.857 Y-64.731
X46.796 Y-64.742
X43.078 Y-65.61
X42.915 Y-65.648 Z-4.594
G3 X42.425 Y-66.245 Z-4.76 I0.144 J-0.618
G1 Y-70.595
X42.453 Y-71.15
X42.631 Y-71.828
X42.973 Y-72.51
X43.54 Y-73.224
X44.242 Y-73.807
X45.042 Y-74.242
X45.911 Y-74.521
X46.815 Y-74.634
X46.978 Y-74.624
X47.165 Y-74.584
X47.332 Y-74.49
X47.463 Y-74.351
X47.546 Y-74.179
X47.575 Y-73.99
Y-69.664
G3 X46.919 Y-69.052 Z-4.56 I-0.635 J-0.022
G1 X46.855 Y-69.057
X46.792 Y-69.069
X43.078 Y-69.959
X42.912 Y-69.999 Z-4.594
G3 X42.425 Y-70.595 Z-4.76 I0.148 J-0.618
G1 Y-74.738
X42.462 Y-75.48
X42.64 Y-76.155
X42.982 Y-76.837
X43.549 Y-77.551
X44.25 Y-78.134
X45.052 Y-78.569
X45.92 Y-78.847
X46.825 Y-78.958
X46.979 Y-78.948
X47.166 Y-78.908
X47.332 Y-78.814
X47.463 Y-78.675
X47.546 Y-78.503
X47.575 Y-78.315
Y-73.99
G3 X46.919 Y-73.377 Z-4.56 I-0.635 J-0.022
G1 X46.82 Y-73.389
X43.079 Y-74.109
X42.939 Y-74.136 Z-4.589
G3 X42.425 Y-74.738 Z-4.76 I0.12 J-0.624
G1 Y-79.088
X42.461 Y-79.802
X42.639 Y-80.479
X42.98 Y-81.161
X43.548 Y-81.874
X44.249 Y-82.457
X45.05 Y-82.893
X45.919 Y-83.171
X46.824 Y-83.282
X46.979 Y-83.273
X47.166 Y-83.233
X47.332 Y-83.139
X47.463 Y-83
X47.546 Y-82.828
X47.575 Y-82.639
Y-78.315
G3 X46.919 Y-77.702 Z-4.56 I-0.635 J-0.022
G1 X46.867 Y-77.706
X46.816 Y-77.714
X43.079 Y-78.459
X42.936 Y-78.487 Z-4.589
G3 X42.425 Y-79.088 Z-4.76 I0.124 J-0.623
G1 Y-83.438
X42.459 Y-84.126
X42.638 Y-84.803
X42.979 Y-85.485
X43.547 Y-86.199
X44.248 Y-86.781
X45.049 Y-87.217
X45.917 Y-87.496
X46.822 Y-87.607
X46.979 Y-87.597
X47.165 Y-87.557
X47.332 Y-87.463
X47.463 Y-87.324
X47.546 Y-87.152
X47.575 Y-86.964
Y-82.639
G3 X46.919 Y-82.026 Z-4.56 I-0.635 J-0.022
G1 X46.865 Y-82.031
X46.812 Y-82.039
X43.079 Y-82.808
X42.932 Y-82.838 Z-4.59
G3 X42.425 Y-83.438 Z-4.76 I0.128 J-0.622
G1 Y-87.788
X42.458 Y-88.45
X42.636 Y-89.128
X42.978 Y-89.81
X43.545 Y-90.523
X44.247 Y-91.106
X45.048 Y-91.542
X45.916 Y-91.82
X46.821 Y-91.932
X46.979 Y-91.922
X47.165 Y-91.882
X47.332 Y-91.788
X47.463 Y-91.649
X47.546 Y-91.477
X47.575 Y-91.288
Y-86.964
G3 X46.919 Y-86.351 Z-4.56 I-0.635 J-0.022
G1 X46.863 Y-86.355
X46.808 Y-86.365
X43.079 Y-87.157
X42.928 Y-87.189 Z-4.591
G3 X42.425 Y-87.788 Z-4.76 I0.132 J-0.621
G1 Y-92.138
X42.457 Y-92.775
X42.635 Y-93.453
X42.977 Y-94.135
X43.544 Y-94.848
X44.246 Y-95.431
X45.047 Y-95.867
X45.915 Y-96.145
X46.82 Y-96.257
X46.979 Y-96.247
X47.165 Y-96.207
X47.332 Y-96.113
X47.463 Y-95.974
X47.546 Y-95.802
X47.575 Y-95.614
Y-91.288
G3 X46.919 Y-90.676 Z-4.56 I-0.635 J-0.022
G1 X46.861 Y-90.681
X46.805 Y-90.69
X43.079 Y-91.506
X42.924 Y-91.54 Z-4.592
G3 X42.425 Y-92.138 Z-4.76 I0.136 J-0.62
G1 Y-96.488
X42.456 Y-97.1
X42.634 Y-97.778
X42.976 Y-98.46
X43.543 Y-99.173
X44.244 Y-99.756
X45.045 Y-100.192
X45.913 Y-100.471
X46.818 Y-100.582
X46.978 Y-100.573
X47.165 Y-100.533
X47.332 Y-100.439
X47.463 Y-100.3
X47.546 Y-100.128
X47.575 Y-99.939
Y-95.614
G3 X46.919 Y-95.001 Z-4.56 I-0.635 J-0.022
G1 X46.859 Y-95.006
X46.801 Y-95.016
X43.078 Y-95.855
X42.92 Y-95.891 Z-4.593
G3 X42.425 Y-96.488 Z-4.76 I0.14 J-0.619
G1 Y-100.839
X42.454 Y-101.425
X42.633 Y-102.103
X42.974 Y-102.785
X43.542 Y-103.499
X44.243 Y-104.081
X45.044 Y-104.517
X45.912 Y-104.796
X46.817 Y-104.908
X46.978 Y-104.898
X47.165 Y-104.858
X47.332 Y-104.764
X47.463 Y-104.625
X47.546 Y-104.453
X47.575 Y-104.264
Y-99.939
G3 X46.919 Y-99.326 Z-4.56 I-0.635 J-0.022
G1 X46.857 Y-99.331
X46.797 Y-99.342
X43.078 Y-100.205
X42.916 Y-100.242 Z-4.593
G3 X42.425 Y-100.839 Z-4.76 I0.143 J-0.619
G1 Y-105.189
X42.453 Y-105.751
X42.631 Y-106.428
X42.973 Y-107.11
X43.541 Y-107.824
X44.242 Y-108.407
X45.043 Y-108.843
X45.911 Y-109.122
X46.816 Y-109.234
X46.978 Y-109.224
X47.165 Y-109.184
X47.332 Y-109.09
X47.463 Y-108.951
X47.546 Y-108.779
X47.575 Y-108.59
Y-104.264
G3 X46.919 Y-103.652 Z-4.56 I-0.635 J-0.022
G1 X46.856 Y-103.657
X46.793 Y-103.669
X43.078 Y-104.554
X42.912 Y-104.593 Z-4.594
G3 X42.425 Y-105.189 Z-4.76 I0.147 J-0.618
G1 Y-109.332
X42.462 Y-110.08
X42.64 Y-110.756
X42.982 Y-111.437
X43.549 Y-112.151
X44.251 Y-112.734
X45.052 Y-113.169
X45.92 Y-113.447
X46.825 Y-113.558
X46.979 Y-113.548
X47.166 Y-113.508
X47.332 Y-113.414
X47.463 Y-113.275
X47.546 Y-113.103
X47.575 Y-112.915
Y-108.59
G3 X46.919 Y-107.978 Z-4.56 I-0.635 J-0.022
G1 X46.821 Y-107.989
X43.079 Y-108.704
X42.94 Y-108.73 Z-4.588
G3 X42.425 Y-109.332 Z-4.76 I0.119 J-0.624
G1 Y-113.682
X42.461 Y-114.402
X42.639 Y-115.079
X42.981 Y-115.761
X43.548 Y-116.475
X44.25 Y-117.057
X45.051 Y-117.493
X45.919 Y-117.771
X46.824 Y-117.882
X46.979 Y-117.873
X47.166 Y-117.833
X47.332 Y-117.739
X47.463 Y-117.6
X47.546 Y-117.428
X47.575 Y-117.239
Y-112.915
G3 X46.919 Y-112.302 Z-4.56 I-0.635 J-0.022
G1 X46.868 Y-112.306
X46.817 Y-112.314
X43.079 Y-113.053
X42.936 Y-113.081 Z-4.589
G3 X42.425 Y-113.682 Z-4.76 I0.123 J-0.623
G1 Y-118.032
X42.46 Y-118.726
X42.638 Y-119.404
X42.98 Y-120.085
X43.547 Y-120.799
X44.248 Y-121.382
X45.049 Y-121.817
X45.918 Y-122.096
X46.823 Y-122.207
X46.979 Y-122.197
X47.166 Y-122.157
X47.332 Y-122.063
X47.463 Y-121.924
X47.546 Y-121.752
X47.575 Y-121.564
Y-117.239
G3 X46.919 Y-116.627 Z-4.56 I-0.635 J-0.022
G1 X46.866 Y-116.631
X46.813 Y-116.639
X43.079 Y-117.402
X42.932 Y-117.432 Z-4.59
G3 X42.425 Y-118.032 Z-4.76 I0.127 J-0.622
G1 Y-122.382
X42.458 Y-123.05
X42.637 Y-123.728
X42.978 Y-124.41
X43.546 Y-125.123
X44.247 Y-125.706
X45.048 Y-126.142
X45.916 Y-126.42
X46.821 Y-126.532
X46.979 Y-126.522
X47.165 Y-126.482
X47.332 Y-126.388
X47.463 Y-126.249
X47.546 Y-126.077
X47.575 Y-125.888
Y-121.564
G3 X46.919 Y-120.951 Z-4.56 I-0.635 J-0.022
G1 X46.864 Y-120.955
X46.809 Y-120.964
X43.079 Y-121.751
X42.929 Y-121.783 Z-4.591
G3 X42.425 Y-122.382 Z-4.76 I0.131 J-0.621
G1 Y-126.732
X42.457 Y-127.375
X42.635 Y-128.053
X42.977 Y-128.734
X43.544 Y-129.448
X44.246 Y-130.031
X45.047 Y-130.467
X45.915 Y-130.745
X46.82 Y-130.857
X46.979 Y-130.847
X47.165 Y-130.807
X47.332 Y-130.713
X47.463 Y-130.574
X47.546 Y-130.402
X47.575 Y-130.213
Y-125.888
G3 X46.919 Y-125.276 Z-4.56 I-0.635 J-0.022
G1 X46.862 Y-125.28
X46.805 Y-125.29
X43.079 Y-126.101
X42.925 Y-126.134 Z-4.592
G3 X42.425 Y-126.732 Z-4.76 I0.135 J-0.62
G1 Y-131.083
X42.456 Y-131.7
X42.634 Y-132.378
X42.976 Y-133.06
X43.543 Y-133.773
X44.245 Y-134.356
X45.046 Y-134.792
X45.914 Y-135.07
X46.819 Y-135.182
X46.978 Y-135.173
X47.165 Y-135.132
X47.332 Y-135.039
X47.463 Y-134.899
X47.546 Y-134.728
X47.575 Y-134.539
Y-130.213
G3 X46.919 Y-129.601 Z-4.56 I-0.635 J-0.022
G1 X46.86 Y-129.606
X46.802 Y-129.616
X43.078 Y-130.45
X42.921 Y-130.485 Z-4.592
G3 X42.425 Y-131.083 Z-4.76 I0.139 J-0.62
G1 Y-135.433
X42.455 Y-136.025
X42.633 Y-136.703
X42.975 Y-137.385
X43.542 Y-138.099
X44.243 Y-138.681
X45.044 Y-139.117
X45.912 Y-139.396
X46.817 Y-139.508
X46.978 Y-139.498
X47.165 Y-139.458
X47.332 Y-139.364
X47.463 Y-139.225
X47.546 Y-139.053
X47.575 Y-138.864
Y-134.539
G3 X46.919 Y-133.926 Z-4.56 I-0.635 J-0.022
G1 X46.858 Y-133.931
X46.798 Y-133.942
X43.078 Y-134.799
X42.917 Y-134.836 Z-4.593
G3 X42.425 Y-135.433 Z-4.76 I0.143 J-0.619
G1 Y-139.783
X42.453 Y-140.351
X42.632 Y-141.028
X42.973 Y-141.71
X43.541 Y-142.424
X44.242 Y-143.007
X45.043 Y-143.443
X45.911 Y-143.721
X46.816 Y-143.834
X46.978 Y-143.824
X47.165 Y-143.784
X47.332 Y-143.69
X47.463 Y-143.551
X47.546 Y-143.379
X47.575 Y-143.19
Y-138.864
G3 X46.919 Y-138.252 Z-4.56 I-0.635 J-0.022
G1 X46.856 Y-138.257
X46.794 Y-138.268
X43.078 Y-139.148
X42.913 Y-139.187 Z-4.594
G3 X42.425 Y-139.783 Z-4.76 I0.146 J-0.618
G1 Y-143.926
X42.463 Y-144.68
X42.641 Y-145.355
X42.982 Y-146.037
X43.55 Y-146.751
X44.251 Y-147.333
X45.052 Y-147.769
X45.921 Y-148.047
X46.826 Y-148.158
X46.979 Y-148.148
X47.166 Y-148.108
X47.332 Y-148.014
X47.463 Y-147.875
X47.546 Y-147.703
X47.575 Y-147.514
Y-143.19
G3 X46.919 Y-142.577 Z-4.56 I-0.635 J-0.022
G1 X46.822 Y-142.588
X43.08 Y-143.298
X42.941 Y-143.324 Z-4.588
G3 X42.425 Y-143.926 Z-4.76 I0.118 J-0.624
G1 Y-148.276
X42.461 Y-149.001
X42.64 Y-149.679
X42.981 Y-150.361
X43.548 Y-151.074
X44.25 Y-151.657
X45.051 Y-152.092
X45.919 Y-152.371
X46.824 Y-152.482
X46.979 Y-152.473
X47.166 Y-152.432
X47.332 Y-152.338
X47.463 Y-152.199
X47.546 Y-152.028
X47.575 Y-151.839
Y-147.514
G3 X46.919 Y-146.902 Z-4.56 I-0.635 J-0.022
G1 X46.868 Y-146.906
X46.818 Y-146.913
X43.079 Y-147.647
X42.937 Y-147.675 Z-4.589
G3 X42.425 Y-148.276 Z-4.76 I0.122 J-0.623
G1 Y-152.626
X42.46 Y-153.326
X42.638 Y-154.003
X42.98 Y-154.685
X43.547 Y-155.399
X44.249 Y-155.981
X45.05 Y-156.417
X45.918 Y-156.695
X46.823 Y-156.807
X46.979 Y-156.797
X47.166 Y-156.757
X47.332 Y-156.663
X47.463 Y-156.524
X47.546 Y-156.352
X47.575 Y-156.163
Y-151.839
G3 X46.919 Y-151.226 Z-4.56 I-0.635 J-0.022
G1 X46.866 Y-151.23
X46.814 Y-151.239
X43.079 Y-151.996
X42.933 Y-152.026 Z-4.59
G3 X42.425 Y-152.626 Z-4.76 I0.126 J-0.622
G1 Y-156.976
X42.459 Y-157.65
X42.637 Y-158.328
X42.979 Y-159.009
X43.546 Y-159.723
X44.247 Y-160.306
X45.048 Y-160.741
X45.917 Y-161.02
X46.822 Y-161.131
X46.979 Y-161.122
X47.165 Y-161.082
X47.332 Y-160.988
X47.463 Y-160.849
X47.546 Y-160.677
X47.575 Y-160.488
Y-156.163
G3 X46.919 Y-155.551 Z-4.56 I-0.635 J-0.022
G1 X46.864 Y-155.555
X46.81 Y-155.564
X43.079 Y-156.346
X42.929 Y-156.377 Z-4.591
G3 X42.425 Y-156.976 Z-4.76 I0.13 J-0.622
G1 Y-161.326
X42.457 Y-161.975
X42.636 Y-162.652
X42.977 Y-163.334
X43.545 Y-164.048
X44.246 Y-164.63
X45.047 Y-165.066
X45.915 Y-165.345
X46.82 Y-165.456
X46.979 Y-165.447
X47.165 Y-165.407
X47.332 Y-165.313
X47.463 Y-165.174
X47.546 Y-165.002
X47.575 Y-164.813
Y-160.488
G3 X46.919 Y-159.876 Z-4.56 I-0.635 J-0.022
G1 X46.862 Y-159.88
X46.806 Y-159.889
X43.079 Y-160.695
X42.926 Y-160.728 Z-4.591
G3 X42.425 Y-161.326 Z-4.76 I0.134 J-0.621
G1 Y-165.677
X42.456 Y-166.299
X42.634 Y-166.977
X42.976 Y-167.659
X43.544 Y-168.373
X44.245 Y-168.955
X45.046 Y-169.391
X45.914 Y-169.67
X46.819 Y-169.782
X46.978 Y-169.772
X47.165 Y-169.732
X47.332 Y-169.638
X47.463 Y-169.499
X47.546 Y-169.327
X47.575 Y-169.138
Y-164.813
G3 X46.919 Y-164.201 Z-4.56 I-0.635 J-0.022
G1 X46.86 Y-164.205
X46.802 Y-164.215
X43.079 Y-165.044
X42.922 Y-165.079 Z-4.592
G3 X42.425 Y-165.677 Z-4.76 I0.138 J-0.62
G1 Y-170.027
X42.455 Y-170.625
X42.633 Y-171.302
X42.975 Y-171.984
X43.542 Y-172.698
X44.244 Y-173.281
X45.045 Y-173.716
X45.913 Y-173.995
X46.818 Y-174.107
X46.978 Y-174.097
X47.165 Y-174.057
X47.332 Y-173.963
X47.463 Y-173.824
X47.546 Y-173.653
X47.575 Y-173.464
Y-169.138
G3 X46.919 Y-168.526 Z-4.56 I-0.635 J-0.022
G1 X46.858 Y-168.531
X46.799 Y-168.541
X43.078 Y-169.393
X42.918 Y-169.43 Z-4.593
G3 X42.425 Y-170.027 Z-4.76 I0.142 J-0.619
G1 Y-174.377
X42.454 Y-174.95
X42.632 Y-175.628
X42.974 Y-176.31
X43.541 Y-177.023
X44.242 Y-177.606
X45.043 Y-178.042
X45.911 Y-178.321
X46.816 Y-178.433
X46.978 Y-178.423
X47.165 Y-178.383
X47.332 Y-178.289
X47.463 Y-178.15
X47.546 Y-177.978
X47.575 Y-177.789
Y-173.464
G3 X46.919 Y-172.851 Z-4.56 I-0.635 J-0.022
G1 X46.856 Y-172.856
X46.795 Y-172.868
X43.078 Y-173.742
X42.914 Y-173.781 Z-4.594
G3 X42.425 Y-174.377 Z-4.76 I0.145 J-0.618
G1 Y-178.727
X42.452 Y-179.276
X42.631 Y-179.953
X42.972 Y-180.635
X43.54 Y-181.349
X44.241 Y-181.932
X45.042 Y-182.368
X45.91 Y-182.647
X46.815 Y-182.759
X46.978 Y-182.749
X47.165 Y-182.709
X47.332 Y-182.615
X47.463 Y-182.476
X47.546 Y-182.304
X47.575 Y-182.115
Y-177.789
G3 X46.919 Y-177.177 Z-4.56 I-0.635 J-0.022
G1 X46.855 Y-177.182
X46.791 Y-177.194
X43.078 Y-178.092
X42.91 Y-178.132 Z-4.595
G3 X42.425 Y-178.727 Z-4.76 I0.149 J-0.617
G1 Y-182.87
X42.462 Y-183.605
X42.64 Y-184.281
X42.981 Y-184.962
X43.549 Y-185.676
X44.25 Y-186.259
X45.051 Y-186.694
X45.92 Y-186.972
X46.825 Y-187.083
X46.979 Y-187.074
X47.166 Y-187.033
X47.332 Y-186.939
X47.463 Y-186.8
X47.546 Y-186.629
X47.575 Y-186.44
Y-182.115
G3 X46.919 Y-181.503 Z-4.56 I-0.635 J-0.022
G1 X46.819 Y-181.514
X43.079 Y-182.241
X42.938 Y-182.269 Z-4.589
G3 X42.425 Y-182.87 Z-4.76 I0.121 J-0.623
G1 Y-187.22
X42.46 Y-187.927
X42.639 Y-188.604
X42.98 Y-189.286
X43.548 Y-190
X44.249 Y-190.582
X45.05 Y-191.018
X45.918 Y-191.296
X46.823 Y-191.408
X46.979 Y-191.398
X47.166 Y-191.358
X47.332 Y-191.264
X47.463 Y-191.125
X47.546 Y-190.953
X47.575 Y-190.764
Y-186.44
G3 X46.919 Y-185.827 Z-4.56 I-0.635 J-0.022
G1 X46.867 Y-185.831
X46.815 Y-185.839
X43.079 Y-186.591
X42.934 Y-186.62 Z-4.59
G3 X42.425 Y-187.22 Z-4.76 I0.125 J-0.623
G1 Y-191.57
X42.459 Y-192.251
X42.637 Y-192.929
X42.979 Y-193.61
X43.546 Y-194.324
X44.248 Y-194.907
X45.049 Y-195.342
X45.917 Y-195.621
X46.822 Y-195.732
X46.979 Y-195.723
X47.165 Y-195.683
X47.332 Y-195.589
X47.463 Y-195.45
X47.546 Y-195.278
X47.575 Y-195.089
Y-190.764
G3 X46.919 Y-190.152 Z-4.56 I-0.635 J-0.022
G1 X46.865 Y-190.156
X46.811 Y-190.165
X43.079 Y-190.94
X42.93 Y-190.971 Z-4.59
G3 X42.425 Y-191.57 Z-4.76 I0.129 J-0.622
G1 Y-195.921
X42.458 Y-196.576
X42.636 Y-197.253
X42.978 Y-197.935
X43.545 Y-198.649
X44.246 Y-199.231
X45.047 Y-199.667
X45.916 Y-199.946
X46.821 Y-200.057
X46.979 Y-200.048
X47.165 Y-200.008
X47.332 Y-199.914
X47.463 Y-199.775
X47.546 Y-199.603
X47.575 Y-199.414
Y-195.089
G3 X46.919 Y-194.477 Z-4.56 I-0.635 J-0.022
G1 X46.863 Y-194.481
X46.807 Y-194.49
X43.079 Y-195.289
X42.927 Y-195.322 Z-4.591
G3 X42.425 Y-195.921 Z-4.76 I0.133 J-0.621
G1 Y-200.271
X42.457 Y-200.9
X42.635 Y-201.578
X42.976 Y-202.26
X43.544 Y-202.974
X44.245 Y-203.556
X45.046 Y-203.992
X45.914 Y-204.271
X46.819 Y-204.383
X46.978 Y-204.373
X47.165 Y-204.333
X47.332 Y-204.239
X47.463 Y-204.1
X47.546 Y-203.928
X47.575 Y-203.739
Y-199.414
G3 X46.919 Y-198.801 Z-4.56 I-0.635 J-0.022
G1 X46.861 Y-198.806
X46.803 Y-198.816
X43.079 Y-199.638
X42.923 Y-199.673 Z-4.592
G3 X42.425 Y-200.271 Z-4.76 I0.137 J-0.62
G1 Y-204.621
X42.455 Y-205.226
X42.634 Y-205.903
X42.975 Y-206.585
X43.543 Y-207.299
X44.244 Y-207.882
X45.045 Y-208.317
X45.913 Y-208.596
X46.818 Y-208.708
X46.988 Y-208.698
X47.178 Y-208.656
X47.346 Y-208.56
X47.478 Y-208.417
X47.56 Y-208.241
X47.585 Y-208.048
X47.577 Y-207.728
X47.575 Y-207.521
Y-203.739
G3 X46.919 Y-203.127 Z-4.56 I-0.635 J-0.022
G1 X46.859 Y-203.131
X46.8 Y-203.142
X43.078 Y-203.988
X42.919 Y-204.024 Z-4.593
G3 X42.425 Y-204.621 Z-4.76 I0.141 J-0.619
G1 Y-207.521
X42.423 Y-207.728
X42.411 Y-208.224
X42.407 Y-208.35
X42.37 Y-208.764
X42.352 Y-209.254
X42.468 Y-209.928
X42.737 Y-210.608
X43.209 Y-211.321
X43.858 Y-211.962
X44.618 Y-212.465
X45.459 Y-212.818
X46.349 Y-213.014
X47.261 Y-213.041
X47.713 Y-212.972
X47.915 Y-212.905
X48.083 Y-212.776
X48.199 Y-212.598
X48.25 Y-212.391
X48.23 Y-212.18
X47.926 Y-211.042
X47.877 Y-210.835
X47.788 Y-210.421
X47.759 Y-210.214
X47.702 Y-209.592
X47.593 Y-208.35
X47.588 Y-208.179
X47.585 Y-208.048
G3 X46.913 Y-207.452 Z-4.56 I-0.634 J-0.038
G1 X46.831 Y-207.462
X43.075 Y-208.18
X42.881 Y-208.217 Z-4.6
G3 X42.37 Y-208.764 Z-4.76 I0.119 J-0.624
G1 X42.279 Y-209.8
X42.241 Y-210.214
X42.212 Y-210.421
X42.123 Y-210.835
X42.074 Y-211.042
X41.741 Y-212.285
X41.631 Y-212.751
X41.6 Y-212.898
X41.576 Y-213.046
X41.561 Y-213.195
X41.553 Y-213.345
X41.552 Y-213.495
X41.558 Y-213.645
X41.571 Y-213.794
X41.59 Y-213.943
X41.616 Y-214.091
X41.647 Y-214.238
X41.685 Y-214.383
X41.728 Y-214.526
X41.777 Y-214.668
X41.832 Y-214.808
X41.892 Y-214.945
X41.957 Y-215.08
X42.028 Y-215.213
X42.103 Y-215.343
X42.182 Y-215.47
X42.266 Y-215.594
X42.354 Y-215.716
X42.446 Y-215.835
X42.541 Y-215.95
X42.64 Y-216.063
X42.741 Y-216.174
X42.847 Y-216.281
X42.955 Y-216.384
X43.066 Y-216.485
X43.18 Y-216.582
X43.298 Y-216.676
X43.417 Y-216.766
X43.54 Y-216.853
X43.664 Y-216.937
X43.791 Y-217.017
X43.919 Y-217.094
X44.05 Y-217.168
X44.182 Y-217.239
X44.316 Y-217.307
X44.451 Y-217.372
X44.587 Y-217.434
X44.726 Y-217.493
X44.865 Y-217.548
X45.006 Y-217.6
X45.148 Y-217.649
X45.291 Y-217.694
X45.435 Y-217.736
X45.579 Y-217.775
X45.725 Y-217.811
X45.871 Y-217.844
X46.018 Y-217.873
X46.166 Y-217.9
X46.314 Y-217.923
X46.463 Y-217.942
X46.612 Y-217.958
X46.762 Y-217.971
X46.911 Y-217.981
X47.061 Y-217.987
X47.211 Y-217.99
X47.361 Y-217.989
X47.511 Y-217.985
X47.661 Y-217.977
X47.81 Y-217.965
X47.96 Y-217.95
X48.108 Y-217.931
X48.257 Y-217.908
X48.404 Y-217.881
X48.551 Y-217.851
X48.698 Y-217.818
X48.843 Y-217.781
X48.987 Y-217.74
X49.131 Y-217.696
X49.273 Y-217.648
X49.414 Y-217.596
X49.553 Y-217.541
X49.691 Y-217.482
X49.827 Y-217.42
X49.962 Y-217.354
X50.075 Y-217.294
X50.246 Y-217.164
X50.364 Y-216.984
X50.415 Y-216.775
X50.393 Y-216.562
X50.302 Y-216.367
X49.867 Y-215.747
X49.765 Y-215.6
X49.387 Y-214.978
X49.288 Y-214.771
X48.709 Y-213.528
X48.615 Y-213.321
X48.523 Y-213.114
X48.441 Y-212.907
X48.319 Y-212.493
X48.259 Y-212.285
X48.23 Y-212.18
G3 X47.609 Y-211.731 Z-4.595 I-0.607 J-0.186
G1 X47.435 Y-211.735 Z-4.56
X42.545 Y-211.844
X42.331 Y-211.848 Z-4.603
X42.319 Y-211.849 Z-4.606
G3 X41.741 Y-212.285 Z-4.76 I0.026 J-0.634
G1 X41.681 Y-212.493
X41.559 Y-212.907
X41.477 Y-213.114
X41.375 Y-213.342
X41.291 Y-213.528
X40.712 Y-214.771
X40.613 Y-214.978
X40.361 Y-215.393
X40.062 Y-215.945
X39.993 Y-216.078
X39.932 Y-216.215
X39.877 Y-216.355
X39.83 Y-216.497
X39.79 Y-216.641
X39.756 Y-216.788
X39.73 Y-216.935
X39.71 Y-217.084
X39.696 Y-217.233
X39.689 Y-217.383
X39.688 Y-217.533
X39.694 Y-217.683
X39.705 Y-217.833
X39.722 Y-217.982
X39.745 Y-218.13
X39.773 Y-218.277
X39.806 Y-218.424
X39.835 Y-218.534
X39.824 Y-218.647
X39.773 Y-218.749
X39.689 Y-218.827
X39.584 Y-218.87
X39.47 Y-218.873
X38.439 Y-218.514
X38.343 Y-218.483
X38.172 Y-218.453
X38 Y-218.47
X37.839 Y-218.533
X37.7 Y-218.637
X37.422 Y-218.914
X37.233 Y-219.068
X36.819 Y-219.377
X36.6 Y-219.536
X35.576 Y-220.253
X35.369 Y-220.395
X34.748 Y-220.721
X34.628 Y-220.779
X33.505 Y-221.302
X33.289 Y-221.4
X32.884 Y-221.572
X32.778 Y-221.607
X32.677 Y-221.636
X31.848 Y-221.859
X30.813 Y-222.135
X30.605 Y-222.18
X30.345 Y-222.229
X30.191 Y-222.245
X29.57 Y-222.3
X28.741 Y-222.372
X28.12 Y-222.421
X27.913 Y-222.424
X27.499 Y-222.425
X27.292 Y-222.423
X26.877 Y-222.417
X26.67 Y-222.408
X24.806 Y-222.245
X24.66 Y-222.229
X24.185 Y-222.131
X23.978 Y-222.08
X22.735 Y-221.747
X22.114 Y-221.571
X21.492 Y-221.301
X20.25 Y-220.721
X20.042 Y-220.616
X19.604 Y-220.364
X19.421 Y-220.251
X18.178 Y-219.381
X18.108 Y-219.328
X17.764 Y-219.062
X17.577 Y-218.914
X17.35 Y-218.689
X16.699 Y-218.039
G3 X15.969 Y-217.941 I-0.433 J-0.464
G1 X15.882 Y-217.988 Z-4.752
X15.796 Y-218.033 Z-4.729
X15.715 Y-218.076 Z-4.691
X15.639 Y-218.116 Z-4.639
X15.572 Y-218.151 Z-4.574
X15.515 Y-218.182 Z-4.498
X15.469 Y-218.206 Z-4.413
X15.435 Y-218.224 Z-4.321
X15.415 Y-218.235 Z-4.224
X15.408 Y-218.238 Z-4.125
G0 Z5
X41.503 Y-214.566
Z-3.49
G1 Z-4.125 F200
X41.496 Y-214.57 Z-4.224
X41.475 Y-214.581 Z-4.321
X41.442 Y-214.599 Z-4.413
X41.396 Y-214.623 Z-4.498
X41.338 Y-214.653 Z-4.574
X41.272 Y-214.689 Z-4.639
X41.196 Y-214.729 Z-4.691
X41.115 Y-214.772 Z-4.729
X41.03 Y-214.817 Z-4.752
X40.942 Y-214.864 Z-4.76
G3 X40.361 Y-215.393 I0.742 J-1.398
G1 X40.235 Y-215.6
X39.926 Y-216.043
X39.304 Y-216.93
X39.216 Y-217.05
X39.06 Y-217.257
X38.868 Y-217.464
X38.668 Y-217.671
X37.854 Y-218.484
X37.7 Y-218.637
G3 X37.601 Y-219.367 I0.463 J-0.434
G1 X37.648 Y-219.455 Z-4.752
X37.693 Y-219.541 Z-4.729
X37.735 Y-219.622 Z-4.691
X37.775 Y-219.697 Z-4.639
X37.81 Y-219.764 Z-4.574
X37.84 Y-219.822 Z-4.498
X37.864 Y-219.868 Z-4.413
X37.882 Y-219.902 Z-4.321
X37.893 Y-219.922 Z-4.224
X37.897 Y-219.929 Z-4.125
G0 Z5
X76.138 Y-215.263
Z-3.49
G1 Z-4.125 F200
X76.131 Y-215.266 Z-4.224
X76.11 Y-215.276 Z-4.321
X76.075 Y-215.291 Z-4.413
X76.028 Y-215.313 Z-4.498
X75.969 Y-215.339 Z-4.574
X75.9 Y-215.37 Z-4.639
X75.822 Y-215.405 Z-4.691
X75.738 Y-215.443 Z-4.729
X75.65 Y-215.483 Z-4.752
X75.559 Y-215.524 Z-4.76
G3 X74.946 Y-216.014 I0.65 J-1.443
G1 X74.307 Y-216.926
X74.208 Y-217.05
X73.867 Y-217.464
X73.686 Y-217.654
X72.632 Y-218.707
X72.423 Y-218.914
X72.236 Y-219.062
X71.892 Y-219.328
X71.822 Y-219.381
X70.579 Y-220.251
X70.396 Y-220.364
X69.958 Y-220.616
X69.75 Y-220.721
X68.508 Y-221.301
X67.886 Y-221.571
X67.265 Y-221.747
X66.022 Y-222.08
X65.815 Y-222.131
X65.34 Y-222.229
X65.194 Y-222.245
X63.33 Y-222.408
X63.123 Y-222.417
X62.708 Y-222.423
X62.501 Y-222.425
X62.087 Y-222.424
X61.88 Y-222.421
X61.259 Y-222.372
X60.016 Y-222.263
X59.809 Y-222.245
X59.655 Y-222.229
X59.395 Y-222.18
X59.187 Y-222.135
X57.945 Y-221.803
X57.323 Y-221.636
X57.222 Y-221.607
X57.116 Y-221.572
X56.702 Y-221.396
X56.495 Y-221.302
X55.372 Y-220.779
X55.252 Y-220.721
X54.631 Y-220.395
X54.424 Y-220.253
X53.388 Y-219.527
X53.181 Y-219.377
X52.767 Y-219.068
X52.578 Y-218.914
X51.938 Y-218.278
X51.317 Y-217.656
X51.11 Y-217.441
X50.94 Y-217.257
X50.784 Y-217.05
X50.696 Y-216.93
X50.302 Y-216.367
G3 X49.6 Y-216.145 I-0.507 J-0.382
G1 X49.505 Y-216.176 Z-4.752
X49.413 Y-216.205 Z-4.729
X49.325 Y-216.234 Z-4.691
X49.244 Y-216.26 Z-4.639
X49.172 Y-216.283 Z-4.574
X49.111 Y-216.303 Z-4.498
X49.061 Y-216.319 Z-4.413
X49.025 Y-216.33 Z-4.321
X49.003 Y-216.338 Z-4.224
X48.995 Y-216.34 Z-4.125
G0 Z15
M9
G28 G91 Z0
G90
G28 G91 X0 Y0
G90
M5
M30
