(1001)
(T38  D=3.175 CR=0 - ZMIN=-6 - flat end mill)
G90 G94
G17
G21
G28 G91 Z0
G90

(2D Contour3)
T38
S18000 M3
G54
G0 X100.317 Y-232.54
Z15
Z5
G1 Z1 F50
Z-5.683
G19 G3 Y-232.223 Z-6 J0.317 K0 F150
G1 Y-231.905
G17 G3 X100 Y-231.587 I-0.317 J0
G1 X0
G2 X-1.587 Y-230 I0 J1.587
G1 Y0
G2 X0 Y1.587 I1.587 J0
G1 X200
G2 X201.587 Y0 I0 J-1.587
G1 Y-230
G2 X200 Y-231.587 I-1.587 J0
G1 X100
G3 X99.683 Y-231.905 I0 J-0.318
G1 Y-232.223
G19 G2 Y-232.54 Z-5.683 J0 K0.318
G0 Z15
G17
G28 G91 Z0
G90
G28 G91 X0 Y0
G90
M5
M30
