(1001)
(T39  D=6.35 CR=0 - ZMIN=-8 - flat end mill)
G90 G94
G17
G21
G28 G91 Z0
G90

(2D Contour2)
T39
S18000 M3
G54
G0 X0.635 Y-95.08
Z15
Z5
G1 Z1 F50
Z-7.365
G19 G3 Y-94.445 Z-8 J0.635 K0 F150
G1 Y-93.81
G17 G3 X0 Y-93.175 I-0.635 J0
G2 X-3.175 Y-90 I0 J3.175
G1 Y0
G2 X0 Y3.175 I3.175 J0
G1 X230
G2 X233.175 Y0 I0 J-3.175
G1 Y-90
G2 X230 Y-93.175 I-3.175 J0
G1 X0
G3 X-0.635 Y-93.81 I0 J-0.635
G1 Y-94.445
G19 G2 Y-95.08 Z-7.365 J0 K0.635
G0 Z15
G17
G28 G91 Z0
G90
G28 G91 X0 Y0
G90
M5
M30
