(1001)
(T39  D=6.35 CR=0 - ZMIN=-4 - flat end mill)
G90 G94
G17
G21
G28 G91 Z0
G90

(2D Adaptive1)
T39
S18000 M3
G54
G0 X-0.655 Y-67.097
Z15
Z5
Z-0.73
G1 Z-1.365 F150
X-0.653 Y-67.089 Z-1.464
X-0.647 Y-67.067 Z-1.561
X-0.638 Y-67.03 Z-1.653
X-0.625 Y-66.979 Z-1.738
X-0.609 Y-66.917 Z-1.814
X-0.59 Y-66.843 Z-1.879
X-0.569 Y-66.761 Z-1.931
X-0.546 Y-66.672 Z-1.969
X-0.522 Y-66.578 Z-1.992
X-0.497 Y-66.482 Z-2
G3 X0 Y-63.025 I-15.704 J4.023
G1 Y-62.797
X0.14 Y-61.896
X0.186 Y-61.81
X0.28 Y-61.616
X0.375 Y-61.374
X0.466 Y-61.071
X0.569 Y-60.593
X0.651 Y-59.976
X0.693 Y-59.15
X0.667 Y-58.238
X0.584 Y-57.33
X0.463 Y-56.427
X-0.039 Y-52.814
X-0.158 Y-51.91
X-0.255 Y-51.003
X-0.336 Y-50.095
X-0.406 Y-49.186
X-0.468 Y-48.276
X-0.509 Y-47.366
X-0.527 Y-46.454
Y-45.542
X-0.515 Y-44.63
X-0.494 Y-43.719
X-0.445 Y-42.808
X-0.373 Y-41.899
X-0.286 Y-40.992
X-0.187 Y-40.085
X-0.075 Y-39.18
X0.065 Y-38.279
X0.225 Y-37.382
X0.4 Y-36.487
X0.584 Y-35.594
X0.789 Y-34.705
X1.018 Y-33.823
X1.265 Y-32.945
X1.525 Y-32.071
X1.793 Y-31.199
X2.088 Y-30.337
X2.404 Y-29.481
X2.735 Y-28.632
X3.077 Y-27.787
X3.431 Y-26.946
X3.812 Y-26.118
X4.211 Y-25.298
X4.623 Y-24.485
X5.044 Y-23.676
X5.483 Y-22.877
X5.944 Y-22.09
X6.421 Y-21.313
X6.91 Y-20.543
X7.406 Y-19.778
X7.925 Y-19.028
X8.462 Y-18.291
X9.013 Y-17.565
X9.573 Y-16.845
X10.142 Y-16.133
X10.734 Y-15.439
X11.342 Y-14.76
X11.96 Y-14.09
X12.586 Y-13.427
X13.226 Y-12.777
X13.884 Y-12.146
X14.556 Y-11.529
X15.236 Y-10.922
X15.922 Y-10.322
X16.625 Y-9.741
X17.343 Y-9.179
X18.071 Y-8.63
X18.807 Y-8.091
X19.548 Y-7.56
X20.307 Y-7.054
X21.077 Y-6.566
X21.855 Y-6.091
X22.638 Y-5.624
X23.431 Y-5.173
X24.236 Y-4.746
X25.05 Y-4.335
X25.87 Y-3.937
X26.695 Y-3.547
X27.529 Y-3.18
X28.373 Y-2.834
X29.224 Y-2.505
X30.078 Y-2.187
X30.936 Y-1.879
X31.804 Y-1.599
X32.678 Y-1.339
X33.556 Y-1.094
X34.438 Y-0.86
X35.323 Y-0.642
X36.214 Y-0.45
X37.11 Y-0.277
X38.007 Y-0.118
X38.907 Y0.032
X39.81 Y0.158
X40.716 Y0.26
X41.624 Y0.345
X42.533 Y0.417
X43.442 Y0.48
X44.354 Y0.513
X45.265 Y0.525
X46.177 Y0.52
X47.089 Y0.505
X48 Y0.474
X48.91 Y0.416
X49.818 Y0.338
X50.726 Y0.246
X51.632 Y0.144
X52.535 Y0.019
X53.435 Y-0.13
X54.331 Y-0.296
X55.225 Y-0.475
X56.118 Y-0.662
X57.003 Y-0.879
X57.884 Y-1.116
X58.76 Y-1.369
X59.632 Y-1.633
X60.501 Y-1.911
X61.36 Y-2.215
X62.213 Y-2.538
X63.061 Y-2.875
X63.904 Y-3.22
X64.74 Y-3.586
X65.565 Y-3.974
X66.382 Y-4.379
X67.193 Y-4.795
X68 Y-5.22
X68.793 Y-5.669
X69.575 Y-6.138
X70.349 Y-6.62
X71.117 Y-7.112
X71.877 Y-7.616
X72.621 Y-8.143
X73.353 Y-8.687
X74.077 Y-9.242
X74.794 Y-9.805
X75.498 Y-10.384
X76.186 Y-10.983
X76.861 Y-11.595
X77.528 Y-12.217
X78.188 Y-12.846
X78.83 Y-13.494
X79.454 Y-14.158
X80.067 Y-14.834
X80.671 Y-15.517
X81.265 Y-16.208
X81.837 Y-16.918
X82.393 Y-17.641
X82.938 Y-18.372
X83.474 Y-19.11
X83.994 Y-19.859
X84.492 Y-20.622
X84.975 Y-21.396
X85.446 Y-22.176
X85.91 Y-22.962
X86.35 Y-23.76
X86.77 Y-24.569
X87.175 Y-25.386
X87.57 Y-26.208
X87.953 Y-27.036
X88.31 Y-27.875
X88.648 Y-28.722
X88.972 Y-29.574
X89.286 Y-30.43
X89.582 Y-31.292
X89.854 Y-32.163
X90.107 Y-33.039
X90.348 Y-33.918
X90.579 Y-34.8
X90.785 Y-35.688
X90.968 Y-36.581
X91.135 Y-37.478
X91.29 Y-38.376
X91.434 Y-39.277
X91.549 Y-40.181
X91.643 Y-41.088
X91.722 Y-41.997
X91.79 Y-42.906
X91.84 Y-43.816
X91.864 Y-44.728
X91.869 Y-45.64
X91.86 Y-46.552
X91.841 Y-47.463
X91.798 Y-48.374
X91.731 Y-49.283
X91.646 Y-50.191
X91.55 Y-51.098
X91.443 Y-52.003
X91.307 Y-52.905
X91.15 Y-53.803
X90.978 Y-54.699
X90.795 Y-55.592
X90.596 Y-56.482
X90.37 Y-57.365
X90.125 Y-58.244
X89.868 Y-59.118
X89.601 Y-59.99
X89.311 Y-60.855
X88.999 Y-61.711
X88.67 Y-62.562
X88.329 Y-63.407
X87.98 Y-64.25
X87.604 Y-65.08
X87.207 Y-65.901
X86.797 Y-66.716
X86.377 Y-67.525
X85.943 Y-68.327
X85.485 Y-69.115
X85.01 Y-69.894
X84.523 Y-70.665
X84.028 Y-71.431
X83.514 Y-72.184
X82.98 Y-72.922
X82.431 Y-73.651
X81.873 Y-74.372
X81.307 Y-75.087
X80.719 Y-75.783
X80.113 Y-76.465
X79.496 Y-77.136
X78.871 Y-77.8
X78.235 Y-78.454
X77.58 Y-79.087
X76.911 Y-79.707
X76.232 Y-80.316
X75.546 Y-80.917
X74.847 Y-81.501
X74.131 Y-82.067
X73.405 Y-82.618
X72.67 Y-83.158
X71.931 Y-83.692
X71.175 Y-84.202
X70.407 Y-84.693
X69.63 Y-85.17
X68.847 Y-85.638
X68.057 Y-86.094
X67.254 Y-86.525
X66.441 Y-86.938
X65.622 Y-87.338
X64.798 Y-87.729
X63.966 Y-88.101
X63.123 Y-88.45
X62.274 Y-88.782
X61.42 Y-89.101
X60.563 Y-89.412
X59.697 Y-89.697
X58.824 Y-89.96
X57.946 Y-90.208
X57.065 Y-90.444
X56.181 Y-90.667
X55.291 Y-90.863
X54.396 Y-91.039
X53.499 Y-91.2
X52.599 Y-91.351
X51.697 Y-91.483
X50.791 Y-91.588
X49.884 Y-91.676
X48.975 Y-91.75
X48.065 Y-91.815
X47.154 Y-91.853
X46.243 Y-91.868
X45.331 Y-91.867
X44.419 Y-91.853
X43.508 Y-91.828
X42.598 Y-91.773
X41.689 Y-91.698
X40.782 Y-91.608
X39.875 Y-91.508
X38.971 Y-91.389
X38.071 Y-91.244
X37.174 Y-91.08
X36.28 Y-90.903
X35.387 Y-90.717
X34.5 Y-90.506
X33.619 Y-90.271
X32.742 Y-90.021
X31.869 Y-89.759
X30.998 Y-89.487
X30.138 Y-89.186
X29.284 Y-88.866
X28.436 Y-88.532
X27.591 Y-88.187
X26.754 Y-87.827
X25.927 Y-87.442
X25.109 Y-87.039
X24.297 Y-86.625
X23.489 Y-86.202
X22.693 Y-85.757
X21.909 Y-85.292
X21.134 Y-84.811
X20.365 Y-84.321
X19.602 Y-83.822
X18.856 Y-83.298
X18.122 Y-82.757
X17.397 Y-82.204
X16.679 Y-81.642
X15.971 Y-81.067
X15.281 Y-80.471
X14.604 Y-79.861
X13.936 Y-79.24
X13.274 Y-78.612
X12.629 Y-77.968
X12.002 Y-77.306
X11.387 Y-76.633
X10.782 Y-75.951
X10.183 Y-75.263
X9.608 Y-74.556
X9.05 Y-73.835
X8.504 Y-73.104
X7.966 Y-72.368
X7.442 Y-71.622
X6.94 Y-70.86
X6.455 Y-70.088
X5.982 Y-69.309
X5.517 Y-68.524
X5.072 Y-67.728
X4.649 Y-66.921
X4.242 Y-66.105
X3.846 Y-65.284
X3.557 Y-64.419
X3.408 Y-63.519
X3.338 Y-62.61
X3.304 Y-61.699
X3.279 Y-60.788
X3.246 Y-59.876
X3.196 Y-58.966
X3.124 Y-58.057
X3.036 Y-57.149
X2.937 Y-56.243
X2.831 Y-55.337
X2.607 Y-53.528
X2.501 Y-52.622
X2.403 Y-51.715
X2.315 Y-50.808
X2.237 Y-49.899
X2.174 Y-48.99
X2.127 Y-48.079
X2.096 Y-47.168
X2.079 Y-46.256
X2.08 Y-45.344
X2.1 Y-44.433
X2.14 Y-43.522
X2.196 Y-42.612
X2.269 Y-41.703
X2.363 Y-40.796
X2.477 Y-39.891
X2.609 Y-38.989
X2.757 Y-38.089
X2.925 Y-37.193
X3.113 Y-36.301
X3.32 Y-35.413
X3.544 Y-34.529
X3.785 Y-33.65
X4.045 Y-32.776
X4.325 Y-31.908
X4.623 Y-31.046
X4.936 Y-30.19
X5.268 Y-29.341
X5.619 Y-28.499
X5.989 Y-27.665
X6.373 Y-26.839
X6.775 Y-26.02
X7.195 Y-25.211
X7.633 Y-24.411
X8.087 Y-23.62
X8.555 Y-22.838
X9.041 Y-22.066
X9.544 Y-21.306
X10.062 Y-20.556
X10.595 Y-19.815
X11.142 Y-19.086
X11.706 Y-18.37
X12.286 Y-17.666
X12.879 Y-16.973
X13.485 Y-16.293
X14.107 Y-15.625
X14.743 Y-14.972
X15.393 Y-14.333
X16.054 Y-13.705
X16.729 Y-13.092
X17.418 Y-12.494
X18.119 Y-11.911
X18.831 Y-11.342
X19.555 Y-10.787
X20.29 Y-10.248
X21.038 Y-9.726
X21.795 Y-9.219
X22.563 Y-8.726
X23.341 Y-8.25
X24.129 Y-7.792
X24.927 Y-7.35
X25.732 Y-6.923
X26.547 Y-6.513
X27.37 Y-6.122
X28.202 Y-5.749
X29.042 Y-5.393
X29.887 Y-5.052
X30.741 Y-4.73
X31.601 Y-4.428
X32.467 Y-4.144
X33.339 Y-3.876
X34.216 Y-3.626
X35.098 Y-3.396
X35.985 Y-3.186
X36.876 Y-2.992
X37.771 Y-2.816
X38.669 Y-2.66
X39.571 Y-2.524
X40.475 Y-2.406
X41.381 Y-2.304
X42.289 Y-2.223
X43.199 Y-2.163
X44.11 Y-2.122
X45.022 Y-2.098
X45.933 Y-2.093
X46.845 Y-2.109
X47.756 Y-2.145
X48.666 Y-2.198
X49.575 Y-2.269
X50.483 Y-2.36
X51.388 Y-2.471
X52.29 Y-2.601
X53.19 Y-2.747
X54.087 Y-2.912
X54.98 Y-3.098
X55.868 Y-3.303
X56.752 Y-3.526
X57.632 Y-3.765
X58.506 Y-4.025
X59.374 Y-4.304
X60.237 Y-4.6
X61.093 Y-4.913
X61.943 Y-5.244
X62.784 Y-5.595
X63.619 Y-5.963
X64.446 Y-6.346
X65.265 Y-6.746
X66.075 Y-7.164
X66.876 Y-7.601
X67.668 Y-8.053
X68.451 Y-8.52
X69.224 Y-9.004
X69.985 Y-9.505
X70.736 Y-10.023
X71.477 Y-10.555
X72.206 Y-11.101
X72.923 Y-11.665
X73.628 Y-12.244
X74.321 Y-12.836
X75.003 Y-13.441
X75.671 Y-14.062
X76.325 Y-14.697
X76.966 Y-15.346
X77.594 Y-16.006
X78.209 Y-16.68
X78.808 Y-17.368
X79.392 Y-18.068
X79.963 Y-18.779
X80.519 Y-19.501
X81.059 Y-20.236
X81.582 Y-20.983
X82.09 Y-21.74
X82.584 Y-22.506
X83.061 Y-23.283
X83.521 Y-24.071
X83.963 Y-24.868
X84.391 Y-25.674
X84.802 Y-26.488
X85.194 Y-27.311
X85.569 Y-28.142
X85.927 Y-28.981
X86.268 Y-29.826
X86.591 Y-30.679
X86.895 Y-31.538
X87.181 Y-32.404
X87.451 Y-33.275
X87.703 Y-34.152
X87.934 Y-35.034
X88.146 Y-35.92
X88.34 Y-36.811
X88.518 Y-37.706
X88.675 Y-38.604
X88.812 Y-39.505
X88.931 Y-40.409
X89.033 Y-41.315
X89.115 Y-42.223
X89.177 Y-43.133
X89.219 Y-44.044
X89.245 Y-44.955
X89.252 Y-45.867
X89.238 Y-46.779
X89.204 Y-47.69
X89.152 Y-48.6
X89.084 Y-49.51
X88.994 Y-50.417
X88.884 Y-51.322
X88.755 Y-52.225
X88.609 Y-53.125
X88.445 Y-54.022
X88.26 Y-54.915
X88.056 Y-55.803
X87.835 Y-56.688
X87.596 Y-57.568
X87.338 Y-58.443
X87.061 Y-59.311
X86.766 Y-60.174
X86.456 Y-61.031
X86.127 Y-61.882
X85.778 Y-62.724
X85.412 Y-63.559
X85.029 Y-64.387
X84.63 Y-65.207
X84.212 Y-66.017
X83.777 Y-66.818
X83.325 Y-67.611
X82.859 Y-68.394
X82.376 Y-69.167
X81.875 Y-69.93
X81.359 Y-70.681
X80.829 Y-71.423
X80.284 Y-72.154
X79.722 Y-72.872
X79.145 Y-73.578
X78.553 Y-74.272
X77.949 Y-74.955
X77.33 Y-75.624
X76.695 Y-76.279
X76.047 Y-76.92
X75.388 Y-77.55
X74.715 Y-78.165
X74.028 Y-78.765
X73.328 Y-79.35
X72.618 Y-79.921
X71.896 Y-80.479
X71.162 Y-81.02
X70.417 Y-81.544
X69.66 Y-82.054
X68.895 Y-82.549
X68.118 Y-83.027
X67.332 Y-83.488
X66.535 Y-83.932
X65.731 Y-84.361
X64.917 Y-84.773
X64.095 Y-85.167
X63.264 Y-85.542
X62.426 Y-85.901
X61.581 Y-86.245
X60.729 Y-86.569
X59.87 Y-86.874
X59.004 Y-87.161
X58.133 Y-87.431
X57.257 Y-87.684
X56.376 Y-87.917
X55.489 Y-88.13
X54.599 Y-88.326
X53.705 Y-88.505
X52.807 Y-88.664
X51.906 Y-88.803
X51.002 Y-88.923
X50.096 Y-89.027
X49.188 Y-89.111
X48.278 Y-89.174
X47.367 Y-89.218
X46.456 Y-89.244
X45.544 Y-89.252
X44.633 Y-89.24
X43.721 Y-89.207
X42.811 Y-89.156
X41.902 Y-89.088
X40.994 Y-89
X40.089 Y-88.891
X39.186 Y-88.764
X38.285 Y-88.62
X37.388 Y-88.458
X36.495 Y-88.275
X35.606 Y-88.072
X34.721 Y-87.852
X33.84 Y-87.616
X32.965 Y-87.359
X32.096 Y-87.083
X31.233 Y-86.789
X30.376 Y-86.478
X29.525 Y-86.15
X28.682 Y-85.803
X27.847 Y-85.437
X27.019 Y-85.056
X26.198 Y-84.658
X25.387 Y-84.242
X24.585 Y-83.808
X23.792 Y-83.358
X23.007 Y-82.894
X22.233 Y-82.413
X21.469 Y-81.914
X20.717 Y-81.398
X19.975 Y-80.869
X19.244 Y-80.324
X18.525 Y-79.763
X17.819 Y-79.187
X17.124 Y-78.596
X16.44 Y-77.993
X15.77 Y-77.374
X15.114 Y-76.741
X14.472 Y-76.094
X13.841 Y-75.435
X13.224 Y-74.764
X12.623 Y-74.079
X12.037 Y-73.38
X11.464 Y-72.67
X10.905 Y-71.95
X10.363 Y-71.217
X9.838 Y-70.472
X9.327 Y-69.716
X8.832 Y-68.951
X8.352 Y-68.175
X7.89 Y-67.389
X7.445 Y-66.593
X7.039 Y-65.777
X6.714 Y-64.925
X6.467 Y-64.047
X6.282 Y-63.154
X6.141 Y-62.253
X6.027 Y-61.349
X5.927 Y-60.442
X5.74 Y-58.628
X5.644 Y-57.722
X5.544 Y-56.815
X5.44 Y-55.91
X5.231 Y-54.098
X5.13 Y-53.192
X5.034 Y-52.285
X4.946 Y-51.377
X4.868 Y-50.469
X4.803 Y-49.559
X4.75 Y-48.649
X4.712 Y-47.738
X4.69 Y-46.827
X4.686 Y-45.915
X4.699 Y-45.003
X4.73 Y-44.092
X4.78 Y-43.181
X4.85 Y-42.272
X4.939 Y-41.365
X5.047 Y-40.459
X5.175 Y-39.557
X5.323 Y-38.657
X5.49 Y-37.761
X5.677 Y-36.868
X5.883 Y-35.98
X6.109 Y-35.097
X6.355 Y-34.218
X6.619 Y-33.346
X6.903 Y-32.479
X7.206 Y-31.619
X7.528 Y-30.766
X7.87 Y-29.921
X8.23 Y-29.083
X8.608 Y-28.254
X9.006 Y-27.433
X9.422 Y-26.621
X9.855 Y-25.819
X10.306 Y-25.027
X10.775 Y-24.245
X11.26 Y-23.473
X11.763 Y-22.712
X12.282 Y-21.963
X12.819 Y-21.225
X13.371 Y-20.5
X13.939 Y-19.786
X14.523 Y-19.086
X15.122 Y-18.399
X15.737 Y-17.726
X16.367 Y-17.066
X17.011 Y-16.421
X17.67 Y-15.79
X18.342 Y-15.175
X19.028 Y-14.574
X19.727 Y-13.988
X20.439 Y-13.419
X21.163 Y-12.865
X21.9 Y-12.328
X22.648 Y-11.806
X23.408 Y-11.302
X24.178 Y-10.815
X24.96 Y-10.344
X25.751 Y-9.891
X26.552 Y-9.457
X27.364 Y-9.04
X28.184 Y-8.642
X29.012 Y-8.262
X29.85 Y-7.9
X30.695 Y-7.558
X31.547 Y-7.234
X32.406 Y-6.929
X33.272 Y-6.643
X34.144 Y-6.377
X35.022 Y-6.13
X35.905 Y-5.903
X36.793 Y-5.695
X37.685 Y-5.507
X38.581 Y-5.339
X39.481 Y-5.19
X40.384 Y-5.062
X41.289 Y-4.954
X42.197 Y-4.867
X43.106 Y-4.8
X44.017 Y-4.753
X44.928 Y-4.727
X45.84 Y-4.721
X46.752 Y-4.735
X47.663 Y-4.769
X48.573 Y-4.824
X49.482 Y-4.899
X50.389 Y-4.993
X51.293 Y-5.108
X52.195 Y-5.242
X53.094 Y-5.397
X53.988 Y-5.572
X54.879 Y-5.767
X55.765 Y-5.982
X56.646 Y-6.217
X57.522 Y-6.472
X58.392 Y-6.745
X59.255 Y-7.038
X60.112 Y-7.351
X60.961 Y-7.682
X61.803 Y-8.032
X62.637 Y-8.4
X63.463 Y-8.787
X64.28 Y-9.192
X65.088 Y-9.615
X65.886 Y-10.055
X66.674 Y-10.514
X67.452 Y-10.991
X68.218 Y-11.484
X68.974 Y-11.995
X69.718 Y-12.522
X70.449 Y-13.066
X71.169 Y-13.626
X71.876 Y-14.202
X72.57 Y-14.793
X73.251 Y-15.4
X73.918 Y-16.021
X74.571 Y-16.657
X75.211 Y-17.307
X75.835 Y-17.972
X76.444 Y-18.65
X77.039 Y-19.342
X77.617 Y-20.046
X78.18 Y-20.764
X78.726 Y-21.494
X79.256 Y-22.236
X79.77 Y-22.99
X80.266 Y-23.755
X80.745 Y-24.53
X81.207 Y-25.317
X81.651 Y-26.113
X82.078 Y-26.919
X82.486 Y-27.734
X82.876 Y-28.558
X83.249 Y-29.39
X83.602 Y-30.231
X83.936 Y-31.079
X84.252 Y-31.934
X84.549 Y-32.797
X84.826 Y-33.665
X85.083 Y-34.54
X85.321 Y-35.42
X85.54 Y-36.306
X85.738 Y-37.196
X85.916 Y-38.09
X86.075 Y-38.988
X86.214 Y-39.889
X86.333 Y-40.793
X86.431 Y-41.699
X86.509 Y-42.608
X86.568 Y-43.518
X86.606 Y-44.429
X86.624 Y-45.34
X86.621 Y-46.252
X86.599 Y-47.164
X86.556 Y-48.075
X86.492 Y-48.984
X86.407 Y-49.892
X86.303 Y-50.798
X86.179 Y-51.701
X86.034 Y-52.601
X85.869 Y-53.498
X85.685 Y-54.391
X85.481 Y-55.28
X85.258 Y-56.164
X85.014 Y-57.043
X84.752 Y-57.916
X84.47 Y-58.783
X84.169 Y-59.644
X83.849 Y-60.497
X83.509 Y-61.344
X83.151 Y-62.182
X82.774 Y-63.012
X82.378 Y-63.834
X81.964 Y-64.646
X81.533 Y-65.449
X81.083 Y-66.243
X80.616 Y-67.026
X80.132 Y-67.799
X79.631 Y-68.56
X79.113 Y-69.311
X78.579 Y-70.05
X78.028 Y-70.777
X77.462 Y-71.491
X76.88 Y-72.193
X76.281 Y-72.881
X75.668 Y-73.555
X75.039 Y-74.216
X74.396 Y-74.863
X73.739 Y-75.495
X73.068 Y-76.112
X72.383 Y-76.714
X71.686 Y-77.301
X70.975 Y-77.872
X70.252 Y-78.428
X69.516 Y-78.967
X68.769 Y-79.49
X68.011 Y-79.996
X67.241 Y-80.485
X66.461 Y-80.957
X65.671 Y-81.411
X64.87 Y-81.848
X64.06 Y-82.266
X63.24 Y-82.666
X62.412 Y-83.048
X61.576 Y-83.411
X60.732 Y-83.755
X59.88 Y-84.081
X59.021 Y-84.388
X58.156 Y-84.675
X57.285 Y-84.943
X56.407 Y-85.192
X55.525 Y-85.422
X54.638 Y-85.632
X53.746 Y-85.822
X52.85 Y-85.991
X51.951 Y-86.141
X51.048 Y-86.272
X50.143 Y-86.381
X49.235 Y-86.47
X48.326 Y-86.539
X47.416 Y-86.588
X46.504 Y-86.616
X45.593 Y-86.624
X44.681 Y-86.612
X43.77 Y-86.58
X42.859 Y-86.528
X41.95 Y-86.455
X41.043 Y-86.362
X40.138 Y-86.249
X39.236 Y-86.117
X38.338 Y-85.963
X37.442 Y-85.79
X36.551 Y-85.597
X35.665 Y-85.384
X34.783 Y-85.151
X33.907 Y-84.898
X33.037 Y-84.627
X32.172 Y-84.335
X31.315 Y-84.025
X30.465 Y-83.695
X29.622 Y-83.348
X28.787 Y-82.981
X27.961 Y-82.596
X27.143 Y-82.192
X26.334 Y-81.771
X25.535 Y-81.333
X24.746 Y-80.876
X23.967 Y-80.401
X23.2 Y-79.909
X22.443 Y-79.4
X21.698 Y-78.874
X20.965 Y-78.332
X20.244 Y-77.773
X19.536 Y-77.199
X18.841 Y-76.609
X18.159 Y-76.004
X17.49 Y-75.384
X16.835 Y-74.75
X16.195 Y-74.101
X15.569 Y-73.438
X14.958 Y-72.761
X14.362 Y-72.071
X13.782 Y-71.367
X13.218 Y-70.651
X12.671 Y-69.922
X12.139 Y-69.181
X11.624 Y-68.428
X11.126 Y-67.664
X10.649 Y-66.887
X10.211 Y-66.087
X9.831 Y-65.259
X9.511 Y-64.405
X9.246 Y-63.532
X9.026 Y-62.648
X8.842 Y-61.755
X8.683 Y-60.857
X8.543 Y-59.956
X8.415 Y-59.053
X8.295 Y-58.149
X8.179 Y-57.245
X8.066 Y-56.34
X7.956 Y-55.435
X7.85 Y-54.529
X7.749 Y-53.623
X7.653 Y-52.716
X7.565 Y-51.808
X7.487 Y-50.9
X7.42 Y-49.991
X7.365 Y-49.081
X7.324 Y-48.17
X7.3 Y-47.258
X7.291 Y-46.346
X7.301 Y-45.435
X7.329 Y-44.523
X7.377 Y-43.613
X7.444 Y-42.703
X7.532 Y-41.796
X7.639 Y-40.89
X7.767 Y-39.987
X7.916 Y-39.088
X8.085 Y-38.192
X8.275 Y-37.3
X8.486 Y-36.413
X8.717 Y-35.531
X8.968 Y-34.654
X9.241 Y-33.784
X9.534 Y-32.921
X9.848 Y-32.065
X10.182 Y-31.217
X10.537 Y-30.377
X10.911 Y-29.545
X11.305 Y-28.723
X11.719 Y-27.91
X12.151 Y-27.107
X12.602 Y-26.315
X13.072 Y-25.534
X13.561 Y-24.764
X14.067 Y-24.005
X14.591 Y-23.259
X15.133 Y-22.526
X15.692 Y-21.805
X16.268 Y-21.099
X16.861 Y-20.406
X17.471 Y-19.728
X18.096 Y-19.065
X18.737 Y-18.416
X19.394 Y-17.783
X20.065 Y-17.166
X20.751 Y-16.565
X21.45 Y-15.98
X22.164 Y-15.412
X22.89 Y-14.861
X23.629 Y-14.328
X24.381 Y-13.812
X25.145 Y-13.314
X25.921 Y-12.834
X26.707 Y-12.374
X27.505 Y-11.932
X28.313 Y-11.51
X29.131 Y-11.107
X29.958 Y-10.723
X30.794 Y-10.359
X31.639 Y-10.015
X32.491 Y-9.692
X33.351 Y-9.388
X34.218 Y-9.106
X35.091 Y-8.843
X35.97 Y-8.601
X36.855 Y-8.38
X37.745 Y-8.181
X38.639 Y-8.003
X39.537 Y-7.846
X40.439 Y-7.711
X41.344 Y-7.597
X42.251 Y-7.505
X43.16 Y-7.435
X44.071 Y-7.387
X44.982 Y-7.36
X45.894 Y-7.354
X46.805 Y-7.37
X47.716 Y-7.408
X48.626 Y-7.467
X49.535 Y-7.547
X50.441 Y-7.65
X51.344 Y-7.774
X52.244 Y-7.919
X53.141 Y-8.086
X54.033 Y-8.275
X54.92 Y-8.485
X55.802 Y-8.716
X56.678 Y-8.968
X57.549 Y-9.24
X58.412 Y-9.533
X59.268 Y-9.847
X60.117 Y-10.18
X60.957 Y-10.534
X61.789 Y-10.907
X62.612 Y-11.299
X63.425 Y-11.712
X64.228 Y-12.144
X65.021 Y-12.595
X65.802 Y-13.065
X66.572 Y-13.553
X67.33 Y-14.06
X68.076 Y-14.584
X68.809 Y-15.127
X69.529 Y-15.686
X70.236 Y-16.262
X70.929 Y-16.855
X71.608 Y-17.464
X72.272 Y-18.089
X72.921 Y-18.729
X73.555 Y-19.385
X74.172 Y-20.055
X74.774 Y-20.74
X75.359 Y-21.44
X75.927 Y-22.153
X76.477 Y-22.88
X77.011 Y-23.62
X77.526 Y-24.372
X78.024 Y-25.136
X78.503 Y-25.911
X78.964 Y-26.698
X79.406 Y-27.496
X79.829 Y-28.303
X80.233 Y-29.121
X80.618 Y-29.948
X80.982 Y-30.783
X81.327 Y-31.628
X81.651 Y-32.48
X81.954 Y-33.34
X82.237 Y-34.206
X82.499 Y-35.08
X82.741 Y-35.959
X82.961 Y-36.844
X83.16 Y-37.734
X83.339 Y-38.628
X83.495 Y-39.526
X83.631 Y-40.428
X83.745 Y-41.332
X83.838 Y-42.239
X83.91 Y-43.148
X83.959 Y-44.059
X83.987 Y-44.97
X83.993 Y-45.882
X83.977 Y-46.794
X83.939 Y-47.705
X83.879 Y-48.615
X83.798 Y-49.523
X83.696 Y-50.429
X83.571 Y-51.332
X83.426 Y-52.232
X83.259 Y-53.129
X83.071 Y-54.021
X82.862 Y-54.909
X82.633 Y-55.791
X82.382 Y-56.668
X82.11 Y-57.538
X81.818 Y-58.402
X81.505 Y-59.258
X81.171 Y-60.107
X80.817 Y-60.947
X80.443 Y-61.779
X80.05 Y-62.601
X79.637 Y-63.414
X79.205 Y-64.217
X78.754 Y-65.01
X78.285 Y-65.792
X77.797 Y-66.562
X77.292 Y-67.321
X76.768 Y-68.067
X76.227 Y-68.801
X75.668 Y-69.522
X75.092 Y-70.228
X74.499 Y-70.921
X73.89 Y-71.6
X73.265 Y-72.263
X72.624 Y-72.912
X71.968 Y-73.546
X71.298 Y-74.163
X70.612 Y-74.765
X69.913 Y-75.35
X69.2 Y-75.918
X68.474 Y-76.47
X67.735 Y-77.004
X66.984 Y-77.521
X66.22 Y-78.019
X65.445 Y-78.499
X64.658 Y-78.96
X63.86 Y-79.402
X63.053 Y-79.825
X62.235 Y-80.228
X61.408 Y-80.612
X60.572 Y-80.976
X59.728 Y-81.321
X58.876 Y-81.645
X58.016 Y-81.949
X57.149 Y-82.233
X56.276 Y-82.496
X55.397 Y-82.738
X54.513 Y-82.96
X53.623 Y-83.159
X52.729 Y-83.338
X51.831 Y-83.495
X50.929 Y-83.631
X50.025 Y-83.745
X49.117 Y-83.837
X48.208 Y-83.908
X47.298 Y-83.957
X46.386 Y-83.985
X45.475 Y-83.991
X44.563 Y-83.976
X43.652 Y-83.939
X42.742 Y-83.88
X41.834 Y-83.8
X40.928 Y-83.698
X40.024 Y-83.575
X39.124 Y-83.43
X38.228 Y-83.263
X37.335 Y-83.075
X36.448 Y-82.866
X35.566 Y-82.635
X34.689 Y-82.384
X33.819 Y-82.112
X32.955 Y-81.82
X32.099 Y-81.507
X31.25 Y-81.174
X30.409 Y-80.821
X29.577 Y-80.448
X28.754 Y-80.056
X27.94 Y-79.644
X27.137 Y-79.212
X26.344 Y-78.762
X25.563 Y-78.292
X24.793 Y-77.804
X24.034 Y-77.298
X23.288 Y-76.774
X22.554 Y-76.233
X21.834 Y-75.674
X21.127 Y-75.098
X20.434 Y-74.506
X19.754 Y-73.897
X19.09 Y-73.273
X18.44 Y-72.633
X17.806 Y-71.978
X17.188 Y-71.307
X16.586 Y-70.622
X16.001 Y-69.923
X15.433 Y-69.21
X14.882 Y-68.484
X14.349 Y-67.744
X13.838 Y-66.989
X13.361 Y-66.212
X12.931 Y-65.408
X12.552 Y-64.578
X12.223 Y-63.728
X11.939 Y-62.861
X11.694 Y-61.983
X11.482 Y-61.096
X11.295 Y-60.204
X11.129 Y-59.307
X10.978 Y-58.408
X10.839 Y-57.507
X10.709 Y-56.604
X10.587 Y-55.701
X10.473 Y-54.796
X10.366 Y-53.891
X10.267 Y-52.984
X10.177 Y-52.077
X10.097 Y-51.169
X10.028 Y-50.259
X9.973 Y-49.349
X9.932 Y-48.438
X9.907 Y-47.527
X9.899 Y-46.615
X9.909 Y-45.703
X9.938 Y-44.792
X9.987 Y-43.881
X10.056 Y-42.972
X10.145 Y-42.065
X10.256 Y-41.16
X10.388 Y-40.258
X10.542 Y-39.359
X10.717 Y-38.464
X10.915 Y-37.574
X11.134 Y-36.689
X11.376 Y-35.81
X11.641 Y-34.937
X11.927 Y-34.071
X12.235 Y-33.213
X12.566 Y-32.363
X12.917 Y-31.522
X13.29 Y-30.69
X13.684 Y-29.868
X14.098 Y-29.055
X14.533 Y-28.254
X14.988 Y-27.464
X15.463 Y-26.686
X15.958 Y-25.92
X16.472 Y-25.167
X17.006 Y-24.427
X17.558 Y-23.702
X18.129 Y-22.991
X18.718 Y-22.294
X19.324 Y-21.614
X19.948 Y-20.948
X20.588 Y-20.299
X21.245 Y-19.667
X21.917 Y-19.051
X22.605 Y-18.452
X23.308 Y-17.872
X24.025 Y-17.309
X24.757 Y-16.764
X25.502 Y-16.239
X26.261 Y-15.733
X27.032 Y-15.247
X27.816 Y-14.781
X28.611 Y-14.335
X29.418 Y-13.91
X30.235 Y-13.505
X31.062 Y-13.121
X31.899 Y-12.759
X32.744 Y-12.418
X33.598 Y-12.098
X34.46 Y-11.8
X35.329 Y-11.524
X36.205 Y-11.27
X37.087 Y-11.039
X37.975 Y-10.831
X38.867 Y-10.646
X39.765 Y-10.484
X40.666 Y-10.345
X41.57 Y-10.229
X42.477 Y-10.136
X43.386 Y-10.066
X44.297 Y-10.019
X45.209 Y-9.996
X46.12 Y-9.995
X47.032 Y-10.018
X47.943 Y-10.064
X48.852 Y-10.133
X49.759 Y-10.226
X50.663 Y-10.342
X51.564 Y-10.481
X52.462 Y-10.644
X53.354 Y-10.829
X54.242 Y-11.037
X55.124 Y-11.267
X56 Y-11.52
X56.87 Y-11.795
X57.732 Y-12.092
X58.586 Y-12.411
X59.432 Y-12.751
X60.269 Y-13.113
X61.096 Y-13.497
X61.913 Y-13.901
X62.72 Y-14.327
X63.515 Y-14.773
X64.298 Y-15.239
X65.07 Y-15.726
X65.828 Y-16.231
X66.574 Y-16.756
X67.306 Y-17.3
X68.024 Y-17.862
X68.728 Y-18.442
X69.417 Y-19.039
X70.09 Y-19.654
X70.747 Y-20.287
X71.387 Y-20.936
X72.011 Y-21.601
X72.617 Y-22.282
X73.206 Y-22.978
X73.776 Y-23.689
X74.329 Y-24.415
X74.862 Y-25.154
X75.377 Y-25.907
X75.872 Y-26.672
X76.348 Y-27.45
X76.804 Y-28.24
X77.24 Y-29.041
X77.655 Y-29.853
X78.049 Y-30.675
X78.421 Y-31.507
X78.773 Y-32.349
X79.102 Y-33.199
X79.409 Y-34.057
X79.695 Y-34.923
X79.958 Y-35.796
X80.199 Y-36.676
X80.418 Y-37.561
X80.614 Y-38.451
X80.787 Y-39.346
X80.938 Y-40.246
X81.066 Y-41.149
X81.17 Y-42.054
X81.251 Y-42.963
X81.308 Y-43.873
X81.342 Y-44.784
X81.353 Y-45.696
X81.341 Y-46.607
X81.305 Y-47.518
X81.246 Y-48.428
X81.164 Y-49.336
X81.058 Y-50.242
X80.93 Y-51.145
X80.779 Y-52.044
X80.606 Y-52.939
X80.409 Y-53.83
X80.189 Y-54.715
X79.947 Y-55.594
X79.682 Y-56.466
X79.395 Y-57.332
X79.086 Y-58.189
X78.755 Y-59.039
X78.402 Y-59.88
X78.028 Y-60.711
X77.633 Y-61.533
X77.218 Y-62.345
X76.781 Y-63.146
X76.325 Y-63.935
X75.849 Y-64.713
X75.353 Y-65.478
X74.837 Y-66.23
X74.302 Y-66.968
X73.749 Y-67.692
X73.177 Y-68.402
X72.586 Y-69.098
X71.979 Y-69.777
X71.354 Y-70.442
X70.713 Y-71.09
X70.055 Y-71.721
X69.382 Y-72.336
X68.693 Y-72.933
X67.989 Y-73.513
X67.271 Y-74.075
X66.538 Y-74.617
X65.791 Y-75.141
X65.032 Y-75.645
X64.259 Y-76.13
X63.475 Y-76.595
X62.679 Y-77.039
X61.872 Y-77.463
X61.054 Y-77.867
X60.226 Y-78.249
X59.389 Y-78.61
X58.543 Y-78.95
X57.689 Y-79.269
X56.826 Y-79.565
X55.957 Y-79.84
X55.08 Y-80.091
X54.198 Y-80.32
X53.309 Y-80.527
X52.416 Y-80.71
X51.519 Y-80.871
X50.617 Y-81.008
X49.713 Y-81.123
X48.806 Y-81.214
X47.896 Y-81.283
X46.986 Y-81.328
X46.074 Y-81.351
X45.162 Y-81.35
X44.251 Y-81.325
X43.34 Y-81.277
X42.431 Y-81.206
X41.524 Y-81.112
X40.62 Y-80.994
X39.719 Y-80.853
X38.822 Y-80.689
X37.93 Y-80.502
X37.042 Y-80.293
X36.161 Y-80.061
X35.285 Y-79.807
X34.416 Y-79.53
X33.554 Y-79.232
X32.701 Y-78.912
X31.855 Y-78.57
X31.019 Y-78.206
X30.193 Y-77.821
X29.376 Y-77.415
X28.571 Y-76.988
X27.776 Y-76.54
X26.994 Y-76.073
X26.223 Y-75.585
X25.465 Y-75.078
X24.72 Y-74.552
X23.989 Y-74.008
X23.272 Y-73.445
X22.569 Y-72.864
X21.882 Y-72.265
X21.21 Y-71.648
X20.554 Y-71.015
X19.915 Y-70.364
X19.292 Y-69.698
X18.687 Y-69.016
X18.1 Y-68.318
X17.532 Y-67.605
X16.986 Y-66.875
X16.471 Y-66.122
X15.998 Y-65.343
X15.569 Y-64.538
X15.187 Y-63.711
X14.849 Y-62.864
X14.552 Y-62.001
X14.291 Y-61.128
X14.062 Y-60.245
X13.857 Y-59.357
X13.675 Y-58.463
X13.509 Y-57.567
X13.359 Y-56.667
X13.221 Y-55.766
X13.095 Y-54.863
X12.979 Y-53.959
X12.874 Y-53.053
X12.781 Y-52.146
X12.699 Y-51.238
X12.631 Y-50.328
X12.576 Y-49.418
X12.537 Y-48.507
X12.515 Y-47.596
X12.51 Y-46.684
X12.524 Y-45.772
X12.558 Y-44.861
X12.612 Y-43.951
X12.688 Y-43.042
X12.785 Y-42.135
X12.904 Y-41.231
X13.046 Y-40.331
X13.212 Y-39.434
X13.401 Y-38.542
X13.614 Y-37.655
X13.85 Y-36.775
X14.11 Y-35.901
X14.394 Y-35.034
X14.701 Y-34.176
X15.031 Y-33.326
X15.384 Y-32.485
X15.76 Y-31.655
X16.159 Y-30.834
X16.579 Y-30.025
X17.022 Y-29.228
X17.487 Y-28.444
X17.973 Y-27.673
X18.481 Y-26.915
X19.009 Y-26.172
X19.558 Y-25.444
X20.126 Y-24.731
X20.714 Y-24.034
X21.321 Y-23.353
X21.947 Y-22.69
X22.59 Y-22.044
X23.25 Y-21.415
X23.928 Y-20.805
X24.623 Y-20.214
X25.333 Y-19.643
X26.059 Y-19.092
X26.801 Y-18.561
X27.556 Y-18.05
X28.326 Y-17.561
X29.108 Y-17.093
X29.904 Y-16.647
X30.711 Y-16.223
X31.529 Y-15.821
X32.359 Y-15.442
X33.198 Y-15.085
X34.047 Y-14.752
X34.904 Y-14.443
X35.77 Y-14.158
X36.644 Y-13.897
X37.525 Y-13.66
X38.411 Y-13.447
X39.304 Y-13.26
X40.201 Y-13.096
X41.102 Y-12.958
X42.007 Y-12.844
X42.914 Y-12.755
X43.824 Y-12.691
X44.735 Y-12.652
X45.646 Y-12.639
X46.558 Y-12.651
X47.469 Y-12.688
X48.379 Y-12.75
X49.286 Y-12.838
X50.191 Y-12.95
X51.093 Y-13.088
X51.99 Y-13.25
X52.882 Y-13.437
X53.769 Y-13.648
X54.65 Y-13.883
X55.524 Y-14.143
X56.391 Y-14.426
X57.249 Y-14.734
X58.099 Y-15.065
X58.939 Y-15.42
X59.769 Y-15.798
X60.588 Y-16.198
X61.395 Y-16.622
X62.191 Y-17.067
X62.974 Y-17.534
X63.744 Y-18.022
X64.501 Y-18.531
X65.243 Y-19.061
X65.97 Y-19.611
X66.682 Y-20.181
X67.377 Y-20.77
X68.056 Y-21.379
X68.718 Y-22.006
X69.362 Y-22.651
X69.989 Y-23.314
X70.596 Y-23.994
X71.185 Y-24.69
X71.754 Y-25.403
X72.304 Y-26.13
X72.833 Y-26.872
X73.342 Y-27.629
X73.83 Y-28.399
X74.296 Y-29.183
X74.74 Y-29.979
X75.162 Y-30.788
X75.562 Y-31.607
X75.938 Y-32.438
X76.292 Y-33.278
X76.622 Y-34.128
X76.929 Y-34.987
X77.212 Y-35.854
X77.471 Y-36.728
X77.706 Y-37.609
X77.917 Y-38.496
X78.103 Y-39.389
X78.264 Y-40.286
X78.4 Y-41.188
X78.511 Y-42.093
X78.597 Y-43
X78.658 Y-43.91
X78.694 Y-44.821
X78.705 Y-45.733
X78.691 Y-46.645
X78.651 Y-47.556
X78.587 Y-48.465
X78.498 Y-49.373
X78.384 Y-50.277
X78.244 Y-51.178
X78.08 Y-52.075
X77.891 Y-52.967
X77.677 Y-53.854
X77.439 Y-54.734
X77.176 Y-55.607
X76.89 Y-56.473
X76.58 Y-57.33
X76.246 Y-58.179
X75.889 Y-59.018
X75.51 Y-59.847
X75.108 Y-60.665
X74.683 Y-61.472
X74.236 Y-62.267
X73.767 Y-63.049
X73.276 Y-63.818
X72.765 Y-64.572
X72.233 Y-65.313
X71.68 Y-66.038
X71.108 Y-66.748
X70.517 Y-67.442
X69.906 Y-68.12
X69.278 Y-68.78
X68.631 Y-69.423
X67.967 Y-70.048
X67.286 Y-70.654
X66.588 Y-71.241
X65.875 Y-71.808
X65.145 Y-72.356
X64.401 Y-72.883
X63.643 Y-73.389
X62.871 Y-73.875
X62.086 Y-74.338
X61.289 Y-74.781
X60.479 Y-75.201
X59.659 Y-75.599
X58.828 Y-75.973
X57.987 Y-76.325
X57.136 Y-76.653
X56.276 Y-76.958
X55.409 Y-77.238
X54.534 Y-77.495
X53.652 Y-77.727
X52.764 Y-77.935
X51.871 Y-78.118
X50.973 Y-78.277
X50.071 Y-78.411
X49.166 Y-78.52
X48.258 Y-78.604
X47.348 Y-78.663
X46.437 Y-78.697
X45.525 Y-78.706
X44.614 Y-78.689
X43.703 Y-78.647
X42.793 Y-78.58
X41.886 Y-78.487
X40.982 Y-78.37
X40.081 Y-78.228
X39.185 Y-78.062
X38.293 Y-77.87
X37.407 Y-77.655
X36.528 Y-77.415
X35.655 Y-77.15
X34.79 Y-76.862
X33.933 Y-76.55
X33.086 Y-76.214
X32.248 Y-75.855
X31.42 Y-75.472
X30.603 Y-75.067
X29.797 Y-74.64
X29.004 Y-74.191
X28.223 Y-73.72
X27.455 Y-73.228
X26.702 Y-72.715
X25.962 Y-72.181
X25.238 Y-71.627
X24.529 Y-71.053
X23.837 Y-70.46
X23.161 Y-69.848
X22.503 Y-69.217
X21.862 Y-68.569
X21.24 Y-67.902
X20.637 Y-67.218
X20.057 Y-66.514
X19.508 Y-65.786
X18.997 Y-65.031
X18.527 Y-64.25
X18.101 Y-63.444
X17.983 Y-63.189
X17.928 Y-63.065
X17.897 Y-62.998
X17.862 Y-62.933
X17.825 Y-62.869
X17.813 Y-62.851
X16.283 Y-60.083
X16.22 Y-59.953
X16.03 Y-59.539
X14.916 Y-56.849
X14.835 Y-56.624
X14.695 Y-56.228
X14.628 Y-56.007
X13.916 Y-53.537
X13.86 Y-53.33
X13.754 Y-52.916
X13.707 Y-52.709
X13.25 Y-50.019
X13.148 Y-49.398
X13.118 Y-48.984
X13.103 Y-48.777
X13.033 Y-47.535
X12.952 Y-46.086
X12.947 Y-45.879
Y-45.466
X12.952 Y-45.259
X13.091 Y-42.775
X13.103 Y-42.568
X13.132 Y-42.154
X13.148 Y-41.947
X13.25 Y-41.326
X13.707 Y-38.636
X13.754 Y-38.429
X13.86 Y-38.015
X13.916 Y-37.808
X14.632 Y-35.324
X14.695 Y-35.117
X14.841 Y-34.703
X14.916 Y-34.496
X16.03 Y-31.806
X16.22 Y-31.392
X16.283 Y-31.262
X17.813 Y-28.494
X17.944 Y-28.287
X18.22 Y-27.873
X18.362 Y-27.666
X19.684 Y-25.804
X19.802 Y-25.644
X20.216 Y-25.103
X20.323 Y-24.976
X22.358 Y-22.699
X22.699 Y-22.358
X24.976 Y-20.323
X25.103 Y-20.216
X25.644 Y-19.802
X25.804 Y-19.684
X27.68 Y-18.353
X27.873 Y-18.22
X28.294 Y-17.939
X28.494 Y-17.813
X31.262 Y-16.283
X31.392 Y-16.22
X31.806 Y-16.03
X34.496 Y-14.916
X34.721 Y-14.835
X35.117 Y-14.695
X35.338 Y-14.628
X37.808 Y-13.916
X38.015 Y-13.86
X38.429 Y-13.754
X38.636 Y-13.707
X41.326 Y-13.25
X41.947 Y-13.148
X42.361 Y-13.118
X42.568 Y-13.103
X43.81 Y-13.033
X45.259 Y-12.952
X45.466 Y-12.947
X45.879
X46.086 Y-12.952
X48.57 Y-13.091
X48.777 Y-13.103
X49.191 Y-13.132
X49.398 Y-13.148
X50.019 Y-13.25
X52.709 Y-13.707
X52.916 Y-13.754
X53.33 Y-13.86
X53.537 Y-13.916
X56.021 Y-14.632
X56.228 Y-14.695
X56.642 Y-14.841
X56.849 Y-14.916
X59.539 Y-16.03
X59.953 Y-16.22
X60.083 Y-16.283
X62.851 Y-17.813
X63.058 Y-17.944
X63.472 Y-18.22
X63.679 Y-18.362
X65.541 Y-19.684
X65.701 Y-19.802
X66.242 Y-20.216
X66.369 Y-20.323
X68.646 Y-22.358
X68.987 Y-22.699
X71.022 Y-24.976
X71.129 Y-25.103
X71.543 Y-25.644
X71.661 Y-25.804
X72.992 Y-27.68
X73.125 Y-27.873
X73.406 Y-28.294
X73.532 Y-28.494
X75.062 Y-31.262
X75.125 Y-31.392
X75.315 Y-31.806
X76.429 Y-34.496
X76.51 Y-34.721
X76.65 Y-35.117
X76.717 Y-35.337
X77.429 Y-37.808
X77.485 Y-38.015
X77.591 Y-38.429
X77.638 Y-38.636
X78.095 Y-41.326
X78.198 Y-41.947
X78.227 Y-42.361
X78.242 Y-42.568
X78.312 Y-43.81
X78.393 Y-45.259
X78.398 Y-45.466
Y-45.879
X78.393 Y-46.086
X78.254 Y-48.57
X78.242 Y-48.777
X78.213 Y-49.191
X78.198 Y-49.398
X78.095 Y-50.019
X77.638 Y-52.709
X77.591 Y-52.916
X77.485 Y-53.33
X77.429 Y-53.537
X76.714 Y-56.021
X76.65 Y-56.228
X76.504 Y-56.642
X76.429 Y-56.849
X75.315 Y-59.539
X75.125 Y-59.953
X75.062 Y-60.083
X73.532 Y-62.851
X73.402 Y-63.058
X73.126 Y-63.472
X72.983 Y-63.679
X71.661 Y-65.541
X71.543 Y-65.701
X71.129 Y-66.242
X71.022 Y-66.369
X68.987 Y-68.646
X68.646 Y-68.987
X66.369 Y-71.022
X66.242 Y-71.129
X65.701 Y-71.543
X65.541 Y-71.661
X63.665 Y-72.992
X63.472 Y-73.126
X63.051 Y-73.406
X62.851 Y-73.532
X60.083 Y-75.062
X59.953 Y-75.125
X59.539 Y-75.315
X56.849 Y-76.429
X56.624 Y-76.51
X56.228 Y-76.65
X56.008 Y-76.717
X53.537 Y-77.429
X53.33 Y-77.485
X52.916 Y-77.591
X52.709 Y-77.638
X50.019 Y-78.095
X49.398 Y-78.198
X48.984 Y-78.227
X48.777 Y-78.242
X47.535 Y-78.312
X46.086 Y-78.393
X45.879 Y-78.398
X45.466
X45.259 Y-78.393
X42.775 Y-78.254
X42.568 Y-78.242
X42.154 Y-78.213
X41.947 Y-78.198
X41.326 Y-78.095
X38.636 Y-77.638
X38.429 Y-77.591
X38.015 Y-77.485
X37.808 Y-77.429
X35.324 Y-76.714
X35.117 Y-76.65
X34.703 Y-76.504
X34.496 Y-76.429
X31.806 Y-75.315
X31.392 Y-75.125
X31.262 Y-75.062
X28.494 Y-73.532
X28.287 Y-73.402
X27.873 Y-73.125
X27.666 Y-72.983
X25.804 Y-71.661
X25.644 Y-71.543
X25.103 Y-71.129
X24.976 Y-71.022
X22.699 Y-68.987
X22.358 Y-68.646
X20.323 Y-66.369
X20.216 Y-66.242
X19.802 Y-65.701
X19.684 Y-65.541
X18.353 Y-63.665
X18.22 Y-63.472
X17.939 Y-63.051
X17.825 Y-62.869
X17.779 Y-62.809
X17.726 Y-62.756
X17.662 Y-62.715 Z-1.995
X17.599 Y-62.675 Z-1.982
X17.537 Y-62.637 Z-1.959
X17.458 Y-62.62 Z-1.921
X17.385 Y-62.605 Z-1.873
X17.319 Y-62.591 Z-1.814
X17.299 Z-1.794
X17.242 Y-62.598 Z-1.72
X17.196 Y-62.604 Z-1.638
X17.162 Y-62.609 Z-1.551
X17.141 Y-62.611 Z-1.459
X17.135 Y-62.612 Z-1.365
G0 Z5
X-0.655 Y-67.097
Z-2.73
G1 Z-3.365 F150
X-0.653 Y-67.089 Z-3.464
X-0.647 Y-67.067 Z-3.561
X-0.638 Y-67.03 Z-3.653
X-0.625 Y-66.979 Z-3.738
X-0.609 Y-66.917 Z-3.814
X-0.59 Y-66.843 Z-3.879
X-0.569 Y-66.761 Z-3.931
X-0.546 Y-66.672 Z-3.969
X-0.522 Y-66.578 Z-3.992
X-0.497 Y-66.482 Z-4
G3 X0 Y-63.025 I-15.704 J4.023
G1 Y-62.797
X0.14 Y-61.896
X0.186 Y-61.81
X0.28 Y-61.616
X0.375 Y-61.374
X0.466 Y-61.071
X0.569 Y-60.593
X0.651 Y-59.976
X0.693 Y-59.15
X0.667 Y-58.238
X0.584 Y-57.33
X0.463 Y-56.427
X-0.039 Y-52.814
X-0.158 Y-51.91
X-0.255 Y-51.003
X-0.336 Y-50.095
X-0.406 Y-49.186
X-0.468 Y-48.276
X-0.509 Y-47.366
X-0.527 Y-46.454
Y-45.542
X-0.515 Y-44.63
X-0.494 Y-43.719
X-0.445 Y-42.808
X-0.373 Y-41.899
X-0.286 Y-40.992
X-0.187 Y-40.085
X-0.075 Y-39.18
X0.065 Y-38.279
X0.225 Y-37.382
X0.4 Y-36.487
X0.584 Y-35.594
X0.789 Y-34.705
X1.018 Y-33.823
X1.265 Y-32.945
X1.525 Y-32.071
X1.793 Y-31.199
X2.088 Y-30.337
X2.404 Y-29.481
X2.735 Y-28.632
X3.077 Y-27.787
X3.431 Y-26.946
X3.812 Y-26.118
X4.211 Y-25.298
X4.623 Y-24.485
X5.044 Y-23.676
X5.483 Y-22.877
X5.944 Y-22.09
X6.421 Y-21.313
X6.91 Y-20.543
X7.406 Y-19.778
X7.925 Y-19.028
X8.462 Y-18.291
X9.013 Y-17.565
X9.573 Y-16.845
X10.142 Y-16.133
X10.734 Y-15.439
X11.342 Y-14.76
X11.96 Y-14.09
X12.586 Y-13.427
X13.226 Y-12.777
X13.884 Y-12.146
X14.556 Y-11.529
X15.236 Y-10.922
X15.922 Y-10.322
X16.625 Y-9.741
X17.343 Y-9.179
X18.071 Y-8.63
X18.807 Y-8.091
X19.548 Y-7.56
X20.307 Y-7.054
X21.077 Y-6.566
X21.855 Y-6.091
X22.638 Y-5.624
X23.431 Y-5.173
X24.236 Y-4.746
X25.05 Y-4.335
X25.87 Y-3.937
X26.695 Y-3.547
X27.529 Y-3.18
X28.373 Y-2.834
X29.224 Y-2.505
X30.078 Y-2.187
X30.936 Y-1.879
X31.804 Y-1.599
X32.678 Y-1.339
X33.556 Y-1.094
X34.438 Y-0.86
X35.323 Y-0.642
X36.214 Y-0.45
X37.11 Y-0.277
X38.007 Y-0.118
X38.907 Y0.032
X39.81 Y0.158
X40.716 Y0.26
X41.624 Y0.345
X42.533 Y0.417
X43.442 Y0.48
X44.354 Y0.513
X45.265 Y0.525
X46.177 Y0.52
X47.089 Y0.505
X48 Y0.474
X48.91 Y0.416
X49.818 Y0.338
X50.726 Y0.246
X51.632 Y0.144
X52.535 Y0.019
X53.435 Y-0.13
X54.331 Y-0.296
X55.225 Y-0.475
X56.118 Y-0.662
X57.003 Y-0.879
X57.884 Y-1.116
X58.76 Y-1.369
X59.632 Y-1.633
X60.501 Y-1.911
X61.36 Y-2.215
X62.213 Y-2.538
X63.061 Y-2.875
X63.904 Y-3.22
X64.74 Y-3.586
X65.565 Y-3.974
X66.382 Y-4.379
X67.193 Y-4.795
X68 Y-5.22
X68.793 Y-5.669
X69.575 Y-6.138
X70.349 Y-6.62
X71.117 Y-7.112
X71.877 Y-7.616
X72.621 Y-8.143
X73.353 Y-8.687
X74.077 Y-9.242
X74.794 Y-9.805
X75.498 Y-10.384
X76.186 Y-10.983
X76.861 Y-11.595
X77.528 Y-12.217
X78.188 Y-12.846
X78.83 Y-13.494
X79.454 Y-14.158
X80.067 Y-14.834
X80.671 Y-15.517
X81.265 Y-16.208
X81.837 Y-16.918
X82.393 Y-17.641
X82.938 Y-18.372
X83.474 Y-19.11
X83.994 Y-19.859
X84.492 Y-20.622
X84.975 Y-21.396
X85.446 Y-22.176
X85.91 Y-22.962
X86.35 Y-23.76
X86.77 Y-24.569
X87.175 Y-25.386
X87.57 Y-26.208
X87.953 Y-27.036
X88.31 Y-27.875
X88.648 Y-28.722
X88.972 Y-29.574
X89.286 Y-30.43
X89.582 Y-31.292
X89.854 Y-32.163
X90.107 Y-33.039
X90.348 Y-33.918
X90.579 Y-34.8
X90.785 Y-35.688
X90.968 Y-36.581
X91.135 Y-37.478
X91.29 Y-38.376
X91.434 Y-39.277
X91.549 Y-40.181
X91.643 Y-41.088
X91.722 Y-41.997
X91.79 Y-42.906
X91.84 Y-43.816
X91.864 Y-44.728
X91.869 Y-45.64
X91.86 Y-46.552
X91.841 Y-47.463
X91.798 Y-48.374
X91.731 Y-49.283
X91.646 Y-50.191
X91.55 Y-51.098
X91.443 Y-52.003
X91.307 Y-52.905
X91.15 Y-53.803
X90.978 Y-54.699
X90.795 Y-55.592
X90.596 Y-56.482
X90.37 Y-57.365
X90.125 Y-58.244
X89.868 Y-59.118
X89.601 Y-59.99
X89.311 Y-60.855
X88.999 Y-61.711
X88.67 Y-62.562
X88.329 Y-63.407
X87.98 Y-64.25
X87.604 Y-65.08
X87.207 Y-65.901
X86.797 Y-66.716
X86.377 Y-67.525
X85.943 Y-68.327
X85.485 Y-69.115
X85.01 Y-69.894
X84.523 Y-70.665
X84.028 Y-71.431
X83.514 Y-72.184
X82.98 Y-72.922
X82.431 Y-73.651
X81.873 Y-74.372
X81.307 Y-75.087
X80.719 Y-75.783
X80.113 Y-76.465
X79.496 Y-77.136
X78.871 Y-77.8
X78.235 Y-78.454
X77.58 Y-79.087
X76.911 Y-79.707
X76.232 Y-80.316
X75.546 Y-80.917
X74.847 Y-81.501
X74.131 Y-82.067
X73.405 Y-82.618
X72.67 Y-83.158
X71.931 Y-83.692
X71.175 Y-84.202
X70.407 Y-84.693
X69.63 Y-85.17
X68.847 Y-85.638
X68.057 Y-86.094
X67.254 Y-86.525
X66.441 Y-86.938
X65.622 Y-87.338
X64.798 Y-87.729
X63.966 Y-88.101
X63.123 Y-88.45
X62.274 Y-88.782
X61.42 Y-89.101
X60.563 Y-89.412
X59.697 Y-89.697
X58.824 Y-89.96
X57.946 Y-90.208
X57.065 Y-90.444
X56.181 Y-90.667
X55.291 Y-90.863
X54.396 Y-91.039
X53.499 Y-91.2
X52.599 Y-91.351
X51.697 Y-91.483
X50.791 Y-91.588
X49.884 Y-91.676
X48.975 Y-91.75
X48.065 Y-91.815
X47.154 Y-91.853
X46.243 Y-91.868
X45.331 Y-91.867
X44.419 Y-91.853
X43.508 Y-91.828
X42.598 Y-91.773
X41.689 Y-91.698
X40.782 Y-91.608
X39.875 Y-91.508
X38.971 Y-91.389
X38.071 Y-91.244
X37.174 Y-91.08
X36.28 Y-90.903
X35.387 Y-90.717
X34.5 Y-90.506
X33.619 Y-90.271
X32.742 Y-90.021
X31.869 Y-89.759
X30.998 Y-89.487
X30.138 Y-89.186
X29.284 Y-88.866
X28.436 Y-88.532
X27.591 Y-88.187
X26.754 Y-87.827
X25.927 Y-87.442
X25.109 Y-87.039
X24.297 Y-86.625
X23.489 Y-86.202
X22.693 Y-85.757
X21.909 Y-85.292
X21.134 Y-84.811
X20.365 Y-84.321
X19.602 Y-83.822
X18.856 Y-83.298
X18.122 Y-82.757
X17.397 Y-82.204
X16.679 Y-81.642
X15.971 Y-81.067
X15.281 Y-80.471
X14.604 Y-79.861
X13.936 Y-79.24
X13.274 Y-78.612
X12.629 Y-77.968
X12.002 Y-77.306
X11.387 Y-76.633
X10.782 Y-75.951
X10.183 Y-75.263
X9.608 Y-74.556
X9.05 Y-73.835
X8.504 Y-73.104
X7.966 Y-72.368
X7.442 Y-71.622
X6.94 Y-70.86
X6.455 Y-70.088
X5.982 Y-69.309
X5.517 Y-68.524
X5.072 Y-67.728
X4.649 Y-66.921
X4.242 Y-66.105
X3.846 Y-65.284
X3.557 Y-64.419
X3.408 Y-63.519
X3.338 Y-62.61
X3.304 Y-61.699
X3.279 Y-60.788
X3.246 Y-59.876
X3.196 Y-58.966
X3.124 Y-58.057
X3.036 Y-57.149
X2.937 Y-56.243
X2.831 Y-55.337
X2.607 Y-53.528
X2.501 Y-52.622
X2.403 Y-51.715
X2.315 Y-50.808
X2.237 Y-49.899
X2.174 Y-48.99
X2.127 Y-48.079
X2.096 Y-47.168
X2.079 Y-46.256
X2.08 Y-45.344
X2.1 Y-44.433
X2.14 Y-43.522
X2.196 Y-42.612
X2.269 Y-41.703
X2.363 Y-40.796
X2.477 Y-39.891
X2.609 Y-38.989
X2.757 Y-38.089
X2.925 Y-37.193
X3.113 Y-36.301
X3.32 Y-35.413
X3.544 Y-34.529
X3.785 Y-33.65
X4.045 Y-32.776
X4.325 Y-31.908
X4.623 Y-31.046
X4.936 Y-30.19
X5.268 Y-29.341
X5.619 Y-28.499
X5.989 Y-27.665
X6.373 Y-26.839
X6.775 Y-26.02
X7.195 Y-25.211
X7.633 Y-24.411
X8.087 Y-23.62
X8.555 Y-22.838
X9.041 Y-22.066
X9.544 Y-21.306
X10.062 Y-20.556
X10.595 Y-19.815
X11.142 Y-19.086
X11.706 Y-18.37
X12.286 Y-17.666
X12.879 Y-16.973
X13.485 Y-16.293
X14.107 Y-15.625
X14.743 Y-14.972
X15.393 Y-14.333
X16.054 Y-13.705
X16.729 Y-13.092
X17.418 Y-12.494
X18.119 Y-11.911
X18.831 Y-11.342
X19.555 Y-10.787
X20.29 Y-10.248
X21.038 Y-9.726
X21.795 Y-9.219
X22.563 Y-8.726
X23.341 Y-8.25
X24.129 Y-7.792
X24.927 Y-7.35
X25.732 Y-6.923
X26.547 Y-6.513
X27.37 Y-6.122
X28.202 Y-5.749
X29.042 Y-5.393
X29.887 Y-5.052
X30.741 Y-4.73
X31.601 Y-4.428
X32.467 Y-4.144
X33.339 Y-3.876
X34.216 Y-3.626
X35.098 Y-3.396
X35.985 Y-3.186
X36.876 Y-2.992
X37.771 Y-2.816
X38.669 Y-2.66
X39.571 Y-2.524
X40.475 Y-2.406
X41.381 Y-2.304
X42.289 Y-2.223
X43.199 Y-2.163
X44.11 Y-2.122
X45.022 Y-2.098
X45.933 Y-2.093
X46.845 Y-2.109
X47.756 Y-2.145
X48.666 Y-2.198
X49.575 Y-2.269
X50.483 Y-2.36
X51.388 Y-2.471
X52.29 Y-2.601
X53.19 Y-2.747
X54.087 Y-2.912
X54.98 Y-3.098
X55.868 Y-3.303
X56.752 Y-3.526
X57.632 Y-3.765
X58.506 Y-4.025
X59.374 Y-4.304
X60.237 Y-4.6
X61.093 Y-4.913
X61.943 Y-5.244
X62.784 Y-5.595
X63.619 Y-5.963
X64.446 Y-6.346
X65.265 Y-6.746
X66.075 Y-7.164
X66.876 Y-7.601
X67.668 Y-8.053
X68.451 Y-8.52
X69.224 Y-9.004
X69.985 Y-9.505
X70.736 Y-10.023
X71.477 Y-10.555
X72.206 Y-11.101
X72.923 Y-11.665
X73.628 Y-12.244
X74.321 Y-12.836
X75.003 Y-13.441
X75.671 Y-14.062
X76.325 Y-14.697
X76.966 Y-15.346
X77.594 Y-16.006
X78.209 Y-16.68
X78.808 Y-17.368
X79.392 Y-18.068
X79.963 Y-18.779
X80.519 Y-19.501
X81.059 Y-20.236
X81.582 Y-20.983
X82.09 Y-21.74
X82.584 Y-22.506
X83.061 Y-23.283
X83.521 Y-24.071
X83.963 Y-24.868
X84.391 Y-25.674
X84.802 Y-26.488
X85.194 Y-27.311
X85.569 Y-28.142
X85.927 Y-28.981
X86.268 Y-29.826
X86.591 Y-30.679
X86.895 Y-31.538
X87.181 Y-32.404
X87.451 Y-33.275
X87.703 Y-34.152
X87.934 Y-35.034
X88.146 Y-35.92
X88.34 Y-36.811
X88.518 Y-37.706
X88.675 Y-38.604
X88.812 Y-39.505
X88.931 Y-40.409
X89.033 Y-41.315
X89.115 Y-42.223
X89.177 Y-43.133
X89.219 Y-44.044
X89.245 Y-44.955
X89.252 Y-45.867
X89.238 Y-46.779
X89.204 Y-47.69
X89.152 Y-48.6
X89.084 Y-49.51
X88.994 Y-50.417
X88.884 Y-51.322
X88.755 Y-52.225
X88.609 Y-53.125
X88.445 Y-54.022
X88.26 Y-54.915
X88.056 Y-55.803
X87.835 Y-56.688
X87.596 Y-57.568
X87.338 Y-58.443
X87.061 Y-59.311
X86.766 Y-60.174
X86.456 Y-61.031
X86.127 Y-61.882
X85.778 Y-62.724
X85.412 Y-63.559
X85.029 Y-64.387
X84.63 Y-65.207
X84.212 Y-66.017
X83.777 Y-66.818
X83.325 Y-67.611
X82.859 Y-68.394
X82.376 Y-69.167
X81.875 Y-69.93
X81.359 Y-70.681
X80.829 Y-71.423
X80.284 Y-72.154
X79.722 Y-72.872
X79.145 Y-73.578
X78.553 Y-74.272
X77.949 Y-74.955
X77.33 Y-75.624
X76.695 Y-76.279
X76.047 Y-76.92
X75.388 Y-77.55
X74.715 Y-78.165
X74.028 Y-78.765
X73.328 Y-79.35
X72.618 Y-79.921
X71.896 Y-80.479
X71.162 Y-81.02
X70.417 Y-81.544
X69.66 Y-82.054
X68.895 Y-82.549
X68.118 Y-83.027
X67.332 Y-83.488
X66.535 Y-83.932
X65.731 Y-84.361
X64.917 Y-84.773
X64.095 Y-85.167
X63.264 Y-85.542
X62.426 Y-85.901
X61.581 Y-86.245
X60.729 Y-86.569
X59.87 Y-86.874
X59.004 Y-87.161
X58.133 Y-87.431
X57.257 Y-87.684
X56.376 Y-87.917
X55.489 Y-88.13
X54.599 Y-88.326
X53.705 Y-88.505
X52.807 Y-88.664
X51.906 Y-88.803
X51.002 Y-88.923
X50.096 Y-89.027
X49.188 Y-89.111
X48.278 Y-89.174
X47.367 Y-89.218
X46.456 Y-89.244
X45.544 Y-89.252
X44.633 Y-89.24
X43.721 Y-89.207
X42.811 Y-89.156
X41.902 Y-89.088
X40.994 Y-89
X40.089 Y-88.891
X39.186 Y-88.764
X38.285 Y-88.62
X37.388 Y-88.458
X36.495 Y-88.275
X35.606 Y-88.072
X34.721 Y-87.852
X33.84 Y-87.616
X32.965 Y-87.359
X32.096 Y-87.083
X31.233 Y-86.789
X30.376 Y-86.478
X29.525 Y-86.15
X28.682 Y-85.803
X27.847 Y-85.437
X27.019 Y-85.056
X26.198 Y-84.658
X25.387 Y-84.242
X24.585 Y-83.808
X23.792 Y-83.358
X23.007 Y-82.894
X22.233 Y-82.413
X21.469 Y-81.914
X20.717 Y-81.398
X19.975 Y-80.869
X19.244 Y-80.324
X18.525 Y-79.763
X17.819 Y-79.187
X17.124 Y-78.596
X16.44 Y-77.993
X15.77 Y-77.374
X15.114 Y-76.741
X14.472 Y-76.094
X13.841 Y-75.435
X13.224 Y-74.764
X12.623 Y-74.079
X12.037 Y-73.38
X11.464 Y-72.67
X10.905 Y-71.95
X10.363 Y-71.217
X9.838 Y-70.472
X9.327 Y-69.716
X8.832 Y-68.951
X8.352 Y-68.175
X7.89 Y-67.389
X7.445 Y-66.593
X7.039 Y-65.777
X6.714 Y-64.925
X6.467 Y-64.047
X6.282 Y-63.154
X6.141 Y-62.253
X6.027 Y-61.349
X5.927 Y-60.442
X5.74 Y-58.628
X5.644 Y-57.722
X5.544 Y-56.815
X5.44 Y-55.91
X5.231 Y-54.098
X5.13 Y-53.192
X5.034 Y-52.285
X4.946 Y-51.377
X4.868 Y-50.469
X4.803 Y-49.559
X4.75 Y-48.649
X4.712 Y-47.738
X4.69 Y-46.827
X4.686 Y-45.915
X4.699 Y-45.003
X4.73 Y-44.092
X4.78 Y-43.181
X4.85 Y-42.272
X4.939 Y-41.365
X5.047 Y-40.459
X5.175 Y-39.557
X5.323 Y-38.657
X5.49 Y-37.761
X5.677 Y-36.868
X5.883 Y-35.98
X6.109 Y-35.097
X6.355 Y-34.218
X6.619 Y-33.346
X6.903 Y-32.479
X7.206 Y-31.619
X7.528 Y-30.766
X7.87 Y-29.921
X8.23 Y-29.083
X8.608 Y-28.254
X9.006 Y-27.433
X9.422 Y-26.621
X9.855 Y-25.819
X10.306 Y-25.027
X10.775 Y-24.245
X11.26 Y-23.473
X11.763 Y-22.712
X12.282 Y-21.963
X12.819 Y-21.225
X13.371 Y-20.5
X13.939 Y-19.786
X14.523 Y-19.086
X15.122 Y-18.399
X15.737 Y-17.726
X16.367 Y-17.066
X17.011 Y-16.421
X17.67 Y-15.79
X18.342 Y-15.175
X19.028 Y-14.574
X19.727 Y-13.988
X20.439 Y-13.419
X21.163 Y-12.865
X21.9 Y-12.328
X22.648 Y-11.806
X23.408 Y-11.302
X24.178 Y-10.815
X24.96 Y-10.344
X25.751 Y-9.891
X26.552 Y-9.457
X27.364 Y-9.04
X28.184 Y-8.642
X29.012 Y-8.262
X29.85 Y-7.9
X30.695 Y-7.558
X31.547 Y-7.234
X32.406 Y-6.929
X33.272 Y-6.643
X34.144 Y-6.377
X35.022 Y-6.13
X35.905 Y-5.903
X36.793 Y-5.695
X37.685 Y-5.507
X38.581 Y-5.339
X39.481 Y-5.19
X40.384 Y-5.062
X41.289 Y-4.954
X42.197 Y-4.867
X43.106 Y-4.8
X44.017 Y-4.753
X44.928 Y-4.727
X45.84 Y-4.721
X46.752 Y-4.735
X47.663 Y-4.769
X48.573 Y-4.824
X49.482 Y-4.899
X50.389 Y-4.993
X51.293 Y-5.108
X52.195 Y-5.242
X53.094 Y-5.397
X53.988 Y-5.572
X54.879 Y-5.767
X55.765 Y-5.982
X56.646 Y-6.217
X57.522 Y-6.472
X58.392 Y-6.745
X59.255 Y-7.038
X60.112 Y-7.351
X60.961 Y-7.682
X61.803 Y-8.032
X62.637 Y-8.4
X63.463 Y-8.787
X64.28 Y-9.192
X65.088 Y-9.615
X65.886 Y-10.055
X66.674 Y-10.514
X67.452 Y-10.991
X68.218 Y-11.484
X68.974 Y-11.995
X69.718 Y-12.522
X70.449 Y-13.066
X71.169 Y-13.626
X71.876 Y-14.202
X72.57 Y-14.793
X73.251 Y-15.4
X73.918 Y-16.021
X74.571 Y-16.657
X75.211 Y-17.307
X75.835 Y-17.972
X76.444 Y-18.65
X77.039 Y-19.342
X77.617 Y-20.046
X78.18 Y-20.764
X78.726 Y-21.494
X79.256 Y-22.236
X79.77 Y-22.99
X80.266 Y-23.755
X80.745 Y-24.53
X81.207 Y-25.317
X81.651 Y-26.113
X82.078 Y-26.919
X82.486 Y-27.734
X82.876 Y-28.558
X83.249 Y-29.39
X83.602 Y-30.231
X83.936 Y-31.079
X84.252 Y-31.934
X84.549 Y-32.797
X84.826 Y-33.665
X85.083 Y-34.54
X85.321 Y-35.42
X85.54 Y-36.306
X85.738 Y-37.196
X85.916 Y-38.09
X86.075 Y-38.988
X86.214 Y-39.889
X86.333 Y-40.793
X86.431 Y-41.699
X86.509 Y-42.608
X86.568 Y-43.518
X86.606 Y-44.429
X86.624 Y-45.34
X86.621 Y-46.252
X86.599 Y-47.164
X86.556 Y-48.075
X86.492 Y-48.984
X86.407 Y-49.892
X86.303 Y-50.798
X86.179 Y-51.701
X86.034 Y-52.601
X85.869 Y-53.498
X85.685 Y-54.391
X85.481 Y-55.28
X85.258 Y-56.164
X85.014 Y-57.043
X84.752 Y-57.916
X84.47 Y-58.783
X84.169 Y-59.644
X83.849 Y-60.497
X83.509 Y-61.344
X83.151 Y-62.182
X82.774 Y-63.012
X82.378 Y-63.834
X81.964 Y-64.646
X81.533 Y-65.449
X81.083 Y-66.243
X80.616 Y-67.026
X80.132 Y-67.799
X79.631 Y-68.56
X79.113 Y-69.311
X78.579 Y-70.05
X78.028 Y-70.777
X77.462 Y-71.491
X76.88 Y-72.193
X76.281 Y-72.881
X75.668 Y-73.555
X75.039 Y-74.216
X74.396 Y-74.863
X73.739 Y-75.495
X73.068 Y-76.112
X72.383 Y-76.714
X71.686 Y-77.301
X70.975 Y-77.872
X70.252 Y-78.428
X69.516 Y-78.967
X68.769 Y-79.49
X68.011 Y-79.996
X67.241 Y-80.485
X66.461 Y-80.957
X65.671 Y-81.411
X64.87 Y-81.848
X64.06 Y-82.266
X63.24 Y-82.666
X62.412 Y-83.048
X61.576 Y-83.411
X60.732 Y-83.755
X59.88 Y-84.081
X59.021 Y-84.388
X58.156 Y-84.675
X57.285 Y-84.943
X56.407 Y-85.192
X55.525 Y-85.422
X54.638 Y-85.632
X53.746 Y-85.822
X52.85 Y-85.991
X51.951 Y-86.141
X51.048 Y-86.272
X50.143 Y-86.381
X49.235 Y-86.47
X48.326 Y-86.539
X47.416 Y-86.588
X46.504 Y-86.616
X45.593 Y-86.624
X44.681 Y-86.612
X43.77 Y-86.58
X42.859 Y-86.528
X41.95 Y-86.455
X41.043 Y-86.362
X40.138 Y-86.249
X39.236 Y-86.117
X38.338 Y-85.963
X37.442 Y-85.79
X36.551 Y-85.597
X35.665 Y-85.384
X34.783 Y-85.151
X33.907 Y-84.898
X33.037 Y-84.627
X32.172 Y-84.335
X31.315 Y-84.025
X30.465 Y-83.695
X29.622 Y-83.348
X28.787 Y-82.981
X27.961 Y-82.596
X27.143 Y-82.192
X26.334 Y-81.771
X25.535 Y-81.333
X24.746 Y-80.876
X23.967 Y-80.401
X23.2 Y-79.909
X22.443 Y-79.4
X21.698 Y-78.874
X20.965 Y-78.332
X20.244 Y-77.773
X19.536 Y-77.199
X18.841 Y-76.609
X18.159 Y-76.004
X17.49 Y-75.384
X16.835 Y-74.75
X16.195 Y-74.101
X15.569 Y-73.438
X14.958 Y-72.761
X14.362 Y-72.071
X13.782 Y-71.367
X13.218 Y-70.651
X12.671 Y-69.922
X12.139 Y-69.181
X11.624 Y-68.428
X11.126 Y-67.664
X10.649 Y-66.887
X10.211 Y-66.087
X9.831 Y-65.259
X9.511 Y-64.405
X9.246 Y-63.532
X9.026 Y-62.648
X8.842 Y-61.755
X8.683 Y-60.857
X8.543 Y-59.956
X8.415 Y-59.053
X8.295 Y-58.149
X8.179 Y-57.245
X8.066 Y-56.34
X7.956 Y-55.435
X7.85 Y-54.529
X7.749 Y-53.623
X7.653 Y-52.716
X7.565 Y-51.808
X7.487 Y-50.9
X7.42 Y-49.991
X7.365 Y-49.081
X7.324 Y-48.17
X7.3 Y-47.258
X7.291 Y-46.346
X7.301 Y-45.435
X7.329 Y-44.523
X7.377 Y-43.613
X7.444 Y-42.703
X7.532 Y-41.796
X7.639 Y-40.89
X7.767 Y-39.987
X7.916 Y-39.088
X8.085 Y-38.192
X8.275 Y-37.3
X8.486 Y-36.413
X8.717 Y-35.531
X8.968 Y-34.654
X9.241 Y-33.784
X9.534 Y-32.921
X9.848 Y-32.065
X10.182 Y-31.217
X10.537 Y-30.377
X10.911 Y-29.545
X11.305 Y-28.723
X11.719 Y-27.91
X12.151 Y-27.107
X12.602 Y-26.315
X13.072 Y-25.534
X13.561 Y-24.764
X14.067 Y-24.005
X14.591 Y-23.259
X15.133 Y-22.526
X15.692 Y-21.805
X16.268 Y-21.099
X16.861 Y-20.406
X17.471 Y-19.728
X18.096 Y-19.065
X18.737 Y-18.416
X19.394 Y-17.783
X20.065 Y-17.166
X20.751 Y-16.565
X21.45 Y-15.98
X22.164 Y-15.412
X22.89 Y-14.861
X23.629 Y-14.328
X24.381 Y-13.812
X25.145 Y-13.314
X25.921 Y-12.834
X26.707 Y-12.374
X27.505 Y-11.932
X28.313 Y-11.51
X29.131 Y-11.107
X29.958 Y-10.723
X30.794 Y-10.359
X31.639 Y-10.015
X32.491 Y-9.692
X33.351 Y-9.388
X34.218 Y-9.106
X35.091 Y-8.843
X35.97 Y-8.601
X36.855 Y-8.38
X37.745 Y-8.181
X38.639 Y-8.003
X39.537 Y-7.846
X40.439 Y-7.711
X41.344 Y-7.597
X42.251 Y-7.505
X43.16 Y-7.435
X44.071 Y-7.387
X44.982 Y-7.36
X45.894 Y-7.354
X46.805 Y-7.37
X47.716 Y-7.408
X48.626 Y-7.467
X49.535 Y-7.547
X50.441 Y-7.65
X51.344 Y-7.774
X52.244 Y-7.919
X53.141 Y-8.086
X54.033 Y-8.275
X54.92 Y-8.485
X55.802 Y-8.716
X56.678 Y-8.968
X57.549 Y-9.24
X58.412 Y-9.533
X59.268 Y-9.847
X60.117 Y-10.18
X60.957 Y-10.534
X61.789 Y-10.907
X62.612 Y-11.299
X63.425 Y-11.712
X64.228 Y-12.144
X65.021 Y-12.595
X65.802 Y-13.065
X66.572 Y-13.553
X67.33 Y-14.06
X68.076 Y-14.584
X68.809 Y-15.127
X69.529 Y-15.686
X70.236 Y-16.262
X70.929 Y-16.855
X71.608 Y-17.464
X72.272 Y-18.089
X72.921 Y-18.729
X73.555 Y-19.385
X74.172 Y-20.055
X74.774 Y-20.74
X75.359 Y-21.44
X75.927 Y-22.153
X76.477 Y-22.88
X77.011 Y-23.62
X77.526 Y-24.372
X78.024 Y-25.136
X78.503 Y-25.911
X78.964 Y-26.698
X79.406 Y-27.496
X79.829 Y-28.303
X80.233 Y-29.121
X80.618 Y-29.948
X80.982 Y-30.783
X81.327 Y-31.628
X81.651 Y-32.48
X81.954 Y-33.34
X82.237 Y-34.206
X82.499 Y-35.08
X82.741 Y-35.959
X82.961 Y-36.844
X83.16 Y-37.734
X83.339 Y-38.628
X83.495 Y-39.526
X83.631 Y-40.428
X83.745 Y-41.332
X83.838 Y-42.239
X83.91 Y-43.148
X83.959 Y-44.059
X83.987 Y-44.97
X83.993 Y-45.882
X83.977 Y-46.794
X83.939 Y-47.705
X83.879 Y-48.615
X83.798 Y-49.523
X83.696 Y-50.429
X83.571 Y-51.332
X83.426 Y-52.232
X83.259 Y-53.129
X83.071 Y-54.021
X82.862 Y-54.909
X82.633 Y-55.791
X82.382 Y-56.668
X82.11 Y-57.538
X81.818 Y-58.402
X81.505 Y-59.258
X81.171 Y-60.107
X80.817 Y-60.947
X80.443 Y-61.779
X80.05 Y-62.601
X79.637 Y-63.414
X79.205 Y-64.217
X78.754 Y-65.01
X78.285 Y-65.792
X77.797 Y-66.562
X77.292 Y-67.321
X76.768 Y-68.067
X76.227 Y-68.801
X75.668 Y-69.522
X75.092 Y-70.228
X74.499 Y-70.921
X73.89 Y-71.6
X73.265 Y-72.263
X72.624 Y-72.912
X71.968 Y-73.546
X71.298 Y-74.163
X70.612 Y-74.765
X69.913 Y-75.35
X69.2 Y-75.918
X68.474 Y-76.47
X67.735 Y-77.004
X66.984 Y-77.521
X66.22 Y-78.019
X65.445 Y-78.499
X64.658 Y-78.96
X63.86 Y-79.402
X63.053 Y-79.825
X62.235 Y-80.228
X61.408 Y-80.612
X60.572 Y-80.976
X59.728 Y-81.321
X58.876 Y-81.645
X58.016 Y-81.949
X57.149 Y-82.233
X56.276 Y-82.496
X55.397 Y-82.738
X54.513 Y-82.96
X53.623 Y-83.159
X52.729 Y-83.338
X51.831 Y-83.495
X50.929 Y-83.631
X50.025 Y-83.745
X49.117 Y-83.837
X48.208 Y-83.908
X47.298 Y-83.957
X46.386 Y-83.985
X45.475 Y-83.991
X44.563 Y-83.976
X43.652 Y-83.939
X42.742 Y-83.88
X41.834 Y-83.8
X40.928 Y-83.698
X40.024 Y-83.575
X39.124 Y-83.43
X38.228 Y-83.263
X37.335 Y-83.075
X36.448 Y-82.866
X35.566 Y-82.635
X34.689 Y-82.384
X33.819 Y-82.112
X32.955 Y-81.82
X32.099 Y-81.507
X31.25 Y-81.174
X30.409 Y-80.821
X29.577 Y-80.448
X28.754 Y-80.056
X27.94 Y-79.644
X27.137 Y-79.212
X26.344 Y-78.762
X25.563 Y-78.292
X24.793 Y-77.804
X24.034 Y-77.298
X23.288 Y-76.774
X22.554 Y-76.233
X21.834 Y-75.674
X21.127 Y-75.098
X20.434 Y-74.506
X19.754 Y-73.897
X19.09 Y-73.273
X18.44 Y-72.633
X17.806 Y-71.978
X17.188 Y-71.307
X16.586 Y-70.622
X16.001 Y-69.923
X15.433 Y-69.21
X14.882 Y-68.484
X14.349 Y-67.744
X13.838 Y-66.989
X13.361 Y-66.212
X12.931 Y-65.408
X12.552 Y-64.578
X12.223 Y-63.728
X11.939 Y-62.861
X11.694 Y-61.983
X11.482 Y-61.096
X11.295 Y-60.204
X11.129 Y-59.307
X10.978 Y-58.408
X10.839 Y-57.507
X10.709 Y-56.604
X10.587 Y-55.701
X10.473 Y-54.796
X10.366 Y-53.891
X10.267 Y-52.984
X10.177 Y-52.077
X10.097 Y-51.169
X10.028 Y-50.259
X9.973 Y-49.349
X9.932 Y-48.438
X9.907 Y-47.527
X9.899 Y-46.615
X9.909 Y-45.703
X9.938 Y-44.792
X9.987 Y-43.881
X10.056 Y-42.972
X10.145 Y-42.065
X10.256 Y-41.16
X10.388 Y-40.258
X10.542 Y-39.359
X10.717 Y-38.464
X10.915 Y-37.574
X11.134 Y-36.689
X11.376 Y-35.81
X11.641 Y-34.937
X11.927 Y-34.071
X12.235 Y-33.213
X12.566 Y-32.363
X12.917 Y-31.522
X13.29 Y-30.69
X13.684 Y-29.868
X14.098 Y-29.055
X14.533 Y-28.254
X14.988 Y-27.464
X15.463 Y-26.686
X15.958 Y-25.92
X16.472 Y-25.167
X17.006 Y-24.427
X17.558 Y-23.702
X18.129 Y-22.991
X18.718 Y-22.294
X19.324 Y-21.614
X19.948 Y-20.948
X20.588 Y-20.299
X21.245 Y-19.667
X21.917 Y-19.051
X22.605 Y-18.452
X23.308 Y-17.872
X24.025 Y-17.309
X24.757 Y-16.764
X25.502 Y-16.239
X26.261 Y-15.733
X27.032 Y-15.247
X27.816 Y-14.781
X28.611 Y-14.335
X29.418 Y-13.91
X30.235 Y-13.505
X31.062 Y-13.121
X31.899 Y-12.759
X32.744 Y-12.418
X33.598 Y-12.098
X34.46 Y-11.8
X35.329 Y-11.524
X36.205 Y-11.27
X37.087 Y-11.039
X37.975 Y-10.831
X38.867 Y-10.646
X39.765 Y-10.484
X40.666 Y-10.345
X41.57 Y-10.229
X42.477 Y-10.136
X43.386 Y-10.066
X44.297 Y-10.019
X45.209 Y-9.996
X46.12 Y-9.995
X47.032 Y-10.018
X47.943 Y-10.064
X48.852 Y-10.133
X49.759 Y-10.226
X50.663 Y-10.342
X51.564 Y-10.481
X52.462 Y-10.644
X53.354 Y-10.829
X54.242 Y-11.037
X55.124 Y-11.267
X56 Y-11.52
X56.87 Y-11.795
X57.732 Y-12.092
X58.586 Y-12.411
X59.432 Y-12.751
X60.269 Y-13.113
X61.096 Y-13.497
X61.913 Y-13.901
X62.72 Y-14.327
X63.515 Y-14.773
X64.298 Y-15.239
X65.07 Y-15.726
X65.828 Y-16.231
X66.574 Y-16.756
X67.306 Y-17.3
X68.024 Y-17.862
X68.728 Y-18.442
X69.417 Y-19.039
X70.09 Y-19.654
X70.747 Y-20.287
X71.387 Y-20.936
X72.011 Y-21.601
X72.617 Y-22.282
X73.206 Y-22.978
X73.776 Y-23.689
X74.329 Y-24.415
X74.862 Y-25.154
X75.377 Y-25.907
X75.872 Y-26.672
X76.348 Y-27.45
X76.804 Y-28.24
X77.24 Y-29.041
X77.655 Y-29.853
X78.049 Y-30.675
X78.421 Y-31.507
X78.773 Y-32.349
X79.102 Y-33.199
X79.409 Y-34.057
X79.695 Y-34.923
X79.958 Y-35.796
X80.199 Y-36.676
X80.418 Y-37.561
X80.614 Y-38.451
X80.787 Y-39.346
X80.938 Y-40.246
X81.066 Y-41.149
X81.17 Y-42.054
X81.251 Y-42.963
X81.308 Y-43.873
X81.342 Y-44.784
X81.353 Y-45.696
X81.341 Y-46.607
X81.305 Y-47.518
X81.246 Y-48.428
X81.164 Y-49.336
X81.058 Y-50.242
X80.93 Y-51.145
X80.779 Y-52.044
X80.606 Y-52.939
X80.409 Y-53.83
X80.189 Y-54.715
X79.947 Y-55.594
X79.682 Y-56.466
X79.395 Y-57.332
X79.086 Y-58.189
X78.755 Y-59.039
X78.402 Y-59.88
X78.028 Y-60.711
X77.633 Y-61.533
X77.218 Y-62.345
X76.781 Y-63.146
X76.325 Y-63.935
X75.849 Y-64.713
X75.353 Y-65.478
X74.837 Y-66.23
X74.302 Y-66.968
X73.749 Y-67.692
X73.177 Y-68.402
X72.586 Y-69.098
X71.979 Y-69.777
X71.354 Y-70.442
X70.713 Y-71.09
X70.055 Y-71.721
X69.382 Y-72.336
X68.693 Y-72.933
X67.989 Y-73.513
X67.271 Y-74.075
X66.538 Y-74.617
X65.791 Y-75.141
X65.032 Y-75.645
X64.259 Y-76.13
X63.475 Y-76.595
X62.679 Y-77.039
X61.872 Y-77.463
X61.054 Y-77.867
X60.226 Y-78.249
X59.389 Y-78.61
X58.543 Y-78.95
X57.689 Y-79.269
X56.826 Y-79.565
X55.957 Y-79.84
X55.08 Y-80.091
X54.198 Y-80.32
X53.309 Y-80.527
X52.416 Y-80.71
X51.519 Y-80.871
X50.617 Y-81.008
X49.713 Y-81.123
X48.806 Y-81.214
X47.896 Y-81.283
X46.986 Y-81.328
X46.074 Y-81.351
X45.162 Y-81.35
X44.251 Y-81.325
X43.34 Y-81.277
X42.431 Y-81.206
X41.524 Y-81.112
X40.62 Y-80.994
X39.719 Y-80.853
X38.822 Y-80.689
X37.93 Y-80.502
X37.042 Y-80.293
X36.161 Y-80.061
X35.285 Y-79.807
X34.416 Y-79.53
X33.554 Y-79.232
X32.701 Y-78.912
X31.855 Y-78.57
X31.019 Y-78.206
X30.193 Y-77.821
X29.376 Y-77.415
X28.571 Y-76.988
X27.776 Y-76.54
X26.994 Y-76.073
X26.223 Y-75.585
X25.465 Y-75.078
X24.72 Y-74.552
X23.989 Y-74.008
X23.272 Y-73.445
X22.569 Y-72.864
X21.882 Y-72.265
X21.21 Y-71.648
X20.554 Y-71.015
X19.915 Y-70.364
X19.292 Y-69.698
X18.687 Y-69.016
X18.1 Y-68.318
X17.532 Y-67.605
X16.986 Y-66.875
X16.471 Y-66.122
X15.998 Y-65.343
X15.569 Y-64.538
X15.187 Y-63.711
X14.849 Y-62.864
X14.552 Y-62.001
X14.291 Y-61.128
X14.062 Y-60.245
X13.857 Y-59.357
X13.675 Y-58.463
X13.509 Y-57.567
X13.359 Y-56.667
X13.221 Y-55.766
X13.095 Y-54.863
X12.979 Y-53.959
X12.874 Y-53.053
X12.781 Y-52.146
X12.699 Y-51.238
X12.631 Y-50.328
X12.576 Y-49.418
X12.537 Y-48.507
X12.515 Y-47.596
X12.51 Y-46.684
X12.524 Y-45.772
X12.558 Y-44.861
X12.612 Y-43.951
X12.688 Y-43.042
X12.785 Y-42.135
X12.904 Y-41.231
X13.046 Y-40.331
X13.212 Y-39.434
X13.401 Y-38.542
X13.614 Y-37.655
X13.85 Y-36.775
X14.11 Y-35.901
X14.394 Y-35.034
X14.701 Y-34.176
X15.031 Y-33.326
X15.384 Y-32.485
X15.76 Y-31.655
X16.159 Y-30.834
X16.579 Y-30.025
X17.022 Y-29.228
X17.487 Y-28.444
X17.973 Y-27.673
X18.481 Y-26.915
X19.009 Y-26.172
X19.558 Y-25.444
X20.126 Y-24.731
X20.714 Y-24.034
X21.321 Y-23.353
X21.947 Y-22.69
X22.59 Y-22.044
X23.25 Y-21.415
X23.928 Y-20.805
X24.623 Y-20.214
X25.333 Y-19.643
X26.059 Y-19.092
X26.801 Y-18.561
X27.556 Y-18.05
X28.326 Y-17.561
X29.108 Y-17.093
X29.904 Y-16.647
X30.711 Y-16.223
X31.529 Y-15.821
X32.359 Y-15.442
X33.198 Y-15.085
X34.047 Y-14.752
X34.904 Y-14.443
X35.77 Y-14.158
X36.644 Y-13.897
X37.525 Y-13.66
X38.411 Y-13.447
X39.304 Y-13.26
X40.201 Y-13.096
X41.102 Y-12.958
X42.007 Y-12.844
X42.914 Y-12.755
X43.824 Y-12.691
X44.735 Y-12.652
X45.646 Y-12.639
X46.558 Y-12.651
X47.469 Y-12.688
X48.379 Y-12.75
X49.286 Y-12.838
X50.191 Y-12.95
X51.093 Y-13.088
X51.99 Y-13.25
X52.882 Y-13.437
X53.769 Y-13.648
X54.65 Y-13.883
X55.524 Y-14.143
X56.391 Y-14.426
X57.249 Y-14.734
X58.099 Y-15.065
X58.939 Y-15.42
X59.769 Y-15.798
X60.588 Y-16.198
X61.395 Y-16.622
X62.191 Y-17.067
X62.974 Y-17.534
X63.744 Y-18.022
X64.501 Y-18.531
X65.243 Y-19.061
X65.97 Y-19.611
X66.682 Y-20.181
X67.377 Y-20.77
X68.056 Y-21.379
X68.718 Y-22.006
X69.362 Y-22.651
X69.989 Y-23.314
X70.596 Y-23.994
X71.185 Y-24.69
X71.754 Y-25.403
X72.304 Y-26.13
X72.833 Y-26.872
X73.342 Y-27.629
X73.83 Y-28.399
X74.296 Y-29.183
X74.74 Y-29.979
X75.162 Y-30.788
X75.562 Y-31.607
X75.938 Y-32.438
X76.292 Y-33.278
X76.622 Y-34.128
X76.929 Y-34.987
X77.212 Y-35.854
X77.471 Y-36.728
X77.706 Y-37.609
X77.917 Y-38.496
X78.103 Y-39.389
X78.264 Y-40.286
X78.4 Y-41.188
X78.511 Y-42.093
X78.597 Y-43
X78.658 Y-43.91
X78.694 Y-44.821
X78.705 Y-45.733
X78.691 Y-46.645
X78.651 Y-47.556
X78.587 Y-48.465
X78.498 Y-49.373
X78.384 Y-50.277
X78.244 Y-51.178
X78.08 Y-52.075
X77.891 Y-52.967
X77.677 Y-53.854
X77.439 Y-54.734
X77.176 Y-55.607
X76.89 Y-56.473
X76.58 Y-57.33
X76.246 Y-58.179
X75.889 Y-59.018
X75.51 Y-59.847
X75.108 Y-60.665
X74.683 Y-61.472
X74.236 Y-62.267
X73.767 Y-63.049
X73.276 Y-63.818
X72.765 Y-64.572
X72.233 Y-65.313
X71.68 Y-66.038
X71.108 Y-66.748
X70.517 Y-67.442
X69.906 Y-68.12
X69.278 Y-68.78
X68.631 Y-69.423
X67.967 Y-70.048
X67.286 Y-70.654
X66.588 Y-71.241
X65.875 Y-71.808
X65.145 Y-72.356
X64.401 Y-72.883
X63.643 Y-73.389
X62.871 Y-73.875
X62.086 Y-74.338
X61.289 Y-74.781
X60.479 Y-75.201
X59.659 Y-75.599
X58.828 Y-75.973
X57.987 Y-76.325
X57.136 Y-76.653
X56.276 Y-76.958
X55.409 Y-77.238
X54.534 Y-77.495
X53.652 Y-77.727
X52.764 Y-77.935
X51.871 Y-78.118
X50.973 Y-78.277
X50.071 Y-78.411
X49.166 Y-78.52
X48.258 Y-78.604
X47.348 Y-78.663
X46.437 Y-78.697
X45.525 Y-78.706
X44.614 Y-78.689
X43.703 Y-78.647
X42.793 Y-78.58
X41.886 Y-78.487
X40.982 Y-78.37
X40.081 Y-78.228
X39.185 Y-78.062
X38.293 Y-77.87
X37.407 Y-77.655
X36.528 Y-77.415
X35.655 Y-77.15
X34.79 Y-76.862
X33.933 Y-76.55
X33.086 Y-76.214
X32.248 Y-75.855
X31.42 Y-75.472
X30.603 Y-75.067
X29.797 Y-74.64
X29.004 Y-74.191
X28.223 Y-73.72
X27.455 Y-73.228
X26.702 Y-72.715
X25.962 Y-72.181
X25.238 Y-71.627
X24.529 Y-71.053
X23.837 Y-70.46
X23.161 Y-69.848
X22.503 Y-69.217
X21.862 Y-68.569
X21.24 Y-67.902
X20.637 Y-67.218
X20.057 Y-66.514
X19.508 Y-65.786
X18.997 Y-65.031
X18.527 Y-64.25
X18.101 Y-63.444
X17.983 Y-63.189
X17.928 Y-63.065
X17.897 Y-62.998
X17.862 Y-62.933
X17.825 Y-62.869
X17.813 Y-62.851
X16.283 Y-60.083
X16.22 Y-59.953
X16.03 Y-59.539
X14.916 Y-56.849
X14.835 Y-56.624
X14.695 Y-56.228
X14.628 Y-56.007
X13.916 Y-53.537
X13.86 Y-53.33
X13.754 Y-52.916
X13.707 Y-52.709
X13.25 Y-50.019
X13.148 Y-49.398
X13.118 Y-48.984
X13.103 Y-48.777
X13.033 Y-47.535
X12.952 Y-46.086
X12.947 Y-45.879
Y-45.466
X12.952 Y-45.259
X13.091 Y-42.775
X13.103 Y-42.568
X13.132 Y-42.154
X13.148 Y-41.947
X13.25 Y-41.326
X13.707 Y-38.636
X13.754 Y-38.429
X13.86 Y-38.015
X13.916 Y-37.808
X14.632 Y-35.324
X14.695 Y-35.117
X14.841 Y-34.703
X14.916 Y-34.496
X16.03 Y-31.806
X16.22 Y-31.392
X16.283 Y-31.262
X17.813 Y-28.494
X17.944 Y-28.287
X18.22 Y-27.873
X18.362 Y-27.666
X19.684 Y-25.804
X19.802 Y-25.644
X20.216 Y-25.103
X20.323 Y-24.976
X22.358 Y-22.699
X22.699 Y-22.358
X24.976 Y-20.323
X25.103 Y-20.216
X25.644 Y-19.802
X25.804 Y-19.684
X27.68 Y-18.353
X27.873 Y-18.22
X28.294 Y-17.939
X28.494 Y-17.813
X31.262 Y-16.283
X31.392 Y-16.22
X31.806 Y-16.03
X34.496 Y-14.916
X34.721 Y-14.835
X35.117 Y-14.695
X35.338 Y-14.628
X37.808 Y-13.916
X38.015 Y-13.86
X38.429 Y-13.754
X38.636 Y-13.707
X41.326 Y-13.25
X41.947 Y-13.148
X42.361 Y-13.118
X42.568 Y-13.103
X43.81 Y-13.033
X45.259 Y-12.952
X45.466 Y-12.947
X45.879
X46.086 Y-12.952
X48.57 Y-13.091
X48.777 Y-13.103
X49.191 Y-13.132
X49.398 Y-13.148
X50.019 Y-13.25
X52.709 Y-13.707
X52.916 Y-13.754
X53.33 Y-13.86
X53.537 Y-13.916
X56.021 Y-14.632
X56.228 Y-14.695
X56.642 Y-14.841
X56.849 Y-14.916
X59.539 Y-16.03
X59.953 Y-16.22
X60.083 Y-16.283
X62.851 Y-17.813
X63.058 Y-17.944
X63.472 Y-18.22
X63.679 Y-18.362
X65.541 Y-19.684
X65.701 Y-19.802
X66.242 Y-20.216
X66.369 Y-20.323
X68.646 Y-22.358
X68.987 Y-22.699
X71.022 Y-24.976
X71.129 Y-25.103
X71.543 Y-25.644
X71.661 Y-25.804
X72.992 Y-27.68
X73.125 Y-27.873
X73.406 Y-28.294
X73.532 Y-28.494
X75.062 Y-31.262
X75.125 Y-31.392
X75.315 Y-31.806
X76.429 Y-34.496
X76.51 Y-34.721
X76.65 Y-35.117
X76.717 Y-35.337
X77.429 Y-37.808
X77.485 Y-38.015
X77.591 Y-38.429
X77.638 Y-38.636
X78.095 Y-41.326
X78.198 Y-41.947
X78.227 Y-42.361
X78.242 Y-42.568
X78.312 Y-43.81
X78.393 Y-45.259
X78.398 Y-45.466
Y-45.879
X78.393 Y-46.086
X78.254 Y-48.57
X78.242 Y-48.777
X78.213 Y-49.191
X78.198 Y-49.398
X78.095 Y-50.019
X77.638 Y-52.709
X77.591 Y-52.916
X77.485 Y-53.33
X77.429 Y-53.537
X76.714 Y-56.021
X76.65 Y-56.228
X76.504 Y-56.642
X76.429 Y-56.849
X75.315 Y-59.539
X75.125 Y-59.953
X75.062 Y-60.083
X73.532 Y-62.851
X73.402 Y-63.058
X73.126 Y-63.472
X72.983 Y-63.679
X71.661 Y-65.541
X71.543 Y-65.701
X71.129 Y-66.242
X71.022 Y-66.369
X68.987 Y-68.646
X68.646 Y-68.987
X66.369 Y-71.022
X66.242 Y-71.129
X65.701 Y-71.543
X65.541 Y-71.661
X63.665 Y-72.992
X63.472 Y-73.126
X63.051 Y-73.406
X62.851 Y-73.532
X60.083 Y-75.062
X59.953 Y-75.125
X59.539 Y-75.315
X56.849 Y-76.429
X56.624 Y-76.51
X56.228 Y-76.65
X56.008 Y-76.717
X53.537 Y-77.429
X53.33 Y-77.485
X52.916 Y-77.591
X52.709 Y-77.638
X50.019 Y-78.095
X49.398 Y-78.198
X48.984 Y-78.227
X48.777 Y-78.242
X47.535 Y-78.312
X46.086 Y-78.393
X45.879 Y-78.398
X45.466
X45.259 Y-78.393
X42.775 Y-78.254
X42.568 Y-78.242
X42.154 Y-78.213
X41.947 Y-78.198
X41.326 Y-78.095
X38.636 Y-77.638
X38.429 Y-77.591
X38.015 Y-77.485
X37.808 Y-77.429
X35.324 Y-76.714
X35.117 Y-76.65
X34.703 Y-76.504
X34.496 Y-76.429
X31.806 Y-75.315
X31.392 Y-75.125
X31.262 Y-75.062
X28.494 Y-73.532
X28.287 Y-73.402
X27.873 Y-73.125
X27.666 Y-72.983
X25.804 Y-71.661
X25.644 Y-71.543
X25.103 Y-71.129
X24.976 Y-71.022
X22.699 Y-68.987
X22.358 Y-68.646
X20.323 Y-66.369
X20.216 Y-66.242
X19.802 Y-65.701
X19.684 Y-65.541
X18.353 Y-63.665
X18.22 Y-63.472
X17.939 Y-63.051
X17.825 Y-62.869
G3 X17.135 Y-62.612 I-0.525 J-0.357
G1 X17.039 Y-62.638 Z-3.992
X16.945 Y-62.663 Z-3.969
X16.856 Y-62.687 Z-3.931
X16.774 Y-62.709 Z-3.879
X16.701 Y-62.729 Z-3.814
X16.638 Y-62.745 Z-3.738
X16.588 Y-62.759 Z-3.653
X16.551 Y-62.769 Z-3.561
X16.529 Y-62.775 Z-3.464
X16.521 Y-62.777 Z-3.365
G0 Z15
G28 G91 Z0
G90
G28 G91 X0 Y0
G90
M5
M30
