(1001)
(T38  D=3.175 CR=0 - ZMIN=-5.76 - flat end mill)
G90 G94
G17
G21
G28 G91 Z0
G90

(2D Adaptive1)
T38
S18000 M3
G54
G0 X-2.664 Y-0.673
Z15
Z5
Z-5.125
G1 Z-5.443 F200
X-2.656 Y-0.675 Z-5.513
X-2.633 Y-0.68 Z-5.58
X-2.597 Y-0.69 Z-5.64
X-2.548 Y-0.702 Z-5.691
X-2.49 Y-0.717 Z-5.729
X-2.425 Y-0.734 Z-5.752
X-2.356 Y-0.751 Z-5.76
G3 X-0.628 Y-1 I2.011 J7.852
G1 X-0.547
X-0.509 Y-1.01
X0.053 Y-1.322
X0.497 Y-1.786
X1.062 Y-2.09
X1.684 Y-2.252
X2.323 Y-2.318
X2.964 Y-2.339
X3.607 Y-2.344
X4.891 Y-2.346
X49.202
X99.292
X149.383
X199.393
X199.473
X199.62 Y-2.375
X199.768 Y-2.399
X199.917 Y-2.419
X200.09 Y-2.437
X200.309 Y-2.454
X200.389 Y-2.458
X200.427 Y-2.469
X200.461 Y-2.491
X200.489 Y-2.52
X200.509 Y-2.555
X200.519 Y-2.594
Y-2.634
X200.509 Y-2.673
X200.198 Y-3.234
X200.103 Y-3.351
X200.018 Y-3.474
X199.94 Y-3.603
X199.871 Y-3.736
X199.811 Y-3.873
X199.757 Y-4.013
X199.712 Y-4.156
X199.673 Y-4.301
X199.64 Y-4.447
X199.613 Y-4.595
X199.592 Y-4.743
X199.573 Y-4.9
X199.556 Y-5.091
X199.539 Y-5.343
X199.523 Y-5.734
X199.514 Y-6.376
X199.516 Y-7.018
X199.515 Y-51.329
Y-51.971
X199.641 Y-52.601
X199.651 Y-53.243
X199.654 Y-53.885
Y-59.023
Y-101.407
Y-151.497
Y-201.588
Y-202.23
X199.639 Y-202.309
X199.612 Y-202.456
X199.59 Y-202.605
X199.572 Y-202.763
X199.555 Y-202.956
X199.538 Y-203.213
X199.523 Y-203.618
X199.515 Y-204.26
X199.516 Y-204.902
X199.515 Y-230.469
X199.505 Y-230.508
X199.486 Y-230.543
X199.458 Y-230.572
X199.424 Y-230.594
X199.386 Y-230.606
X199.346 Y-230.608
X199.306 Y-230.599
X198.73 Y-230.316
X198.622 Y-230.212
X198.506 Y-230.117
X198.384 Y-230.03
X198.256 Y-229.951
X198.124 Y-229.881
X197.987 Y-229.819
X197.847 Y-229.765
X197.705 Y-229.718
X197.56 Y-229.678
X197.414 Y-229.645
X197.266 Y-229.617
X197.118 Y-229.594
X196.965 Y-229.576
X196.781 Y-229.558
X196.542 Y-229.541
X196.183 Y-229.526
X195.541 Y-229.514
X194.899 Y-229.516
X178.202 Y-229.515
X177.56
X176.93 Y-229.641
X176.288 Y-229.651
X175.646 Y-229.654
X170.508
X128.124
X78.034
X27.943
X27.301
X27.222 Y-229.639
X27.075 Y-229.612
X26.926 Y-229.59
X26.768 Y-229.572
X26.574 Y-229.555
X26.318 Y-229.538
X25.913 Y-229.523
X25.271 Y-229.515
X24.628 Y-229.516
X1.55 Y-229.515
X1.511 Y-229.505
X1.476 Y-229.486
X1.447 Y-229.458
X1.426 Y-229.424
X1.414 Y-229.386
X1.412 Y-229.346
X1.42 Y-229.306
X1.703 Y-228.73
X1.806 Y-228.62
X1.899 Y-228.503
X1.985 Y-228.38
X2.062 Y-228.252
X2.131 Y-228.118
X2.191 Y-227.981
X2.244 Y-227.841
X2.29 Y-227.698
X2.328 Y-227.553
X2.361 Y-227.406
X2.387 Y-227.259
X2.409 Y-227.11
X2.428 Y-226.953
X2.445 Y-226.76
X2.462 Y-226.506
X2.477 Y-226.107
X2.485 Y-225.465
X2.484 Y-224.823
X2.485 Y-206.199
Y-205.557
X2.359 Y-204.927
X2.349 Y-204.285
X2.346 Y-203.643
Y-198.506
Y-156.121
Y-106.031
Y-55.94
Y-5.85
Y-5.529
X2.375 Y-5.382
X2.399 Y-5.234
X2.419 Y-5.085
X2.437 Y-4.912
X2.454 Y-4.693
X2.47 Y-4.384
X2.472 Y-4.304
X2.483 Y-4.265
X2.503 Y-4.23
X2.531 Y-4.202
X2.566 Y-4.182
X2.604 Y-4.171
X2.645 Y-4.17
X2.684 Y-4.179
X2.719 Y-4.197
X3.196 Y-4.628
X3.305 Y-4.731
X3.421 Y-4.825
X3.544 Y-4.911
X3.672 Y-4.989
X3.805 Y-5.058
X3.942 Y-5.12
X4.082 Y-5.173
X4.225 Y-5.219
X4.37 Y-5.258
X4.516 Y-5.291
X4.664 Y-5.318
X4.812 Y-5.341
X4.967 Y-5.359
X5.156 Y-5.377
X5.403 Y-5.393
X5.783 Y-5.409
X6.425 Y-5.419
X7.067 Y-5.418
X50.736
X51.378
X52.008 Y-5.292
X52.65 Y-5.282
X53.292 Y-5.279
X58.429
X100.814
X150.904
X151.546
X151.625 Y-5.294
X151.773 Y-5.321
X151.921 Y-5.343
X152.079 Y-5.361
X152.273 Y-5.379
X152.529 Y-5.395
X152.934 Y-5.411
X153.576 Y-5.419
X154.219 Y-5.418
X197.606
X197.645 Y-5.428
X197.68 Y-5.447
X197.709 Y-5.475
X197.731 Y-5.509
X197.743 Y-5.547
X197.745 Y-5.587
X197.736 Y-5.627
X197.719 Y-5.663
X197.3 Y-6.149
X197.192 Y-6.254
X197.092 Y-6.366
X197.001 Y-6.485
X196.918 Y-6.61
X196.844 Y-6.74
X196.778 Y-6.875
X196.719 Y-7.013
X196.669 Y-7.154
X196.626 Y-7.298
X196.589 Y-7.443
X196.558 Y-7.59
X196.533 Y-7.738
X196.513 Y-7.887
X196.495 Y-8.053
X196.478 Y-8.261
X196.461 Y-8.546
X196.446 Y-9.04
X196.569 Y-9.67
X196.579 Y-10.312
X196.582 Y-10.954
Y-16.092
Y-51.412
X196.598 Y-52.054
X196.684 Y-52.69
X196.712 Y-53.332
X196.719 Y-53.974
X196.721 Y-54.616
Y-59.112
Y-109.202
Y-159.293
Y-201.677
X196.666 Y-202.317
X196.62 Y-202.957
X196.595 Y-203.599
X196.585 Y-204.241
X196.583 Y-204.883
X196.582 Y-209.378
Y-210.021
X196.567 Y-210.099
X196.54 Y-210.247
X196.518 Y-210.395
X196.5 Y-210.554
X196.482 Y-210.747
X196.466 Y-211.004
X196.45 Y-211.409
X196.443 Y-212.051
Y-212.693
Y-227.584
X196.433 Y-227.623
X196.414 Y-227.658
X196.386 Y-227.687
X196.352 Y-227.708
X196.314 Y-227.72
X196.274 Y-227.722
X196.234 Y-227.714
X196.198 Y-227.696
X195.712 Y-227.277
X195.606 Y-227.171
X195.492 Y-227.073
X195.372 Y-226.983
X195.246 Y-226.902
X195.114 Y-226.83
X194.979 Y-226.765
X194.84 Y-226.708
X194.698 Y-226.659
X194.554 Y-226.618
X194.409 Y-226.582
X194.261 Y-226.553
X194.113 Y-226.529
X193.965 Y-226.509
X193.792 Y-226.491
X193.573 Y-226.474
X193.263 Y-226.458
X192.681 Y-226.443
X177.91
X177.83 Y-226.445
X177.68 Y-226.45
X177.531 Y-226.459
X177.363 Y-226.474
X177.155 Y-226.498
X176.519 Y-226.588
X175.877 Y-226.58
X175.235 Y-226.582
X164.96
X164.317
X163.688 Y-226.708
X163.046 Y-226.718
X162.403 Y-226.721
X157.266
X114.882
X64.791
X28.187
X27.545 Y-226.702
X26.905 Y-226.643
X26.264 Y-226.605
X25.622 Y-226.588
X24.98 Y-226.584
X23.696 Y-226.582
X14.705
X14.063
X13.984 Y-226.567
X13.837 Y-226.54
X13.688 Y-226.518
X13.53 Y-226.5
X13.336 Y-226.482
X13.08 Y-226.466
X12.675 Y-226.45
X12.033 Y-226.443
X11.39
X4.407
X4.368 Y-226.433
X4.333 Y-226.414
X4.304 Y-226.386
X4.282 Y-226.352
X4.271 Y-226.314
X4.269 Y-226.274
X4.277 Y-226.234
X4.294 Y-226.198
X4.713 Y-225.712
X4.82 Y-225.606
X4.919 Y-225.493
X5.009 Y-225.374
X5.091 Y-225.248
X5.164 Y-225.117
X5.23 Y-224.982
X5.287 Y-224.843
X5.337 Y-224.702
X5.379 Y-224.558
X5.415 Y-224.412
X5.445 Y-224.265
X5.469 Y-224.117
X5.489 Y-223.969
X5.507 Y-223.798
X5.524 Y-223.585
X5.54 Y-223.286
X5.555 Y-222.744
X5.557 Y-222.102
X5.556 Y-205.887
X5.553 Y-205.737
X5.545 Y-205.587
X5.533 Y-205.431
X5.513 Y-205.241
X5.429 Y-204.604
X5.418 Y-203.962
Y-196.898
Y-186.623
Y-185.981
X5.292 Y-185.351
X5.282 Y-184.709
X5.279 Y-184.067
Y-178.93
Y-136.545
Y-86.455
Y-36.364
Y-35.722
X5.294 Y-35.643
X5.321 Y-35.496
X5.343 Y-35.347
X5.361 Y-35.189
X5.379 Y-34.996
X5.395 Y-34.739
X5.411 Y-34.334
X5.419 Y-33.692
X5.418 Y-33.05
Y-7.322
X5.428 Y-7.283
X5.447 Y-7.248
X5.475 Y-7.219
X5.509 Y-7.198
X5.547 Y-7.186
X5.587 Y-7.184
X5.627 Y-7.192
X5.663 Y-7.21
X6.149 Y-7.629
X6.253 Y-7.737
X6.365 Y-7.837
X6.484 Y-7.929
X6.609 Y-8.012
X6.739 Y-8.087
X6.873 Y-8.153
X7.011 Y-8.212
X7.152 Y-8.262
X7.296 Y-8.306
X7.441 Y-8.343
X7.588 Y-8.374
X7.736 Y-8.399
X7.885 Y-8.419
X8.05 Y-8.438
X8.255 Y-8.455
X8.536 Y-8.471
X9.015 Y-8.486
X9.657 Y-8.49
X23.785
X26.354
X26.996
X27.626 Y-8.364
X28.268 Y-8.354
X28.91 Y-8.352
X34.048 Y-8.351
X50.745
X51.387 Y-8.342
X52.024 Y-8.262
X52.665 Y-8.224
X53.307 Y-8.215
X53.949 Y-8.213
X57.16 Y-8.212
X76.426
X126.516
X150.919
X152.2 Y-8.309
X152.842 Y-8.336
X153.484 Y-8.348
X154.126 Y-8.35
X157.337 Y-8.351
X176.602
X177.244
X177.323 Y-8.367
X177.471 Y-8.393
X177.619 Y-8.415
X177.777 Y-8.433
X177.971 Y-8.451
X178.228 Y-8.467
X178.633 Y-8.483
X179.275 Y-8.491
X179.917 Y-8.49
X194.527
X194.565 Y-8.5
X194.601 Y-8.519
X194.63 Y-8.547
X194.651 Y-8.581
X194.663 Y-8.619
X194.665 Y-8.659
X194.657 Y-8.699
X194.639 Y-8.735
X194.22 Y-9.221
X194.123 Y-9.336
X194.035 Y-9.457
X193.955 Y-9.584
X193.884 Y-9.716
X193.821 Y-9.852
X193.766 Y-9.992
X193.718 Y-10.134
X193.677 Y-10.279
X193.643 Y-10.425
X193.615 Y-10.572
X193.591 Y-10.72
X193.573 Y-10.869
X193.555 Y-11.048
X193.538 Y-11.278
X193.522 Y-11.613
X193.509 Y-12.255
X193.51 Y-12.898
Y-40.511
Y-41.154
X193.636 Y-41.783
X193.646 Y-42.426
X193.648 Y-43.068
X193.649 Y-48.205
Y-50.774
X193.652 Y-51.416
X193.669 Y-52.058
X193.733 Y-52.697
X193.77 Y-53.338
X193.783 Y-53.98
X193.786 Y-54.622
X193.788 Y-55.907
Y-90.585
Y-140.675
Y-190.766
Y-191.408
X193.772 Y-191.487
X193.746 Y-191.634
X193.724 Y-191.783
X193.706 Y-191.941
X193.688 Y-192.134
X193.672 Y-192.391
X193.656 Y-192.796
X193.648 Y-193.438
X193.649 Y-194.08
Y-201.144
X193.637 Y-201.786
X193.607 Y-202.106
X193.572 Y-202.532
X193.538 Y-203.136
X193.519 Y-203.777
X193.512 Y-204.42
X193.51 Y-205.704
Y-209.557
X193.451 Y-210.197
X193.42 Y-210.563
X193.395 Y-210.996
X193.374 Y-211.628
X193.37 Y-212.27
X193.372 Y-212.912
X193.371 Y-224.511
X193.361 Y-224.55
X193.342 Y-224.585
X193.314 Y-224.614
X193.28 Y-224.636
X193.242 Y-224.648
X193.202 Y-224.65
X193.162 Y-224.642
X193.126 Y-224.624
X192.64 Y-224.205
X192.534 Y-224.099
X192.42 Y-224.001
X192.3 Y-223.911
X192.174 Y-223.83
X192.042 Y-223.757
X191.907 Y-223.693
X191.768 Y-223.636
X191.626 Y-223.587
X191.482 Y-223.545
X191.336 Y-223.51
X191.189 Y-223.481
X191.041 Y-223.457
X190.892 Y-223.437
X190.719 Y-223.419
X190.501 Y-223.402
X190.191 Y-223.386
X189.607 Y-223.371
X178.048
X177.747 Y-223.379
X177.47 Y-223.392
X177.189 Y-223.414
X176.575 Y-223.603
X175.934 Y-223.638
X175.292 Y-223.647
X174.65 Y-223.648
X168.87 Y-223.649
X165.017
X164.375 Y-223.654
X163.737 Y-223.728
X163.096 Y-223.774
X162.454 Y-223.785
X161.812 Y-223.787
X159.243 Y-223.788
X127.134
X77.044
X28.88
X28.238 Y-223.784
X27.596 Y-223.754
X26.955 Y-223.71
X26.314 Y-223.678
X26.236 Y-223.66
X26.089 Y-223.629
X25.941 Y-223.604
X25.792 Y-223.583
X25.622 Y-223.565
X25.416 Y-223.547
X25.133 Y-223.53
X24.658 Y-223.515
X24.016 Y-223.51
X14.384
X14.011 Y-223.465
X13.655 Y-223.431
X13.24 Y-223.403
X12.738 Y-223.381
X12.096 Y-223.371
X9.528
X7.481
X7.442 Y-223.361
X7.407 Y-223.342
X7.378 Y-223.314
X7.356 Y-223.28
X7.344 Y-223.242
X7.342 Y-223.202
X7.351 Y-223.162
X7.368 Y-223.126
X7.787 Y-222.64
X7.894 Y-222.534
X7.993 Y-222.421
X8.083 Y-222.301
X8.164 Y-222.175
X8.238 Y-222.045
X8.303 Y-221.909
X8.36 Y-221.771
X8.409 Y-221.629
X8.452 Y-221.485
X8.488 Y-221.34
X8.517 Y-221.193
X8.542 Y-221.045
X8.561 Y-220.896
X8.58 Y-220.725
X8.597 Y-220.51
X8.613 Y-220.209
X8.628 Y-219.661
X8.629 Y-219.018
Y-206.175
X8.625 Y-205.861
X8.614 Y-205.583
X8.596 Y-205.309
X8.562 Y-204.926
X8.487 Y-204.289
X8.491 Y-203.646
X8.49 Y-201.72
Y-192.729
Y-192.087
X8.364 Y-191.457
X8.354 Y-190.815
X8.352 Y-190.173
X8.351 Y-186.32
X8.309 Y-185.679
X8.234 Y-185.041
X8.218 Y-184.399
X8.213 Y-183.757
X8.212 Y-182.473
Y-142.657
Y-92.567
Y-42.476
Y-41.834
X8.228 Y-41.755
X8.254 Y-41.608
X8.276 Y-41.459
X8.294 Y-41.301
X8.312 Y-41.108
X8.328 Y-40.851
X8.344 Y-40.446
X8.352 Y-39.804
X8.351 Y-39.162
Y-35.951
X8.387 Y-35.684
X8.418 Y-35.392
X8.448 Y-35.033
X8.468 Y-34.666
X8.488 Y-34.029
X8.491 Y-33.387
X8.49 Y-32.744
Y-10.429
X8.5 Y-10.39
X8.519 Y-10.355
X8.547 Y-10.326
X8.581 Y-10.304
X8.619 Y-10.292
X8.659 Y-10.29
X8.699 Y-10.298
X8.735 Y-10.316
X9.221 Y-10.735
X9.328 Y-10.841
X9.442 Y-10.938
X9.563 Y-11.027
X9.689 Y-11.108
X9.821 Y-11.18
X9.956 Y-11.244
X10.095 Y-11.3
X10.237 Y-11.349
X10.382 Y-11.39
X10.527 Y-11.425
X10.675 Y-11.454
X10.823 Y-11.478
X10.972 Y-11.497
X11.147 Y-11.515
X11.369 Y-11.532
X11.687 Y-11.548
X12.305 Y-11.563
X12.947 Y-11.562
X26.433
X26.683
X27.309 Y-11.42
X27.942 Y-11.307
X28.584 Y-11.29
X29.226 Y-11.286
X30.51 Y-11.284
X50.418
X51.06 Y-11.279
X51.701 Y-11.242
X52.341 Y-11.186
X52.983 Y-11.158
X53.625 Y-11.149
X54.267 Y-11.146
X56.193 Y-11.145
X76.743
X126.834
X150.595
X151.236 Y-11.181
X151.877 Y-11.225
X152.518 Y-11.257
X153.16 Y-11.274
X153.802 Y-11.281
X154.444 Y-11.283
X157.013 Y-11.284
X176.279
X176.921 Y-11.289
X177.56 Y-11.355
X177.704 Y-11.393
X177.851 Y-11.427
X177.998 Y-11.454
X178.146 Y-11.477
X178.309 Y-11.497
X178.51 Y-11.517
X178.753 Y-11.535
X179.083 Y-11.55
X179.725 Y-11.563
X180.367 Y-11.562
X191.565
X191.604 Y-11.572
X191.639 Y-11.591
X191.668 Y-11.619
X191.689 Y-11.653
X191.701 Y-11.691
X191.703 Y-11.732
X191.695 Y-11.771
X191.678 Y-11.807
X191.259 Y-12.294
X191.153 Y-12.4
X191.056 Y-12.515
X190.968 Y-12.636
X190.888 Y-12.763
X190.816 Y-12.895
X190.753 Y-13.03
X190.697 Y-13.17
X190.649 Y-13.312
X190.608 Y-13.456
X190.573 Y-13.602
X190.545 Y-13.749
X190.521 Y-13.897
X190.502 Y-14.046
X190.484 Y-14.223
X190.467 Y-14.449
X190.451 Y-14.775
X190.437 Y-15.417
X190.438 Y-16.059
Y-40.783
X190.441 Y-40.934
X190.447 Y-41.083
X190.458 Y-41.233
X190.475 Y-41.412
X190.555 Y-42.049
X190.579 Y-42.691
X190.576 Y-43.333
X190.577 Y-44.617
Y-46.544
Y-47.186
X190.703 Y-47.816
X190.713 Y-48.458
X190.715 Y-49.1
X190.716 Y-50.385
X190.718 Y-51.027
X190.727 Y-51.669
X190.758 Y-52.31
X190.806 Y-52.951
X190.836 Y-53.592
X190.848 Y-54.234
X190.853 Y-54.876
X190.855 Y-56.161
Y-96.619
Y-146.709
Y-191.02
X190.789 Y-191.659
X190.746 Y-192.299
X190.725 Y-192.941
X190.718 Y-193.583
X190.717 Y-194.226
X190.716 Y-196.794
Y-197.436
X190.7 Y-197.515
X190.674 Y-197.663
X190.652 Y-197.811
X190.634 Y-197.969
X190.616 Y-198.163
X190.6 Y-198.42
X190.584 Y-198.825
X190.576 Y-199.467
X190.577 Y-200.109
Y-200.751
X190.573 Y-201.393
X190.532 Y-202.034
X190.489 Y-202.633
X190.46 Y-203.275
X190.444 Y-203.917
X190.439 Y-204.559
X190.438 Y-207.77
Y-209.054
X190.42 Y-209.696
X190.381 Y-210.081
X190.346 Y-210.541
X190.316 Y-211.15
X190.3 Y-211.792
X190.298 Y-212.434
X190.3 Y-213.077
X190.299 Y-218.214
Y-221.425
X190.289 Y-221.464
X190.27 Y-221.499
X190.242 Y-221.528
X190.208 Y-221.549
X190.17 Y-221.561
X190.13 Y-221.563
X190.09 Y-221.555
X190.054 Y-221.537
X189.568 Y-221.118
X189.461 Y-221.013
X189.346 Y-220.916
X189.225 Y-220.828
X189.098 Y-220.748
X188.966 Y-220.676
X188.83 Y-220.613
X188.691 Y-220.557
X188.549 Y-220.509
X188.404 Y-220.468
X188.258 Y-220.434
X188.111 Y-220.405
X187.963 Y-220.382
X187.814 Y-220.363
X187.637 Y-220.345
X187.41 Y-220.328
X187.082 Y-220.312
X186.44 Y-220.298
X185.798 Y-220.299
X178.092
X177.668 Y-220.31
X177.36 Y-220.326
X177.21 Y-220.338
X177.061 Y-220.354
X176.912 Y-220.374
X176.764 Y-220.399
X176.594 Y-220.433
X175.968 Y-220.574
X175.326 Y-220.573
X174.683 Y-220.577
X165.051
X164.666 Y-220.58
X164.04 Y-220.725
X163.403 Y-220.803
X162.762 Y-220.839
X162.12 Y-220.85
X161.477 Y-220.854
X160.193 Y-220.855
X114.598
X64.507
X29.187
X28.545 Y-220.852
X27.903 Y-220.829
X27.262 Y-220.79
X26.623 Y-220.733
X25.985 Y-220.659
X25.344 Y-220.612
X24.702 Y-220.588
X24.06 Y-220.58
X23.418 Y-220.578
X17.638 Y-220.577
X15.07
X14.428 Y-220.55
X13.788 Y-220.502
X13.643 Y-220.464
X13.496 Y-220.432
X13.348 Y-220.405
X13.2 Y-220.383
X13.028 Y-220.362
X12.812 Y-220.342
X12.565 Y-220.325
X12.211 Y-220.309
X11.89 Y-220.304
X11.088 Y-220.299
X10.566
X10.527 Y-220.289
X10.492 Y-220.27
X10.463 Y-220.242
X10.442 Y-220.208
X10.43 Y-220.17
X10.428 Y-220.129
X10.436 Y-220.09
X10.453 Y-220.054
X10.872 Y-219.567
X10.978 Y-219.461
X11.076 Y-219.347
X11.165 Y-219.226
X11.246 Y-219.1
X11.318 Y-218.969
X11.382 Y-218.833
X11.438 Y-218.694
X11.487 Y-218.552
X11.528 Y-218.408
X11.563 Y-218.262
X11.593 Y-218.115
X11.616 Y-217.967
X11.636 Y-217.818
X11.654 Y-217.643
X11.67 Y-217.422
X11.686 Y-217.106
X11.701 Y-216.498
Y-215.213
Y-206.223
X11.693 Y-205.785
X11.676 Y-205.393
X11.646 Y-204.963
X11.585 Y-204.323
X11.557 Y-203.682
X11.563 Y-203.04
X11.562 Y-202.397
Y-192.444
X11.559 Y-192.294
X11.552 Y-192.144
X11.541 Y-191.992
X11.523 Y-191.809
X11.442 Y-191.172
X11.422 Y-190.53
X11.424 Y-189.888
X11.423 Y-187.319
Y-186.677
X11.418 Y-186.356
X11.4 Y-185.913
X11.379 Y-185.6
X11.319 Y-184.96
X11.286 Y-184.319
X11.284 Y-183.035
Y-174.044
Y-173.402
X11.158 Y-172.772
X11.148 Y-172.13
X11.146 Y-171.488
X11.145 Y-166.35
Y-123.966
Y-73.875
Y-42.408
X11.198 Y-41.768
X11.245 Y-41.128
X11.271 Y-40.486
X11.281 Y-39.844
X11.283 Y-39.202
X11.284 Y-36.633
X11.314 Y-35.992
X11.363 Y-35.351
X11.397 Y-34.71
X11.415 Y-34.068
X11.421 Y-33.426
X11.423 Y-31.5
Y-23.793
Y-23.151
X11.439 Y-23.072
X11.465 Y-22.925
X11.487 Y-22.776
X11.505 Y-22.618
X11.523 Y-22.425
X11.539 Y-22.168
X11.555 Y-21.763
X11.563 Y-21.121
X11.562 Y-20.479
Y-13.495
X11.572 Y-13.456
X11.591 Y-13.421
X11.619 Y-13.392
X11.653 Y-13.371
X11.691 Y-13.359
X11.732 Y-13.357
X11.771 Y-13.365
X11.807 Y-13.383
X12.294 Y-13.802
X12.4 Y-13.908
X12.513 Y-14.005
X12.634 Y-14.095
X12.76 Y-14.176
X12.891 Y-14.249
X13.027 Y-14.313
X13.166 Y-14.369
X13.307 Y-14.418
X13.451 Y-14.46
X13.597 Y-14.495
X13.744 Y-14.525
X13.892 Y-14.549
X14.041 Y-14.568
X14.215 Y-14.586
X14.434 Y-14.603
X14.746 Y-14.619
X15.335 Y-14.634
X26.252
X26.42 Y-14.633
X26.57 Y-14.627
X26.72 Y-14.618
X26.869 Y-14.604
X27.044 Y-14.582
X27.266 Y-14.549
X27.898 Y-14.439
X28.533 Y-14.344
X28.854 Y-14.352
X29.497 Y-14.358
X30.139 Y-14.356
X50.046
X50.689 Y-14.354
X51.01 Y-14.348
X51.531 Y-14.328
X52.151 Y-14.161
X52.791 Y-14.109
X53.433 Y-14.089
X54.075 Y-14.082
X54.717 Y-14.079
X57.286 Y-14.078
X101.597
X149.761
X150.403 Y-14.081
X151.044 Y-14.112
X151.685 Y-14.15
X152.327 Y-14.181
X152.405 Y-14.199
X152.552 Y-14.23
X152.7 Y-14.256
X152.848 Y-14.277
X153.021 Y-14.297
X153.232 Y-14.315
X153.51 Y-14.333
X153.972 Y-14.349
X154.614 Y-14.356
X175.807
X176.449 Y-14.357
X177.09 Y-14.388
X177.292 Y-14.431
X177.5 Y-14.469
X177.731 Y-14.506
X177.99 Y-14.539
X178.27 Y-14.569
X178.587 Y-14.594
X179.065 Y-14.619
X179.61 Y-14.634
X180.252
X188.521
X188.559 Y-14.644
X188.595 Y-14.663
X188.624 Y-14.691
X188.645 Y-14.725
X188.657 Y-14.763
X188.659 Y-14.804
X188.651 Y-14.843
X188.633 Y-14.879
X188.214 Y-15.366
X188.107 Y-15.471
X188.008 Y-15.583
X187.917 Y-15.703
X187.835 Y-15.828
X187.761 Y-15.959
X187.696 Y-16.094
X187.638 Y-16.232
X187.588 Y-16.374
X187.545 Y-16.517
X187.509 Y-16.663
X187.479 Y-16.81
X187.454 Y-16.958
X187.434 Y-17.107
X187.416 Y-17.276
X187.399 Y-17.487
X187.383 Y-17.781
X187.368 Y-18.305
X187.366 Y-18.947
Y-27.938
Y-28.58
X187.492 Y-29.209
X187.502 Y-29.852
X187.504 Y-30.494
X187.505 Y-35.631
Y-40.127
X187.507 Y-40.769
X187.539 Y-41.41
X187.604 Y-42.049
X187.637 Y-42.69
X187.642 Y-43.333
X187.643 Y-43.975
X187.644 Y-46.543
X187.652 Y-47.186
X187.732 Y-47.823
X187.771 Y-48.464
X187.78 Y-49.106
X187.782 Y-49.748
X187.783 Y-50.39
X187.786 Y-51.032
X187.798 Y-51.675
X187.825 Y-52.316
X187.867 Y-52.957
X187.898 Y-53.598
X187.912 Y-54.24
X187.918 Y-54.883
X187.921 Y-55.525
X187.922 Y-57.451
Y-78.001
Y-128.092
Y-178.182
Y-178.824
X187.906 Y-178.903
X187.88 Y-179.051
X187.858 Y-179.199
X187.84 Y-179.357
X187.822 Y-179.551
X187.806 Y-179.808
X187.79 Y-180.212
X187.782 Y-180.855
X187.783 Y-181.497
Y-190.487
X187.766 Y-191.129
X187.733 Y-191.449
X187.702 Y-191.827
X187.671 Y-192.376
X187.651 Y-193.018
X187.645 Y-193.66
X187.644 Y-194.944
Y-196.871
X187.602 Y-197.512
X187.571 Y-197.813
X187.543 Y-198.188
X187.522 Y-198.59
X187.506 Y-199.232
X187.505 Y-199.874
Y-200.517
X187.503 Y-201.159
X187.47 Y-201.8
X187.425 Y-202.413
X187.394 Y-203.055
X187.376 Y-203.697
X187.368 Y-204.339
X187.367 Y-204.981
X187.366 Y-208.834
X187.354 Y-209.476
X187.303 Y-210.046
X187.262 Y-210.687
X187.237 Y-211.329
X187.226 Y-211.971
Y-212.613
X187.228 Y-213.255
X187.227 Y-214.54
Y-218.353
X187.217 Y-218.392
X187.198 Y-218.427
X187.17 Y-218.456
X187.136 Y-218.477
X187.098 Y-218.489
X187.057 Y-218.491
X187.018 Y-218.483
X186.982 Y-218.465
X186.495 Y-218.046
X186.388 Y-217.941
X186.274 Y-217.844
X186.153 Y-217.756
X186.026 Y-217.676
X185.894 Y-217.604
X185.758 Y-217.541
X185.619 Y-217.485
X185.477 Y-217.437
X185.332 Y-217.396
X185.186 Y-217.362
X185.039 Y-217.333
X184.891 Y-217.31
X184.742 Y-217.291
X184.565 Y-217.273
X184.338 Y-217.256
X184.01 Y-217.24
X183.368 Y-217.226
X182.726 Y-217.227
X178.23
X177.73 Y-217.236
X177.387 Y-217.251
X176.768 Y-217.421
X176.136 Y-217.538
X175.5 Y-217.625
X174.858 Y-217.639
X174.216 Y-217.643
X172.931 Y-217.644
X165.225
X164.583 Y-217.661
X163.948 Y-217.756
X163.313 Y-217.854
X162.673 Y-217.899
X162.031 Y-217.914
X161.389 Y-217.919
X160.746 Y-217.921
X156.893 Y-217.922
X127.353
X77.262
X29.741
X29.098 Y-217.921
X28.456 Y-217.91
X27.815 Y-217.882
X27.174 Y-217.835
X26.536 Y-217.768
X26.458 Y-217.745
X26.314 Y-217.706
X26.167 Y-217.673
X26.02 Y-217.644
X25.872 Y-217.62
X25.694 Y-217.596
X25.465 Y-217.57
X25.217 Y-217.549
X24.867 Y-217.529
X24.286 Y-217.51
X23.644 Y-217.506
X21.075 Y-217.505
X15.296
X14.975 Y-217.495
X14.814 Y-217.487
X14.173 Y-217.452
X13.96 Y-217.41
X13.841 Y-217.39
X13.804 Y-217.374
X13.773 Y-217.349
X13.748 Y-217.318
X13.733 Y-217.281
X13.727 Y-217.241
X13.731 Y-217.201
X13.746 Y-217.163
X14.117 Y-216.639
X14.209 Y-216.521
X14.292 Y-216.396
X14.367 Y-216.266
X14.434 Y-216.132
X14.493 Y-215.994
X14.544 Y-215.853
X14.588 Y-215.709
X14.625 Y-215.564
X14.656 Y-215.417
X14.681 Y-215.27
X14.702 Y-215.121
X14.72 Y-214.957
X14.737 Y-214.753
X14.754 Y-214.476
X14.769 Y-214.009
X14.773 Y-213.367
Y-210.156
Y-206.303
X14.765 Y-205.782
X14.745 Y-205.278
X14.711 Y-204.759
X14.652 Y-204.12
X14.625 Y-203.478
X14.636 Y-202.836
X14.634 Y-202.194
Y-192.561
X14.627 Y-192.276
X14.613 Y-191.999
X14.589 Y-191.683
X14.524 Y-191.044
X14.49 Y-190.402
X14.496 Y-189.76
X14.495 Y-189.118
X14.494 Y-186.598
X14.48 Y-186.048
X14.456 Y-185.6
X14.406 Y-184.96
X14.361 Y-184.319
X14.357 Y-183.677
X14.356 Y-181.751
Y-180.466
Y-179.824
X14.23 Y-179.194
X14.22 Y-178.552
X14.218 Y-177.91
X14.217 Y-174.057
X14.21 Y-173.415
X14.131 Y-172.778
X14.091 Y-172.137
X14.081 Y-171.494
X14.079 Y-170.852
X14.078 Y-167.641
Y-130.395
Y-80.304
Y-43.057
X14.097 Y-42.415
X14.14 Y-41.775
X14.177 Y-41.134
X14.2 Y-40.492
X14.211 Y-39.85
X14.215 Y-39.208
X14.217 Y-37.923
Y-37.281
X14.226 Y-36.639
X14.26 Y-35.998
X14.298 Y-35.357
X14.328 Y-34.715
X14.345 Y-34.073
X14.352 Y-33.431
X14.355 Y-32.789
X14.356 Y-30.862
Y-30.22
Y-29.578
X14.372 Y-29.499
X14.398 Y-29.352
X14.42 Y-29.203
X14.438 Y-29.045
X14.456 Y-28.851
X14.472 Y-28.595
X14.488 Y-28.19
X14.496 Y-27.548
X14.495 Y-26.905
Y-23.695
X14.541 Y-23.054
X14.572 Y-22.736
X14.6 Y-22.346
X14.621 Y-21.888
X14.634 Y-21.246
Y-16.55
X14.644 Y-16.511
X14.663 Y-16.476
X14.691 Y-16.447
X14.725 Y-16.425
X14.763 Y-16.413
X14.804 Y-16.411
X14.843 Y-16.42
X14.879 Y-16.437
X15.366 Y-16.856
X15.47 Y-16.964
X15.583 Y-17.063
X15.702 Y-17.154
X15.828 Y-17.236
X15.958 Y-17.31
X16.093 Y-17.375
X16.232 Y-17.433
X16.373 Y-17.483
X16.517 Y-17.526
X16.662 Y-17.562
X16.809 Y-17.593
X16.957 Y-17.617
X17.106 Y-17.637
X17.274 Y-17.655
X17.485 Y-17.673
X17.777 Y-17.689
X18.294 Y-17.704
X18.936 Y-17.706
X26
X26.34 Y-17.703
X26.598 Y-17.694
X26.854 Y-17.679
X27.12 Y-17.656
X27.39 Y-17.625
X27.823 Y-17.565
X28.457 Y-17.46
X29.097 Y-17.415
X29.665 Y-17.429
X30.307 Y-17.428
X50.215
X50.83 Y-17.425
X51.296 Y-17.411
X51.918 Y-17.249
X52.54 Y-17.091
X53.18 Y-17.039
X53.822 Y-17.021
X54.464 Y-17.015
X55.106 Y-17.012
X57.675 Y-17.011
X101.344
X149.508
X150.15 Y-17.013
X150.791 Y-17.039
X151.433 Y-17.074
X152.072 Y-17.135
X152.215 Y-17.181
X152.359 Y-17.221
X152.505 Y-17.256
X152.652 Y-17.286
X152.8 Y-17.312
X152.966 Y-17.336
X153.174 Y-17.36
X153.402 Y-17.382
X153.689 Y-17.401
X154.145 Y-17.419
X154.787 Y-17.429
X155.429 Y-17.428
X175.979
X176.622 Y-17.437
X177.114 Y-17.518
X177.507 Y-17.572
X177.902 Y-17.615
X178.369 Y-17.655
X178.851 Y-17.683
X179.437 Y-17.702
X180.079 Y-17.707
X182.648 Y-17.706
X185.458
X185.496 Y-17.716
X185.531 Y-17.735
X185.561 Y-17.763
X185.582 Y-17.797
X185.594 Y-17.836
X185.596 Y-17.876
X185.588 Y-17.915
X185.57 Y-17.951
X185.151 Y-18.438
X185.043 Y-18.542
X184.943 Y-18.654
X184.852 Y-18.773
X184.769 Y-18.898
X184.695 Y-19.028
X184.628 Y-19.163
X184.57 Y-19.301
X184.52 Y-19.442
X184.476 Y-19.586
X184.44 Y-19.731
X184.409 Y-19.878
X184.384 Y-20.026
X184.364 Y-20.175
X184.346 Y-20.341
X184.328 Y-20.548
X184.312 Y-20.833
X184.297 Y-21.325
X184.294 Y-21.967
Y-28.276
X184.298 Y-28.426
X184.307 Y-28.576
X184.32 Y-28.737
X184.342 Y-28.936
X184.429 Y-29.572
X184.433 Y-30.856
Y-33.425
Y-34.067
X184.559 Y-34.697
X184.569 Y-35.339
X184.571 Y-35.981
X184.572 Y-39.834
X184.573 Y-40.477
X184.592 Y-41.118
X184.634 Y-41.759
X184.681 Y-42.4
X184.702 Y-43.042
X184.708 Y-43.684
X184.71 Y-44.326
X184.711 Y-46.253
X184.716 Y-46.895
X184.755 Y-47.536
X184.81 Y-48.176
X184.837 Y-48.817
X184.846 Y-49.459
X184.852 Y-50.744
X184.86 Y-51.386
X184.879 Y-52.028
X184.912 Y-52.669
X184.946 Y-53.31
X184.969 Y-53.952
X184.981 Y-54.594
X184.986 Y-55.236
X184.988 Y-55.878
X184.989 Y-58.447
Y-83.492
Y-133.583
Y-177.894
X184.977 Y-178.536
X184.914 Y-179.175
X184.875 Y-179.816
X184.857 Y-180.458
X184.851 Y-181.1
X184.85 Y-182.384
Y-183.669
Y-184.311
X184.834 Y-184.39
X184.807 Y-184.537
X184.786 Y-184.686
X184.767 Y-184.844
X184.75 Y-185.037
X184.733 Y-185.294
X184.718 Y-185.699
X184.71 Y-186.341
X184.711 Y-186.983
Y-190.194
X184.701 Y-190.836
X184.648 Y-191.476
X184.61 Y-192.093
X184.586 Y-192.735
X184.575 Y-193.377
X184.573 Y-194.019
X184.572 Y-196.588
X184.544 Y-197.229
X184.5 Y-197.701
X184.468 Y-198.179
X184.442 Y-198.821
X184.432 Y-199.463
Y-200.747
X184.418 Y-201.389
X184.373 Y-202.03
X184.336 Y-202.671
X184.313 Y-203.313
X184.3 Y-203.955
X184.295 Y-204.597
X184.294 Y-206.524
Y-208.45
X184.29 Y-209.092
X184.249 Y-209.733
X184.205 Y-210.344
X184.176 Y-210.986
X184.159 Y-211.628
X184.154 Y-212.27
X184.156 Y-213.554
X184.155 Y-215.28
X184.145 Y-215.319
X184.126 Y-215.354
X184.098 Y-215.383
X184.064 Y-215.404
X184.026 Y-215.416
X183.985 Y-215.418
X183.946 Y-215.41
X183.91 Y-215.392
X183.423 Y-214.973
X183.316 Y-214.868
X183.202 Y-214.772
X183.081 Y-214.683
X182.954 Y-214.603
X182.822 Y-214.532
X182.686 Y-214.468
X182.546 Y-214.413
X182.404 Y-214.365
X182.26 Y-214.324
X182.114 Y-214.29
X181.967 Y-214.261
X181.819 Y-214.238
X181.67 Y-214.219
X181.492 Y-214.201
X181.265 Y-214.184
X180.936 Y-214.168
X180.294 Y-214.154
X179.652 Y-214.155
X179.377
X179.329 Y-214.159
X179.283 Y-214.169
X179.239 Y-214.187
X179.114 Y-214.247
X178.968 Y-214.305
X178.819 Y-214.352
X178.676 Y-214.381
X178.53 Y-214.406
X178.238 Y-214.452
X178.093 Y-214.473
X177.801 Y-214.512
X177.655 Y-214.527
X177.217 Y-214.529
X176.576 Y-214.561
X175.936 Y-214.617
X175.298 Y-214.684
X174.656 Y-214.703
X174.013 Y-214.708
X173.371 Y-214.71
X167.592 Y-214.711
X165.665
X165.023 Y-214.718
X164.382 Y-214.751
X163.744 Y-214.827
X163.108 Y-214.917
X162.467 Y-214.962
X161.825 Y-214.979
X161.183 Y-214.985
X160.541 Y-214.988
X157.972 Y-214.989
X127.147
X77.057
X29.535 Y-214.988
X28.893 Y-214.983
X28.251 Y-214.963
X27.61 Y-214.923
X26.974 Y-214.836
X26.341 Y-214.73
X26.198 Y-214.684
X26.054 Y-214.643
X25.908 Y-214.608
X25.761 Y-214.578
X25.613 Y-214.552
X25.457 Y-214.53
X25.427 Y-214.529
X25.366
X24.636 Y-214.528
X24.345 Y-214.527
X24.199 Y-214.512
X23.907 Y-214.473
X23.761 Y-214.452
X23.469 Y-214.406
X23.323 Y-214.381
X23.178 Y-214.351
X23.032 Y-214.305
X22.886 Y-214.247
X22.74 Y-214.176
X22.448 Y-214.027
X22.157 Y-213.876
X22.011 Y-213.799
X21.964 Y-213.768
X21.865 Y-213.695
X21.624 Y-213.477
X21.573 Y-213.429
X21.135 Y-212.991
X21.049 Y-212.893
X20.99 Y-212.823
X20.967 Y-212.785
X20.777 Y-212.455
X20.697 Y-212.309
X20.549 Y-212.017
X20.476 Y-211.871
X20.406 Y-211.716
X20.36 Y-211.58
X20.322 Y-211.434
X20.25 Y-210.996
X20.181 Y-210.558
X20.174 Y-210.412
X20.164 Y-210.12
X20.163 Y-209.974
Y-167.365
X20.165 Y-167.219
X20.175 Y-166.927
X20.188 Y-166.781
X20.26 Y-166.323
X20.33 Y-165.906
X20.373 Y-165.76
X20.406 Y-165.666
X20.496 Y-165.468
X20.719 Y-165.03
X20.979 Y-164.576
X20.99 Y-164.559
X21.086 Y-164.446
X21.135 Y-164.391
X21.573 Y-163.954
X21.719 Y-163.82
X21.865 Y-163.688
X22.011 Y-163.584
X22.033 Y-163.571
X22.448 Y-163.355
X22.74 Y-163.206
X22.891 Y-163.133
X23.032 Y-163.077
X23.178 Y-163.031
X23.323 Y-163.001
X23.401 Y-162.987
X23.761 Y-162.93
X23.907 Y-162.909
X24.199 Y-162.87
X24.345 Y-162.855
X24.928 Y-162.854
X177.217
X177.655 Y-162.855
X177.801 Y-162.87
X178.093 Y-162.909
X178.238 Y-162.93
X178.599 Y-162.987
X178.676 Y-163.001
X178.822 Y-163.03
X178.968 Y-163.077
X179.114 Y-163.135
X179.26 Y-163.205
X179.551 Y-163.355
X179.967 Y-163.571
X179.989 Y-163.583
X180.135 Y-163.687
X180.328 Y-163.863
X180.426 Y-163.953
X180.864 Y-164.391
X180.914 Y-164.446
X181.01 Y-164.559
X181.021 Y-164.576
X181.281 Y-165.03
X181.504 Y-165.468
X181.593 Y-165.665
X181.628 Y-165.76
X181.67 Y-165.906
X181.743 Y-166.343
X181.812 Y-166.781
X181.825 Y-166.927
X181.835 Y-167.219
X181.837 Y-167.365
Y-209.974
X181.836 Y-210.12
X181.826 Y-210.412
X181.819 Y-210.558
X181.739 Y-211.063
X181.678 Y-211.434
X181.64 Y-211.58
X181.593 Y-211.717
X181.524 Y-211.871
X181.448 Y-212.025
X181.302 Y-212.311
X181.222 Y-212.455
X181.022 Y-212.804
X181.01 Y-212.823
X180.95 Y-212.893
X180.864 Y-212.991
X180.426 Y-213.429
X180.376 Y-213.477
X180.135 Y-213.696
X180.037 Y-213.768
X179.989 Y-213.8
X179.697 Y-213.952
X179.405 Y-214.102
X179.239 Y-214.187
G3 X179.073 Y-214.38 Z-5.655 I0.138 J-0.286
G1 X179.05 Y-214.435 Z-5.631
X179.018 Y-214.484 Z-5.607
X178.978 Y-214.527 Z-5.584
X178.929 Y-214.561 Z-5.56
X178.896 Y-214.578
X178.86 Y-214.591
X178.695 Y-214.641
X178.224 Y-214.781
G2 X177.971 Y-214.75 I-0.091 J0.304
G3 X177.705 Y-214.623 I-0.809 J-1.36
X177.217 Y-214.529 Z-5.76 I-0.542 J-1.487
G1 X144.688 Y-214.528
X144.25 Y-214.522
X144.074 Y-214.498
X143.813 Y-214.46
X143.375 Y-214.391
X143.229 Y-214.362
X143.084 Y-214.326
X142.938 Y-214.269
X142.792 Y-214.202
X142.5 Y-214.054
X142.354 Y-213.978
X141.962 Y-213.768
X141.917 Y-213.739
X141.771 Y-213.607
X141.625 Y-213.473
X141.475 Y-213.331
X141.187 Y-213.039
X140.77 Y-212.654
X140.263 Y-212.363
X139.649 Y-212.174
X139.012 Y-212.092
X138.371 Y-212.065
X137.729 Y-212.058
X137.086 Y-212.056
X116.536
X90.849
X61.626
X61.513 Y-212.077
X61.414 Y-212.137
X61.343 Y-212.229
X61.303 Y-212.309
X61.25 Y-212.408
X61.055 Y-212.747
X60.955 Y-212.893
X60.812 Y-213.039
X60.521 Y-213.335
X60.371 Y-213.477
X60.213 Y-213.623
X60.083 Y-213.739
X60.038 Y-213.768
X59.645 Y-213.979
X59.488 Y-214.06
X59.2 Y-214.206
X59.062 Y-214.269
X58.916 Y-214.326
X58.77 Y-214.362
X58.624 Y-214.391
X58.187 Y-214.46
X57.895 Y-214.503
X57.749 Y-214.522
X57.311 Y-214.528
X25.427 Y-214.529
G3 X25.25 Y-215.102 I0.011 J-0.317
G1 X25.307 Y-215.144 Z-5.752
X25.361 Y-215.183 Z-5.729
X25.41 Y-215.219 Z-5.691
X25.45 Y-215.249 Z-5.64
X25.481 Y-215.271 Z-5.58
X25.5 Y-215.285 Z-5.513
X25.506 Y-215.29 Z-5.443
G0 Z5
X141.633 Y-214.04
Z-5.125
G1 Z-5.443 F200
X141.631 Y-214.032 Z-5.513
X141.625 Y-214.01 Z-5.58
X141.616 Y-213.973 Z-5.64
X141.604 Y-213.924 Z-5.691
X141.59 Y-213.865 Z-5.729
X141.574 Y-213.8 Z-5.752
X141.557 Y-213.732 Z-5.76
G3 X141.187 Y-213.039 I-1.537 J-0.376
G1 X141.046 Y-212.893
X141.041 Y-212.888
X140.945 Y-212.747
X140.75 Y-212.406
X140.697 Y-212.309
X140.549 Y-212.017
X140.476 Y-211.871
X140.41 Y-211.726
X140.36 Y-211.58
X140.322 Y-211.434
X140.25 Y-210.996
X140.186 Y-210.693
X140.022 Y-210.333
X139.755 Y-209.984
X139.367 Y-209.659
X138.811 Y-209.375
X138.189 Y-209.216
X137.55 Y-209.151
X136.908 Y-209.13
X136.266 Y-209.124
X135.624 Y-209.123
X90.671 Y-209.122
X62.155 Y-209.123
X62.033 Y-209.147
X61.93 Y-209.216
X61.862 Y-209.319
X61.838 Y-209.44
Y-209.974
X61.836 Y-210.12
X61.826 Y-210.412
X61.819 Y-210.558
X61.75 Y-210.996
X61.678 Y-211.434
X61.64 Y-211.58
X61.59 Y-211.726
X61.524 Y-211.871
X61.451 Y-212.017
X61.343 Y-212.229
G3 X61.774 Y-212.647 I0.288 J-0.134
G1 X61.837 Y-212.615 Z-5.752
X61.897 Y-212.585 Z-5.729
X61.951 Y-212.558 Z-5.691
X61.996 Y-212.535 Z-5.64
X62.03 Y-212.518 Z-5.58
X62.051 Y-212.507 Z-5.513
X62.058 Y-212.504 Z-5.443
G0 Z5
X140.03 Y-212.069
Z-5.125
G1 Z-5.443 F200
X140.033 Y-212.062 Z-5.513
X140.041 Y-212.04 Z-5.58
X140.056 Y-212.005 Z-5.64
X140.074 Y-211.958 Z-5.691
X140.097 Y-211.903 Z-5.729
X140.122 Y-211.84 Z-5.752
X140.148 Y-211.775 Z-5.76
G3 X140.25 Y-210.996 I-1.469 J0.588
G1 X140.181 Y-210.558
X140.174 Y-210.412
X140.164 Y-210.12
X140.163 Y-209.974
Y-208.515
X140.144 Y-208.136
X140.036 Y-207.75
X139.832 Y-207.375
X139.514 Y-207.012
X139.044 Y-206.67
X138.454 Y-206.417
X137.826 Y-206.282
X137.187 Y-206.221
X136.545 Y-206.199
X135.903 Y-206.192
X135.261 Y-206.19
X131.407 Y-206.189
X90.95
X62.694
X62.146 Y-206.204
X62.027 Y-206.231
X61.927 Y-206.3
X61.861 Y-206.402
X61.838 Y-206.522
Y-209.44
G3 X62.411 Y-209.617 I0.317 J0.011
G1 X62.453 Y-209.56 Z-5.752
X62.492 Y-209.506 Z-5.729
X62.528 Y-209.457 Z-5.691
X62.558 Y-209.417 Z-5.64
X62.58 Y-209.386 Z-5.58
X62.594 Y-209.367 Z-5.513
X62.599 Y-209.361 Z-5.443
G0 Z5
X139.779 Y-209.542
Z-5.125
G1 Z-5.443 F200
X139.783 Y-209.535 Z-5.513
X139.795 Y-209.515 Z-5.58
X139.814 Y-209.482 Z-5.64
X139.84 Y-209.439 Z-5.691
X139.871 Y-209.387 Z-5.729
X139.905 Y-209.33 Z-5.752
X139.941 Y-209.269 Z-5.76
G3 X140.163 Y-208.515 I-1.36 J0.809
G1 Y-205.597
X140.147 Y-205.278
X140.039 Y-204.893
X139.825 Y-204.498
X139.487 Y-204.113
X139.02 Y-203.773
X138.429 Y-203.519
X137.804 Y-203.373
X137.166 Y-203.304
X136.524 Y-203.274
X135.882 Y-203.262
X135.24 Y-203.258
X133.956 Y-203.256
X90.929
X63.315
X62.673 Y-203.26
X62.142 Y-203.282
X62.025 Y-203.309
X61.926 Y-203.379
X61.86 Y-203.48
X61.838 Y-203.599
Y-206.522
G3 X62.411 Y-206.699 I0.317 J0.011
G1 X62.453 Y-206.642 Z-5.752
X62.492 Y-206.588 Z-5.729
X62.528 Y-206.539 Z-5.691
X62.558 Y-206.498 Z-5.64
X62.58 Y-206.468 Z-5.58
X62.594 Y-206.449 Z-5.513
X62.599 Y-206.443 Z-5.443
G0 Z5
X139.779 Y-206.623
Z-5.125
G1 Z-5.443 F200
X139.783 Y-206.616 Z-5.513
X139.795 Y-206.596 Z-5.58
X139.814 Y-206.564 Z-5.64
X139.84 Y-206.52 Z-5.691
X139.871 Y-206.469 Z-5.729
X139.905 Y-206.411 Z-5.752
X139.941 Y-206.35 Z-5.76
G3 X140.163 Y-205.597 I-1.36 J0.809
G1 Y-202.678
X140.148 Y-202.383
X140.039 Y-201.995
X139.823 Y-201.596
X139.482 Y-201.206
X139.007 Y-200.861
X138.417 Y-200.608
X137.793 Y-200.459
X137.155 Y-200.384
X136.514 Y-200.348
X135.872 Y-200.333
X135.23 Y-200.327
X134.587 Y-200.324
X132.019 Y-200.323
X90.919
X63.947
X63.305 Y-200.324
X62.663 Y-200.331
X62.14 Y-200.356
X62.023 Y-200.384
X61.925 Y-200.454
X61.86 Y-200.555
X61.838 Y-200.673
Y-203.599
G3 X62.411 Y-203.776 I0.317 J0.011
G1 X62.453 Y-203.719 Z-5.752
X62.492 Y-203.664 Z-5.729
X62.528 Y-203.616 Z-5.691
X62.558 Y-203.575 Z-5.64
X62.58 Y-203.545 Z-5.58
X62.594 Y-203.526 Z-5.513
X62.599 Y-203.52 Z-5.443
G0 Z5
X139.779 Y-203.705
Z-5.125
G1 Z-5.443 F200
X139.783 Y-203.698 Z-5.513
X139.795 Y-203.678 Z-5.58
X139.814 Y-203.645 Z-5.64
X139.84 Y-203.602 Z-5.691
X139.871 Y-203.55 Z-5.729
X139.905 Y-203.493 Z-5.752
X139.941 Y-203.432 Z-5.76
G3 X140.163 Y-202.678 I-1.36 J0.809
G1 Y-199.906
X140.141 Y-199.472
X140.032 Y-199.083
X139.815 Y-198.682
X139.473 Y-198.292
X138.995 Y-197.944
X138.405 Y-197.691
X137.781 Y-197.54
X137.143 Y-197.462
X136.502 Y-197.423
X135.86 Y-197.404
X135.218 Y-197.395
X134.576 Y-197.392
X133.292 Y-197.39
X90.907
X63.935
X63.293 Y-197.393
X62.651 Y-197.403
X62.139 Y-197.429
X62.022 Y-197.458
X61.925 Y-197.528
X61.86 Y-197.629
X61.838 Y-197.746
Y-200.673
G3 X62.411 Y-200.85 I0.317 J0.011
G1 X62.453 Y-200.793 Z-5.752
X62.492 Y-200.739 Z-5.729
X62.528 Y-200.69 Z-5.691
X62.558 Y-200.65 Z-5.64
X62.58 Y-200.619 Z-5.58
X62.594 Y-200.6 Z-5.513
X62.599 Y-200.594 Z-5.443
G0 Z5
X139.779 Y-200.932
Z-5.125
G1 Z-5.443 F200
X139.783 Y-200.925 Z-5.513
X139.795 Y-200.905 Z-5.58
X139.814 Y-200.873 Z-5.64
X139.84 Y-200.829 Z-5.691
X139.871 Y-200.778 Z-5.729
X139.905 Y-200.72 Z-5.752
X139.941 Y-200.659 Z-5.76
G3 X140.163 Y-199.906 I-1.36 J0.809
G1 X140.162 Y-197.425
X140.161 Y-197.279
X140.158 Y-197.133
X140.101 Y-196.695
X140.082 Y-196.55
X140.058 Y-196.404
X140.02 Y-196.306
X139.857 Y-195.914
X139.817 Y-195.82
X139.728 Y-195.695
X139.437 Y-195.314
X139.395 Y-195.271
X139.354 Y-195.236
X138.913 Y-194.899
X138.853 Y-194.865
X138.341 Y-194.653
X138.306 Y-194.638
X138.27 Y-194.628
X138.124 Y-194.607
X137.978 Y-194.588
X137.686 Y-194.556
X137.54 Y-194.54
X137.395 Y-194.529
X64.605
X64.459 Y-194.54
X64.167 Y-194.571
X64.021 Y-194.588
X63.876 Y-194.607
X63.73 Y-194.628
X63.659 Y-194.653
X63.146 Y-194.865
X63.087 Y-194.899
X62.837 Y-195.09
X62.647 Y-195.236
X62.605 Y-195.271
X62.563 Y-195.315
X62.271 Y-195.695
X62.183 Y-195.82
X62.121 Y-195.966
X61.979 Y-196.308
X61.942 Y-196.404
X61.919 Y-196.55
X61.842 Y-197.133
X61.838 Y-197.279
Y-197.746
G3 X62.411 Y-197.923 I0.317 J0.011
G1 X62.453 Y-197.866 Z-5.752
X62.492 Y-197.812 Z-5.729
X62.528 Y-197.763 Z-5.691
X62.558 Y-197.723 Z-5.64
X62.58 Y-197.692 Z-5.58
X62.594 Y-197.673 Z-5.513
X62.599 Y-197.667 Z-5.443
G0 Z5
X14.652 Y-218.566
Z-5.125
G1 Z-5.443 F200
X14.655 Y-218.559 Z-5.513
X14.662 Y-218.536 Z-5.58
X14.673 Y-218.5 Z-5.64
X14.688 Y-218.452 Z-5.691
X14.705 Y-218.394 Z-5.729
X14.725 Y-218.33 Z-5.752
X14.746 Y-218.263 Z-5.76
G3 X14.895 Y-217.492 I-3.484 J1.072
G1 X14.923 Y-216.89
X14.935 Y-216.852
X14.956 Y-216.818
X14.985 Y-216.79
X15.02 Y-216.77
X15.642 Y-216.608
X15.791 Y-216.617
X15.941 Y-216.612
X16.09 Y-216.592
X16.236 Y-216.559
X16.379 Y-216.513
X16.517 Y-216.454
X16.649 Y-216.384
X16.776 Y-216.303
X16.895 Y-216.212
X17.007 Y-216.112
X17.112 Y-216.005
X17.208 Y-215.89
X17.296 Y-215.768
X17.376 Y-215.642
X17.448 Y-215.51
X17.512 Y-215.374
X17.569 Y-215.235
X17.618 Y-215.094
X17.66 Y-214.95
X17.697 Y-214.804
X17.727 Y-214.657
X17.752 Y-214.509
X17.773 Y-214.361
X17.792 Y-214.188
X17.81 Y-213.974
X17.826 Y-213.7
X17.83 Y-213.586
X17.845 Y-213.024
Y-206.602
X17.841 Y-205.96
X17.824 Y-205.364
X17.791 Y-204.767
X17.739 Y-204.127
X17.698 Y-203.486
X17.708 Y-202.844
X17.706 Y-202.201
Y-192.618
X17.695 Y-192.199
X17.674 Y-191.792
X17.624 Y-191.151
X17.568 Y-190.512
X17.566 Y-189.869
X17.567 Y-189.227
Y-186.659
X17.553 Y-186.038
X17.527 Y-185.497
X17.433 Y-184.216
X17.429 Y-183.574
X17.428 Y-180.135
X17.424 Y-179.985
X17.416 Y-179.835
X17.403 Y-179.675
X17.381 Y-179.478
X17.295 Y-178.842
X17.291 Y-178.2
X17.289 Y-176.916
Y-174.347
X17.286 Y-173.73
X17.28 Y-173.539
X17.266 Y-173.288
X17.159 Y-172.008
X17.153 Y-171.366
X17.151 Y-170.724
X17.15 Y-168.797
Y-168.155
X17.024 Y-167.525
X17.014 Y-166.883
X17.012 Y-166.241
X17.011 Y-161.103
Y-118.719
Y-68.629
Y-67.986
X17.027 Y-67.908
X17.054 Y-67.76
X17.075 Y-67.612
X17.094 Y-67.453
X17.111 Y-67.26
X17.128 Y-67.003
X17.143 Y-66.598
X17.151 Y-65.956
X17.15 Y-65.314
Y-43.48
X17.156 Y-42.837
X17.189 Y-42.196
X17.23 Y-41.555
X17.259 Y-40.914
X17.277 Y-40.272
X17.285 Y-39.63
X17.288 Y-38.988
X17.289 Y-37.703
X17.292 Y-37.061
X17.312 Y-36.419
X17.351 Y-35.778
X17.384 Y-35.137
X17.407 Y-34.495
X17.42 Y-33.853
X17.426 Y-33.211
X17.427 Y-32.569
X17.428 Y-30
X17.493 Y-29.361
X17.524 Y-28.97
X17.548 Y-28.521
X17.565 Y-27.879
X17.568 Y-27.237
X17.567 Y-26.595
Y-24.026
X17.594 Y-23.385
X17.639 Y-22.896
X17.673 Y-22.379
X17.698 Y-21.737
X17.707 Y-21.095
X17.706 Y-19.65
X17.716 Y-19.611
X17.735 Y-19.576
X17.763 Y-19.547
X17.797 Y-19.526
X17.836 Y-19.514
X17.876 Y-19.512
X17.915 Y-19.52
X17.951 Y-19.538
X18.438 Y-19.957
X18.545 Y-20.062
X18.659 Y-20.159
X19.241 Y-20.43
X19.869 Y-20.566
X20.509 Y-20.618
X21.151 Y-20.634
X21.793 Y-20.638
X23.077 Y-20.639
X25.646
X26.288 Y-20.634
X26.93 Y-20.606
X27.57 Y-20.55
X28.843 Y-20.383
X29.485 Y-20.367
X30.127 Y-20.362
X32.054 Y-20.361
X50.035
X50.677 Y-20.358
X51.319 Y-20.339
X51.954 Y-20.242
X52.581 Y-20.101
X53.213 Y-19.992
X53.855 Y-19.961
X54.497 Y-19.95
X55.139 Y-19.946
X56.423 Y-19.945
X68.625 Y-19.944
X118.715
X149.54 Y-19.945
X150.183 Y-19.954
X150.824 Y-19.981
X151.464 Y-20.031
X152.094 Y-20.159
X152.729 Y-20.252
X153.368 Y-20.311
X154.01 Y-20.343
X154.652 Y-20.357
X155.294 Y-20.36
X156.578 Y-20.361
X168.78
X169.422
X169.501 Y-20.377
X169.649 Y-20.404
X169.797 Y-20.425
X169.955 Y-20.444
X170.149 Y-20.461
X170.405 Y-20.478
X170.81 Y-20.493
X171.452 Y-20.501
X172.095 Y-20.5
X175.948
X176.589 Y-20.523
X176.848 Y-20.568
X177.159 Y-20.614
X177.567 Y-20.663
X177.985 Y-20.703
X178.495 Y-20.739
X179.114 Y-20.766
X179.756 Y-20.777
X180.398 Y-20.779
X182.365 Y-20.778
X182.403 Y-20.788
X182.438 Y-20.808
X182.468 Y-20.835
X182.489 Y-20.869
X182.501 Y-20.908
X182.503 Y-20.948
X182.495 Y-20.987
X182.477 Y-21.023
X182.058 Y-21.51
X181.952 Y-21.616
X181.853 Y-21.729
X181.764 Y-21.849
X181.682 Y-21.975
X181.61 Y-22.106
X181.545 Y-22.242
X181.488 Y-22.381
X181.439 Y-22.522
X181.397 Y-22.666
X181.362 Y-22.812
X181.332 Y-22.959
X181.308 Y-23.107
X181.288 Y-23.256
X181.27 Y-23.428
X181.253 Y-23.646
X181.237 Y-23.953
X181.222 Y-24.526
Y-24.84
X181.226 Y-24.89
X181.238 Y-24.938
X181.257 Y-24.985
X181.46 Y-25.381
X181.531 Y-25.527
X181.599 Y-25.673
X181.645 Y-25.819
X181.679 Y-25.965
X181.739 Y-26.318
X181.799 Y-26.695
X181.818 Y-26.841
X181.837 Y-27.278
Y-46.978
X181.87 Y-47.619
X181.883 Y-48.261
X181.902 Y-48.903
X181.911 Y-49.545
X181.921 Y-50.83
X181.931 Y-51.472
X181.951 Y-52.114
X181.981 Y-52.755
X182.012 Y-53.397
X182.034 Y-54.038
X182.046 Y-54.681
X182.052 Y-55.323
X182.054 Y-55.965
X182.056 Y-57.891
Y-97.065
Y-147.155
Y-147.797
X182.04 Y-147.876
X182.013 Y-148.024
X181.992 Y-148.172
X181.973 Y-148.33
X181.956 Y-148.524
X181.939 Y-148.78
X181.924 Y-149.185
X181.916 Y-149.828
X181.917 Y-150.47
Y-166.203
G3 X182.49 Y-166.38 I0.317 J0.011
G1 X182.532 Y-166.323 Z-5.752
X182.571 Y-166.269 Z-5.729
X182.607 Y-166.22 Z-5.691
X182.637 Y-166.18 Z-5.64
X182.659 Y-166.149 Z-5.58
X182.673 Y-166.131 Z-5.513
X182.678 Y-166.124 Z-5.443
G0 Z5
X182.221 Y-45.951
Z-5.125
G1 Z-5.443 F200
X182.217 Y-45.958 Z-5.513
X182.205 Y-45.978 Z-5.58
X182.186 Y-46.011 Z-5.64
X182.16 Y-46.054 Z-5.691
X182.129 Y-46.106 Z-5.729
X182.095 Y-46.164 Z-5.752
X182.059 Y-46.224 Z-5.76
G3 X181.837 Y-46.978 I1.36 J-0.809
G1 Y-60.257
X181.827 Y-60.403
X181.795 Y-60.695
X181.775 Y-60.841
X181.705 Y-61.278
X181.68 Y-61.424
X181.643 Y-61.57
X181.592 Y-61.716
X181.382 Y-62.154
X181.156 Y-62.596
X181.068 Y-62.738
X181.01 Y-62.82
X180.956 Y-62.884
X180.864 Y-62.991
X180.388 Y-63.467
X180.281 Y-63.569
X180.233 Y-63.613
X180.135 Y-63.698
X179.885 Y-63.914
X179.573 Y-64.337
X179.316 Y-64.925
X179.189 Y-65.555
X179.141 Y-66.195
X179.127 Y-66.837
X179.124 Y-67.479
X179.123 Y-69.406
X179.122 Y-92.941
X179.144 Y-93.055
X179.204 Y-93.154
X179.296 Y-93.224
X179.604 Y-93.382
X179.885 Y-93.528
X179.989 Y-93.582
X180.116 Y-93.673
X180.281 Y-93.821
X180.426 Y-93.953
X180.876 Y-94.403
X181.003 Y-94.549
X181.01 Y-94.559
X181.099 Y-94.695
X181.156 Y-94.787
X181.482 Y-95.425
X181.551 Y-95.57
X181.593 Y-95.663
X181.614 Y-95.716
X181.658 Y-95.862
X181.687 Y-96.008
X181.739 Y-96.318
X181.806 Y-96.738
X181.822 Y-96.884
X181.833 Y-97.176
X181.837 Y-97.322
Y-150.146
X181.835 Y-150.292
X181.792 Y-150.73
X181.723 Y-151.167
X181.694 Y-151.313
X181.626 Y-151.63
X181.622 Y-151.642
X181.436 Y-152.043
X181.364 Y-152.189
X181.215 Y-152.481
X181.156 Y-152.59
X181.046 Y-152.772
X180.926 Y-152.918
X180.864 Y-152.99
X180.426 Y-153.428
X180.281 Y-153.568
X180.197 Y-153.648
X180.135 Y-153.695
X179.82 Y-153.941
X179.704 Y-154.037
X179.596 Y-154.141
X179.496 Y-154.253
X179.405 Y-154.372
X179.322 Y-154.496
X179.247 Y-154.626
X179.18 Y-154.761
X179.122 Y-154.899
X179.071 Y-155.04
X179.028 Y-155.184
X178.991 Y-155.329
X178.96 Y-155.476
X178.935 Y-155.624
X178.915 Y-155.773
X178.897 Y-155.938
X178.879 Y-156.145
X178.863 Y-156.427
X178.848 Y-156.91
X178.844 Y-157.553
X178.845 Y-161.486
G3 X179.173 Y-161.792 Z-5.56 I0.317 J0.011
X179.476 Y-161.523 I-0.011 J0.317
G1 X180.62 Y-154.026
X180.622 Y-154.009
X180.626 Y-153.951
X180.618 Y-153.894
X180.601 Y-153.839
X180.574 Y-153.788
G3 X180.135 Y-153.695 Z-5.76 I-0.266 J-0.174
G1 X179.989 Y-153.798
X179.843 Y-153.878
X179.551 Y-154.028
X179.114 Y-154.246
X178.968 Y-154.305
X178.822 Y-154.352
X178.676 Y-154.381
X178.53 Y-154.406
X178.238 Y-154.452
X178.093 Y-154.473
X177.947 Y-154.493
X177.532 Y-154.569
X177.386 Y-154.6
X177.242 Y-154.645
X177.104 Y-154.702
X176.97 Y-154.77
X176.843 Y-154.849
X176.722 Y-154.939
X176.609 Y-155.038
X176.504 Y-155.144
X176.407 Y-155.259
X176.318 Y-155.38
X176.238 Y-155.506
X176.165 Y-155.637
X176.101 Y-155.773
X176.044 Y-155.912
X175.994 Y-156.053
X175.952 Y-156.197
X175.916 Y-156.343
X175.886 Y-156.49
X175.862 Y-156.638
X175.842 Y-156.786
X175.823 Y-156.955
X175.806 Y-157.163
X175.79 Y-157.448
X175.775 Y-157.949
X175.772 Y-158.591
X175.773 Y-160.718
X175.762 Y-160.757
X175.743 Y-160.792
X175.715 Y-160.821
X175.681 Y-160.842
X175.643 Y-160.854
X175.603 Y-160.856
X175.564 Y-160.848
X174.987 Y-160.564
X174.878 Y-160.462
X174.761 Y-160.368
X174.638 Y-160.282
X174.509 Y-160.205
X174.376 Y-160.136
X174.239 Y-160.076
X174.098 Y-160.023
X173.955 Y-159.977
X173.811 Y-159.938
X173.664 Y-159.906
X173.517 Y-159.879
X173.368 Y-159.857
X173.211 Y-159.839
X173.02 Y-159.821
X172.767 Y-159.805
X172.372 Y-159.789
X171.73 Y-159.78
X171.088 Y-159.782
X133.199 Y-159.781
X132.557
X131.927 Y-159.907
X131.285 Y-159.917
X130.642 Y-159.92
X125.505
X83.121
X33.03
X32.388
X32.241 Y-159.891
X32.093 Y-159.867
X31.944 Y-159.847
X31.771 Y-159.829
X31.553 Y-159.813
X31.243 Y-159.796
X30.662 Y-159.781
X24.882
X24.635 Y-159.782
X24.428 Y-159.788
X24.209 Y-159.8
X23.94 Y-159.822
X23.619 Y-159.857
X23.261 Y-159.904
X23.015 Y-159.944
X22.861 Y-159.972
X22.694 Y-160.008
X22.548 Y-160.043
X22.395 Y-160.084
X22.252 Y-160.127
X22.109 Y-160.174
X21.961 Y-160.227
X21.798 Y-160.29
X21.598 Y-160.374
X21.34 Y-160.49
X21.016 Y-160.645
X20.867 Y-160.722
X20.733 Y-160.795
X20.587 Y-160.879
X20.459 Y-160.958
X20.334 Y-161.04
X20.211 Y-161.126
X20.142 Y-161.177
X19.995 Y-161.289
X19.861 Y-161.396
X19.704 Y-161.529
X19.495 Y-161.714
X19.273 Y-161.922
X19.121 Y-162.072
X18.989 Y-162.21
X18.887 Y-162.321
X18.789 Y-162.434
X18.695 Y-162.551
X18.605 Y-162.67
X18.502 Y-162.813
X18.383 Y-162.989
X18.281 Y-163.147
X18.162 Y-163.344
X18.011 Y-163.608
X17.893 Y-163.828
X17.802 Y-164.01
X17.728 Y-164.165
X17.668 Y-164.302
X17.605 Y-164.455
X17.552 Y-164.595
X17.503 Y-164.737
X17.458 Y-164.88
X17.413 Y-165.039
X17.363 Y-165.234
X17.308 Y-165.479
X17.243 Y-165.801
X17.216 Y-165.96
G0 Z5
X179.015 Y-154.737
Z-5.125
G1 Z-5.443 F200
X179.008 Y-154.734 Z-5.513
X178.986 Y-154.725 Z-5.58
X178.951 Y-154.71 Z-5.64
X178.905 Y-154.69 Z-5.691
X178.85 Y-154.667 Z-5.729
X178.788 Y-154.64 Z-5.752
X178.723 Y-154.613 Z-5.76
G3 X177.947 Y-154.493 I-0.622 J-1.455
G1 X177.717 Y-154.524
X177.655 Y-154.527
X177.071 Y-154.529
X175.175
X174.8 Y-154.547
X174.65 Y-154.559
X174.502 Y-154.584
X174.357 Y-154.621
X174.216 Y-154.672
X174.079 Y-154.733
X173.948 Y-154.806
X173.823 Y-154.889
X173.705 Y-154.981
X173.593 Y-155.082
X173.49 Y-155.19
X173.393 Y-155.305
X173.305 Y-155.427
X173.224 Y-155.553
X173.151 Y-155.684
X173.086 Y-155.819
X173.027 Y-155.957
X172.975 Y-156.098
X172.93 Y-156.241
X172.891 Y-156.386
X172.857 Y-156.532
X172.828 Y-156.679
X172.804 Y-156.827
X172.78 Y-156.996
X172.757 Y-157.207
X172.738 Y-157.428
X172.721 Y-157.724
X172.718 Y-157.804
X172.707 Y-157.843
X172.686 Y-157.877
X172.658 Y-157.905
X172.623 Y-157.925
X172.584 Y-157.936
X172.544 Y-157.937
X172.505 Y-157.928
X172.47 Y-157.909
X171.885 Y-157.374
X171.767 Y-157.281
X171.643 Y-157.197
X171.514 Y-157.121
X171.38 Y-157.054
X171.242 Y-156.994
X171.101 Y-156.943
X170.958 Y-156.898
X170.813 Y-156.86
X170.666 Y-156.829
X170.519 Y-156.803
X170.37 Y-156.782
X170.208 Y-156.764
X170.009 Y-156.746
X169.74 Y-156.73
X169.301 Y-156.715
X168.659 Y-156.709
X167.375
X133.018
X132.838 Y-156.71
X132.688 Y-156.715
X132.538 Y-156.724
X132.372 Y-156.739
X132.167 Y-156.762
X131.531 Y-156.851
X130.889 Y-156.846
X130.246 Y-156.848
X127.678
X127.036
X126.406 Y-156.974
X125.764 Y-156.984
X125.122 Y-156.987
X119.984
X77.6
X33.289
X32.647 Y-156.97
X32.008 Y-156.91
X31.367 Y-156.873
X30.725 Y-156.854
X30.082 Y-156.85
X28.798 Y-156.848
X27.514
X24.945 Y-156.849
X24.303 Y-156.864
X23.662 Y-156.91
X23.024 Y-156.982
X22.39 Y-157.085
X21.764 Y-157.228
X21.15 Y-157.415
X20.55 Y-157.644
X20.257 Y-157.774
X19.604 Y-158.084
X19.044 Y-158.399
X18.509 Y-158.754
X18.382 Y-158.852
G3 X18.593 Y-159.413 I0.203 J-0.244
G1 X18.664 Y-159.411 Z-5.752
X18.731 Y-159.409 Z-5.729
X18.791 Y-159.408 Z-5.691
X18.842 Y-159.407 Z-5.64
X18.879 Y-159.406 Z-5.58
X18.903 Y-159.405 Z-5.513
X18.911 Z-5.443
G0 Z5
X176.202 Y-154.912
Z-5.125
G1 Z-5.443 F200
X176.195 Y-154.908 Z-5.513
X176.175 Y-154.896 Z-5.58
X176.142 Y-154.877 Z-5.64
X176.099 Y-154.851 Z-5.691
X176.047 Y-154.82 Z-5.729
X175.989 Y-154.786 Z-5.752
X175.929 Y-154.75 Z-5.76
G3 X175.175 Y-154.529 I-0.809 J-1.36
G1 X144.688 Y-154.528
X144.25 Y-154.522
X144.105 Y-154.503
X143.813 Y-154.46
X143.295 Y-154.378
X143.229 Y-154.364
X143.084 Y-154.325
X142.938 Y-154.271
X142.851 Y-154.232
X142.264 Y-153.97
X141.635 Y-153.843
X140.995 Y-153.795
X140.353 Y-153.781
X139.71 Y-153.777
X137.784 Y-153.776
X133.289
X132.647 Y-153.788
X132.006 Y-153.838
X131.367 Y-153.903
X130.725 Y-153.911
X130.083 Y-153.914
X127.514 Y-153.915
X126.873 Y-153.94
X126.237 Y-154.029
X125.595 Y-154.047
X124.953 Y-154.052
X124.31 Y-154.054
X92.843
X42.753
X33.762
X33.12 Y-154.046
X32.479 Y-154.003
X31.838 Y-153.963
X31.197 Y-153.936
X30.555 Y-153.923
X29.913 Y-153.918
X29.27 Y-153.916
X25.417 Y-153.915
X24.775 Y-153.922
X24.133 Y-153.944
X23.493 Y-153.988
X22.854 Y-154.053
X22.218 Y-154.145
X21.588 Y-154.268
X20.964 Y-154.42
X20.348 Y-154.603
X20.122 Y-154.684
X19.52 Y-154.908
X18.931 Y-155.165
X18.786 Y-155.234
X18.714 Y-155.269
G3 X18.809 Y-155.862 I0.15 J-0.28
G1 X18.879 Y-155.874 Z-5.752
X18.945 Y-155.886 Z-5.729
X19.004 Y-155.896 Z-5.691
X19.053 Y-155.905 Z-5.64
X19.091 Y-155.912 Z-5.58
X19.114 Y-155.916 Z-5.513
X19.122 Y-155.917 Z-5.443
G0 Z5
X143.593 Y-155.038
Z-5.125
G1 Z-5.443 F200
X143.589 Y-155.032 Z-5.513
X143.576 Y-155.012 Z-5.58
X143.556 Y-154.98 Z-5.64
X143.529 Y-154.937 Z-5.691
X143.497 Y-154.886 Z-5.729
X143.461 Y-154.83 Z-5.752
X143.423 Y-154.77 Z-5.76
G3 X142.851 Y-154.232 I-1.337 J-0.847
G1 X142.208 Y-153.905
X142.008 Y-153.794
X141.917 Y-153.734
X141.803 Y-153.648
X141.771 Y-153.62
X141.625 Y-153.479
X141.187 Y-153.041
X141.069 Y-152.918
X141.041 Y-152.885
X140.956 Y-152.772
X140.895 Y-152.68
X140.864 Y-152.627
X140.785 Y-152.481
X140.636 Y-152.189
X140.467 Y-151.895
X140.155 Y-151.557
X139.709 Y-151.251
X139.113 Y-151.013
X138.481 Y-150.9
X137.84 Y-150.859
X137.198 Y-150.847
X136.555 Y-150.844
X133.987 Y-150.843
X133.345 Y-150.845
X132.702 Y-150.856
X132.061 Y-150.895
X131.422 Y-150.952
X130.78 Y-150.973
X130.138 Y-150.979
X129.496 Y-150.981
X128.211 Y-150.982
X127.569 Y-150.985
X126.927 Y-151.004
X126.288 Y-151.069
X125.647 Y-151.105
X125.005 Y-151.116
X124.363 Y-151.12
X123.078 Y-151.121
X90.969
X40.879
X34.457
X33.815 Y-151.119
X33.173 Y-151.103
X32.532 Y-151.066
X31.89 Y-151.032
X31.249 Y-151.007
X30.607 Y-150.993
X29.964 Y-150.986
X29.322 Y-150.984
X28.038 Y-150.982
X26.111
X25.469 Y-150.983
X24.827 Y-150.99
X24.185 Y-151.009
X23.544 Y-151.046
X22.904 Y-151.103
X22.267 Y-151.18
X21.632 Y-151.279
X21.002 Y-151.402
X20.377 Y-151.549
X20.145 Y-151.614
X19.529 Y-151.795
X18.922 Y-152.006
X18.847 Y-152.035
G3 X18.891 Y-152.634 I0.126 J-0.292
G1 X18.959 Y-152.652 Z-5.752
X19.024 Y-152.669 Z-5.729
X19.082 Y-152.685 Z-5.691
X19.131 Y-152.698 Z-5.64
X19.168 Y-152.707 Z-5.58
X19.19 Y-152.713 Z-5.513
X19.198 Y-152.715 Z-5.443
G0 Z5
X140.762 Y-153.277
Z-5.125
G1 Z-5.443 F200
Y-153.269 Z-5.513
X140.764 Y-153.246 Z-5.58
X140.766 Y-153.208 Z-5.64
X140.769 Y-153.158 Z-5.691
X140.773 Y-153.098 Z-5.729
X140.778 Y-153.031 Z-5.752
X140.782 Y-152.961 Z-5.76
G3 X140.636 Y-152.189 I-1.579 J0.101
G1 X140.604 Y-152.125
X140.564 Y-152.043
X140.378 Y-151.642
X140.373 Y-151.623
X140.306 Y-151.313
X140.277 Y-151.167
X140.208 Y-150.73
X140.165 Y-150.292
X140.163 Y-150.146
X140.144 Y-149.766
X140.043 Y-149.408
X139.846 Y-149.043
X139.536 Y-148.689
X139.091 Y-148.366
X138.501 Y-148.112
X137.871 Y-147.984
X137.231 Y-147.933
X136.589 Y-147.916
X135.947 Y-147.912
X134.663 Y-147.91
X134.021
X133.378 Y-147.913
X132.736 Y-147.925
X132.095 Y-147.957
X131.455 Y-148.007
X130.813 Y-148.034
X130.171 Y-148.044
X129.529 Y-148.047
X128.244 Y-148.049
X127.602 Y-148.054
X126.96 Y-148.072
X126.32 Y-148.122
X125.679 Y-148.163
X125.037 Y-148.179
X124.395 Y-148.185
X123.753 Y-148.187
X120.542 Y-148.188
X91.001
X40.911
X34.489
X33.847 Y-148.183
X33.205 Y-148.162
X32.564 Y-148.13
X31.922 Y-148.1
X31.28 Y-148.077
X30.638 Y-148.063
X29.996 Y-148.055
X29.354 Y-148.051
X28.07 Y-148.049
X26.143
X25.501 Y-148.051
X24.859 Y-148.059
X24.217 Y-148.076
X23.576 Y-148.108
X22.935 Y-148.158
X22.297 Y-148.225
X21.66 Y-148.311
X21.027 Y-148.416
X20.397 Y-148.54
X20.162 Y-148.595
X19.538 Y-148.747
X19.229 Y-148.833
X18.998 Y-148.903
G3 X18.999 Y-149.503 I0.104 J-0.3
G1 X19.066 Y-149.526 Z-5.752
X19.129 Y-149.548 Z-5.729
X19.186 Y-149.568 Z-5.691
X19.233 Y-149.584 Z-5.64
X19.269 Y-149.597 Z-5.58
X19.291 Y-149.604 Z-5.513
X19.299 Y-149.607 Z-5.443
G0 Z5
X139.779 Y-151.172
Z-5.125
G1 Z-5.443 F200
X139.783 Y-151.165 Z-5.513
X139.795 Y-151.145 Z-5.58
X139.814 Y-151.113 Z-5.64
X139.84 Y-151.07 Z-5.691
X139.871 Y-151.018 Z-5.729
X139.905 Y-150.96 Z-5.752
X139.941 Y-150.899 Z-5.76
G3 X140.163 Y-150.146 I-1.36 J0.809
G1 Y-147.373
X140.142 Y-146.965
X140.035 Y-146.582
X139.822 Y-146.19
X139.49 Y-145.81
X139.03 Y-145.476
X138.44 Y-145.222
X137.814 Y-145.08
X137.175 Y-145.016
X136.533 Y-144.99
X135.891 Y-144.981
X135.249 Y-144.978
X134.607 Y-144.977
X133.964 Y-144.978
X133.322 Y-144.983
X132.68 Y-144.997
X132.039 Y-145.027
X131.398 Y-145.069
X130.756 Y-145.096
X130.114 Y-145.108
X129.472 Y-145.113
X128.188 Y-145.117
X127.546 Y-145.125
X126.904 Y-145.145
X126.263 Y-145.187
X125.622 Y-145.225
X124.98 Y-145.243
X124.338 Y-145.25
X123.695 Y-145.253
X122.411 Y-145.255
X90.944
X40.854
X35.074
X34.432 Y-145.253
X33.79 Y-145.243
X33.148 Y-145.22
X32.506 Y-145.191
X31.865 Y-145.164
X31.223 Y-145.144
X30.581 Y-145.13
X29.939 Y-145.123
X29.296 Y-145.119
X28.654 Y-145.117
X26.728 Y-145.116
X26.086 Y-145.117
X25.443 Y-145.12
X24.801 Y-145.129
X24.159 Y-145.147
X23.518 Y-145.177
X22.877 Y-145.222
X22.238 Y-145.284
X21.601 Y-145.362
X20.965 Y-145.456
X20.333 Y-145.567
X20.176 Y-145.6
X19.547 Y-145.733
X19.235 Y-145.807
X19.002 Y-145.867
G3 X18.977 Y-146.467 I0.091 J-0.304
G1 X19.042 Y-146.493 Z-5.752
X19.105 Y-146.517 Z-5.729
X19.161 Y-146.539 Z-5.691
X19.208 Y-146.558 Z-5.64
X19.243 Y-146.572 Z-5.58
X19.265 Y-146.58 Z-5.513
X19.272 Y-146.583 Z-5.443
G0 Z5
X139.779 Y-148.4
Z-5.125
G1 Z-5.443 F200
X139.783 Y-148.393 Z-5.513
X139.795 Y-148.373 Z-5.58
X139.814 Y-148.34 Z-5.64
X139.84 Y-148.297 Z-5.691
X139.871 Y-148.245 Z-5.729
X139.905 Y-148.188 Z-5.752
X139.941 Y-148.127 Z-5.76
G3 X140.163 Y-147.373 I-1.36 J0.809
G1 Y-144.455
X140.144 Y-144.084
X140.036 Y-143.697
X139.82 Y-143.299
X139.481 Y-142.911
X139.01 Y-142.57
X138.42 Y-142.316
X137.795 Y-142.169
X137.157 Y-142.097
X136.516 Y-142.065
X135.874 Y-142.051
X135.231 Y-142.046
X134.589 Y-142.045
X133.947 Y-142.046
X133.305 Y-142.052
X132.663 Y-142.067
X132.021 Y-142.094
X131.38 Y-142.131
X130.739 Y-142.158
X130.097 Y-142.172
X129.454 Y-142.179
X128.17 Y-142.186
X127.528 Y-142.195
X126.886 Y-142.214
X125.604 Y-142.286
X124.962 Y-142.306
X124.32 Y-142.315
X123.677 Y-142.319
X122.393 Y-142.321
X90.926 Y-142.322
X40.836
X40.193
X40.115 Y-142.306
X39.967 Y-142.279
X39.819 Y-142.258
X39.66 Y-142.239
X39.467 Y-142.222
X39.21 Y-142.205
X38.805 Y-142.19
X38.163 Y-142.182
X37.521 Y-142.183
X34.952 Y-142.182
X34.31 Y-142.18
X33.668 Y-142.166
X33.026 Y-142.139
X32.385 Y-142.111
X31.743 Y-142.086
X31.101 Y-142.068
X30.459 Y-142.056
X29.817 Y-142.049
X29.175 Y-142.046
X27.89 Y-142.044
X26.606
X25.964 Y-142.045
X25.322 Y-142.049
X24.68 Y-142.058
X24.038 Y-142.077
X23.396 Y-142.108
X22.755 Y-142.151
X22.116 Y-142.209
X21.478 Y-142.281
X20.841 Y-142.368
X20.207 Y-142.469
X20.065 Y-142.495
X19.434 Y-142.615
X18.91 Y-142.727
X18.754 Y-142.765
G3 X18.718 Y-143.364 I0.086 J-0.306
G1 X18.783 Y-143.391 Z-5.752
X18.845 Y-143.417 Z-5.729
X18.901 Y-143.44 Z-5.691
X18.947 Y-143.459 Z-5.64
X18.982 Y-143.474 Z-5.58
X19.004 Y-143.483 Z-5.513
X19.011 Y-143.486 Z-5.443
G0 Z5
X139.779 Y-145.481
Z-5.125
G1 Z-5.443 F200
X139.783 Y-145.474 Z-5.513
X139.795 Y-145.454 Z-5.58
X139.814 Y-145.422 Z-5.64
X139.84 Y-145.379 Z-5.691
X139.871 Y-145.327 Z-5.729
X139.905 Y-145.269 Z-5.752
X139.941 Y-145.208 Z-5.76
G3 X140.163 Y-144.455 I-1.36 J0.809
G1 Y-141.536
X140.145 Y-141.181
X140.036 Y-140.793
X139.82 Y-140.393
X139.477 Y-140.002
X139.002 Y-139.656
X138.411 Y-139.403
X137.787 Y-139.253
X137.149 Y-139.177
X136.508 Y-139.139
X135.866 Y-139.122
X135.224 Y-139.115
X134.582 Y-139.113
X133.94 Y-139.115
X133.298 Y-139.121
X132.656 Y-139.136
X132.014 Y-139.16
X131.373 Y-139.194
X130.731 Y-139.221
X130.089 Y-139.236
X129.447 Y-139.244
X128.162 Y-139.254
X127.52 Y-139.264
X126.878 Y-139.283
X126.237 Y-139.314
X125.596 Y-139.348
X124.954 Y-139.369
X124.312 Y-139.38
X123.67 Y-139.385
X123.027 Y-139.387
X121.101 Y-139.388
X90.918 Y-139.389
X40.828
X40.187 Y-139.341
X40.043 Y-139.3
X39.897 Y-139.265
X39.75 Y-139.236
X39.602 Y-139.211
X39.453 Y-139.19
X39.278 Y-139.17
X39.055 Y-139.15
X38.746 Y-139.131
X38.336 Y-139.116
X37.694 Y-139.11
X37.052 Y-139.111
X35.125 Y-139.11
X34.483 Y-139.108
X33.841 Y-139.097
X33.199 Y-139.072
X32.557 Y-139.043
X31.916 Y-139.018
X31.274 Y-138.999
X30.632 Y-138.987
X29.99 Y-138.979
X29.348 Y-138.975
X28.705 Y-138.973
X26.779 Y-138.972
X26.137 Y-138.973
X25.494 Y-138.975
X24.852 Y-138.983
X24.21 Y-138.998
X23.569 Y-139.023
X22.927 Y-139.059
X22.287 Y-139.108
X21.648 Y-139.169
X21.01 Y-139.243
X20.374 Y-139.331
X20.072 Y-139.38
X19.439 Y-139.486
X19.123 Y-139.547
X18.809 Y-139.611
G3 X18.752 Y-140.208 I0.075 J-0.308
G1 X18.816 Y-140.238 Z-5.752
X18.877 Y-140.265 Z-5.729
X18.932 Y-140.29 Z-5.691
X18.977 Y-140.311 Z-5.64
X19.012 Y-140.327 Z-5.58
X19.033 Y-140.337 Z-5.513
X19.04 Y-140.34 Z-5.443
G0 Z5
X139.779 Y-142.563
Z-5.125
G1 Z-5.443 F200
X139.783 Y-142.556 Z-5.513
X139.795 Y-142.536 Z-5.58
X139.814 Y-142.503 Z-5.64
X139.84 Y-142.46 Z-5.691
X139.871 Y-142.408 Z-5.729
X139.905 Y-142.351 Z-5.752
X139.941 Y-142.29 Z-5.76
G3 X140.163 Y-141.536 I-1.36 J0.809
G1 Y-138.618
X140.145 Y-138.269
X140.036 Y-137.88
X139.819 Y-137.479
X139.476 Y-137.087
X138.996 Y-136.738
X138.406 Y-136.485
X137.782 Y-136.333
X137.145 Y-136.254
X136.504 Y-136.213
X135.862 Y-136.193
X135.22 Y-136.184
X134.578 Y-136.181
X133.936 Y-136.183
X133.293 Y-136.19
X132.651 Y-136.204
X132.01 Y-136.227
X131.368 Y-136.257
X130.727 Y-136.284
X130.085 Y-136.3
X129.442 Y-136.31
X128.158 Y-136.321
X127.516 Y-136.332
X126.874 Y-136.351
X126.233 Y-136.379
X125.591 Y-136.41
X124.949 Y-136.432
X124.307 Y-136.445
X123.665 Y-136.451
X123.023 Y-136.453
X121.739 Y-136.455
X90.914
X41.465
X40.823 Y-136.439
X40.189 Y-136.336
X40.047 Y-136.289
X39.903 Y-136.248
X39.757 Y-136.212
X39.61 Y-136.182
X39.463 Y-136.155
X39.301 Y-136.131
X39.101 Y-136.107
X38.893 Y-136.086
X38.622 Y-136.067
X38.206 Y-136.049
X37.564 Y-136.036
X36.922 Y-136.039
X34.995 Y-136.038
X34.353 Y-136.035
X33.711 Y-136.019
X32.428 Y-135.963
X31.786 Y-135.941
X31.144 Y-135.924
X30.502 Y-135.912
X29.86 Y-135.906
X29.218 Y-135.902
X27.934 Y-135.9
X26.649
X26.007 Y-135.901
X25.365 Y-135.904
X24.723 Y-135.912
X24.081 Y-135.929
X23.439 Y-135.954
X22.798 Y-135.99
X22.157 Y-136.037
X21.518 Y-136.095
X20.879 Y-136.165
X20.243 Y-136.247
X19.528 Y-136.355
X18.895 Y-136.462
X18.816 Y-136.478
G3 X18.753 Y-137.074 I0.072 J-0.309
G1 X18.817 Y-137.104 Z-5.752
X18.878 Y-137.133 Z-5.729
X18.932 Y-137.158 Z-5.691
X18.978 Y-137.18 Z-5.64
X19.012 Y-137.196 Z-5.58
X19.033 Y-137.206 Z-5.513
X19.04 Y-137.209 Z-5.443
G0 Z5
X139.779 Y-139.644
Z-5.125
G1 Z-5.443 F200
X139.783 Y-139.638 Z-5.513
X139.795 Y-139.617 Z-5.58
X139.814 Y-139.585 Z-5.64
X139.84 Y-139.542 Z-5.691
X139.871 Y-139.49 Z-5.729
X139.905 Y-139.432 Z-5.752
X139.941 Y-139.371 Z-5.76
G3 X140.163 Y-138.618 I-1.36 J0.809
G1 X140.162 Y-137.596
X140.16 Y-137.159
X140.142 Y-137.013
X140.085 Y-136.575
X140.065 Y-136.429
X140.046 Y-136.367
X139.829 Y-135.845
X139.811 Y-135.809
X139.788 Y-135.772
X139.437 Y-135.314
X139.414 Y-135.288
X139.386 Y-135.262
X139.145 Y-135.076
X138.926 Y-134.908
X138.89 Y-134.883
X138.853 Y-134.865
X138.403 Y-134.678
X138.27 Y-134.629
X138.124 Y-134.607
X137.978 Y-134.588
X137.686 Y-134.556
X137.465 Y-134.532
X137.395 Y-134.529
X24.782
X24.345 Y-134.527
X24.199 Y-134.512
X23.907 Y-134.473
X23.761 Y-134.452
X23.469 Y-134.406
X23.35 Y-134.386
X23.178 Y-134.351
X23.032 Y-134.305
X22.886 Y-134.245
X22.448 Y-134.027
X22.294 Y-133.948
X22.017 Y-133.802
X22.011 Y-133.798
X21.714 Y-133.615
X21.584 Y-133.539
X21.449 Y-133.473
X21.311 Y-133.416
X21.169 Y-133.368
X21.024 Y-133.328
X20.878 Y-133.295
X20.73 Y-133.271
X20.581 Y-133.253
X20.431 Y-133.242
X20.281 Y-133.237
X20.131
X19.977 Y-133.241
X19.792 Y-133.251
X19.577 Y-133.269
X19.311 Y-133.297
X18.992 Y-133.34
X18.913 Y-133.352
X18.873 Y-133.348
X18.835 Y-133.334
X18.803 Y-133.311
X18.776 Y-133.28
X18.759 Y-133.244
X18.751 Y-133.205
X18.753 Y-133.165
X18.765 Y-133.127
X19.105 Y-132.582
X19.221 Y-132.487
X19.329 Y-132.383
X19.429 Y-132.271
X19.521 Y-132.153
X19.604 Y-132.028
X19.679 Y-131.898
X19.746 Y-131.763
X19.804 Y-131.625
X19.855 Y-131.484
X19.899 Y-131.341
X19.936 Y-131.195
X19.967 Y-131.049
X19.992 Y-130.901
X20.013 Y-130.752
X20.031 Y-130.587
X20.048 Y-130.382
X20.064 Y-130.103
X20.08 Y-129.628
X20.084 Y-128.986
X20.083 Y-122.564
Y-86.602
Y-85.96
X19.958 Y-85.33
X19.947 Y-84.688
X19.945 Y-84.046
X19.944 Y-78.908
Y-68.633
X19.991 Y-67.993
X20.041 Y-67.353
X20.068 Y-66.711
X20.08 Y-66.069
X20.082 Y-65.427
X20.083 Y-62.216
Y-44.235
X20.084 Y-43.592
X20.094 Y-42.95
X20.124 Y-42.309
X20.159 Y-41.668
X20.163 Y-41.586
Y-27.278
X20.182 Y-26.841
X20.201 Y-26.695
X20.26 Y-26.322
X20.321 Y-25.965
X20.355 Y-25.819
X20.498 Y-25.194
X20.528 Y-25.047
X20.552 Y-24.899
X20.573 Y-24.746
X20.6 Y-24.488
X20.651 Y-23.848
X20.722 Y-22.807
X20.729 Y-22.687
X20.741 Y-22.649
X20.762 Y-22.615
X20.791 Y-22.587
X20.826 Y-22.568
X20.865 Y-22.558
X20.905
X20.944 Y-22.568
X21.505 Y-22.88
X21.611 Y-22.986
X21.725 Y-23.084
X21.846 Y-23.173
X21.972 Y-23.254
X22.103 Y-23.327
X22.17 Y-23.358
X22.263 Y-23.386
X22.36 Y-23.384
X22.452 Y-23.353
G3 X22.345 Y-22.763 I-0.156 J0.277
G1 X22.275 Y-22.752 Z-5.752
X22.209 Y-22.742 Z-5.729
X22.149 Y-22.733 Z-5.691
X22.099 Y-22.725 Z-5.64
X22.062 Y-22.719 Z-5.58
X22.039 Y-22.715 Z-5.513
X22.031 Y-22.714 Z-5.443
G0 Z5
X19.679 Y-26.682
Z-5.125
G1 Z-5.443 F200
X19.685 Y-26.676 Z-5.513
X19.703 Y-26.661 Z-5.58
X19.731 Y-26.636 Z-5.64
X19.768 Y-26.602 Z-5.691
X19.813 Y-26.562 Z-5.729
X19.863 Y-26.517 Z-5.752
X19.916 Y-26.47 Z-5.76
G3 X20.355 Y-25.819 I-1.052 J1.182
G1 X20.401 Y-25.673
X20.469 Y-25.527
X20.552 Y-25.359
X20.764 Y-24.943
X20.844 Y-24.789
X20.929 Y-24.652
X20.99 Y-24.562
X21.034 Y-24.506
X21.135 Y-24.392
X21.605 Y-23.922
X21.755 Y-23.776
X21.865 Y-23.687
X21.937 Y-23.63
X22.011 Y-23.583
X22.481 Y-23.338
X22.767 Y-23.192
X22.886 Y-23.135
X23.032 Y-23.077
X23.122 Y-23.046
X23.178 Y-23.031
X23.323 Y-23.002
X23.469 Y-22.977
X23.761 Y-22.931
X23.907 Y-22.909
X24.199 Y-22.87
X24.345 Y-22.855
X24.928 Y-22.854
X177.217
X177.655 Y-22.855
X177.801 Y-22.87
X178.093 Y-22.909
X178.238 Y-22.93
X178.53 Y-22.977
X178.676 Y-23.002
X178.822 Y-23.031
X178.878 Y-23.046
X178.968 Y-23.077
X179.114 Y-23.135
X179.26 Y-23.206
X179.551 Y-23.355
X179.989 Y-23.582
X180.064 Y-23.63
X180.135 Y-23.686
X180.246 Y-23.776
X180.426 Y-23.953
X180.832 Y-24.36
G3 X181.363 Y-24.08 I0.217 J0.232
G1 X181.352 Y-24.01 Z-5.752
X181.342 Y-23.944 Z-5.729
X181.333 Y-23.884 Z-5.691
X181.325 Y-23.835 Z-5.64
X181.32 Y-23.797 Z-5.58
X181.316 Y-23.774 Z-5.513
X181.315 Y-23.766 Z-5.443
G0 Z5
X22.639 Y-134.696
Z-5.125
G1 Z-5.443 F200
X22.636 Y-134.688 Z-5.513
X22.626 Y-134.667 Z-5.58
X22.61 Y-134.633 Z-5.64
X22.589 Y-134.587 Z-5.691
X22.564 Y-134.532 Z-5.729
X22.536 Y-134.471 Z-5.752
X22.506 Y-134.407 Z-5.76
G3 X22.011 Y-133.798 I-1.437 J-0.662
G1 X21.865 Y-133.698
X21.815 Y-133.656
X21.656 Y-133.511
X21.135 Y-132.99
X21.08 Y-132.927
X20.99 Y-132.82
X20.96 Y-132.781
X20.867 Y-132.635
X20.844 Y-132.594
X20.641 Y-132.197
X20.552 Y-132.017
X20.406 Y-131.714
X20.37 Y-131.614
X20.328 Y-131.468
X20.303 Y-131.322
X20.26 Y-131.062
X20.232 Y-130.884
X20.211 Y-130.738
X20.177 Y-130.446
X20.163 Y-130.3
Y-97.322
X20.167 Y-97.176
X20.178 Y-96.884
X20.194 Y-96.738
X20.264 Y-96.3
X20.313 Y-96.008
X20.342 Y-95.862
X20.386 Y-95.716
X20.406 Y-95.664
X20.449 Y-95.57
X20.518 Y-95.425
X20.844 Y-94.787
X20.901 Y-94.695
X20.99 Y-94.559
X20.997 Y-94.549
X21.124 Y-94.403
X21.573 Y-93.954
X21.721 Y-93.819
X21.884 Y-93.673
X22.011 Y-93.583
X22.132 Y-93.495
X22.457 Y-93.122
X22.743 Y-92.591
X22.914 Y-91.973
X22.986 Y-91.334
X23.008 Y-90.693
X23.015 Y-90.05
X23.016 Y-89.408
Y-86.197
X22.962 Y-85.557
X22.897 Y-84.919
X22.886 Y-84.435
X22.863 Y-84.323
X22.802 Y-84.227
X22.71 Y-84.158
X22.448 Y-84.028
X22.157 Y-83.879
X22.011 Y-83.798
X21.865 Y-83.695
X21.757 Y-83.605
X21.604 Y-83.459
X21.135 Y-82.99
X21.038 Y-82.875
X20.99 Y-82.816
X20.925 Y-82.729
X20.84 Y-82.583
X20.763 Y-82.437
X20.614 Y-82.146
X20.543 Y-82
X20.375 Y-81.63
X20.369 Y-81.613
X20.298 Y-81.27
X20.27 Y-81.124
X20.224 Y-80.832
X20.202 Y-80.686
X20.163 Y-80.248
Y-41.586
G3 X19.589 Y-41.409 I-0.317 J-0.011
G1 X19.547 Y-41.466 Z-5.752
X19.508 Y-41.52 Z-5.729
X19.472 Y-41.569 Z-5.691
X19.442 Y-41.609 Z-5.64
X19.42 Y-41.64 Z-5.58
X19.406 Y-41.658 Z-5.513
X19.401 Y-41.665 Z-5.443
G0 Z5
X20.924 Y-93.722
Z-5.125
G1 Z-5.443 F200
X20.932 Z-5.513
X20.955 Y-93.723 Z-5.58
X20.993 Y-93.725 Z-5.64
X21.043 Y-93.728 Z-5.691
X21.103 Y-93.731 Z-5.729
X21.17 Y-93.734 Z-5.752
X21.241 Y-93.738 Z-5.76
G3 X22.011 Y-93.583 I0.082 J1.58
G1 X22.302 Y-93.43
X22.594 Y-93.28
X22.74 Y-93.206
X22.886 Y-93.135
X22.994 Y-93.09
X23.032 Y-93.077
X23.178 Y-93.031
X23.323 Y-93.001
X23.469 Y-92.976
X23.761 Y-92.93
X23.907 Y-92.909
X24.053 Y-92.889
X24.334 Y-92.837
X24.693 Y-92.683
X25.048 Y-92.425
X25.379 Y-92.046
X25.669 Y-91.511
X25.841 Y-90.892
X25.916 Y-90.255
X25.94 Y-89.613
X25.947 Y-88.971
X25.949 Y-88.328
X25.95 Y-86.402
X25.916 Y-85.761
X25.862 Y-85.121
X25.846 Y-84.828
X25.817 Y-84.713
X25.747 Y-84.616
X25.646 Y-84.551
X25.529 Y-84.529
X24.636 Y-84.528
X24.345 Y-84.527
X24.199 Y-84.512
X23.907 Y-84.473
X23.761 Y-84.452
X23.469 Y-84.406
X23.323 Y-84.38
G3 X22.965 Y-84.649 Z-5.56 I-0.045 J-0.314
G1 X22.962 Y-84.687
X22.963 Y-84.724
X22.979 Y-84.897
X23.683 Y-92.357
X23.706 Y-92.603
Y-92.604
G3 X24.053 Y-92.889 Z-5.76 I0.316 J0.031
G1 X24.199 Y-92.87
X24.345 Y-92.855
X24.928 Y-92.853
X26.533
X26.925 Y-92.834
X27.309 Y-92.726
X27.685 Y-92.523
X28.052 Y-92.201
X28.399 Y-91.724
X28.652 Y-91.134
X28.787 Y-90.506
X28.849 Y-89.867
X28.872 Y-89.225
X28.88 Y-88.583
X28.882 Y-87.941
X28.883 Y-86.656
X28.862 Y-86.014
X28.822 Y-85.374
X28.783 Y-84.824
X28.753 Y-84.709
X28.683 Y-84.614
X28.583 Y-84.551
X28.467 Y-84.529
X25.529
G3 X25.223 Y-84.857 Z-5.56 I0.011 J-0.317
G1 X25.225 Y-84.887
X25.253 Y-85.103
X26.19 Y-92.279
X26.222 Y-92.526
X26.229 Y-92.577 Z-5.581
G3 X26.533 Y-92.853 Z-5.76 I0.315 J0.041
G1 X29.45
X29.789 Y-92.836
X30.173 Y-92.729
X30.569 Y-92.515
X30.955 Y-92.176
X31.296 Y-91.707
X31.549 Y-91.117
X31.696 Y-90.492
X31.766 Y-89.854
X31.797 Y-89.212
X31.81 Y-88.57
X31.814 Y-87.928
X31.815 Y-87.286
X31.811 Y-86.644
X31.793 Y-86.002
X31.758 Y-85.361
X31.721 Y-84.824
X31.69 Y-84.709
X31.62 Y-84.614
X31.52 Y-84.551
X31.404 Y-84.529
X28.467
G3 X28.16 Y-84.857 Z-5.56 I0.011 J-0.317
G1 X28.163 Y-84.886
X28.191 Y-85.103
X29.108 Y-92.279
X29.14 Y-92.526
X29.146 Y-92.576 Z-5.581
G3 X29.45 Y-92.853 Z-5.76 I0.315 J0.04
G1 X32.367
X32.686 Y-92.837
X33.073 Y-92.729
X33.473 Y-92.513
X33.863 Y-92.171
X34.208 Y-91.696
X34.462 Y-91.106
X34.611 Y-90.481
X34.686 Y-89.844
X34.723 Y-89.202
X34.739 Y-88.561
X34.745 Y-87.918
X34.747 Y-87.276
X34.741 Y-86.634
X34.724 Y-85.992
X34.693 Y-85.351
X34.657 Y-84.824
X34.627 Y-84.71
X34.557 Y-84.614
X34.456 Y-84.551
X34.34 Y-84.529
X31.404
G3 X31.098 Y-84.857 Z-5.56 I0.011 J-0.317
G1 X31.1 Y-84.885
X31.127 Y-85.103
X32.026 Y-92.279
X32.057 Y-92.526
X32.064 Y-92.576 Z-5.58
G3 X32.367 Y-92.853 Z-5.76 I0.315 J0.039
G1 X35.285
X35.596 Y-92.838
X35.985 Y-92.729
X36.385 Y-92.512
X36.777 Y-92.169
X37.125 Y-91.69
X37.379 Y-91.1
X37.53 Y-90.476
X37.608 Y-89.839
X37.648 Y-89.198
X37.668 Y-88.556
X37.676 Y-87.914
X37.678 Y-87.272
X37.671 Y-86.629
X37.655 Y-85.987
X37.627 Y-85.346
X37.592 Y-84.825
X37.562 Y-84.71
X37.492 Y-84.614
X37.392 Y-84.551
X37.275 Y-84.529
X34.34
G3 X34.034 Y-84.857 Z-5.56 I0.011 J-0.317
G1 X34.036 Y-84.885
X34.063 Y-85.103
X34.944 Y-92.279
X34.975 Y-92.526
X34.981 Y-92.575 Z-5.58
G3 X35.285 Y-92.853 Z-5.76 I0.315 J0.039
G1 X38.202
X38.512 Y-92.838
X38.901 Y-92.729
X39.303 Y-92.512
X39.695 Y-92.168
X40.045 Y-91.686
X40.299 Y-91.096
X40.451 Y-90.472
X40.532 Y-89.835
X40.575 Y-89.195
X40.597 Y-88.553
X40.607 Y-87.911
X40.608 Y-87.268
X40.602 Y-86.626
X40.587 Y-85.984
X40.561 Y-85.343
X40.526 Y-84.825
X40.496 Y-84.71
X40.426 Y-84.614
X40.326 Y-84.551
X40.21 Y-84.529
X37.275
G3 X36.969 Y-84.857 Z-5.56 I0.011 J-0.317
G1 X36.971 Y-84.884
X36.997 Y-85.103
X37.863 Y-92.279
X37.892 Y-92.526
X37.898 Y-92.574 Z-5.58
G3 X38.202 Y-92.853 Z-5.76 I0.315 J0.038
G1 X41.12
X41.431 Y-92.838
X41.821 Y-92.729
X42.223 Y-92.511
X42.616 Y-92.167
X42.967 Y-91.683
X43.221 Y-91.093
X43.374 Y-90.47
X43.457 Y-89.833
X43.502 Y-89.192
X43.526 Y-88.551
X43.537 Y-87.908
X43.539 Y-87.266
X43.533 Y-86.624
X43.518 Y-85.982
X43.494 Y-85.34
X43.46 Y-84.825
X43.43 Y-84.71
X43.36 Y-84.614
X43.26 Y-84.551
X43.143 Y-84.529
X40.21
G3 X39.903 Y-84.857 Z-5.56 I0.011 J-0.317
G1 X39.905 Y-84.883
X39.931 Y-85.104
X40.781 Y-92.279
X40.81 Y-92.526
X40.816 Y-92.573 Z-5.579
G3 X41.12 Y-92.853 Z-5.76 I0.315 J0.037
G1 X44.037
X44.353 Y-92.838
X44.743 Y-92.728
X45.145 Y-92.511
X45.539 Y-92.166
X45.891 Y-91.681
X46.144 Y-91.091
X46.298 Y-90.468
X46.382 Y-89.831
X46.429 Y-89.19
X46.454 Y-88.549
X46.466 Y-87.907
X46.469 Y-87.264
X46.464 Y-86.622
X46.45 Y-85.98
X46.427 Y-85.339
X46.394 Y-84.826
X46.364 Y-84.711
X46.294 Y-84.615
X46.193 Y-84.551
X46.077 Y-84.529
X43.143
G3 X42.837 Y-84.857 Z-5.56 I0.011 J-0.317
G1 X42.839 Y-84.883
X42.865 Y-85.104
X43.699 Y-92.279
X43.727 Y-92.525
X43.733 Y-92.573 Z-5.579
G3 X44.037 Y-92.853 Z-5.76 I0.315 J0.037
G1 X46.955
X47.276 Y-92.837
X47.666 Y-92.728
X48.069 Y-92.51
X48.463 Y-92.165
X48.816 Y-91.679
X49.069 Y-91.089
X49.224 Y-90.466
X49.309 Y-89.829
X49.357 Y-89.189
X49.383 Y-88.547
X49.396 Y-87.905
X49.4 Y-87.263
X49.395 Y-86.621
X49.382 Y-85.979
X49.359 Y-85.337
X49.326 Y-84.826
X49.297 Y-84.711
X49.227 Y-84.615
X49.126 Y-84.551
X49.01 Y-84.529
X46.077
G3 X45.77 Y-84.857 Z-5.56 I0.011 J-0.317
G1 X45.772 Y-84.882
X45.798 Y-85.104
X46.617 Y-92.279
X46.645 Y-92.525
X46.65 Y-92.572 Z-5.579
G3 X46.955 Y-92.853 Z-5.76 I0.315 J0.036
G1 X49.872
X50.201 Y-92.837
X50.591 Y-92.728
X50.994 Y-92.51
X51.388 Y-92.164
X51.742 Y-91.678
X51.995 Y-91.088
X52.15 Y-90.464
X52.236 Y-89.828
X52.285 Y-89.188
X52.312 Y-88.546
X52.326 Y-87.904
X52.33 Y-87.262
X52.326 Y-86.62
X52.313 Y-85.978
X52.292 Y-85.336
X52.259 Y-84.826
X52.229 Y-84.711
X52.159 Y-84.615
X52.059 Y-84.551
X51.942 Y-84.529
X49.01
G3 X48.703 Y-84.857 Z-5.56 I0.011 J-0.317
G1 X48.705 Y-84.881
X48.73 Y-85.104
X49.535 Y-92.279
X49.562 Y-92.525
X49.568 Y-92.571 Z-5.579
G3 X49.872 Y-92.853 Z-5.76 I0.316 J0.035
G1 X52.789
X53.127 Y-92.837
X53.517 Y-92.727
X53.92 Y-92.509
X54.314 Y-92.164
X54.669 Y-91.676
X54.922 Y-91.086
X55.077 Y-90.463
X55.163 Y-89.827
X55.213 Y-89.186
X55.241 Y-88.545
X55.256 Y-87.903
X55.26 Y-87.261
X55.256 Y-86.619
X55.245 Y-85.976
X55.224 Y-85.335
X55.191 Y-84.826
X55.162 Y-84.711
X55.092 Y-84.615
X54.991 Y-84.551
X54.875 Y-84.529
X51.942
G3 X51.636 Y-84.857 Z-5.56 I0.011 J-0.317
G1 X51.638 Y-84.881
X51.662 Y-85.104
X52.453 Y-92.279
X52.48 Y-92.525
X52.485 Y-92.571 Z-5.578
G3 X52.789 Y-92.853 Z-5.76 I0.316 J0.035
G1 X55.707
X56.053 Y-92.836
X56.443 Y-92.727
X56.846 Y-92.509
X57.241 Y-92.163
X57.596 Y-91.675
X57.849 Y-91.085
X58.004 Y-90.462
X58.091 Y-89.826
X58.141 Y-89.185
X58.17 Y-88.544
X58.185 Y-87.902
X58.19 Y-87.26
X58.187 Y-86.618
X58.176 Y-85.975
X58.156 Y-85.334
X58.123 Y-84.815
X58.088 Y-84.69
X58.007 Y-84.59
X57.892 Y-84.53
X57.763 Y-84.521
X57.749 Y-84.523
X57.311 Y-84.529
X54.875
G3 X54.568 Y-84.857 Z-5.56 I0.011 J-0.317
G1 X54.57 Y-84.88
X54.594 Y-85.104
X55.371 Y-92.279
X55.397 Y-92.525
X55.402 Y-92.57 Z-5.578
G3 X55.707 Y-92.853 Z-5.76 I0.316 J0.034
G1 X58.624
X58.98 Y-92.836
X59.371 Y-92.726
X59.774 Y-92.508
X60.168 Y-92.162
X60.523 Y-91.674
X60.777 Y-91.084
X60.932 Y-90.461
X61.019 Y-89.825
X61.07 Y-89.185
X61.099 Y-88.543
X61.115 Y-87.901
X61.121 Y-87.259
X61.118 Y-86.617
X61.108 Y-85.975
X61.088 Y-85.333
X61.048 Y-84.692
X60.928 Y-84.061
X60.788 Y-83.696
X60.722 Y-83.59
X60.62 Y-83.518
X60.498 Y-83.491
X60.375 Y-83.514
X60.27 Y-83.581
X60.229 Y-83.622
X60.062 Y-83.751
X59.937 Y-83.826
X59.809 Y-83.897
X59.208 Y-84.202
X59.062 Y-84.269
X58.916 Y-84.325
X58.889 Y-84.334
X58.77 Y-84.362
X58.624 Y-84.391
X58.187 Y-84.46
X57.895 Y-84.503
X57.763 Y-84.521
G3 X57.501 Y-84.867 Z-5.568 I0.054 J-0.313
G1 X57.503 Y-84.887 Z-5.56
X57.53 Y-85.134
X58.289 Y-92.279
X58.315 Y-92.525
X58.32 Y-92.57 Z-5.578
G3 X58.624 Y-92.853 Z-5.76 I0.316 J0.034
G1 X61.542
X61.908 Y-92.835
X62.298 Y-92.726
X62.701 Y-92.508
X63.096 Y-92.162
X63.451 Y-91.673
X63.704 Y-91.083
X63.86 Y-90.46
X63.948 Y-89.824
X63.999 Y-89.184
X64.029 Y-88.542
X64.045 Y-87.9
X64.051 Y-87.258
X64.049 Y-86.616
X64.039 Y-85.974
X64.019 Y-85.332
X63.984 Y-84.691
X63.899 Y-84.054
X63.77 Y-83.425
X63.574 Y-82.814
X63.294 Y-82.236
X62.915 Y-81.717
X62.446 Y-81.279
X62.17 Y-81.109
X62.027 Y-81.063
X61.878 Y-81.088
X61.758 Y-81.179
X61.693 Y-81.315
X61.63 Y-81.617
X61.623 Y-81.635
X61.457 Y-82
X61.386 Y-82.146
X61.237 Y-82.437
X61.161 Y-82.583
X61.077 Y-82.729
X60.958 Y-82.887
X60.834 Y-83.021
X60.396 Y-83.459
X60.27 Y-83.581
G3 X60.184 Y-83.839 Z-5.647 I0.229 J-0.22
G1 X60.21 Y-84.055 Z-5.56
X60.24 Y-84.302
X61.202 Y-92.279
X61.232 Y-92.526
X61.238 Y-92.574 Z-5.58
G3 X61.542 Y-92.853 Z-5.76 I0.315 J0.038
G1 X64.459
X64.835 Y-92.835
X65.226 Y-92.725
X65.629 Y-92.507
X66.024 Y-92.161
X66.379 Y-91.672
X66.633 Y-91.082
X66.788 Y-90.459
X66.876 Y-89.823
X66.928 Y-89.183
X66.958 Y-88.541
X66.975 Y-87.899
X66.981 Y-87.257
X66.98 Y-86.615
X66.97 Y-85.973
X66.951 Y-85.331
X66.92 Y-84.69
X66.852 Y-84.051
X66.752 Y-83.417
X66.618 Y-82.789
X66.441 Y-82.171
X66.209 Y-81.573
X65.936 Y-80.991
X65.596 Y-80.446
X65.214 Y-79.93
X64.775 Y-79.462
X64.294 Y-79.036
X63.765 Y-78.673
X63.185 Y-78.397
X62.565 Y-78.229
X62.175 Y-78.204
X62.048 Y-78.222
X61.938 Y-78.289
X61.864 Y-78.395
X61.838 Y-78.521
X61.837 Y-80.248
X61.798 Y-80.686
X61.776 Y-80.832
X61.73 Y-81.124
X61.702 Y-81.27
X61.693 Y-81.315
X61.689 Y-81.376 Z-5.735
X61.696 Y-81.437 Z-5.711
X61.777 Y-81.803 Z-5.56
X61.83 Y-82.046
X64.089 Y-92.284
X64.143 Y-92.527
X64.16 Y-92.605 Z-5.592
G3 X64.459 Y-92.853 Z-5.76 I0.31 J0.068
G1 X67.376
X67.764 Y-92.834
X68.154 Y-92.725
X68.557 Y-92.506
X68.952 Y-92.161
X69.308 Y-91.671
X69.561 Y-91.081
X69.717 Y-90.458
X69.805 Y-89.822
X69.857 Y-89.182
X69.887 Y-88.541
X69.904 Y-87.899
X69.912 Y-87.257
X69.91 Y-86.614
X69.901 Y-85.972
X69.883 Y-85.33
X69.854 Y-84.689
X69.798 Y-84.049
X69.715 Y-83.412
X69.606 Y-82.779
X69.47 Y-82.152
X69.304 Y-81.531
X69.094 Y-80.924
X68.852 Y-80.33
X68.579 Y-79.749
X68.26 Y-79.191
X67.905 Y-78.656
X67.519 Y-78.143
X67.095 Y-77.66
X66.637 Y-77.21
X66.151 Y-76.79
X65.635 Y-76.408
X65.084 Y-76.079
X64.509 Y-75.792
X63.905 Y-75.574
X63.286 Y-75.405
X62.65 Y-75.315
X62.157 Y-75.311
X62.035 Y-75.335
X61.931 Y-75.403
X61.862 Y-75.507
X61.838 Y-75.629
Y-78.521
X61.843 Y-78.571 Z-5.739
X61.857 Y-78.621 Z-5.719
X61.996 Y-78.992 Z-5.56
X62.083 Y-79.224
X66.96 Y-92.298
X67.047 Y-92.531
X67.09 Y-92.647 Z-5.61
G3 X67.376 Y-92.853 Z-5.76 I0.297 J0.111
G1 X70.294
X70.692 Y-92.833
X71.083 Y-92.724
X71.486 Y-92.506
X71.881 Y-92.16
X72.236 Y-91.671
X72.49 Y-91.081
X72.645 Y-90.457
X72.734 Y-89.821
X72.786 Y-89.181
X72.817 Y-88.54
X72.834 Y-87.898
X72.842 Y-87.256
X72.841 Y-86.614
X72.832 Y-85.972
X72.815 Y-85.33
X72.788 Y-84.688
X72.74 Y-84.048
X72.668 Y-83.409
X72.576 Y-82.774
X72.461 Y-82.142
X72.325 Y-81.515
X72.165 Y-80.893
X71.97 Y-80.281
X71.746 Y-79.679
X71.498 Y-79.086
X71.224 Y-78.506
X70.918 Y-77.941
X70.58 Y-77.395
X70.216 Y-76.866
X69.828 Y-76.354
X69.414 Y-75.863
X68.97 Y-75.399
X68.503 Y-74.959
X68.015 Y-74.542
X67.506 Y-74.15
X66.968 Y-73.799
X66.411 Y-73.479
X65.838 Y-73.189
X65.243 Y-72.948
X64.633 Y-72.746
X64.013 Y-72.58
X63.381 Y-72.465
X62.742 Y-72.405
X62.157 Y-72.402
X62.035 Y-72.425
X61.931 Y-72.494
X61.862 Y-72.597
X61.838 Y-72.719
Y-75.629
G3 X62.411 Y-75.805 I0.317 J0.011
G1 X62.453 Y-75.748 Z-5.752
X62.492 Y-75.694 Z-5.729
X62.528 Y-75.646 Z-5.691
X62.558 Y-75.605 Z-5.64
X62.58 Y-75.575 Z-5.58
X62.594 Y-75.556 Z-5.513
X62.599 Y-75.549 Z-5.443
G0 Z5
X69.267 Y-92.47
Z-5.125
G1 Z-5.443 F200
X69.274 Y-92.474 Z-5.513
X69.294 Y-92.486 Z-5.58
X69.327 Y-92.505 Z-5.64
X69.37 Y-92.531 Z-5.691
X69.422 Y-92.562 Z-5.729
X69.48 Y-92.596 Z-5.752
X69.54 Y-92.632 Z-5.76
G3 X70.294 Y-92.853 I0.809 J1.36
G1 X73.211
X73.621 Y-92.833
X74.011 Y-92.724
X74.414 Y-92.505
X74.809 Y-92.159
X75.165 Y-91.67
X75.419 Y-91.08
X75.574 Y-90.457
X75.663 Y-89.821
X75.715 Y-89.181
X75.746 Y-88.539
X75.764 Y-87.897
X75.772 Y-87.255
Y-86.613
X75.764 Y-85.971
X75.748 Y-85.329
X75.722 Y-84.687
X75.679 Y-84.046
X75.617 Y-83.407
X75.535 Y-82.77
X75.436 Y-82.136
X75.318 Y-81.505
X75.181 Y-80.877
X75.024 Y-80.254
X74.84 Y-79.639
X74.63 Y-79.032
X74.398 Y-78.433
X74.145 Y-77.843
X73.871 Y-77.262
X73.574 Y-76.693
X73.247 Y-76.14
X72.899 Y-75.601
X72.529 Y-75.075
X72.14 Y-74.564
X71.732 Y-74.069
X71.298 Y-73.596
X70.843 Y-73.142
X70.371 Y-72.707
X69.881 Y-72.291
X69.376 Y-71.895
X68.848 Y-71.53
X68.302 Y-71.191
X67.742 Y-70.877
X67.169 Y-70.587
X66.58 Y-70.331
X65.978 Y-70.109
X65.365 Y-69.916
X64.744 Y-69.752
X64.115 Y-69.622
X63.479 Y-69.537
X62.838 Y-69.489
X62.196 Y-69.481
X62.116 Y-69.491
X61.974 Y-69.545
X61.874 Y-69.659
X61.838 Y-69.806
Y-72.719
G3 X62.411 Y-72.896 I0.317 J0.011
G1 X62.453 Y-72.839 Z-5.752
X62.492 Y-72.785 Z-5.729
X62.528 Y-72.736 Z-5.691
X62.558 Y-72.696 Z-5.64
X62.58 Y-72.665 Z-5.58
X62.594 Y-72.646 Z-5.513
X62.599 Y-72.64 Z-5.443
G0 Z5
X72.185 Y-92.47
Z-5.125
G1 Z-5.443 F200
X72.192 Y-92.474 Z-5.513
X72.212 Y-92.486 Z-5.58
X72.244 Y-92.505 Z-5.64
X72.288 Y-92.531 Z-5.691
X72.339 Y-92.562 Z-5.729
X72.397 Y-92.596 Z-5.752
X72.458 Y-92.632 Z-5.76
G3 X73.211 Y-92.853 I0.809 J1.36
G1 X76.129
X76.549 Y-92.832
X76.94 Y-92.723
X77.343 Y-92.505
X77.738 Y-92.159
X78.094 Y-91.669
X78.348 Y-91.079
X78.503 Y-90.456
X78.592 Y-89.82
X78.644 Y-89.18
X78.676 Y-88.538
X78.694 Y-87.897
X78.702 Y-87.254
Y-86.612
X78.695 Y-85.97
X78.68 Y-85.328
X78.655 Y-84.686
X78.617 Y-84.045
X78.561 Y-83.406
X78.489 Y-82.767
X78.4 Y-82.131
X78.296 Y-81.498
X78.175 Y-80.867
X78.038 Y-80.24
X77.883 Y-79.616
X77.707 Y-78.999
X77.507 Y-78.389
X77.288 Y-77.785
X77.05 Y-77.189
X76.794 Y-76.599
X76.52 Y-76.019
X76.227 Y-75.447
X75.911 Y-74.889
X75.573 Y-74.342
X75.217 Y-73.808
X74.844 Y-73.285
X74.455 Y-72.774
X74.049 Y-72.277
X73.623 Y-71.796
X73.177 Y-71.334
X72.716 Y-70.887
X72.24 Y-70.456
X71.75 Y-70.04
X71.247 Y-69.642
X70.725 Y-69.267
X70.188 Y-68.916
X69.637 Y-68.585
X69.076 Y-68.273
X68.503 Y-67.983
X67.918 Y-67.718
X67.32 Y-67.483
X66.714 Y-67.272
X66.099 Y-67.085
X65.478 Y-66.921
X64.851 Y-66.784
X64.217 Y-66.682
X63.579 Y-66.611
X62.938 Y-66.569
X62.296 Y-66.557
X62.159 Y-66.572
X62.027 Y-66.618
X61.928 Y-66.715
X61.88 Y-66.846
X61.844 Y-67.115
X61.839 Y-67.261
X61.838 Y-67.991
Y-69.806
G3 X62.411 Y-69.983 I0.317 J0.011
G1 X62.453 Y-69.926 Z-5.752
X62.492 Y-69.872 Z-5.729
X62.528 Y-69.823 Z-5.691
X62.558 Y-69.783 Z-5.64
X62.58 Y-69.752 Z-5.58
X62.594 Y-69.733 Z-5.513
X62.599 Y-69.727 Z-5.443
G0 Z5
X75.102 Y-92.47
Z-5.125
G1 Z-5.443 F200
X75.109 Y-92.474 Z-5.513
X75.129 Y-92.486 Z-5.58
X75.162 Y-92.505 Z-5.64
X75.205 Y-92.531 Z-5.691
X75.257 Y-92.562 Z-5.729
X75.314 Y-92.596 Z-5.752
X75.375 Y-92.632 Z-5.76
G3 X76.129 Y-92.853 I0.809 J1.36
G1 X79.046
X79.478 Y-92.832
X79.869 Y-92.722
X80.272 Y-92.504
X80.667 Y-92.158
X81.023 Y-91.668
X81.277 Y-91.078
X81.432 Y-90.455
X81.521 Y-89.819
X81.574 Y-89.179
X81.606 Y-88.538
X81.624 Y-87.896
X81.633 Y-87.254
Y-86.612
X81.626 Y-85.969
X81.612 Y-85.327
X81.588 Y-84.686
X81.554 Y-84.044
X81.504 Y-83.404
X81.438 Y-82.765
X81.358 Y-82.128
X81.264 Y-81.493
X81.156 Y-80.86
X81.033 Y-80.23
X80.896 Y-79.602
X80.743 Y-78.979
X80.572 Y-78.359
X80.381 Y-77.746
X80.171 Y-77.14
X79.944 Y-76.539
X79.702 Y-75.944
X79.444 Y-75.356
X79.17 Y-74.775
X78.88 Y-74.202
X78.571 Y-73.639
X78.242 Y-73.088
X77.896 Y-72.547
X77.535 Y-72.015
X77.16 Y-71.494
X76.77 Y-70.984
X76.366 Y-70.485
X75.946 Y-69.999
X75.508 Y-69.53
X75.055 Y-69.074
X74.589 Y-68.633
X74.11 Y-68.204
X73.62 Y-67.789
X73.118 Y-67.389
X72.602 Y-67.007
X72.07 Y-66.646
X71.527 Y-66.304
X70.974 Y-65.978
X70.41 Y-65.67
X69.838 Y-65.379
X69.255 Y-65.108
X68.662 Y-64.863
X68.06 Y-64.639
X67.777 Y-64.545
X67.744 Y-64.536
X67.71 Y-64.531
X67.676 Y-64.529
X64.605
X64.459 Y-64.54
X64.167 Y-64.572
X64.021 Y-64.588
X63.876 Y-64.608
X63.73 Y-64.629
X63.709 Y-64.635
X63.584 Y-64.684
X63.146 Y-64.866
X63.098 Y-64.892
X63.05 Y-64.927
X62.616 Y-65.26
X62.587 Y-65.288
X62.563 Y-65.315
X62.271 Y-65.695
X62.192 Y-65.802
X62.125 Y-65.956
X61.979 Y-66.308
X61.948 Y-66.386
X61.937 Y-66.422
X61.931 Y-66.459
X61.88 Y-66.846
G0 Z5
X78.02 Y-92.47
Z-5.125
G1 Z-5.443 F200
X78.027 Y-92.474 Z-5.513
X78.047 Y-92.486 Z-5.58
X78.079 Y-92.505 Z-5.64
X78.122 Y-92.531 Z-5.691
X78.174 Y-92.562 Z-5.729
X78.232 Y-92.596 Z-5.752
X78.293 Y-92.632 Z-5.76
G3 X79.046 Y-92.853 I0.809 J1.36
G1 X81.964
X82.407 Y-92.831
X82.798 Y-92.722
X83.201 Y-92.503
X83.596 Y-92.158
X83.952 Y-91.668
X84.206 Y-91.077
X84.362 Y-90.454
X84.451 Y-89.819
X84.503 Y-89.178
X84.536 Y-88.537
X84.554 Y-87.895
X84.563 Y-87.253
X84.564 Y-86.611
X84.557 Y-85.969
X84.544 Y-85.327
X84.522 Y-84.685
X84.49 Y-84.044
X84.444 Y-83.403
X84.385 Y-82.764
X84.312 Y-82.125
X84.226 Y-81.489
X84.127 Y-80.854
X84.016 Y-80.222
X83.891 Y-79.592
X83.754 Y-78.965
X83.602 Y-78.341
X83.436 Y-77.72
X83.251 Y-77.105
X83.049 Y-76.496
X82.831 Y-75.892
X82.6 Y-75.293
X82.354 Y-74.699
X82.095 Y-74.112
X81.821 Y-73.531
X81.533 Y-72.957
X81.229 Y-72.391
X80.907 Y-71.836
X80.57 Y-71.289
X80.218 Y-70.752
X79.854 Y-70.223
X79.476 Y-69.703
X79.087 Y-69.193
X78.684 Y-68.693
X78.268 Y-68.204
X77.835 Y-67.729
X77.389 Y-67.267
X76.931 Y-66.817
X76.462 Y-66.379
X75.982 Y-65.952
X75.491 Y-65.538
X74.99 Y-65.136
X74.477 Y-64.749
X74.244 Y-64.586
X74.187 Y-64.555
X74.126 Y-64.535
X74.062 Y-64.529
X67.676
G3 X67.499 Y-65.102 I0.011 J-0.317
G1 X67.556 Y-65.144 Z-5.752
X67.61 Y-65.183 Z-5.729
X67.659 Y-65.219 Z-5.691
X67.699 Y-65.249 Z-5.64
X67.73 Y-65.271 Z-5.58
X67.749 Y-65.285 Z-5.513
X67.755 Y-65.29 Z-5.443
G0 Z5
X80.937 Y-92.47
Z-5.125
G1 Z-5.443 F200
X80.944 Y-92.474 Z-5.513
X80.964 Y-92.486 Z-5.58
X80.997 Y-92.505 Z-5.64
X81.04 Y-92.531 Z-5.691
X81.092 Y-92.562 Z-5.729
X81.149 Y-92.596 Z-5.752
X81.21 Y-92.632 Z-5.76
G3 X81.964 Y-92.853 I0.809 J1.36
G1 X85.027
X85.335 Y-92.838
X85.725 Y-92.729
X86.129 Y-92.51
X86.525 Y-92.164
X86.881 Y-91.673
X87.134 Y-91.083
X87.29 Y-90.46
X87.38 Y-89.824
X87.433 Y-89.184
X87.465 Y-88.543
X87.484 Y-87.901
X87.494 Y-87.259
X87.495 Y-86.617
X87.489 Y-85.975
X87.476 Y-85.333
X87.455 Y-84.691
X87.425 Y-84.049
X87.384 Y-83.408
X87.329 Y-82.769
X87.263 Y-82.13
X87.184 Y-81.493
X87.093 Y-80.857
X86.991 Y-80.223
X86.877 Y-79.591
X86.752 Y-78.961
X86.614 Y-78.334
X86.464 Y-77.709
X86.301 Y-77.088
X86.121 Y-76.472
X85.926 Y-75.86
X85.716 Y-75.253
X85.493 Y-74.651
X85.257 Y-74.053
X85.009 Y-73.461
X84.749 Y-72.874
X84.475 Y-72.293
X84.189 Y-71.718
X83.89 Y-71.15
X83.574 Y-70.591
X83.243 Y-70.041
X82.899 Y-69.498
X82.544 Y-68.963
X82.176 Y-68.437
X81.798 Y-67.918
X81.408 Y-67.408
X81.006 Y-66.906
X80.593 Y-66.415
X80.166 Y-65.935
X79.726 Y-65.468
X79.274 Y-65.011
X78.867 Y-64.618
X78.802 Y-64.569
X78.727 Y-64.539
X78.646 Y-64.529
X74.062
G3 X73.885 Y-65.102 I0.011 J-0.317
G1 X73.942 Y-65.144 Z-5.752
X73.996 Y-65.183 Z-5.729
X74.044 Y-65.219 Z-5.691
X74.085 Y-65.249 Z-5.64
X74.116 Y-65.271 Z-5.58
X74.134 Y-65.285 Z-5.513
X74.141 Y-65.29 Z-5.443
G0 Z5
X84 Y-92.47
Z-5.125
G1 Z-5.443 F200
X84.007 Y-92.474 Z-5.513
X84.027 Y-92.486 Z-5.58
X84.06 Y-92.505 Z-5.64
X84.103 Y-92.531 Z-5.691
X84.155 Y-92.562 Z-5.729
X84.213 Y-92.596 Z-5.752
X84.273 Y-92.632 Z-5.76
G3 X85.027 Y-92.853 I0.809 J1.36
G1 X87.944
X88.265 Y-92.837
X88.655 Y-92.728
X89.059 Y-92.51
X89.454 Y-92.163
X89.811 Y-91.673
X90.064 Y-91.083
X90.22 Y-90.46
X90.309 Y-89.824
X90.362 Y-89.184
X90.395 Y-88.543
X90.414 Y-87.901
X90.424 Y-87.259
X90.426 Y-86.617
X90.42 Y-85.975
X90.408 Y-85.332
X90.388 Y-84.691
X90.36 Y-84.049
X90.322 Y-83.408
X90.272 Y-82.768
X90.21 Y-82.129
X90.137 Y-81.49
X90.053 Y-80.854
X89.959 Y-80.219
X89.854 Y-79.585
X89.738 Y-78.953
X89.611 Y-78.324
X89.473 Y-77.697
X89.324 Y-77.072
X89.163 Y-76.45
X88.988 Y-75.832
X88.798 Y-75.219
X88.595 Y-74.61
X88.379 Y-74.005
X88.151 Y-73.405
X87.912 Y-72.808
X87.662 Y-72.217
X87.4 Y-71.631
X87.127 Y-71.049
X86.843 Y-70.474
X86.546 Y-69.904
X86.235 Y-69.342
X85.91 Y-68.789
X85.573 Y-68.242
X85.224 Y-67.703
X84.865 Y-67.17
X84.495 Y-66.645
X84.116 Y-66.127
X83.725 Y-65.617
X83.325 Y-65.115
X82.932 Y-64.643
X82.863 Y-64.581
X82.78 Y-64.542
X82.688 Y-64.529
X78.646
G3 X78.47 Y-65.102 I0.011 J-0.317
G1 X78.527 Y-65.144 Z-5.752
X78.581 Y-65.183 Z-5.729
X78.629 Y-65.219 Z-5.691
X78.67 Y-65.249 Z-5.64
X78.7 Y-65.271 Z-5.58
X78.719 Y-65.285 Z-5.513
X78.726 Y-65.29 Z-5.443
G0 Z5
X86.918 Y-92.47
Z-5.125
G1 Z-5.443 F200
X86.925 Y-92.474 Z-5.513
X86.945 Y-92.486 Z-5.58
X86.977 Y-92.505 Z-5.64
X87.021 Y-92.531 Z-5.691
X87.072 Y-92.562 Z-5.729
X87.13 Y-92.596 Z-5.752
X87.191 Y-92.632 Z-5.76
G3 X87.944 Y-92.853 I0.809 J1.36
G1 X90.862
X91.194 Y-92.837
X91.585 Y-92.727
X91.988 Y-92.509
X92.384 Y-92.163
X92.74 Y-91.673
X92.993 Y-91.082
X93.149 Y-90.46
X93.239 Y-89.824
X93.292 Y-89.184
X93.325 Y-88.542
X93.345 Y-87.9
X93.354 Y-87.258
X93.356 Y-86.616
X93.351 Y-85.974
X93.34 Y-85.332
X93.321 Y-84.69
X93.294 Y-84.048
X93.259 Y-83.407
X93.212 Y-82.767
X93.155 Y-82.127
X93.087 Y-81.488
X93.009 Y-80.851
X92.922 Y-80.215
X92.824 Y-79.58
X92.716 Y-78.947
X92.598 Y-78.316
X92.471 Y-77.686
X92.333 Y-77.059
X92.184 Y-76.434
X92.025 Y-75.812
X91.854 Y-75.193
X91.669 Y-74.578
X91.471 Y-73.967
X91.261 Y-73.36
X91.04 Y-72.757
X90.809 Y-72.158
X90.567 Y-71.563
X90.315 Y-70.973
X90.052 Y-70.387
X89.78 Y-69.805
X89.496 Y-69.229
X89.202 Y-68.658
X88.895 Y-68.094
X88.575 Y-67.538
X88.243 Y-66.988
X87.901 Y-66.444
X87.548 Y-65.908
X87.186 Y-65.377
X86.815 Y-64.853
X86.67 Y-64.658
X86.6 Y-64.589
X86.512 Y-64.544
X86.415 Y-64.529
X82.688
G3 X82.511 Y-65.102 I0.011 J-0.317
G1 X82.568 Y-65.144 Z-5.752
X82.622 Y-65.183 Z-5.729
X82.671 Y-65.219 Z-5.691
X82.712 Y-65.249 Z-5.64
X82.742 Y-65.271 Z-5.58
X82.761 Y-65.285 Z-5.513
X82.767 Y-65.29 Z-5.443
G0 Z5
X89.835 Y-92.47
Z-5.125
G1 Z-5.443 F200
X89.842 Y-92.474 Z-5.513
X89.862 Y-92.486 Z-5.58
X89.895 Y-92.505 Z-5.64
X89.938 Y-92.531 Z-5.691
X89.99 Y-92.562 Z-5.729
X90.047 Y-92.596 Z-5.752
X90.108 Y-92.632 Z-5.76
G3 X90.862 Y-92.853 I0.809 J1.36
G1 X93.779
X94.124 Y-92.836
X94.515 Y-92.727
X94.918 Y-92.508
X95.313 Y-92.162
X95.67 Y-91.672
X95.923 Y-91.082
X96.079 Y-90.459
X96.169 Y-89.823
X96.222 Y-89.183
X96.255 Y-88.542
X96.275 Y-87.9
X96.285 Y-87.258
X96.287 Y-86.615
X96.283 Y-85.973
X96.271 Y-85.331
X96.254 Y-84.689
X96.228 Y-84.048
X96.195 Y-83.406
X96.152 Y-82.766
X96.099 Y-82.126
X96.035 Y-81.487
X95.962 Y-80.848
X95.88 Y-80.212
X95.789 Y-79.576
X95.688 Y-78.942
X95.578 Y-78.309
X95.459 Y-77.678
X95.33 Y-77.049
X95.192 Y-76.422
X95.045 Y-75.797
X94.887 Y-75.174
X94.718 Y-74.554
X94.538 Y-73.938
X94.344 Y-73.326
X94.14 Y-72.717
X93.925 Y-72.112
X93.7 Y-71.51
X93.466 Y-70.912
X93.222 Y-70.318
X92.968 Y-69.729
X92.705 Y-69.143
X92.432 Y-68.561
X92.15 Y-67.985
X91.857 Y-67.413
X91.554 Y-66.847
X91.238 Y-66.288
X90.911 Y-65.735
X90.574 Y-65.189
X90.245 Y-64.675
X90.174 Y-64.597
X90.081 Y-64.546
X89.977 Y-64.529
X86.415
G3 X86.238 Y-65.102 I0.011 J-0.317
G1 X86.295 Y-65.144 Z-5.752
X86.349 Y-65.183 Z-5.729
X86.398 Y-65.219 Z-5.691
X86.438 Y-65.249 Z-5.64
X86.469 Y-65.271 Z-5.58
X86.488 Y-65.285 Z-5.513
X86.494 Y-65.29 Z-5.443
G0 Z5
X92.753 Y-92.47
Z-5.125
G1 Z-5.443 F200
X92.76 Y-92.474 Z-5.513
X92.78 Y-92.486 Z-5.58
X92.812 Y-92.505 Z-5.64
X92.855 Y-92.531 Z-5.691
X92.907 Y-92.562 Z-5.729
X92.965 Y-92.596 Z-5.752
X93.026 Y-92.632 Z-5.76
G3 X93.779 Y-92.853 I0.809 J1.36
G1 X96.697
X97.054 Y-92.836
X97.444 Y-92.726
X97.848 Y-92.508
X98.243 Y-92.162
X98.6 Y-91.671
X98.853 Y-91.081
X99.009 Y-90.458
X99.098 Y-89.822
X99.152 Y-89.182
X99.185 Y-88.541
X99.205 Y-87.899
X99.215 Y-87.257
X99.218 Y-86.615
X99.214 Y-85.973
X99.203 Y-85.331
X99.186 Y-84.689
X99.162 Y-84.047
X99.131 Y-83.405
X99.091 Y-82.765
X99.041 Y-82.124
X98.981 Y-81.485
X98.913 Y-80.846
X98.836 Y-80.209
X98.75 Y-79.572
X98.655 Y-78.937
X98.552 Y-78.303
X98.44 Y-77.671
X98.32 Y-77.04
X98.19 Y-76.411
X98.052 Y-75.784
X97.905 Y-75.159
X97.749 Y-74.536
X97.583 Y-73.916
X97.405 Y-73.299
X97.216 Y-72.685
X97.017 Y-72.074
X96.807 Y-71.467
X96.588 Y-70.864
X96.36 Y-70.263
X96.123 Y-69.667
X95.876 Y-69.074
X95.621 Y-68.484
X95.358 Y-67.899
X95.085 Y-67.317
X94.803 Y-66.74
X94.512 Y-66.168
X94.211 Y-65.6
X93.899 Y-65.039
X93.694 Y-64.687
X93.624 Y-64.603
X93.528 Y-64.548
X93.42 Y-64.529
X89.977
G3 X89.801 Y-65.102 I0.011 J-0.317
G1 X89.857 Y-65.144 Z-5.752
X89.912 Y-65.183 Z-5.729
X89.96 Y-65.219 Z-5.691
X90.001 Y-65.249 Z-5.64
X90.031 Y-65.271 Z-5.58
X90.05 Y-65.285 Z-5.513
X90.056 Y-65.29 Z-5.443
G0 Z5
X95.67 Y-92.47
Z-5.125
G1 Z-5.443 F200
X95.677 Y-92.474 Z-5.513
X95.697 Y-92.486 Z-5.58
X95.73 Y-92.505 Z-5.64
X95.773 Y-92.531 Z-5.691
X95.825 Y-92.562 Z-5.729
X95.882 Y-92.596 Z-5.752
X95.943 Y-92.632 Z-5.76
G3 X96.697 Y-92.853 I0.809 J1.36
G1 X99.614
X99.983 Y-92.835
X100.374 Y-92.725
X100.778 Y-92.507
X101.173 Y-92.161
X101.529 Y-91.671
X101.783 Y-91.08
X101.939 Y-90.457
X102.028 Y-89.822
X102.082 Y-89.182
X102.115 Y-88.54
X102.135 Y-87.898
X102.146 Y-87.256
X102.149 Y-86.614
X102.145 Y-85.972
X102.135 Y-85.33
X102.119 Y-84.688
X102.096 Y-84.046
X102.066 Y-83.405
X102.029 Y-82.764
X101.982 Y-82.123
X101.926 Y-81.483
X101.861 Y-80.844
X101.789 Y-80.206
X101.708 Y-79.569
X101.618 Y-78.933
X101.521 Y-78.299
X101.416 Y-77.665
X101.302 Y-77.033
X101.18 Y-76.402
X101.051 Y-75.774
X100.912 Y-75.146
X100.766 Y-74.521
X100.611 Y-73.898
X100.446 Y-73.277
X100.272 Y-72.659
X100.087 Y-72.044
X99.891 Y-71.433
X99.686 Y-70.824
X99.472 Y-70.218
X99.25 Y-69.616
X99.018 Y-69.017
X98.779 Y-68.421
X98.531 Y-67.829
X98.275 Y-67.24
X98.01 Y-66.655
X97.738 Y-66.073
X97.457 Y-65.496
X97.167 Y-64.923
X97.049 Y-64.699
X96.979 Y-64.609
X96.881 Y-64.549
X96.768 Y-64.529
X93.42
G3 X93.243 Y-65.102 I0.011 J-0.317
G1 X93.3 Y-65.144 Z-5.752
X93.354 Y-65.183 Z-5.729
X93.403 Y-65.219 Z-5.691
X93.443 Y-65.249 Z-5.64
X93.474 Y-65.271 Z-5.58
X93.493 Y-65.285 Z-5.513
X93.499 Y-65.29 Z-5.443
G0 Z5
X98.588 Y-92.47
Z-5.125
G1 Z-5.443 F200
X98.594 Y-92.474 Z-5.513
X98.615 Y-92.486 Z-5.58
X98.647 Y-92.505 Z-5.64
X98.69 Y-92.531 Z-5.691
X98.742 Y-92.562 Z-5.729
X98.8 Y-92.596 Z-5.752
X98.86 Y-92.632 Z-5.76
G3 X99.614 Y-92.853 I0.809 J1.36
G1 X102.531
X102.913 Y-92.834
X103.304 Y-92.725
X103.707 Y-92.507
X104.103 Y-92.16
X104.459 Y-91.67
X104.712 Y-91.08
X104.869 Y-90.457
X104.958 Y-89.821
X105.012 Y-89.181
X105.045 Y-88.54
X105.066 Y-87.898
X105.077 Y-87.256
X105.08 Y-86.614
X105.076 Y-85.971
X105.067 Y-85.329
X105.052 Y-84.687
X105.03 Y-84.045
X105.001 Y-83.404
X104.966 Y-82.763
X104.922 Y-82.122
X104.869 Y-81.482
X104.808 Y-80.843
X104.739 Y-80.204
X104.663 Y-79.567
X104.578 Y-78.93
X104.486 Y-78.294
X104.386 Y-77.66
X104.279 Y-77.027
X104.164 Y-76.395
X104.041 Y-75.765
X103.911 Y-75.136
X103.773 Y-74.509
X103.627 Y-73.883
X103.472 Y-73.26
X103.31 Y-72.639
X103.138 Y-72.02
X102.956 Y-71.404
X102.764 Y-70.791
X102.563 Y-70.181
X102.354 Y-69.574
X102.136 Y-68.97
X101.91 Y-68.369
X101.677 Y-67.771
X101.435 Y-67.176
X101.186 Y-66.584
X100.928 Y-65.996
X100.664 Y-65.411
X100.391 Y-64.829
X100.332 Y-64.708
X100.262 Y-64.613
X100.162 Y-64.551
X100.046 Y-64.529
X96.768
G3 X96.592 Y-65.102 I0.011 J-0.317
G1 X96.649 Y-65.144 Z-5.752
X96.703 Y-65.183 Z-5.729
X96.751 Y-65.219 Z-5.691
X96.792 Y-65.249 Z-5.64
X96.822 Y-65.271 Z-5.58
X96.841 Y-65.285 Z-5.513
X96.848 Y-65.29 Z-5.443
G0 Z5
X101.505 Y-92.47
Z-5.125
G1 Z-5.443 F200
X101.512 Y-92.474 Z-5.513
X101.532 Y-92.486 Z-5.58
X101.564 Y-92.505 Z-5.64
X101.608 Y-92.531 Z-5.691
X101.659 Y-92.562 Z-5.729
X101.717 Y-92.596 Z-5.752
X101.778 Y-92.632 Z-5.76
G3 X102.531 Y-92.853 I0.809 J1.36
G1 X105.449
X105.843 Y-92.834
X106.234 Y-92.724
X106.637 Y-92.506
X107.032 Y-92.16
X107.389 Y-91.669
X107.642 Y-91.079
X107.798 Y-90.456
X107.888 Y-89.82
X107.942 Y-89.18
X107.976 Y-88.539
X107.996 Y-87.897
X108.007 Y-87.255
X108.011 Y-86.613
X108.008 Y-85.971
X107.999 Y-85.329
X107.984 Y-84.687
X107.963 Y-84.045
X107.936 Y-83.403
X107.902 Y-82.762
X107.861 Y-82.121
X107.811 Y-81.481
X107.753 Y-80.841
X107.688 Y-80.202
X107.615 Y-79.564
X107.535 Y-78.927
X107.448 Y-78.291
X107.353 Y-77.656
X107.251 Y-77.022
X107.142 Y-76.389
X107.026 Y-75.757
X106.902 Y-75.127
X106.771 Y-74.498
X106.633 Y-73.871
X106.487 Y-73.246
X106.334 Y-72.622
X106.173 Y-72.001
X106.003 Y-71.381
X105.824 Y-70.764
X105.636 Y-70.15
X105.439 Y-69.539
X105.233 Y-68.931
X105.02 Y-68.325
X104.799 Y-67.722
X104.57 Y-67.122
X104.334 Y-66.525
X104.091 Y-65.931
X103.84 Y-65.339
X103.566 Y-64.715
X103.496 Y-64.617
X103.395 Y-64.552
X103.277 Y-64.529
X100.046
G3 X99.87 Y-65.102 I0.011 J-0.317
G1 X99.927 Y-65.144 Z-5.752
X99.981 Y-65.183 Z-5.729
X100.029 Y-65.219 Z-5.691
X100.07 Y-65.249 Z-5.64
X100.1 Y-65.271 Z-5.58
X100.119 Y-65.285 Z-5.513
X100.126 Y-65.29 Z-5.443
G0 Z5
X104.422 Y-92.47
Z-5.125
G1 Z-5.443 F200
X104.429 Y-92.474 Z-5.513
X104.449 Y-92.486 Z-5.58
X104.482 Y-92.505 Z-5.64
X104.525 Y-92.531 Z-5.691
X104.577 Y-92.562 Z-5.729
X104.635 Y-92.596 Z-5.752
X104.695 Y-92.632 Z-5.76
G3 X105.449 Y-92.853 I0.809 J1.36
G1 X108.366
X108.773 Y-92.833
X109.164 Y-92.724
X109.567 Y-92.505
X109.962 Y-92.159
X110.319 Y-91.668
X110.572 Y-91.078
X110.728 Y-90.455
X110.818 Y-89.82
X110.872 Y-89.18
X110.906 Y-88.538
X110.927 Y-87.896
X110.938 Y-87.254
X110.942 Y-86.612
X110.939 Y-85.97
X110.931 Y-85.328
X110.917 Y-84.686
X110.897 Y-84.044
X110.871 Y-83.402
X110.839 Y-82.761
X110.799 Y-82.12
X110.752 Y-81.48
X110.697 Y-80.84
X110.635 Y-80.201
X110.566 Y-79.562
X110.49 Y-78.924
X110.407 Y-78.288
X110.317 Y-77.652
X110.22 Y-77.017
X110.116 Y-76.383
X110.005 Y-75.751
X109.888 Y-75.119
X109.763 Y-74.489
X109.632 Y-73.861
X109.494 Y-73.234
X109.348 Y-72.608
X109.196 Y-71.984
X109.036 Y-71.362
X108.868 Y-70.742
X108.692 Y-70.125
X108.507 Y-69.51
X108.313 Y-68.898
X108.111 Y-68.288
X107.901 Y-67.681
X107.685 Y-67.077
X107.461 Y-66.475
X107.23 Y-65.876
X106.992 Y-65.279
X106.763 Y-64.725
X106.694 Y-64.622
X106.591 Y-64.553
X106.469 Y-64.529
X103.277
G3 X103.1 Y-65.102 I0.011 J-0.317
G1 X103.157 Y-65.144 Z-5.752
X103.211 Y-65.183 Z-5.729
X103.259 Y-65.219 Z-5.691
X103.3 Y-65.249 Z-5.64
X103.33 Y-65.271 Z-5.58
X103.349 Y-65.285 Z-5.513
X103.356 Y-65.29 Z-5.443
G0 Z5
X107.34 Y-92.47
Z-5.125
G1 Z-5.443 F200
X107.347 Y-92.474 Z-5.513
X107.367 Y-92.486 Z-5.58
X107.399 Y-92.505 Z-5.64
X107.443 Y-92.531 Z-5.691
X107.494 Y-92.562 Z-5.729
X107.552 Y-92.596 Z-5.752
X107.613 Y-92.632 Z-5.76
G3 X108.366 Y-92.853 I0.809 J1.36
G1 X111.284
X111.703 Y-92.832
X112.094 Y-92.723
X112.497 Y-92.505
X112.892 Y-92.159
X113.249 Y-91.668
X113.502 Y-91.078
X113.658 Y-90.455
X113.748 Y-89.819
X113.802 Y-89.179
X113.836 Y-88.538
X113.857 Y-87.896
X113.869 Y-87.254
X113.873 Y-86.612
X113.871 Y-85.969
X113.863 Y-85.327
X113.849 Y-84.685
X113.83 Y-84.043
X113.805 Y-83.402
X113.774 Y-82.76
X113.737 Y-82.119
X113.692 Y-81.478
X113.64 Y-80.838
X113.581 Y-80.199
X113.515 Y-79.56
X113.442 Y-78.922
X113.363 Y-78.285
X113.277 Y-77.648
X113.185 Y-77.013
X113.086 Y-76.378
X112.98 Y-75.745
X112.868 Y-75.113
X112.75 Y-74.481
X112.625 Y-73.852
X112.493 Y-73.223
X112.354 Y-72.596
X112.209 Y-71.97
X112.057 Y-71.346
X111.899 Y-70.724
X111.732 Y-70.104
X111.559 Y-69.486
X111.376 Y-68.87
X111.185 Y-68.257
X110.987 Y-67.646
X110.781 Y-67.038
X110.568 Y-66.432
X110.348 Y-65.828
X110.122 Y-65.228
X109.928 Y-64.731
X109.86 Y-64.625
X109.756 Y-64.554
X109.632 Y-64.529
X106.469
G3 X106.293 Y-65.102 I0.011 J-0.317
G1 X106.35 Y-65.144 Z-5.752
X106.404 Y-65.183 Z-5.729
X106.452 Y-65.219 Z-5.691
X106.493 Y-65.249 Z-5.64
X106.523 Y-65.271 Z-5.58
X106.542 Y-65.285 Z-5.513
X106.549 Y-65.29 Z-5.443
G0 Z5
X110.257 Y-92.47
Z-5.125
G1 Z-5.443 F200
X110.264 Y-92.474 Z-5.513
X110.284 Y-92.486 Z-5.58
X110.317 Y-92.505 Z-5.64
X110.36 Y-92.531 Z-5.691
X110.412 Y-92.562 Z-5.729
X110.469 Y-92.596 Z-5.752
X110.53 Y-92.632 Z-5.76
G3 X111.284 Y-92.853 I0.809 J1.36
G1 X114.201
X114.633 Y-92.832
X115.024 Y-92.722
X115.427 Y-92.504
X115.822 Y-92.158
X116.179 Y-91.667
X116.432 Y-91.077
X116.588 Y-90.454
X116.678 Y-89.818
X116.733 Y-89.178
X116.767 Y-88.537
X116.788 Y-87.895
X116.799 Y-87.253
X116.804 Y-86.611
X116.802 Y-85.969
X116.794 Y-85.327
X116.781 Y-84.685
X116.763 Y-84.043
X116.739 Y-83.401
X116.71 Y-82.759
X116.674 Y-82.118
X116.632 Y-81.477
X116.582 Y-80.837
X116.526 Y-80.197
X116.463 Y-79.558
X116.393 Y-78.92
X116.317 Y-78.282
X116.235 Y-77.645
X116.147 Y-77.009
X116.052 Y-76.374
X115.951 Y-75.74
X115.844 Y-75.107
X115.731 Y-74.475
X115.612 Y-73.844
X115.486 Y-73.214
X115.354 Y-72.585
X115.215 Y-71.958
X115.071 Y-71.333
X114.919 Y-70.709
X114.761 Y-70.086
X114.597 Y-69.465
X114.425 Y-68.847
X114.245 Y-68.23
X114.057 Y-67.616
X113.861 Y-67.004
X113.659 Y-66.395
X113.449 Y-65.788
X113.233 Y-65.183
X113.068 Y-64.736
X113.001 Y-64.628
X112.896 Y-64.554
X112.771 Y-64.529
X109.632
G3 X109.456 Y-65.102 I0.011 J-0.317
G1 X109.513 Y-65.144 Z-5.752
X109.567 Y-65.183 Z-5.729
X109.615 Y-65.219 Z-5.691
X109.656 Y-65.249 Z-5.64
X109.686 Y-65.271 Z-5.58
X109.705 Y-65.285 Z-5.513
X109.712 Y-65.29 Z-5.443
G0 Z5
X113.175 Y-92.47
Z-5.125
G1 Z-5.443 F200
X113.181 Y-92.474 Z-5.513
X113.202 Y-92.486 Z-5.58
X113.234 Y-92.505 Z-5.64
X113.277 Y-92.531 Z-5.691
X113.329 Y-92.562 Z-5.729
X113.387 Y-92.596 Z-5.752
X113.448 Y-92.632 Z-5.76
G3 X114.201 Y-92.853 I0.809 J1.36
G1 X117.118
X117.563 Y-92.831
X117.954 Y-92.722
X118.357 Y-92.503
X118.752 Y-92.157
X119.109 Y-91.666
X119.362 Y-91.076
X119.519 Y-90.453
X119.609 Y-89.818
X119.663 Y-89.178
X119.697 Y-88.536
X119.718 Y-87.895
X119.73 Y-87.252
X119.735 Y-86.61
X119.733 Y-85.968
X119.726 Y-85.326
X119.714 Y-84.684
X119.696 Y-84.042
X119.673 Y-83.4
X119.645 Y-82.759
X119.611 Y-82.117
X119.571 Y-81.476
X119.523 Y-80.836
X119.469 Y-80.196
X119.409 Y-79.557
X119.343 Y-78.918
X119.27 Y-78.28
X119.191 Y-77.643
X119.107 Y-77.006
X119.016 Y-76.37
X118.919 Y-75.735
X118.817 Y-75.101
X118.708 Y-74.468
X118.594 Y-73.837
X118.473 Y-73.206
X118.347 Y-72.576
X118.215 Y-71.948
X118.076 Y-71.321
X117.932 Y-70.695
X117.781 Y-70.071
X117.624 Y-69.448
X117.46 Y-68.827
X117.29 Y-68.208
X117.113 Y-67.591
X116.927 Y-66.976
X116.735 Y-66.363
X116.535 Y-65.753
X116.329 Y-65.144
X116.188 Y-64.741
X116.121 Y-64.63
X116.015 Y-64.555
X115.888 Y-64.529
X112.771
G3 X112.594 Y-65.102 I0.011 J-0.317
G1 X112.651 Y-65.144 Z-5.752
X112.705 Y-65.183 Z-5.729
X112.754 Y-65.219 Z-5.691
X112.794 Y-65.249 Z-5.64
X112.825 Y-65.271 Z-5.58
X112.843 Y-65.285 Z-5.513
X112.85 Y-65.29 Z-5.443
G0 Z5
X116.092 Y-92.47
Z-5.125
G1 Z-5.443 F200
X116.099 Y-92.474 Z-5.513
X116.119 Y-92.486 Z-5.58
X116.152 Y-92.505 Z-5.64
X116.195 Y-92.531 Z-5.691
X116.247 Y-92.562 Z-5.729
X116.304 Y-92.596 Z-5.752
X116.365 Y-92.632 Z-5.76
G3 X117.118 Y-92.853 I0.809 J1.36
G1 X120.182
X120.491 Y-92.838
X120.882 Y-92.728
X121.285 Y-92.51
X121.681 Y-92.163
X122.038 Y-91.672
X122.292 Y-91.082
X122.448 Y-90.459
X122.538 Y-89.823
X122.593 Y-89.184
X122.627 Y-88.542
X122.648 Y-87.9
X122.661 Y-87.258
X122.666 Y-86.616
X122.665 Y-85.974
X122.658 Y-85.332
X122.646 Y-84.69
X122.63 Y-84.048
X122.608 Y-83.406
X122.58 Y-82.764
X122.548 Y-82.123
X122.509 Y-81.482
X122.464 Y-80.841
X122.413 Y-80.201
X122.355 Y-79.562
X122.291 Y-78.923
X122.221 Y-78.284
X122.146 Y-77.647
X122.065 Y-77.01
X121.978 Y-76.373
X121.885 Y-75.738
X121.787 Y-75.103
X121.683 Y-74.47
X121.573 Y-73.837
X121.458 Y-73.205
X121.337 Y-72.574
X121.21 Y-71.945
X121.077 Y-71.317
X120.939 Y-70.689
X120.794 Y-70.064
X120.644 Y-69.439
X120.488 Y-68.816
X120.326 Y-68.195
X120.157 Y-67.575
X119.982 Y-66.958
X119.799 Y-66.342
X119.609 Y-65.729
X119.412 Y-65.117
X119.288 Y-64.746
X119.222 Y-64.633
X119.116 Y-64.556
X118.987 Y-64.529
X115.888
G3 X115.711 Y-65.102 I0.011 J-0.317
G1 X115.768 Y-65.144 Z-5.752
X115.822 Y-65.183 Z-5.729
X115.871 Y-65.219 Z-5.691
X115.911 Y-65.249 Z-5.64
X115.942 Y-65.271 Z-5.58
X115.961 Y-65.285 Z-5.513
X115.967 Y-65.29 Z-5.443
G0 Z5
X119.155 Y-92.47
Z-5.125
G1 Z-5.443 F200
X119.162 Y-92.474 Z-5.513
X119.182 Y-92.486 Z-5.58
X119.215 Y-92.505 Z-5.64
X119.258 Y-92.531 Z-5.691
X119.31 Y-92.562 Z-5.729
X119.367 Y-92.596 Z-5.752
X119.428 Y-92.632 Z-5.76
G3 X120.182 Y-92.853 I0.809 J1.36
