(1001)
(T38  D=3.175 CR=0 - ZMIN=-4.76 - flat end mill)
G90 G94
G17
G21
G28 G91 Z0
G90

(2D Adaptive2)
T38
S18000 M3
G54
G0 X-0.327 Y-233.693
Z15
Z5
Z-4.125
G1 Z-4.443 F250
X-0.325 Y-233.685 Z-4.513
X-0.32 Y-233.662 Z-4.58
X-0.31 Y-233.626 Z-4.64
X-0.298 Y-233.577 Z-4.691
X-0.283 Y-233.519 Z-4.729
X-0.266 Y-233.453 Z-4.752
X-0.249 Y-233.385 Z-4.76
G3 X0 Y-231.657 I-7.852 J2.011
G1 Y-231.576
X0.01 Y-231.537
X0.322 Y-230.976
X0.658 Y-230.655
X0.961 Y-230.196
X1.188 Y-229.595
X1.294 Y-228.962
X1.332 Y-228.321
X1.342 Y-227.679
X1.345 Y-227.036
X1.346 Y-223.826
Y-181.441
Y-131.351
Y-81.26
Y-31.17
Y-30.528
X1.361 Y-30.449
X1.388 Y-30.301
X1.41 Y-30.153
X1.428 Y-29.995
X1.445 Y-29.801
X1.462 Y-29.545
X1.477 Y-29.14
X1.485 Y-28.497
X1.484 Y-27.855
X1.485 Y-0.522
X1.495 Y-0.483
X1.514 Y-0.448
X1.542 Y-0.419
X1.576 Y-0.398
X1.614 Y-0.386
X1.654 Y-0.384
X1.694 Y-0.392
X2.27 Y-0.676
X2.378 Y-0.78
X2.493 Y-0.876
X2.614 Y-0.964
X2.742 Y-1.043
X2.874 Y-1.114
X3.01 Y-1.176
X3.15 Y-1.231
X3.292 Y-1.279
X3.437 Y-1.319
X3.583 Y-1.353
X3.73 Y-1.381
X3.878 Y-1.404
X4.029 Y-1.423
X4.21 Y-1.44
X4.443 Y-1.457
X4.787 Y-1.473
X5.429 Y-1.486
X6.071 Y-1.484
X20.842 Y-1.485
X21.484
X22.113 Y-1.359
X22.756 Y-1.349
X23.398 Y-1.346
X28.535
X70.919
X121.01
X171.1
X171.743
X171.821 Y-1.361
X171.969 Y-1.388
X172.117 Y-1.41
X172.276 Y-1.428
X172.469 Y-1.445
X172.726 Y-1.462
X173.131 Y-1.477
X173.773 Y-1.485
X174.415 Y-1.484
X199.46 Y-1.485
X199.499 Y-1.495
X199.534 Y-1.514
X199.563 Y-1.542
X199.584 Y-1.576
X199.596 Y-1.614
X199.598 Y-1.654
X199.59 Y-1.694
X199.307 Y-2.27
X199.204 Y-2.379
X199.109 Y-2.495
X199.023 Y-2.618
X198.945 Y-2.746
X198.875 Y-2.879
X198.814 Y-3.016
X198.761 Y-3.156
X198.714 Y-3.299
X198.675 Y-3.443
X198.642 Y-3.59
X198.615 Y-3.737
X198.593 Y-3.886
X198.574 Y-4.041
X198.557 Y-4.229
X198.54 Y-4.475
X198.524 Y-4.851
X198.514 Y-5.494
X198.516 Y-6.136
X198.515 Y-22.833
Y-23.475
X198.641 Y-24.104
X198.651 Y-24.747
X198.654 Y-25.389
Y-30.526
Y-72.91
Y-123.001
Y-173.091
Y-223.182
Y-223.824
X198.639 Y-223.903
X198.612 Y-224.05
X198.59 Y-224.199
X198.572 Y-224.357
X198.555 Y-224.55
X198.538 Y-224.807
X198.523 Y-225.212
X198.515 Y-225.854
X198.516 Y-226.496
X198.515 Y-229.467
X198.505 Y-229.505
X198.486 Y-229.541
X198.458 Y-229.57
X198.424 Y-229.591
X198.386 Y-229.603
X198.346 Y-229.605
X198.306 Y-229.597
X197.73 Y-229.313
X197.622 Y-229.21
X197.506 Y-229.114
X197.383 Y-229.028
X197.255 Y-228.949
X197.123 Y-228.879
X196.986 Y-228.818
X196.846 Y-228.764
X196.704 Y-228.717
X196.559 Y-228.677
X196.413 Y-228.644
X196.265 Y-228.616
X196.117 Y-228.594
X195.964 Y-228.575
X195.778 Y-228.558
X195.537 Y-228.541
X195.173 Y-228.525
X194.531 Y-228.514
X193.889 Y-228.516
X154.715 Y-228.515
X154.073
X153.443 Y-228.641
X152.801 Y-228.651
X152.159 Y-228.654
X147.022
X104.637
X54.547
X4.537
X4.456
X4.309 Y-228.625
X4.161 Y-228.601
X4.013 Y-228.581
X3.84 Y-228.563
X3.621 Y-228.546
X3.461 Y-228.538
X3.3 Y-228.533
X3.262 Y-228.521
X3.227 Y-228.501
X3.199 Y-228.472
X3.179 Y-228.437
X3.168 Y-228.399
X3.167 Y-228.359
X3.177 Y-228.32
X3.196 Y-228.284
X3.63 Y-227.811
X3.732 Y-227.701
X3.827 Y-227.585
X3.913 Y-227.462
X3.99 Y-227.334
X4.06 Y-227.201
X4.121 Y-227.064
X4.174 Y-226.923
X4.22 Y-226.781
X4.259 Y-226.636
X4.292 Y-226.489
X4.319 Y-226.342
X4.341 Y-226.194
X4.359 Y-226.038
X4.377 Y-225.848
X4.394 Y-225.6
X4.409 Y-225.217
X4.419 Y-224.574
X4.418 Y-223.932
Y-179.621
Y-178.979
X4.292 Y-178.35
X4.282 Y-177.707
X4.279 Y-177.065
Y-171.928
Y-129.544
Y-79.453
Y-31.289
X4.314 Y-30.648
X4.367 Y-30.008
X4.4 Y-29.367
X4.414 Y-28.725
X4.444 Y-28.578
X4.468 Y-28.43
X4.488 Y-28.281
X4.507 Y-28.111
X4.524 Y-27.899
X4.54 Y-27.604
X4.555 Y-27.078
X4.557 Y-26.436
Y-3.398
X4.567 Y-3.359
X4.586 Y-3.324
X4.614 Y-3.295
X4.648 Y-3.273
X4.686 Y-3.261
X4.726 Y-3.259
X4.766 Y-3.267
X4.802 Y-3.285
X5.288 Y-3.704
X5.393 Y-3.812
X5.505 Y-3.911
X5.625 Y-4.002
X5.75 Y-4.085
X5.88 Y-4.159
X6.015 Y-4.225
X6.153 Y-4.283
X6.295 Y-4.333
X6.438 Y-4.376
X6.584 Y-4.412
X6.731 Y-4.443
X6.879 Y-4.467
X7.027 Y-4.488
X7.195 Y-4.506
X7.404 Y-4.523
X7.694 Y-4.539
X8.2 Y-4.554
X8.842 Y-4.557
X21.044
X21.204 Y-4.555
X21.354 Y-4.551
X21.504 Y-4.542
X21.67 Y-4.527
X21.876 Y-4.504
X22.512 Y-4.414
X23.154 Y-4.42
X23.796 Y-4.418
X28.291
X28.934
X29.563 Y-4.292
X30.205 Y-4.282
X30.848 Y-4.279
X35.985
X78.369
X128.46
X170.844
X171.486 Y-4.296
X172.125 Y-4.356
X172.767 Y-4.394
X173.408 Y-4.411
X174.051 Y-4.416
X175.335 Y-4.418
X178.546
X179.188
X179.267 Y-4.433
X179.414 Y-4.46
X179.563 Y-4.482
X179.721 Y-4.5
X179.915 Y-4.518
X180.171 Y-4.534
X180.576 Y-4.55
X181.218 Y-4.558
X181.861 Y-4.556
X196.591 Y-4.557
X196.629 Y-4.567
X196.665 Y-4.586
X196.694 Y-4.614
X196.715 Y-4.648
X196.727 Y-4.686
X196.729 Y-4.726
X196.721 Y-4.766
X196.703 Y-4.802
X196.284 Y-5.288
X196.177 Y-5.394
X196.079 Y-5.507
X195.989 Y-5.627
X195.907 Y-5.753
X195.834 Y-5.884
X195.769 Y-6.019
X195.712 Y-6.157
X195.662 Y-6.299
X195.62 Y-6.443
X195.584 Y-6.589
X195.555 Y-6.736
X195.53 Y-6.884
X195.51 Y-7.032
X195.492 Y-7.203
X195.475 Y-7.419
X195.459 Y-7.721
X195.444 Y-8.272
X195.443 Y-8.915
Y-23.043
X195.445 Y-23.203
X195.449 Y-23.353
X195.459 Y-23.503
X195.474 Y-23.671
X195.498 Y-23.879
X195.588 Y-24.515
X195.58 Y-25.157
X195.582 Y-25.799
Y-36.074
Y-36.716
X195.708 Y-37.346
X195.718 Y-37.988
X195.721 Y-38.63
Y-43.768
Y-86.152
Y-136.242
Y-186.333
Y-186.975
X195.706 Y-187.054
X195.679 Y-187.201
X195.657 Y-187.35
X195.639 Y-187.508
X195.621 Y-187.701
X195.605 Y-187.958
X195.589 Y-188.363
X195.581 Y-189.005
X195.582 Y-189.647
Y-223.683
X195.552 Y-223.893
X195.523 Y-224.134
X195.495 Y-224.426
X195.473 Y-224.758
X195.452 Y-225.272
X195.442 Y-226.074
X195.443 Y-226.596
X195.433 Y-226.635
X195.413 Y-226.67
X195.386 Y-226.699
X195.352 Y-226.72
X195.313 Y-226.732
X195.273 Y-226.734
X195.234 Y-226.726
X195.198 Y-226.708
X194.711 Y-226.29
X194.606 Y-226.183
X194.493 Y-226.084
X194.374 Y-225.993
X194.248 Y-225.911
X194.118 Y-225.837
X193.983 Y-225.772
X193.844 Y-225.715
X193.703 Y-225.665
X193.559 Y-225.622
X193.413 Y-225.586
X193.266 Y-225.556
X193.118 Y-225.531
X192.97 Y-225.511
X192.8 Y-225.493
X192.588 Y-225.476
X192.292 Y-225.46
X191.764 Y-225.445
X191.121 Y-225.443
X185.984
X185.342
X184.712 Y-225.569
X184.07 Y-225.579
X183.428 Y-225.582
X178.29
X154.529
X153.888 Y-225.609
X153.252 Y-225.696
X152.61 Y-225.714
X151.967 Y-225.719
X150.683 Y-225.721
X135.913
X85.822
X35.732
X35.09
X35.011 Y-225.706
X34.863 Y-225.679
X34.715 Y-225.657
X34.557 Y-225.639
X34.363 Y-225.621
X34.107 Y-225.605
X33.702 Y-225.589
X33.059 Y-225.581
X32.417 Y-225.582
X6.328
X6.29 Y-225.572
X6.255 Y-225.553
X6.225 Y-225.525
X6.204 Y-225.491
X6.192 Y-225.453
X6.19 Y-225.413
X6.198 Y-225.373
X6.216 Y-225.337
X6.635 Y-224.851
X6.743 Y-224.746
X6.842 Y-224.634
X6.933 Y-224.515
X7.016 Y-224.39
X7.09 Y-224.259
X7.157 Y-224.125
X7.215 Y-223.986
X7.265 Y-223.845
X7.308 Y-223.702
X7.345 Y-223.556
X7.375 Y-223.409
X7.4 Y-223.261
X7.42 Y-223.113
X7.439 Y-222.946
X7.456 Y-222.737
X7.472 Y-222.45
X7.487 Y-221.951
X7.49 Y-221.309
Y-205.254
Y-204.612
X7.364 Y-203.982
X7.354 Y-203.34
X7.352 Y-202.698
X7.351 Y-197.561
Y-179.579
X7.339 Y-178.937
X7.256 Y-178.3
X7.223 Y-177.659
X7.215 Y-177.017
X7.213 Y-176.375
X7.212 Y-172.522
Y-155.183
Y-105.092
Y-55.002
Y-54.36
X7.228 Y-54.281
X7.254 Y-54.133
X7.276 Y-53.985
X7.294 Y-53.827
X7.312 Y-53.633
X7.328 Y-53.376
X7.344 Y-52.971
X7.352 Y-52.329
X7.351 Y-51.687
Y-31.779
X7.359 Y-31.137
X7.409 Y-30.497
X7.43 Y-30.177
X7.46 Y-29.66
X7.481 Y-29.019
X7.52 Y-28.736
X7.552 Y-28.449
X7.58 Y-28.123
X7.607 Y-27.671
X7.624 Y-27.181
X7.629 Y-26.539
Y-6.471
X7.639 Y-6.432
X7.658 Y-6.397
X7.686 Y-6.368
X7.72 Y-6.346
X7.758 Y-6.334
X7.798 Y-6.332
X7.838 Y-6.34
X7.874 Y-6.358
X8.36 Y-6.777
X8.465 Y-6.885
X8.577 Y-6.984
X8.697 Y-7.075
X8.822 Y-7.157
X8.952 Y-7.231
X9.574 Y-7.395
X10.212 Y-7.462
X10.854 Y-7.483
X11.496 Y-7.488
X12.138 Y-7.489
X20.487 Y-7.49
X21.129 Y-7.487
X21.77 Y-7.453
X22.409 Y-7.384
X23.051 Y-7.36
X23.693 Y-7.353
X24.335 Y-7.351
X28.188
X28.83 Y-7.349
X29.469 Y-7.279
X30.109 Y-7.227
X30.751 Y-7.216
X31.393 Y-7.213
X33.319 Y-7.212
X59.007
X109.097
X159.188
X159.83
X159.909 Y-7.228
X160.056 Y-7.254
X160.205 Y-7.276
X160.363 Y-7.294
X160.556 Y-7.312
X160.813 Y-7.328
X161.218 Y-7.344
X161.86 Y-7.352
X162.502 Y-7.351
X170.851
X171.492 Y-7.375
X171.812 Y-7.406
X172.279 Y-7.441
X172.86 Y-7.47
X173.502 Y-7.485
X174.144 Y-7.489
X176.713 Y-7.49
X178.64
X179.28 Y-7.535
X179.594 Y-7.566
X179.98 Y-7.594
X180.424 Y-7.615
X181.066 Y-7.629
X193.509
X193.548 Y-7.639
X193.583 Y-7.658
X193.612 Y-7.686
X193.633 Y-7.72
X193.645 Y-7.758
X193.647 Y-7.798
X193.639 Y-7.838
X193.621 Y-7.874
X193.202 Y-8.36
X193.096 Y-8.467
X192.998 Y-8.58
X192.909 Y-8.701
X192.828 Y-8.827
X192.756 Y-8.958
X192.691 Y-9.094
X192.635 Y-9.233
X192.586 Y-9.375
X192.544 Y-9.519
X192.509 Y-9.665
X192.48 Y-9.812
X192.456 Y-9.96
X192.437 Y-10.109
X192.419 Y-10.283
X192.402 Y-10.503
X192.386 Y-10.816
X192.371 Y-11.413
Y-22.972
X192.378 Y-23.27
X192.534 Y-23.893
X192.627 Y-24.528
X192.643 Y-25.17
X192.648 Y-25.813
X192.649 Y-27.097
Y-36.088
X192.658 Y-36.73
X192.739 Y-37.367
X192.776 Y-38.008
X192.785 Y-38.65
X192.787 Y-39.292
X192.788 Y-43.145
Y-73.328
Y-123.418
Y-173.509
Y-174.151
X192.772 Y-174.23
X192.746 Y-174.377
X192.724 Y-174.526
X192.706 Y-174.684
X192.688 Y-174.878
X192.672 Y-175.134
X192.656 Y-175.539
X192.648 Y-176.181
X192.649 Y-176.824
Y-186.456
X192.598 Y-187.096
X192.567 Y-187.435
X192.54 Y-187.843
X192.518 Y-188.384
X192.509 Y-189.026
X192.51 Y-189.668
Y-223.302
X192.5 Y-223.422
X192.487 Y-223.46
X192.464 Y-223.493
X192.434 Y-223.52
X192.398 Y-223.538
X192.359 Y-223.547
X192.319 Y-223.545
X192.281 Y-223.534
X191.731 Y-223.202
X191.625 Y-223.096
X191.511 Y-222.998
X191.39 Y-222.909
X191.264 Y-222.828
X191.133 Y-222.756
X190.997 Y-222.691
X190.858 Y-222.635
X190.716 Y-222.586
X190.572 Y-222.544
X190.426 Y-222.509
X190.279 Y-222.48
X190.131 Y-222.456
X189.983 Y-222.437
X189.809 Y-222.419
X189.588 Y-222.402
X189.275 Y-222.386
X188.678 Y-222.371
X185.789
X185.615 Y-222.372
X185.465 Y-222.377
X185.315 Y-222.387
X185.147 Y-222.402
X184.939 Y-222.426
X184.304 Y-222.516
X183.661 Y-222.508
X183.019 Y-222.51
X154.763
X154.442 Y-222.517
X154.104 Y-222.528
X153.886 Y-222.54
X153.579 Y-222.566
X152.941 Y-222.637
X152.298 Y-222.645
X151.656 Y-222.648
X149.088 Y-222.649
X142.666
X142.024
X141.394 Y-222.775
X140.752 Y-222.785
X140.109 Y-222.787
X134.972 Y-222.788
X92.588
X42.497
X41.855
X41.776 Y-222.772
X41.629 Y-222.746
X41.48 Y-222.724
X41.322 Y-222.706
X41.129 Y-222.688
X40.872 Y-222.672
X40.467 Y-222.656
X39.825 Y-222.648
X39.183 Y-222.649
X35.33
X35.052 Y-222.612
X34.753 Y-222.58
X34.385 Y-222.551
X34.01 Y-222.53
X33.368 Y-222.512
X32.726 Y-222.509
X32.084 Y-222.51
X9.406
X9.368 Y-222.5
X9.333 Y-222.481
X9.303 Y-222.453
X9.282 Y-222.419
X9.27 Y-222.381
X9.268 Y-222.341
X9.276 Y-222.301
X9.294 Y-222.265
X9.713 Y-221.779
X9.82 Y-221.674
X9.919 Y-221.561
X10.01 Y-221.442
X10.092 Y-221.316
X10.166 Y-221.186
X10.232 Y-221.051
X10.29 Y-220.912
X10.34 Y-220.771
X10.382 Y-220.627
X10.419 Y-220.482
X10.449 Y-220.335
X10.473 Y-220.187
X10.493 Y-220.038
X10.512 Y-219.869
X10.529 Y-219.658
X10.545 Y-219.365
X10.56 Y-218.845
X10.562 Y-218.202
Y-206.001
Y-205.359
X10.436 Y-204.729
X10.358 Y-204.092
X10.3 Y-203.452
X10.288 Y-202.81
X10.285 Y-202.168
X10.284 Y-200.241
Y-180.333
X10.283 Y-179.691
X10.274 Y-179.049
X10.218 Y-178.409
X10.17 Y-177.769
X10.153 Y-177.127
X10.147 Y-176.485
X10.146 Y-175.843
X10.145 Y-169.421
Y-155.935
Y-105.844
Y-55.754
Y-55.112
X10.183 Y-54.967
X10.218 Y-54.812
X10.251 Y-54.65
X10.283 Y-54.468
X10.314 Y-54.266
X10.341 Y-54.043
X10.368 Y-53.768
X10.391 Y-53.452
X10.412 Y-52.989
X10.424 Y-52.347
X10.423 Y-51.705
Y-31.797
X10.431 Y-31.155
X10.48 Y-30.604
X10.52 Y-29.963
X10.545 Y-29.321
X10.6 Y-28.835
X10.644 Y-28.326
X10.676 Y-27.787
X10.696 Y-27.208
X10.701 Y-26.566
Y-9.467
X10.711 Y-9.429
X10.73 Y-9.394
X10.758 Y-9.364
X10.792 Y-9.343
X10.83 Y-9.331
X10.87 Y-9.329
X10.91 Y-9.337
X10.946 Y-9.355
X11.432 Y-9.774
X11.542 Y-9.877
X11.658 Y-9.971
X11.781 Y-10.057
X11.91 Y-10.135
X12.043 Y-10.204
X12.18 Y-10.265
X12.32 Y-10.318
X12.463 Y-10.364
X12.608 Y-10.403
X12.754 Y-10.436
X12.901 Y-10.463
X13.05 Y-10.485
X13.206 Y-10.504
X13.395 Y-10.521
X13.644 Y-10.538
X14.029 Y-10.553
X14.671 Y-10.563
X15.3 Y-10.436
X15.942 Y-10.426
X16.584 Y-10.424
X20.438 Y-10.422
X21.08 Y-10.416
X21.721 Y-10.39
X22.361 Y-10.335
X23.002 Y-10.301
X23.645 Y-10.289
X24.287 Y-10.286
X25.571 Y-10.284
X28.14
X28.782 Y-10.278
X29.422 Y-10.228
X30.062 Y-10.174
X30.704 Y-10.154
X31.346 Y-10.148
X31.988 Y-10.146
X35.841 Y-10.145
X64.098
X114.188
X159.141
X159.782 Y-10.188
X160.422 Y-10.239
X161.064 Y-10.268
X161.706 Y-10.281
X162.348 Y-10.283
X164.274 Y-10.284
X164.917
X164.995 Y-10.3
X165.143 Y-10.326
X165.291 Y-10.348
X165.45 Y-10.366
X165.643 Y-10.384
X165.9 Y-10.4
X166.305 Y-10.416
X166.947 Y-10.424
X167.589 Y-10.423
X170.8
X171.441 Y-10.45
X171.857 Y-10.488
X172.431 Y-10.524
X173.072 Y-10.549
X173.715 Y-10.559
X174.357 Y-10.561
X178.21 Y-10.562
X178.852 Y-10.58
X179.369 Y-10.628
X179.89 Y-10.664
X180.526 Y-10.691
X181.168 Y-10.702
X182.452 Y-10.701
X190.44
X190.478 Y-10.711
X190.514 Y-10.73
X190.543 Y-10.758
X190.564 Y-10.792
X190.576 Y-10.83
X190.578 Y-10.87
X190.57 Y-10.91
X190.552 Y-10.946
X190.133 Y-11.432
X190.027 Y-11.538
X189.929 Y-11.652
X189.839 Y-11.772
X189.758 Y-11.898
X189.685 Y-12.03
X189.621 Y-12.165
X189.564 Y-12.304
X189.515 Y-12.446
X189.473 Y-12.59
X189.438 Y-12.736
X189.409 Y-12.883
X189.385 Y-13.031
X189.365 Y-13.179
X189.347 Y-13.352
X189.33 Y-13.571
X189.314 Y-13.881
X189.299 Y-14.463
Y-22.812
X189.302 Y-23.013
X189.309 Y-23.163
X189.319 Y-23.312
X189.335 Y-23.461
X189.356 Y-23.621
X189.387 Y-23.817
X189.504 Y-24.448
X189.583 Y-25.086
X189.573 Y-25.728
X189.577 Y-26.37
Y-34.076
Y-34.718
X189.703 Y-35.348
X189.724 Y-36.632
X189.78 Y-37.272
X189.829 Y-37.912
X189.847 Y-38.554
X189.853 Y-39.196
X189.854 Y-39.839
X189.855 Y-45.618
Y-84.149
Y-134.24
Y-173.413
X189.817 Y-174.054
X189.765 Y-174.694
X189.734 Y-175.336
X189.72 Y-175.978
X189.717 Y-176.62
X189.716 Y-178.546
Y-184.326
Y-184.968
X189.7 Y-185.047
X189.674 Y-185.195
X189.652 Y-185.343
X189.634 Y-185.501
X189.616 Y-185.695
X189.575 Y-186.336
X189.488 Y-187.454
X189.458 Y-188.028
X189.441 Y-188.67
X189.437 Y-189.312
X189.439 Y-189.954
X189.438 Y-220.458
X189.428 Y-220.497
X189.409 Y-220.532
X189.381 Y-220.561
X189.347 Y-220.582
X189.309 Y-220.594
X189.268 Y-220.596
X189.229 Y-220.588
X189.193 Y-220.57
X188.706 Y-220.151
X188.602 Y-220.044
X188.489 Y-219.945
X188.37 Y-219.854
X188.245 Y-219.771
X188.115 Y-219.697
X187.98 Y-219.631
X187.841 Y-219.573
X187.7 Y-219.523
X187.556 Y-219.48
X187.411 Y-219.444
X187.264 Y-219.413
X187.116 Y-219.388
X186.967 Y-219.368
X186.8 Y-219.35
X186.59 Y-219.333
X186.31 Y-219.317
X185.996 Y-219.308
X185.729 Y-219.307
X185.481 Y-219.312
X185.232 Y-219.324
X184.969 Y-219.343
X184.595 Y-219.381
X183.958 Y-219.461
X183.606 Y-219.447
X182.964 Y-219.437
X182.322 Y-219.438
X175.9
X175.258
X174.628 Y-219.564
X173.986 Y-219.574
X173.344 Y-219.576
X168.206 Y-219.577
X155.363
X154.72 Y-219.581
X154.078 Y-219.598
X153.438 Y-219.641
X152.798 Y-219.694
X152.156 Y-219.709
X151.514 Y-219.714
X150.871 Y-219.715
X142.523 Y-219.716
X141.881 Y-219.738
X141.245 Y-219.828
X140.603 Y-219.848
X139.961 Y-219.853
X139.319 Y-219.854
X125.833 Y-219.855
X75.743
X42.349
X41.709 Y-219.796
X41.069 Y-219.751
X40.427 Y-219.728
X39.785 Y-219.719
X39.143 Y-219.717
X35.932 Y-219.716
X35.291 Y-219.68
X34.65 Y-219.632
X34.009 Y-219.6
X33.367 Y-219.584
X32.725 Y-219.578
X30.798 Y-219.577
X25.661
X25.019
X24.94 Y-219.561
X24.792 Y-219.535
X24.644 Y-219.513
X24.486 Y-219.495
X24.292 Y-219.477
X24.035 Y-219.461
X23.631 Y-219.445
X22.988 Y-219.437
X22.346 Y-219.438
X12.473
X12.434 Y-219.428
X12.399 Y-219.409
X12.37 Y-219.381
X12.348 Y-219.347
X12.336 Y-219.309
X12.334 Y-219.268
X12.342 Y-219.229
X12.36 Y-219.193
X12.779 Y-218.706
X12.887 Y-218.602
X12.986 Y-218.49
X13.078 Y-218.371
X13.16 Y-218.246
X13.235 Y-218.115
X13.301 Y-217.981
X13.359 Y-217.842
X13.409 Y-217.701
X13.452 Y-217.557
X13.489 Y-217.412
X13.519 Y-217.265
X13.544 Y-217.117
X13.565 Y-216.968
X13.583 Y-216.801
X13.6 Y-216.593
X13.616 Y-216.306
X13.631 Y-215.807
X13.634 Y-215.165
X13.633 Y-205.656
X13.629 Y-205.506
X13.621 Y-205.356
X13.607 Y-205.193
X13.584 Y-204.993
X13.497 Y-204.357
X13.405 Y-203.721
X13.36 Y-203.081
X13.359 Y-202.439
X13.356 Y-201.796
Y-182.531
Y-181.889
X13.23 Y-181.259
X13.22 Y-180.617
X13.217 Y-179.975
X13.21 Y-179.332
X13.178 Y-178.691
X13.132 Y-178.051
X13.099 Y-177.409
X13.085 Y-176.767
X13.081 Y-176.125
X13.079 Y-175.483
X13.078 Y-170.988
Y-132.456
Y-82.366
Y-56.036
X13.108 Y-55.395
X13.203 Y-54.76
X13.274 Y-54.121
X13.32 Y-53.481
X13.344 Y-52.839
X13.354 Y-52.197
X13.355 Y-51.555
X13.356 Y-43.849
Y-32.289
X13.36 Y-31.647
X13.397 Y-31.502
X13.43 Y-31.355
X13.458 Y-31.207
X13.487 Y-31.03
X13.518 Y-30.801
X13.545 Y-30.554
X13.574 Y-30.206
X13.611 Y-29.565
X13.676 Y-28.932
X13.723 Y-28.309
X13.755 Y-27.667
X13.77 Y-27.025
X13.773 Y-26.383
Y-22.53
Y-12.496
X13.783 Y-12.457
X13.802 Y-12.422
X13.83 Y-12.393
X13.864 Y-12.372
X13.902 Y-12.36
X13.943 Y-12.358
X13.982 Y-12.366
X14.558 Y-12.649
X14.663 Y-12.757
X14.776 Y-12.856
X14.895 Y-12.946
X15.021 Y-13.029
X15.151 Y-13.102
X15.286 Y-13.168
X15.425 Y-13.225
X15.566 Y-13.275
X15.71 Y-13.318
X15.856 Y-13.354
X16.003 Y-13.383
X16.151 Y-13.408
X16.299 Y-13.428
X16.469 Y-13.446
X16.682 Y-13.463
X16.98 Y-13.479
X17.52 Y-13.494
X18.162 Y-13.495
X20.089
X20.731 Y-13.492
X21.052 Y-13.486
X21.548 Y-13.471
X22.189 Y-13.435
X22.829 Y-13.383
X23.471 Y-13.364
X24.113 Y-13.358
X24.755 Y-13.357
X27.966 Y-13.356
X28.551 Y-13.351
X28.915 Y-13.339
X29.556 Y-13.3
X30.196 Y-13.245
X30.838 Y-13.223
X31.48 Y-13.219
X32.122 Y-13.218
X43.681 Y-13.217
X44.324
X44.953 Y-13.091
X45.595 Y-13.081
X46.238 Y-13.079
X51.375 Y-13.078
X93.759
X143.85
X144.492
X144.571 Y-13.094
X144.718 Y-13.12
X144.867 Y-13.142
X145.025 Y-13.16
X145.218 Y-13.178
X145.475 Y-13.194
X145.88 Y-13.21
X146.522 Y-13.218
X147.164 Y-13.217
X158.724
X159.366 Y-13.235
X160.006 Y-13.288
X160.647 Y-13.325
X161.289 Y-13.346
X161.931 Y-13.354
X163.215 Y-13.356
X164.5
X165.138 Y-13.422
X165.533 Y-13.453
X165.984 Y-13.476
X166.626 Y-13.493
X167.268 Y-13.496
X167.911 Y-13.495
X170.479
X171.121 Y-13.51
X171.761 Y-13.561
X172.403 Y-13.599
X173.044 Y-13.622
X173.686 Y-13.631
X174.329 Y-13.633
X178.182 Y-13.634
X178.824 Y-13.655
X179.266 Y-13.697
X179.833 Y-13.736
X180.421 Y-13.761
X181.063 Y-13.773
X181.705
X184.274
X187.364
X187.403 Y-13.783
X187.438 Y-13.802
X187.467 Y-13.83
X187.489 Y-13.864
X187.501 Y-13.902
X187.503 Y-13.943
X187.495 Y-13.982
X187.477 Y-14.018
X187.058 Y-14.505
X186.952 Y-14.611
X186.854 Y-14.725
X186.765 Y-14.845
X186.684 Y-14.971
X186.611 Y-15.103
X186.547 Y-15.238
X186.491 Y-15.377
X186.442 Y-15.519
X186.4 Y-15.663
X186.365 Y-15.809
X186.336 Y-15.956
X186.312 Y-16.104
X186.293 Y-16.253
X186.275 Y-16.427
X186.258 Y-16.647
X186.242 Y-16.961
X186.227 Y-17.558
Y-20.127
Y-20.769
X186.353 Y-21.399
X186.363 Y-22.041
X186.366 Y-22.683
X186.389 Y-23.325
X186.454 Y-23.963
X186.554 Y-24.598
X186.632 Y-25.235
X186.64 Y-25.877
X186.643 Y-26.519
X186.644 Y-28.446
Y-34.226
X186.667 Y-34.868
X186.757 Y-35.503
X186.779 Y-36.145
X186.804 Y-36.787
X186.851 Y-37.427
X186.893 Y-38.068
X186.911 Y-38.71
X186.918 Y-39.352
X186.921 Y-39.994
X186.922 Y-41.921
Y-70.177
Y-120.268
Y-170.358
Y-171
X186.906 Y-171.079
X186.88 Y-171.227
X186.858 Y-171.375
X186.84 Y-171.533
X186.822 Y-171.727
X186.806 Y-171.983
X186.79 Y-172.388
X186.782 Y-173.03
X186.766 Y-173.672
X186.714 Y-174.313
X186.676 Y-174.954
X186.654 Y-175.595
X186.646 Y-176.238
X186.644 Y-177.522
Y-184.586
X186.588 Y-185.098
X186.534 Y-185.738
X186.492 Y-186.378
X186.441 Y-187.019
X186.401 Y-187.649
X186.377 Y-188.291
X186.366 Y-188.933
X186.365 Y-189.575
X186.367 Y-190.217
X186.366 Y-194.713
Y-217.39
X186.356 Y-217.429
X186.337 Y-217.464
X186.309 Y-217.493
X186.275 Y-217.514
X186.237 Y-217.526
X186.196 Y-217.528
X186.157 Y-217.52
X186.121 Y-217.502
X185.634 Y-217.083
X185.522 Y-216.984
X185.402 Y-216.894
X185.276 Y-216.813
X185.144 Y-216.741
X185.008 Y-216.678
X184.868 Y-216.625
X184.725 Y-216.579
X184.58 Y-216.54
X184.434 Y-216.507
X184.286 Y-216.478
X184.138 Y-216.455
X183.977 Y-216.434
X183.779 Y-216.414
X183.533 Y-216.395
X182.897 Y-216.489
X182.255 Y-216.502
X181.613 Y-216.504
X178.402 Y-216.505
X175.834
X175.191 Y-216.519
X174.555 Y-216.604
X173.913 Y-216.634
X173.271 Y-216.641
X172.629 Y-216.643
X167.492 Y-216.644
X155.932
X155.29 Y-216.645
X154.648 Y-216.652
X154.006 Y-216.671
X153.365 Y-216.709
X152.724 Y-216.754
X152.082 Y-216.773
X151.44 Y-216.779
X150.798 Y-216.782
X148.872 Y-216.783
X143.092
X142.45 Y-216.789
X141.808 Y-216.814
X141.17 Y-216.883
X140.528 Y-216.909
X139.886 Y-216.918
X139.244 Y-216.921
X137.317 Y-216.922
X133.464
X83.374
X42.916
X42.274 Y-216.894
X41.634 Y-216.85
X40.992 Y-216.817
X40.35 Y-216.797
X39.708 Y-216.788
X39.066 Y-216.784
X37.782 Y-216.783
X36.497
X35.855 Y-216.768
X35.214 Y-216.73
X34.573 Y-216.693
X33.931 Y-216.667
X33.289 Y-216.653
X32.647 Y-216.647
X32.569 Y-216.631
X32.421 Y-216.604
X32.273 Y-216.582
X32.116 Y-216.563
X31.927 Y-216.546
X31.677 Y-216.529
X31.291 Y-216.513
X30.649 Y-216.504
X30.007 Y-216.505
X25.512
X24.872 Y-216.45
X24.519 Y-216.419
X24.098 Y-216.393
X23.509 Y-216.371
X22.867 Y-216.365
X22.225 Y-216.366
X15.562
X15.523 Y-216.356
X15.488 Y-216.337
X15.459 Y-216.309
X15.438 Y-216.275
X15.426 Y-216.237
X15.424 Y-216.196
X15.432 Y-216.157
X15.45 Y-216.121
X15.869 Y-215.634
X15.975 Y-215.529
X16.074 Y-215.415
X16.163 Y-215.295
X16.245 Y-215.169
X16.318 Y-215.038
X16.382 Y-214.903
X16.439 Y-214.764
X16.488 Y-214.622
X16.531 Y-214.478
X16.566 Y-214.333
X16.596 Y-214.186
X16.62 Y-214.037
X16.639 Y-213.889
X16.657 Y-213.717
X16.674 Y-213.5
X16.69 Y-213.194
X16.706 Y-212.626
Y-205.805
X16.698 Y-205.512
X16.683 Y-205.237
X16.661 Y-204.958
X16.613 Y-204.493
X16.529 Y-203.856
X16.441 Y-203.22
X16.429 Y-202.578
X16.428 Y-200.651
Y-183.955
Y-183.312
X16.302 Y-182.683
X16.292 Y-182.041
X16.225 Y-181.402
X16.167 Y-180.762
X16.154 Y-180.12
X16.146 Y-179.478
X16.12 Y-178.836
X16.081 Y-178.195
X16.045 Y-177.554
X16.024 Y-176.912
X16.016 Y-176.27
X16.013 Y-175.628
X16.011 Y-174.344
Y-133.886
Y-83.796
Y-56.824
X16.015 Y-56.182
X16.063 Y-55.541
X16.137 Y-54.903
X16.199 Y-54.264
X16.243 Y-53.623
X16.27 Y-52.982
X16.283 Y-52.34
X16.287 Y-51.698
X16.289 Y-51.055
Y-35.643
Y-33.716
Y-33.074
X16.305 Y-32.996
X16.332 Y-32.848
X16.353 Y-32.7
X16.429 Y-32.062
X16.499 Y-31.643
X16.551 Y-31.27
X16.596 Y-30.871
X16.641 Y-30.35
X16.681 Y-29.709
X16.734 Y-29.198
X16.783 Y-28.588
X16.817 Y-27.946
X16.837 Y-27.305
X16.845 Y-26.662
Y-15.424
X16.855 Y-15.385
X16.874 Y-15.35
X16.902 Y-15.321
X16.936 Y-15.3
X16.974 Y-15.288
X17.015 Y-15.286
X17.054 Y-15.294
X17.09 Y-15.312
X17.577 Y-15.731
X17.682 Y-15.837
X17.796 Y-15.935
X17.916 Y-16.025
X18.042 Y-16.106
X18.173 Y-16.179
X18.308 Y-16.244
X18.447 Y-16.301
X18.589 Y-16.35
X18.733 Y-16.392
X18.879 Y-16.427
X19.026 Y-16.457
X19.174 Y-16.481
X19.323 Y-16.501
X19.492 Y-16.518
X19.701 Y-16.535
X19.99 Y-16.55
X20.396 Y-16.56
X20.941
X21.56 Y-16.545
X22.202 Y-16.512
X22.842 Y-16.465
X23.484 Y-16.435
X24.126 Y-16.431
X24.768 Y-16.429
X27.979 Y-16.428
X28.533 Y-16.424
X29.085 Y-16.405
X29.726 Y-16.367
X30.366 Y-16.314
X31.008 Y-16.291
X31.65
X32.292 Y-16.289
X43.851
X44.012 Y-16.288
X44.162 Y-16.285
X44.312 Y-16.277
X44.471 Y-16.263
X44.666 Y-16.242
X45.303 Y-16.156
X45.945 Y-16.152
X47.229 Y-16.15
X48.514
X49.156
X49.786 Y-16.024
X50.428 Y-16.014
X51.07 Y-16.012
X56.208 Y-16.011
X98.592
X143.545
X144.187 Y-16.02
X144.826 Y-16.084
X145.467 Y-16.124
X146.109 Y-16.143
X146.751 Y-16.149
X148.035 Y-16.15
X148.677
X149.32
X149.398 Y-16.166
X149.546 Y-16.193
X149.694 Y-16.214
X149.853 Y-16.233
X150.046 Y-16.25
X150.303 Y-16.267
X150.708 Y-16.282
X151.35 Y-16.29
X151.992 Y-16.289
X158.414
X159.056 Y-16.298
X159.696 Y-16.344
X160.337 Y-16.385
X160.979 Y-16.41
X161.621 Y-16.423
X162.263 Y-16.427
X164.19 Y-16.428
X164.83 Y-16.475
X165.32 Y-16.515
X165.847 Y-16.544
X166.489 Y-16.563
X167.131 Y-16.568
X170.342 Y-16.567
X170.984 Y-16.579
X171.624 Y-16.632
X172.265 Y-16.668
X172.907 Y-16.691
X173.549 Y-16.702
X174.191 Y-16.705
X176.76 Y-16.706
X178.045
X178.687 Y-16.724
X179.215 Y-16.772
X179.819 Y-16.811
X180.46 Y-16.836
X181.103 Y-16.846
X183.752 Y-16.845
X184.313
X184.352 Y-16.855
X184.387 Y-16.874
X184.417 Y-16.902
X184.438 Y-16.936
X184.45 Y-16.974
X184.452 Y-17.015
X184.444 Y-17.054
X184.426 Y-17.09
X184.007 Y-17.577
X183.899 Y-17.681
X183.8 Y-17.794
X183.709 Y-17.913
X183.627 Y-18.038
X183.553 Y-18.169
X183.487 Y-18.303
X183.429 Y-18.442
X183.379 Y-18.583
X183.336 Y-18.727
X183.299 Y-18.872
X183.269 Y-19.019
X183.244 Y-19.167
X183.224 Y-19.316
X183.206 Y-19.484
X183.189 Y-19.693
X183.173 Y-19.983
X183.162 Y-20.326
Y-20.481
X183.165 Y-20.631
X183.173 Y-20.781
X183.186 Y-20.94
X183.207 Y-21.134
X183.292 Y-21.77
Y-22.413
X183.298 Y-22.734
X183.309 Y-23.121
X183.326 Y-23.45
X183.359 Y-23.864
X183.392 Y-24.17
X183.475 Y-24.807
X183.564 Y-25.443
X183.569 Y-26.085
X183.571 Y-26.727
X183.572 Y-31.222
Y-31.864
X183.698 Y-32.494
X183.708 Y-33.136
X183.71 Y-33.779
X183.72 Y-34.421
X183.755 Y-35.062
X183.819 Y-35.701
X183.85 Y-36.342
X183.883 Y-36.984
X183.924 Y-37.624
X183.959 Y-38.266
X183.977 Y-38.908
X183.984 Y-39.55
X183.987 Y-40.192
X183.989 Y-41.476
Y-81.292
Y-131.382
Y-170.556
X183.926 Y-171.195
X183.883 Y-171.835
X183.86 Y-172.477
X183.845 Y-173.119
X183.811 Y-173.761
X183.771 Y-174.401
X183.741 Y-175.043
X183.723 Y-175.685
X183.715 Y-176.327
X183.712 Y-176.969
X183.711 Y-178.896
Y-181.465
Y-182.107
X183.695 Y-182.185
X183.669 Y-182.333
X183.647 Y-182.481
X183.629 Y-182.64
X183.611 Y-182.833
X183.595 Y-183.09
X183.579 Y-183.495
X183.571 Y-184.137
X183.54 Y-184.778
X183.486 Y-185.323
X183.392 Y-186.604
X183.348 Y-187.244
X183.317 Y-187.886
X183.3 Y-188.528
X183.293 Y-189.17
X183.294 Y-190.454
Y-193.023
Y-214.416
X183.284 Y-214.455
X183.265 Y-214.49
X183.237 Y-214.519
X183.203 Y-214.54
X183.164 Y-214.552
X183.124 Y-214.554
X183.085 Y-214.546
X182.509 Y-214.262
X182.403 Y-214.156
X182.289 Y-214.059
X182.168 Y-213.97
X182.042 Y-213.889
X181.91 Y-213.816
X181.775 Y-213.752
X181.636 Y-213.696
X181.494 Y-213.647
X181.35 Y-213.606
X181.204 Y-213.57
X181.057 Y-213.541
X180.909 Y-213.517
X180.76 Y-213.498
X180.586 Y-213.48
X180.365 Y-213.463
X180.049 Y-213.447
X179.444 Y-213.432
X177.518 Y-213.433
X177.366
X177.333 Y-213.437
X177.238 Y-213.452
X177.093 Y-213.473
X176.801 Y-213.512
X176.655 Y-213.527
X176.509
X175.868 Y-213.562
X175.226 Y-213.584
X174.587 Y-213.648
X173.946 Y-213.691
X173.304 Y-213.705
X172.662 Y-213.709
X171.378 Y-213.711
X155.965
X155.323 Y-213.713
X154.681 Y-213.72
X154.039 Y-213.738
X153.398 Y-213.771
X152.757 Y-213.813
X152.115 Y-213.835
X151.473 Y-213.844
X150.831 Y-213.848
X149.546 Y-213.85
X143.767
X143.124 Y-213.851
X142.482 Y-213.858
X141.84 Y-213.879
X141.201 Y-213.934
X140.559 Y-213.968
X139.917 Y-213.982
X139.275 Y-213.986
X138.633 Y-213.988
X134.78 Y-213.989
X126.431
X76.341
X43.589
X42.947 Y-213.982
X42.306 Y-213.952
X41.665 Y-213.916
X41.023 Y-213.886
X40.381 Y-213.867
X39.739 Y-213.857
X39.097 Y-213.852
X38.455 Y-213.851
X37.17 Y-213.85
X36.528 Y-213.846
X35.886 Y-213.826
X35.245 Y-213.793
X34.604 Y-213.761
X33.962 Y-213.737
X33.32 Y-213.723
X32.04 Y-213.618
X31.398 Y-213.588
X30.756 Y-213.575
X30.114 Y-213.573
X27.545 Y-213.572
X26.261
X25.619 Y-213.56
X25.193 Y-213.529
X25.185
X23.636 Y-213.528
X23.345 Y-213.527
X23.199 Y-213.512
X22.559 Y-213.459
X22.413 Y-213.425
X22.265 Y-213.397
X22.117 Y-213.374
X21.966 Y-213.356
X21.785 Y-213.338
X21.551 Y-213.321
X21.205 Y-213.305
X20.563 Y-213.293
X19.841 Y-213.294
X18.637
X18.598 Y-213.284
X18.563 Y-213.264
X18.534 Y-213.237
X18.512 Y-213.203
X18.5 Y-213.164
X18.498 Y-213.124
X18.506 Y-213.085
X18.524 Y-213.049
X18.943 Y-212.562
X19.049 Y-212.456
X19.147 Y-212.343
X19.237 Y-212.223
X19.318 Y-212.097
X19.391 Y-211.965
X19.456 Y-211.83
X19.512 Y-211.691
X19.561 Y-211.549
X19.603 Y-211.405
X19.622 Y-211.33
X19.631 Y-211.255
X19.622 Y-211.181
X19.596 Y-211.111
X19.476 Y-210.871
X19.406 Y-210.716
X19.36 Y-210.58
X19.322 Y-210.434
X19.25 Y-209.996
X19.181 Y-209.558
X19.174 Y-209.412
X19.164 Y-209.12
X19.163 Y-208.974
Y-182.125
X19.13 Y-181.483
X19.107 Y-180.841
X19.091 Y-180.199
X19.079 Y-179.557
X19.058 Y-178.916
X19.023 Y-178.274
X18.987 Y-177.633
X18.963 Y-176.991
X18.952 Y-176.349
X18.947 Y-175.707
X18.945 Y-175.065
X18.944 Y-172.496
Y-132.038
Y-81.948
Y-57.545
X18.945 Y-56.903
X18.959 Y-56.261
X19.012 Y-55.621
X19.076 Y-54.982
X19.13 Y-54.342
X19.162 Y-53.83
X19.163 Y-53.823
Y-26.278
X19.182 Y-25.841
X19.201 Y-25.695
X19.26 Y-25.322
X19.321 Y-24.965
X19.355 Y-24.819
X19.401 Y-24.673
X19.406 Y-24.663
X19.623 Y-24.128
X19.676 Y-23.988
X19.722 Y-23.845
X19.76 Y-23.7
X19.793 Y-23.554
X19.82 Y-23.406
X19.841 Y-23.258
X19.86 Y-23.1
X19.877 Y-22.908
X19.894 Y-22.654
X19.909 Y-22.257
X19.918 Y-21.615
X19.917 Y-20.973
Y-18.484
X19.927 Y-18.445
X19.946 Y-18.41
X19.974 Y-18.381
X20.008 Y-18.36
X20.047 Y-18.348
X20.087 Y-18.346
X20.126 Y-18.354
X20.162 Y-18.372
X20.649 Y-18.791
X20.757 Y-18.895
X20.873 Y-18.99
X20.995 Y-19.076
X21.124 Y-19.154
X21.257 Y-19.223
X21.394 Y-19.284
X21.535 Y-19.336
X21.678 Y-19.38
X21.824 Y-19.416
X21.971 Y-19.445
X22.119 Y-19.468
X22.268 Y-19.485
X22.418 Y-19.497
X22.598 Y-19.506
X22.828 Y-19.513
X23.47
X24.112 Y-19.502
X26.039 Y-19.5
X27.965
X28.588 Y-19.495
X29.219 Y-19.475
X29.86 Y-19.437
X30.5 Y-19.386
X31.142 Y-19.36
X31.784 Y-19.363
X32.426 Y-19.361
X43.867
X44.16 Y-19.353
X44.437 Y-19.339
X44.724 Y-19.316
X45.363 Y-19.25
X46.005 Y-19.219
X46.647 Y-19.223
X47.931 Y-19.222
X48.734
X48.899 Y-19.221
X49.049 Y-19.216
X49.198 Y-19.206
X49.369 Y-19.19
X49.582 Y-19.165
X50.218 Y-19.073
X50.86 Y-19.086
X51.502 Y-19.083
X63.704
X64.346
X64.976 Y-18.958
X65.618 Y-18.947
X66.26 Y-18.945
X71.397 Y-18.944
X113.782
X143.322
X143.964 Y-18.957
X144.605 Y-19.006
X145.246 Y-19.045
X145.887 Y-19.068
X146.529 Y-19.078
X147.172 Y-19.082
X148.456 Y-19.083
X149.098 Y-19.105
X149.737 Y-19.164
X150.378 Y-19.201
X151.02 Y-19.217
X151.663 Y-19.221
X152.947 Y-19.222
X158.084
X158.727 Y-19.228
X159.368 Y-19.263
X160.009 Y-19.303
X160.65 Y-19.331
X161.292 Y-19.349
X161.934 Y-19.357
X162.577 Y-19.36
X163.861 Y-19.361
X164.502 Y-19.396
X164.647 Y-19.436
X164.793 Y-19.47
X164.94 Y-19.499
X165.088 Y-19.524
X165.251 Y-19.547
X165.452 Y-19.57
X165.724 Y-19.594
X166.046 Y-19.614
X166.555 Y-19.633
X167.197 Y-19.64
X167.839 Y-19.639
X170.408
X171.05 Y-19.661
X171.37 Y-19.688
X171.942 Y-19.727
X172.583 Y-19.754
X173.225 Y-19.769
X173.867 Y-19.776
X174.509 Y-19.778
X177.72
X178.363 Y-19.787
X179.003 Y-19.836
X179.635 Y-19.878
X180.036 Y-19.893
X180.678 Y-19.913
X180.999 Y-19.915
X181.239 Y-19.916
X181.278 Y-19.926
X181.313 Y-19.946
X181.342 Y-19.974
X181.363 Y-20.008
X181.375 Y-20.046
X181.377 Y-20.086
X181.369 Y-20.125
X181.084 Y-20.701
X180.976 Y-20.805
X180.876 Y-20.916
X180.784 Y-21.035
X180.7 Y-21.16
X180.625 Y-21.29
X180.559 Y-21.424
X180.5 Y-21.562
X180.45 Y-21.703
X180.406 Y-21.847
X180.37 Y-21.992
X180.34 Y-22.139
X180.316 Y-22.287
X180.297 Y-22.436
X180.283 Y-22.586
X180.273 Y-22.739
X180.265 Y-22.924
X180.262 Y-23.121
X180.264 Y-23.361
X180.274 Y-23.652
X180.294 Y-23.979
X180.297 Y-24.011
X180.303 Y-24.051
X180.314 Y-24.091
X180.33 Y-24.128
X180.46 Y-24.381
X180.531 Y-24.527
X180.599 Y-24.673
X180.645 Y-24.819
X180.679 Y-24.965
X180.739 Y-25.318
X180.799 Y-25.695
X180.818 Y-25.841
X180.837 Y-26.278
Y-34.596
X180.87 Y-35.237
X180.893 Y-35.879
X180.923 Y-36.521
X180.957 Y-37.162
X180.996 Y-37.803
X181.026 Y-38.444
X181.043 Y-39.086
X181.051 Y-39.728
X181.054 Y-40.371
X181.055 Y-41.655
X181.056 Y-84.681
Y-134.772
Y-170.092
X181.018 Y-170.733
X180.974 Y-171.374
X180.944 Y-172.015
X180.924 Y-172.657
X180.896 Y-173.299
X180.86 Y-173.94
X180.837 Y-174.381
Y-208.974
X180.836 Y-209.12
X180.826 Y-209.412
X180.819 Y-209.558
X180.739 Y-210.063
X180.678 Y-210.434
X180.64 Y-210.58
X180.593 Y-210.717
X180.524 Y-210.871
X180.448 Y-211.025
X180.302 Y-211.311
X180.222 Y-211.455
X180.022 Y-211.804
X180.01 Y-211.823
X179.95 Y-211.893
X179.864 Y-211.991
X179.426 Y-212.429
X179.376 Y-212.477
X179.135 Y-212.696
X179.037 Y-212.768
X178.989 Y-212.8
X178.697 Y-212.952
X178.405 Y-213.102
X178.26 Y-213.177
X178.114 Y-213.247
X177.968 Y-213.305
X177.819 Y-213.352
X177.676 Y-213.381
X177.53 Y-213.406
X177.333 Y-213.437
G3 X177.069 Y-213.8 Z-4.56 I0.05 J-0.314
X177.697 Y-213.701 I0.314 J0.049
X177.163 Y-213.521 I-0.314 J-0.049
G1 X176.883 Y-213.79
G3 X177.322 Y-214.249 I0.22 J-0.229
X177.264 Y-213.746 I-0.22 J0.229
X176.997 Y-213.62 I-0.803 J-1.364
X176.509 Y-213.527 Z-4.76 I-0.536 J-1.489
G1 X176.071 Y-213.529
X143.688 Y-213.528
X143.25 Y-213.522
X143.074 Y-213.498
X142.813 Y-213.46
X142.375 Y-213.391
X142.229 Y-213.362
X142.084 Y-213.326
X141.938 Y-213.269
X141.792 Y-213.202
X141.5 Y-213.054
X141.354 Y-212.978
X140.962 Y-212.768
X140.917 Y-212.739
X140.771 Y-212.607
X140.625 Y-212.473
X140.475 Y-212.331
X140.187 Y-212.039
X139.769 Y-211.654
X139.263 Y-211.363
X138.649 Y-211.174
X138.012 Y-211.092
X137.37 Y-211.065
X136.728 Y-211.058
X136.086 Y-211.056
X108.472
X89.849
X60.626
X60.513 Y-211.077
X60.414 Y-211.137
X60.343 Y-211.229
X60.303 Y-211.309
X60.25 Y-211.408
X60.055 Y-211.747
X59.955 Y-211.893
X59.812 Y-212.039
X59.521 Y-212.335
X59.371 Y-212.477
X59.213 Y-212.623
X59.083 Y-212.739
X59.038 Y-212.768
X58.645 Y-212.979
X58.488 Y-213.06
X58.2 Y-213.206
X58.062 Y-213.269
X57.916 Y-213.326
X57.77 Y-213.362
X57.624 Y-213.391
X57.187 Y-213.46
X56.895 Y-213.503
X56.749 Y-213.522
X56.311 Y-213.528
X25.185 Y-213.529
G3 X24.952 Y-213.63 Z-4.655 I0 J-0.317
G1 X24.908 Y-213.67 Z-4.631
X24.858 Y-213.7 Z-4.608
X24.803 Y-213.721 Z-4.584
X24.745 Y-213.737 Z-4.56
X24.506 Y-213.803
X24.198 Y-213.888
G2 X23.916 Y-213.831 I-0.085 J0.306
G3 X23.669 Y-213.671 I-0.982 J-1.241
X23.199 Y-213.512 Z-4.76 I-0.735 J-1.402
G1 X22.907 Y-213.473
X22.761 Y-213.452
X22.469 Y-213.406
X22.323 Y-213.381
X22.178 Y-213.351
X22.032 Y-213.305
X21.886 Y-213.247
X21.74 Y-213.176
X21.448 Y-213.027
X21.157 Y-212.876
X21.011 Y-212.799
X20.964 Y-212.768
X20.865 Y-212.695
X20.624 Y-212.477
X20.573 Y-212.429
X20.135 Y-211.991
X20.049 Y-211.893
X19.99 Y-211.823
X19.967 Y-211.785
X19.777 Y-211.455
X19.697 Y-211.309
X19.596 Y-211.111
G3 X19.005 Y-211.213 I-0.278 J-0.154
G1 X18.994 Y-211.283 Z-4.752
X18.983 Y-211.349 Z-4.729
X18.973 Y-211.409 Z-4.691
X18.965 Y-211.458 Z-4.64
X18.959 Y-211.496 Z-4.58
X18.955 Y-211.519 Z-4.513
X18.954 Y-211.527 Z-4.443
G0 Z5
X18.779 Y-183.151
Z-4.125
G1 Z-4.443 F250
X18.783 Y-183.144 Z-4.513
X18.795 Y-183.124 Z-4.58
X18.814 Y-183.091 Z-4.64
X18.84 Y-183.048 Z-4.691
X18.871 Y-182.997 Z-4.729
X18.905 Y-182.939 Z-4.752
X18.941 Y-182.878 Z-4.76
G3 X19.163 Y-182.125 I-1.36 J0.809
G1 Y-166.365
X19.165 Y-166.219
X19.175 Y-165.927
X19.188 Y-165.781
X19.26 Y-165.323
X19.33 Y-164.906
X19.373 Y-164.76
X19.406 Y-164.666
X19.496 Y-164.468
X19.719 Y-164.03
X19.979 Y-163.576
X19.99 Y-163.559
X20.086 Y-163.446
X20.135 Y-163.391
X20.573 Y-162.954
X20.719 Y-162.82
X20.833 Y-162.717
X21.223 Y-162.326
X21.522 Y-161.85
X21.735 Y-161.245
X21.832 Y-160.61
X21.865 Y-159.968
X21.874 Y-159.326
X21.877 Y-158.684
X21.878 Y-154.189
Y-133.438
X21.856 Y-133.323
X21.795 Y-133.224
X21.701 Y-133.154
X21.448 Y-133.027
X21.294 Y-132.948
X21.017 Y-132.802
X20.865 Y-132.698
X20.815 Y-132.656
X20.656 Y-132.511
X20.135 Y-131.99
X20.08 Y-131.927
X19.99 Y-131.82
X19.96 Y-131.781
X19.867 Y-131.635
X19.844 Y-131.594
X19.641 Y-131.197
X19.552 Y-131.017
X19.406 Y-130.714
X19.37 Y-130.614
X19.328 Y-130.468
X19.303 Y-130.322
X19.26 Y-130.062
X19.232 Y-129.884
X19.211 Y-129.738
X19.177 Y-129.446
X19.163 Y-129.3
Y-96.322
X19.167 Y-96.176
X19.178 Y-95.884
X19.194 Y-95.738
X19.264 Y-95.3
X19.313 Y-95.008
X19.342 Y-94.862
X19.386 Y-94.716
X19.406 Y-94.664
X19.449 Y-94.57
X19.518 Y-94.425
X19.844 Y-93.787
X19.901 Y-93.695
X19.99 Y-93.559
X19.997 Y-93.549
X20.124 Y-93.403
X20.573 Y-92.954
X20.721 Y-92.819
X20.865 Y-92.691
X21.214 Y-92.346
X21.514 Y-91.875
X21.731 Y-91.271
X21.83 Y-90.636
X21.865 Y-89.995
X21.874 Y-89.353
X21.877 Y-88.711
X21.878 Y-84.215
Y-83.438
X21.856 Y-83.323
X21.795 Y-83.224
X21.701 Y-83.154
X21.448 Y-83.028
X21.157 Y-82.879
X21.011 Y-82.798
X20.865 Y-82.695
X20.757 Y-82.605
X20.604 Y-82.459
X20.135 Y-81.99
X20.038 Y-81.875
X19.99 Y-81.816
X19.925 Y-81.729
X19.84 Y-81.583
X19.763 Y-81.437
X19.614 Y-81.146
X19.543 Y-81
X19.375 Y-80.63
X19.369 Y-80.613
X19.298 Y-80.27
X19.27 Y-80.124
X19.224 Y-79.832
X19.202 Y-79.686
X19.163 Y-79.248
Y-53.823
G3 X18.589 Y-53.647 I-0.317 J-0.011
G1 X18.547 Y-53.704 Z-4.752
X18.508 Y-53.758 Z-4.729
X18.472 Y-53.806 Z-4.691
X18.442 Y-53.847 Z-4.64
X18.42 Y-53.877 Z-4.58
X18.406 Y-53.896 Z-4.513
X18.401 Y-53.903 Z-4.443
G0 Z5
X18.625 Y-25.431
Z-4.125
G1 Z-4.443 F250
X18.631 Y-25.426 Z-4.513
X18.651 Y-25.413 Z-4.58
X18.682 Y-25.392 Z-4.64
X18.723 Y-25.364 Z-4.691
X18.773 Y-25.33 Z-4.729
X18.829 Y-25.292 Z-4.752
X18.887 Y-25.252 Z-4.76
G3 X19.406 Y-24.663 I-0.891 J1.308
G1 X19.469 Y-24.527
X19.552 Y-24.359
X19.764 Y-23.943
X19.844 Y-23.789
X19.929 Y-23.652
X19.99 Y-23.562
X20.034 Y-23.506
X20.135 Y-23.392
X20.605 Y-22.922
X20.755 Y-22.776
X20.865 Y-22.687
X20.937 Y-22.63
X21.011 Y-22.583
X21.481 Y-22.338
X21.767 Y-22.192
X21.886 Y-22.135
X22.032 Y-22.077
X22.122 Y-22.046
X22.178 Y-22.031
X22.323 Y-22.002
X22.469 Y-21.977
X22.761 Y-21.931
X22.907 Y-21.909
X23.199 Y-21.87
X23.345 Y-21.855
X23.928 Y-21.854
X176.217
X176.655 Y-21.855
X176.801 Y-21.87
X177.093 Y-21.909
X177.238 Y-21.93
X177.53 Y-21.977
X177.676 Y-22.002
X177.822 Y-22.031
X177.878 Y-22.046
X177.968 Y-22.077
X178.114 Y-22.135
X178.26 Y-22.206
X178.551 Y-22.355
X178.989 Y-22.582
X179.064 Y-22.63
X179.135 Y-22.686
X179.246 Y-22.776
X179.426 Y-22.953
X179.864 Y-23.392
X179.966 Y-23.506
X180.01 Y-23.561
X180.07 Y-23.652
X180.156 Y-23.789
X180.33 Y-24.128
X180.46 Y-24.381 Z-4.646
X180.531 Y-24.527 Z-4.581
X180.553 Y-24.574 Z-4.56
X180.599 Y-24.673
X180.641 Y-24.806
X180.645 Y-24.819
X180.679 Y-24.965
X180.739 Y-25.318
X180.753 Y-25.403
X180.799 Y-25.695
X180.818 Y-25.841
X180.831 Y-26.132
X180.837 Y-26.278
Y-33.849
Y-34.097
Y-34.596 Z-4.76
Y-59.257
X180.827 Y-59.403
X180.795 Y-59.695
X180.775 Y-59.841
X180.705 Y-60.278
X180.68 Y-60.424
X180.643 Y-60.57
X180.592 Y-60.716
X180.382 Y-61.154
X180.156 Y-61.596
X180.068 Y-61.738
X180.01 Y-61.82
X179.956 Y-61.884
X179.864 Y-61.991
X179.388 Y-62.467
X179.281 Y-62.569
X179.233 Y-62.613
X179.135 Y-62.698
X178.885 Y-62.914
X178.573 Y-63.337
X178.316 Y-63.925
X178.189 Y-64.555
X178.141 Y-65.195
X178.127 Y-65.837
X178.124 Y-66.479
X178.123 Y-68.406
X178.122 Y-91.941
X178.144 Y-92.055
X178.204 Y-92.154
X178.296 Y-92.224
X178.604 Y-92.382
X178.885 Y-92.528
X178.989 Y-92.582
X179.116 Y-92.673
X179.281 Y-92.821
X179.426 Y-92.953
X179.876 Y-93.403
X180.003 Y-93.549
X180.01 Y-93.559
X180.099 Y-93.695
X180.156 Y-93.787
X180.482 Y-94.425
X180.551 Y-94.57
X180.593 Y-94.663
X180.614 Y-94.716
X180.658 Y-94.862
X180.687 Y-95.008
X180.739 Y-95.318
X180.806 Y-95.738
X180.822 Y-95.884
X180.833 Y-96.176
X180.837 Y-96.322
Y-149.146
X180.835 Y-149.292
X180.792 Y-149.73
X180.723 Y-150.167
X180.694 Y-150.313
X180.626 Y-150.63
X180.622 Y-150.642
X180.436 Y-151.043
X180.364 Y-151.189
X180.215 Y-151.481
X180.156 Y-151.59
X180.046 Y-151.772
X179.926 Y-151.918
X179.864 Y-151.99
X179.426 Y-152.428
X179.281 Y-152.568
X179.197 Y-152.648
X179.135 Y-152.695
X178.959 Y-152.833
X178.639 Y-153.225
X178.36 Y-153.785
X178.208 Y-154.409
X178.147 Y-155.048
X178.129 Y-155.69
X178.124 Y-156.332
X178.123 Y-157.617
X178.122 Y-161.941
X178.144 Y-162.055
X178.204 Y-162.153
X178.296 Y-162.224
X178.551 Y-162.355
X178.967 Y-162.571
X178.989 Y-162.583
X179.135 Y-162.687
X179.328 Y-162.863
X179.426 Y-162.953
X179.864 Y-163.391
X179.914 Y-163.446
X180.01 Y-163.559
X180.021 Y-163.576
X180.281 Y-164.03
X180.504 Y-164.468
X180.593 Y-164.665
X180.628 Y-164.76
X180.67 Y-164.906
X180.743 Y-165.343
X180.812 Y-165.781
X180.825 Y-165.927
X180.835 Y-166.219
X180.837 Y-166.365
Y-174.381
G3 X181.411 Y-174.558 I0.317 J0.011
G1 X181.453 Y-174.501 Z-4.752
X181.492 Y-174.447 Z-4.729
X181.528 Y-174.398 Z-4.691
X181.558 Y-174.358 Z-4.64
X181.58 Y-174.327 Z-4.58
X181.594 Y-174.308 Z-4.513
X181.599 Y-174.302 Z-4.443
G0 Z5
X180.195 Y-152.419
Z-4.125
G1 Z-4.443 F250
X180.187 Z-4.513
X180.164 Y-152.421 Z-4.58
X180.126 Y-152.424 Z-4.64
X180.076 Y-152.428 Z-4.691
X180.016 Y-152.433 Z-4.729
X179.949 Y-152.438 Z-4.752
X179.878 Y-152.443 Z-4.76
G3 X179.135 Y-152.695 I0.121 J-1.578
G1 X178.989 Y-152.798
X178.843 Y-152.878
X178.551 Y-153.028
X178.114 Y-153.246
X177.968 Y-153.305
X177.822 Y-153.352
X177.676 Y-153.381
X177.53 Y-153.406
X177.238 Y-153.452
X177.093 Y-153.473
X176.801 Y-153.527
X176.443 Y-153.681
X176.09 Y-153.938
X175.759 Y-154.316
X175.47 Y-154.849
X175.297 Y-155.468
X175.223 Y-156.106
X175.198 Y-156.748
X175.192 Y-157.39
X175.19 Y-158.032
X175.189 Y-161.243
X175.191 Y-161.538
X175.216 Y-161.659
X175.285 Y-161.761
X175.388 Y-161.83
X175.509 Y-161.854
X176.363
X176.655 Y-161.855
X176.801 Y-161.87
X177.093 Y-161.909
X177.238 Y-161.93
X177.599 Y-161.987
X177.676 Y-162.001
G3 X178.036 Y-161.734 Z-4.56 I0.046 J0.314
G1 X178.039 Y-161.663
X178.025 Y-161.486
X177.458 Y-154.006
X177.44 Y-153.765
X177.439 Y-153.758
G3 X177.093 Y-153.473 Z-4.76 I-0.316 J-0.031
G1 X176.717 Y-153.524
X176.655 Y-153.527
X176.071 Y-153.529
X174.613
X174.208 Y-153.549
X173.826 Y-153.656
X173.451 Y-153.859
X173.084 Y-154.18
X172.738 Y-154.657
X172.484 Y-155.247
X172.35 Y-155.875
X172.289 Y-156.514
X172.266 Y-157.156
X172.259 Y-157.798
X172.257 Y-158.44
X172.256 Y-161.009
X172.273 Y-161.546
X172.3 Y-161.664
X172.369 Y-161.764
X172.471 Y-161.83
X172.59 Y-161.854
X175.509
G3 X175.815 Y-161.525 Z-4.56 I-0.011 J0.317
G1 X175.813 Y-161.499
X175.787 Y-161.279
X174.951 Y-154.103
X174.923 Y-153.856
X174.917 Y-153.809 Z-4.579
G3 X174.613 Y-153.529 Z-4.76 I-0.315 J-0.037
G1 X171.695
X171.347 Y-153.546
X170.963 Y-153.653
X170.568 Y-153.867
X170.182 Y-154.206
X169.842 Y-154.674
X169.588 Y-155.264
X169.442 Y-155.889
X169.372 Y-156.528
X169.341 Y-157.169
X169.329 Y-157.811
X169.325 Y-158.453
X169.323 Y-159.738
Y-160.38
X169.327 Y-161.022
X169.349 Y-161.549
X169.377 Y-161.667
X169.447 Y-161.765
X169.548 Y-161.831
X169.667 Y-161.854
X172.59
G3 X172.896 Y-161.525 Z-4.56 I-0.011 J0.317
G1 X172.894 Y-161.499
X172.869 Y-161.279
X172.034 Y-154.103
X172.005 Y-153.856
X172 Y-153.809 Z-4.579
G3 X171.695 Y-153.529 Z-4.76 I-0.315 J-0.037
G1 X168.778
X168.452 Y-153.545
X168.064 Y-153.653
X167.665 Y-153.87
X167.275 Y-154.211
X166.93 Y-154.686
X166.676 Y-155.276
X166.527 Y-155.9
X166.452 Y-156.538
X166.416 Y-157.179
X166.4 Y-157.821
X166.394 Y-158.464
X166.391 Y-159.106
X166.39 Y-159.748
X166.391 Y-160.39
X166.399 Y-161.032
X166.424 Y-161.551
X166.452 Y-161.668
X166.522 Y-161.766
X166.623 Y-161.831
X166.741 Y-161.854
X169.667
G3 X169.973 Y-161.525 Z-4.56 I-0.011 J0.317
G1 X169.971 Y-161.5
X169.945 Y-161.279
X169.116 Y-154.103
X169.088 Y-153.856
X169.082 Y-153.809 Z-4.579
G3 X168.778 Y-153.529 Z-4.76 I-0.315 J-0.036
G1 X165.86
X165.542 Y-153.544
X165.153 Y-153.653
X164.753 Y-153.87
X164.361 Y-154.213
X164.013 Y-154.692
X163.76 Y-155.282
X163.608 Y-155.906
X163.53 Y-156.543
X163.49 Y-157.184
X163.471 Y-157.826
X163.462 Y-158.468
X163.459 Y-159.111
X163.458 Y-159.753
X163.46 Y-160.395
X163.47 Y-161.037
X163.496 Y-161.552
X163.525 Y-161.669
X163.595 Y-161.766
X163.696 Y-161.831
X163.814 Y-161.854
X166.741
G3 X167.047 Y-161.525 Z-4.56 I-0.011 J0.317
G1 X167.045 Y-161.5
X167.02 Y-161.279
X166.198 Y-154.103
X166.17 Y-153.856
X166.165 Y-153.81 Z-4.579
G3 X165.86 Y-153.529 Z-4.76 I-0.315 J-0.036
G1 X162.943
X162.626 Y-153.544
X162.237 Y-153.653
X161.836 Y-153.871
X161.443 Y-154.215
X161.093 Y-154.696
X160.84 Y-155.286
X160.687 Y-155.91
X160.607 Y-156.547
X160.564 Y-157.188
X160.542 Y-157.829
X160.531 Y-158.471
X160.527 Y-159.114
X160.526 Y-159.756
X160.529 Y-160.398
X160.54 Y-161.04
X160.568 Y-161.553
X160.597 Y-161.669
X160.667 Y-161.767
X160.768 Y-161.831
X160.885 Y-161.854
X163.814
G3 X164.12 Y-161.525 Z-4.56 I-0.011 J0.317
G1 X164.118 Y-161.5
X164.093 Y-161.279
X163.281 Y-154.103
X163.253 Y-153.856
X163.247 Y-153.81 Z-4.579
G3 X162.943 Y-153.529 Z-4.76 I-0.315 J-0.036
G1 X160.026
X159.707 Y-153.544
X159.318 Y-153.654
X158.916 Y-153.871
X158.522 Y-154.216
X158.171 Y-154.699
X157.918 Y-155.289
X157.765 Y-155.912
X157.682 Y-156.549
X157.637 Y-157.19
X157.613 Y-157.832
X157.601 Y-158.474
X157.595 Y-159.116
X157.594 Y-159.758
X157.598 Y-160.4
X157.611 Y-161.042
X157.639 Y-161.554
X157.668 Y-161.67
X157.738 Y-161.767
X157.839 Y-161.831
X157.956 Y-161.854
X160.885
G3 X161.191 Y-161.525 Z-4.56 I-0.011 J0.317
G1 X161.19 Y-161.501
X161.165 Y-161.279
X160.363 Y-154.103
X160.335 Y-153.856
X160.33 Y-153.811 Z-4.579
G3 X160.026 Y-153.529 Z-4.76 I-0.316 J-0.035
G1 X157.108
X156.786 Y-153.545
X156.396 Y-153.654
X155.993 Y-153.872
X155.6 Y-154.216
X155.247 Y-154.701
X154.994 Y-155.291
X154.84 Y-155.915
X154.756 Y-156.551
X154.71 Y-157.192
X154.684 Y-157.833
X154.67 Y-158.475
X154.664 Y-159.118
X154.662 Y-159.76
X154.667 Y-160.402
X154.681 Y-161.044
X154.71 Y-161.554
X154.739 Y-161.67
X154.809 Y-161.767
X154.91 Y-161.831
X155.027 Y-161.854
X157.956
G3 X158.262 Y-161.525 Z-4.56 I-0.011 J0.317
G1 X158.261 Y-161.501
X158.236 Y-161.278
X157.445 Y-154.103
X157.418 Y-153.856
X157.413 Y-153.811 Z-4.578
G3 X157.108 Y-153.529 Z-4.76 I-0.316 J-0.035
G1 X154.191
X153.862 Y-153.545
X153.472 Y-153.654
X153.07 Y-153.872
X152.676 Y-154.217
X152.323 Y-154.703
X152.069 Y-155.293
X151.915 Y-155.916
X151.83 Y-156.553
X151.782 Y-157.193
X151.755 Y-157.835
X151.74 Y-158.477
X151.732 Y-159.119
X151.731 Y-159.761
X151.736 Y-160.403
X151.75 Y-161.045
X151.78 Y-161.554
X151.809 Y-161.67
X151.879 Y-161.767
X151.98 Y-161.831
X152.097 Y-161.854
X155.027
G3 X155.333 Y-161.525 Z-4.56 I-0.011 J0.317
G1 X155.331 Y-161.502
X155.307 Y-161.278
X154.527 Y-154.103
X154.5 Y-153.856
X154.495 Y-153.811 Z-4.578
G3 X154.191 Y-153.529 Z-4.76 I-0.316 J-0.034
G1 X151.273
X150.938 Y-153.545
X150.547 Y-153.655
X150.145 Y-153.873
X149.75 Y-154.218
X149.397 Y-154.704
X149.143 Y-155.295
X148.989 Y-155.918
X148.903 Y-156.554
X148.854 Y-157.195
X148.825 Y-157.836
X148.809 Y-158.478
X148.801 Y-159.12
X148.8 Y-159.762
X148.805 Y-160.405
X148.82 Y-161.047
X148.85 Y-161.555
X148.879 Y-161.67
X148.949 Y-161.767
X149.05 Y-161.831
X149.167 Y-161.854
X152.097
G3 X152.403 Y-161.525 Z-4.56 I-0.011 J0.317
G1 X152.402 Y-161.502
X152.378 Y-161.278
X151.609 Y-154.103
X151.583 Y-153.856
X151.578 Y-153.812 Z-4.578
G3 X151.273 Y-153.529 Z-4.76 I-0.316 J-0.034
G1 X148.356
X148.012 Y-153.546
X147.622 Y-153.655
X147.219 Y-153.873
X146.824 Y-154.218
X146.47 Y-154.706
X146.217 Y-155.296
X146.062 Y-155.919
X145.975 Y-156.556
X145.925 Y-157.196
X145.896 Y-157.837
X145.879 Y-158.479
X145.87 Y-159.121
X145.869 Y-159.764
X145.874 Y-160.406
X145.89 Y-161.048
X145.92 Y-161.555
X145.949 Y-161.67
X146.019 Y-161.767
X146.12 Y-161.831
X146.237 Y-161.854
X149.167
G3 X149.473 Y-161.525 Z-4.56 I-0.011 J0.317
G1 X149.472 Y-161.503
X149.448 Y-161.278
X148.691 Y-154.103
X148.665 Y-153.856
X148.661 Y-153.813 Z-4.578
G3 X148.356 Y-153.529 Z-4.76 I-0.316 J-0.033
G1 X145.439
X145.085 Y-153.546
X144.695 Y-153.656
X144.292 Y-153.874
X143.897 Y-154.219
X143.543 Y-154.707
X143.289 Y-155.297
X143.134 Y-155.921
X143.047 Y-156.557
X142.996 Y-157.197
X142.966 Y-157.838
X142.948 Y-158.48
X142.94 Y-159.122
X142.938 Y-159.765
X142.944 Y-160.407
X142.959 Y-161.049
X142.99 Y-161.555
X143.019 Y-161.671
X143.089 Y-161.767
X143.19 Y-161.831
X143.307 Y-161.854
X146.237
G3 X146.543 Y-161.525 Z-4.56 I-0.011 J0.317
G1 X146.542 Y-161.503
X146.518 Y-161.278
X145.773 Y-154.103
X145.748 Y-153.856
X145.743 Y-153.813 Z-4.578
G3 X145.439 Y-153.529 Z-4.76 I-0.316 J-0.033
G1 X143.688 Y-153.528
X143.25 Y-153.522
X143.105 Y-153.503
X142.813 Y-153.46
X142.441 Y-153.421
X142.066 Y-153.465
X141.67 Y-153.606
X141.266 Y-153.863
X140.871 Y-154.26
X140.53 Y-154.804
X140.314 Y-155.409
X140.182 Y-156.037
X140.105 Y-156.675
X140.059 Y-157.315
X140.032 Y-157.957
X140.016 Y-158.599
X140.008 Y-159.241
Y-159.883
X140.015 Y-160.525
X140.035 Y-161.167
X140.065 Y-161.56
X140.096 Y-161.674
X140.166 Y-161.769
X140.266 Y-161.832
X140.381 Y-161.854
X143.307
G3 X143.613 Y-161.525 Z-4.56 I-0.011 J0.317
G1 X143.612 Y-161.514
X143.596 Y-161.278
X143.093 Y-154.079
X143.076 Y-153.831
X143.07 Y-153.749 Z-4.593
G3 X142.813 Y-153.46 Z-4.76 I-0.317 J-0.022
G1 X142.295 Y-153.378
X142.229 Y-153.364
X142.084 Y-153.325
X141.938 Y-153.271
X141.851 Y-153.232
X141.208 Y-152.905
X141.008 Y-152.794
X140.917 Y-152.734
X140.696 Y-152.59
X140.367 Y-152.468
X139.983 Y-152.416
X139.55 Y-152.456
X139.103 Y-152.6
X138.667 Y-152.86
X138.217 Y-153.287
X137.861 Y-153.821
X137.6 Y-154.408
X137.419 Y-155.024
X137.293 Y-155.654
X137.207 Y-156.29
X137.15 Y-156.93
X137.115 Y-157.571
X137.093 Y-158.213
X137.081 Y-158.855
X137.076 Y-159.497
X137.079 Y-160.139
X137.091 Y-160.781
X137.12 Y-161.423
X137.14 Y-161.577
X137.194 Y-161.718
X137.308 Y-161.818
X137.454 Y-161.854
X140.381
G3 X140.688 Y-161.549 Z-4.569 I-0.011 J0.317
G1 X140.689 Y-161.525 Z-4.56
X140.699 Y-161.277
X141.015 Y-153.445
X141.025 Y-153.197
X141.034 Y-152.993 Z-4.642
G3 X140.917 Y-152.734 Z-4.76 I-0.317 J0.013
G1 X140.803 Y-152.648
X140.771 Y-152.62
X140.625 Y-152.479
X140.187 Y-152.041
X140.069 Y-151.918
X140.041 Y-151.885
X139.956 Y-151.772
X139.895 Y-151.68
X139.864 Y-151.627
X139.785 Y-151.481
X139.75 Y-151.411
X139.575 Y-151.107
X139.337 Y-150.849
X139.021 Y-150.632
X138.645 Y-150.482
X138.214 Y-150.414
X137.712 Y-150.448
X137.125 Y-150.623
X136.566 Y-150.938
X136.086 Y-151.365
X135.676 Y-151.86
X135.331 Y-152.402
X135.041 Y-152.974
X134.81 Y-153.574
X134.622 Y-154.188
X134.477 Y-154.813
X134.369 Y-155.446
X134.289 Y-156.083
X134.232 Y-156.723
X134.193 Y-157.364
X134.168 Y-158.006
X134.153 Y-158.648
X134.145 Y-159.29
X134.146 Y-159.932
X134.154 Y-160.574
X134.176 Y-161.216
X134.208 Y-161.565
X134.24 Y-161.677
X134.31 Y-161.77
X134.409 Y-161.832
X134.524 Y-161.854
X137.454
G3 X137.755 Y-161.599 Z-4.59 I-0.011 J0.317
G1 X137.769 Y-161.526 Z-4.56
X137.818 Y-161.283
X139.665 Y-152.142
X139.715 Y-151.898
X139.773 Y-151.608 Z-4.679
X139.779 Y-151.541 Z-4.706
X139.771 Y-151.474 Z-4.733
X139.75 Y-151.411 Z-4.76
X139.604 Y-151.125
X139.564 Y-151.043
X139.378 Y-150.642
X139.373 Y-150.623
X139.306 Y-150.313
X139.277 Y-150.167
X139.208 Y-149.73
X139.179 Y-149.438
X139.139 Y-149.166
X139.011 Y-148.835
X138.801 Y-148.523
X138.505 Y-148.244
X138.108 Y-148.01
X137.592 Y-147.845
X136.996 Y-147.793
X136.36 Y-147.881
X135.754 Y-148.093
X135.18 Y-148.382
X134.656 Y-148.753
X134.167 Y-149.17
X133.728 Y-149.638
X133.328 Y-150.14
X132.966 Y-150.67
X132.649 Y-151.229
X132.37 Y-151.807
X132.126 Y-152.402
X131.921 Y-153.01
X131.75 Y-153.629
X131.609 Y-154.256
X131.496 Y-154.888
X131.406 Y-155.524
X131.34 Y-156.162
X131.292 Y-156.803
X131.257 Y-157.444
X131.234 Y-158.086
X131.221 Y-158.728
X131.214 Y-159.37
X131.216 Y-160.012
X131.226 Y-160.654
X131.251 Y-161.296
X131.28 Y-161.57
X131.313 Y-161.681
X131.384 Y-161.772
X131.482 Y-161.832
X131.596 Y-161.854
X134.524
G3 X134.812 Y-161.644 Z-4.608 I-0.011 J0.317
G1 X134.853 Y-161.53 Z-4.56
X134.937 Y-161.297
X138.952 Y-150.146
X139.036 Y-149.912
X139.161 Y-149.565 Z-4.708
X139.177 Y-149.502 Z-4.734
X139.179 Y-149.438 Z-4.76
X139.165 Y-149.292
X139.163 Y-149.146
Y-147.103
X139.142 Y-146.702
X139.041 Y-146.34
X138.841 Y-145.971
X138.528 Y-145.614
X138.114 Y-145.312
X137.587 Y-145.086
X136.956 Y-144.97
X136.314 Y-144.968
X135.68 Y-145.07
X135.062 Y-145.244
X134.465 Y-145.483
X133.888 Y-145.764
X133.344 Y-146.105
X132.825 Y-146.484
X132.331 Y-146.893
X131.872 Y-147.343
X131.443 Y-147.821
X131.041 Y-148.322
X130.667 Y-148.844
X130.33 Y-149.39
X130.021 Y-149.953
X129.74 Y-150.531
X129.486 Y-151.12
X129.265 Y-151.724
X129.073 Y-152.336
X128.905 Y-152.956
X128.761 Y-153.582
X128.64 Y-154.213
X128.542 Y-154.847
X128.465 Y-155.485
X128.405 Y-156.124
X128.36 Y-156.765
X128.327 Y-157.406
X128.304 Y-158.048
X128.29 Y-158.69
X128.284 Y-159.332
X128.285 Y-159.974
X128.294 Y-160.616
X128.316 Y-161.258
X128.348 Y-161.569
X128.381 Y-161.68
X128.451 Y-161.772
X128.55 Y-161.832
X128.664 Y-161.854
X131.596
G3 X131.773 Y-161.28 I-0.011 J0.317
G1 X131.716 Y-161.238 Z-4.752
X131.662 Y-161.199 Z-4.729
X131.613 Y-161.163 Z-4.691
X131.572 Y-161.133 Z-4.64
X131.542 Y-161.111 Z-4.58
X131.523 Y-161.097 Z-4.513
X131.517 Y-161.092 Z-4.443
G0 Z5
X138.779 Y-148.129
Z-4.125
G1 Z-4.443 F250
X138.783 Y-148.123 Z-4.513
X138.795 Y-148.102 Z-4.58
X138.814 Y-148.07 Z-4.64
X138.84 Y-148.027 Z-4.691
X138.871 Y-147.975 Z-4.729
X138.905 Y-147.917 Z-4.752
X138.941 Y-147.856 Z-4.76
G3 X139.163 Y-147.103 I-1.36 J0.809
G1 Y-144.33
X139.142 Y-143.926
X139.036 Y-143.547
X138.826 Y-143.159
X138.504 Y-142.791
X138.073 Y-142.478
X137.483 Y-142.224
X136.853 Y-142.099
X136.211 Y-142.078
X135.571 Y-142.135
X134.94 Y-142.255
X134.319 Y-142.419
X133.714 Y-142.634
X133.124 Y-142.886
X132.549 Y-143.173
X131.995 Y-143.497
X131.463 Y-143.857
X130.95 Y-144.243
X130.456 Y-144.653
X129.986 Y-145.091
X129.543 Y-145.556
X129.122 Y-146.041
X128.722 Y-146.543
X128.343 Y-147.062
X127.993 Y-147.601
X127.669 Y-148.155
X127.367 Y-148.722
X127.088 Y-149.3
X126.83 Y-149.888
X126.599 Y-150.487
X126.393 Y-151.095
X126.209 Y-151.711
X126.046 Y-152.332
X125.903 Y-152.958
X125.778 Y-153.588
X125.674 Y-154.221
X125.589 Y-154.858
X125.521 Y-155.497
X125.467 Y-156.137
X125.425 Y-156.777
X125.394 Y-157.419
X125.373 Y-158.061
X125.359 Y-158.703
X125.353 Y-159.345
X125.354 Y-159.987
X125.364 Y-160.629
X125.386 Y-161.271
X125.417 Y-161.569
X125.45 Y-161.68
X125.52 Y-161.772
X125.619 Y-161.832
X125.733 Y-161.854
X128.664
G3 X128.841 Y-161.28 I-0.011 J0.317
G1 X128.784 Y-161.238 Z-4.752
X128.729 Y-161.199 Z-4.729
X128.681 Y-161.163 Z-4.691
X128.64 Y-161.133 Z-4.64
X128.61 Y-161.111 Z-4.58
X128.591 Y-161.097 Z-4.513
X128.585 Y-161.092 Z-4.443
G0 Z5
X138.779 Y-145.357
Z-4.125
G1 Z-4.443 F250
X138.783 Y-145.35 Z-4.513
X138.795 Y-145.33 Z-4.58
X138.814 Y-145.297 Z-4.64
X138.84 Y-145.254 Z-4.691
X138.871 Y-145.202 Z-4.729
X138.905 Y-145.145 Z-4.752
X138.941 Y-145.084 Z-4.76
G3 X139.163 Y-144.33 I-1.36 J0.809
G1 Y-141.412
X139.146 Y-141.082
X139.039 Y-140.701
X138.827 Y-140.309
X138.493 Y-139.928
X138.047 Y-139.603
X137.457 Y-139.35
X136.828 Y-139.218
X136.187 Y-139.18
X135.545 Y-139.204
X134.909 Y-139.289
X134.279 Y-139.412
X133.656 Y-139.568
X133.045 Y-139.766
X132.445 Y-139.996
X131.857 Y-140.253
X131.281 Y-140.537
X130.72 Y-140.85
X130.177 Y-141.193
X129.65 Y-141.56
X129.138 Y-141.948
X128.642 Y-142.355
X128.164 Y-142.785
X127.709 Y-143.238
X127.273 Y-143.709
X126.854 Y-144.195
X126.452 Y-144.696
X126.067 Y-145.211
X125.707 Y-145.743
X125.369 Y-146.289
X125.05 Y-146.846
X124.751 Y-147.414
X124.469 Y-147.991
X124.206 Y-148.577
X123.965 Y-149.172
X123.747 Y-149.776
X123.549 Y-150.387
X123.369 Y-151.003
X123.206 Y-151.625
X123.06 Y-152.25
X122.931 Y-152.879
X122.82 Y-153.512
X122.727 Y-154.147
X122.65 Y-154.785
X122.587 Y-155.424
X122.535 Y-156.064
X122.495 Y-156.705
X122.465 Y-157.346
X122.443 Y-157.988
X122.429 Y-158.63
X122.422 Y-159.272
X122.423 Y-159.914
X122.431 Y-160.557
X122.45 Y-161.199
X122.484 Y-161.565
X122.516 Y-161.677
X122.586 Y-161.771
X122.685 Y-161.832
X122.8 Y-161.854
X125.733
G3 X125.909 Y-161.28 I-0.011 J0.317
G1 X125.852 Y-161.238 Z-4.752
X125.798 Y-161.199 Z-4.729
X125.75 Y-161.163 Z-4.691
X125.709 Y-161.133 Z-4.64
X125.679 Y-161.111 Z-4.58
X125.66 Y-161.097 Z-4.513
X125.653 Y-161.092 Z-4.443
G0 Z5
X138.779 Y-142.438
Z-4.125
G1 Z-4.443 F250
X138.783 Y-142.432 Z-4.513
X138.795 Y-142.411 Z-4.58
X138.814 Y-142.379 Z-4.64
X138.84 Y-142.336 Z-4.691
X138.871 Y-142.284 Z-4.729
X138.905 Y-142.226 Z-4.752
X138.941 Y-142.165 Z-4.76
G3 X139.163 Y-141.412 I-1.36 J0.809
G1 Y-138.639
X139.141 Y-138.21
X139.034 Y-137.827
X138.82 Y-137.433
X138.484 Y-137.048
X138.029 Y-136.717
X137.439 Y-136.464
X136.811 Y-136.326
X136.171 Y-136.277
X135.529 Y-136.283
X134.89 Y-136.342
X134.255 Y-136.438
X133.625 Y-136.564
X133.001 Y-136.716
X132.386 Y-136.901
X131.781 Y-137.115
X131.184 Y-137.354
X130.597 Y-137.614
X130.02 Y-137.896
X129.455 Y-138.201
X128.905 Y-138.532
X128.369 Y-138.885
X127.845 Y-139.257
X127.333 Y-139.645
X126.835 Y-140.051
X126.352 Y-140.474
X125.888 Y-140.918
X125.441 Y-141.378
X125.008 Y-141.853
X124.59 Y-142.341
X124.187 Y-142.841
X123.799 Y-143.352
X123.431 Y-143.878
X123.083 Y-144.418
X122.751 Y-144.968
X122.436 Y-145.528
X122.137 Y-146.096
X121.854 Y-146.672
X121.587 Y-147.256
X121.339 Y-147.849
X121.112 Y-148.449
X120.901 Y-149.056
X120.708 Y-149.668
X120.53 Y-150.285
X120.368 Y-150.907
X120.22 Y-151.532
X120.087 Y-152.16
X119.971 Y-152.792
X119.871 Y-153.426
X119.786 Y-154.062
X119.714 Y-154.701
X119.654 Y-155.34
X119.605 Y-155.98
X119.566 Y-156.621
X119.536 Y-157.263
X119.514 Y-157.905
X119.499 Y-158.547
X119.492 Y-159.189
X119.491 Y-159.831
X119.498 Y-160.473
X119.514 Y-161.115
X119.549 Y-161.561
X119.58 Y-161.675
X119.65 Y-161.769
X119.75 Y-161.832
X119.866 Y-161.854
X122.8
G3 X122.977 Y-161.28 I-0.011 J0.317
G1 X122.92 Y-161.238 Z-4.752
X122.865 Y-161.199 Z-4.729
X122.817 Y-161.163 Z-4.691
X122.776 Y-161.133 Z-4.64
X122.746 Y-161.111 Z-4.58
X122.727 Y-161.097 Z-4.513
X122.721 Y-161.092 Z-4.443
G0 Z5
X138.779 Y-139.666
Z-4.125
G1 Z-4.443 F250
X138.783 Y-139.659 Z-4.513
X138.795 Y-139.639 Z-4.58
X138.814 Y-139.606 Z-4.64
X138.84 Y-139.563 Z-4.691
X138.871 Y-139.511 Z-4.729
X138.905 Y-139.454 Z-4.752
X138.941 Y-139.393 Z-4.76
G3 X139.163 Y-138.639 I-1.36 J0.809
G1 X139.162 Y-136.596
X139.16 Y-136.159
X139.142 Y-136.013
X139.085 Y-135.575
X139.065 Y-135.429
X139.046 Y-135.367
X138.829 Y-134.845
X138.811 Y-134.809
X138.788 Y-134.772
X138.437 Y-134.314
X138.414 Y-134.288
X138.386 Y-134.262
X138.145 Y-134.076
X137.926 Y-133.908
X137.89 Y-133.883
X137.853 Y-133.865
X137.403 Y-133.678
X137.27 Y-133.629
X137.124 Y-133.607
X136.978 Y-133.588
X136.686 Y-133.556
X136.465 Y-133.532
X136.395 Y-133.529
X134.79
X134.149 Y-133.561
X133.509 Y-133.623
X132.878 Y-133.74
X132.254 Y-133.892
X131.637 Y-134.07
X131.028 Y-134.274
X130.428 Y-134.501
X129.835 Y-134.749
X129.25 Y-135.015
X128.674 Y-135.299
X128.108 Y-135.602
X127.554 Y-135.926
X127.012 Y-136.271
X126.482 Y-136.632
X125.962 Y-137.01
X125.453 Y-137.401
X124.956 Y-137.808
X124.471 Y-138.229
X124.002 Y-138.667
X123.548 Y-139.122
X123.107 Y-139.589
X122.68 Y-140.068
X122.266 Y-140.559
X121.864 Y-141.06
X121.476 Y-141.572
X121.104 Y-142.095
X120.749 Y-142.63
X120.41 Y-143.176
X120.086 Y-143.73
X119.776 Y-144.293
X119.48 Y-144.863
X119.199 Y-145.44
X118.931 Y-146.024
X118.68 Y-146.615
X118.446 Y-147.213
X118.229 Y-147.817
X118.027 Y-148.427
X117.84 Y-149.041
X117.666 Y-149.659
X117.506 Y-150.281
X117.359 Y-150.906
X117.226 Y-151.535
X117.107 Y-152.166
X117.002 Y-152.799
X116.912 Y-153.435
X116.835 Y-154.073
X116.769 Y-154.711
X116.713 Y-155.351
X116.668 Y-155.992
X116.631 Y-156.633
X116.602 Y-157.274
X116.582 Y-157.916
X116.568 Y-158.558
X116.561 Y-159.2
X116.56 Y-159.843
X116.567 Y-160.485
X116.585 Y-161.127
X116.618 Y-161.56
X116.649 Y-161.674
X116.719 Y-161.769
X116.819 Y-161.832
X116.935 Y-161.854
X119.866
G3 X120.043 Y-161.28 I-0.011 J0.317
G1 X119.986 Y-161.238 Z-4.752
X119.932 Y-161.199 Z-4.729
X119.883 Y-161.163 Z-4.691
X119.842 Y-161.133 Z-4.64
X119.812 Y-161.111 Z-4.58
X119.793 Y-161.097 Z-4.513
X119.787 Y-161.092 Z-4.443
G0 Z5
X135.816 Y-133.912
Z-4.125
G1 Z-4.443 F250
X135.81 Y-133.908 Z-4.513
X135.789 Y-133.896 Z-4.58
X135.757 Y-133.877 Z-4.64
X135.714 Y-133.851 Z-4.691
X135.662 Y-133.82 Z-4.729
X135.604 Y-133.786 Z-4.752
X135.544 Y-133.75 Z-4.76
G3 X134.79 Y-133.529 I-0.809 J-1.36
G1 X127.059
X126.417 Y-133.561
X125.796 Y-133.724
X125.217 Y-134.001
X124.673 Y-134.342
X124.149 Y-134.714
X123.64 Y-135.104
X123.141 Y-135.509
X122.653 Y-135.927
X122.179 Y-136.36
X121.718 Y-136.807
X121.27 Y-137.267
X120.833 Y-137.738
X120.408 Y-138.22
X119.995 Y-138.711
X119.592 Y-139.211
X119.202 Y-139.721
X118.825 Y-140.241
X118.464 Y-140.772
X118.118 Y-141.313
X117.784 Y-141.862
X117.464 Y-142.419
X117.157 Y-142.982
X116.862 Y-143.553
X116.579 Y-144.129
X116.309 Y-144.712
X116.053 Y-145.301
X115.813 Y-145.897
X115.589 Y-146.498
X115.378 Y-147.105
X115.181 Y-147.716
X114.996 Y-148.331
X114.824 Y-148.95
X114.664 Y-149.572
X114.516 Y-150.197
X114.381 Y-150.825
X114.258 Y-151.455
X114.148 Y-152.088
X114.052 Y-152.723
X113.969 Y-153.359
X113.896 Y-153.997
X113.833 Y-154.637
X113.78 Y-155.277
X113.736 Y-155.917
X113.701 Y-156.558
X113.672 Y-157.2
X113.652 Y-157.842
X113.637 Y-158.484
X113.63 Y-159.126
X113.629 Y-159.768
X113.635 Y-160.41
X113.65 Y-161.052
X113.684 Y-161.557
X113.714 Y-161.672
X113.784 Y-161.768
X113.884 Y-161.831
X114.001 Y-161.854
X116.935
G3 X117.111 Y-161.28 I-0.011 J0.317
G1 X117.055 Y-161.238 Z-4.752
X117 Y-161.199 Z-4.729
X116.952 Y-161.163 Z-4.691
X116.911 Y-161.133 Z-4.64
X116.881 Y-161.111 Z-4.58
X116.862 Y-161.097 Z-4.513
X116.855 Y-161.092 Z-4.443
G0 Z5
X128.085 Y-133.912
Z-4.125
G1 Z-4.443 F250
X128.078 Y-133.908 Z-4.513
X128.058 Y-133.896 Z-4.58
X128.026 Y-133.877 Z-4.64
X127.983 Y-133.851 Z-4.691
X127.931 Y-133.82 Z-4.729
X127.873 Y-133.786 Z-4.752
X127.812 Y-133.75 Z-4.76
G3 X127.059 Y-133.529 I-0.809 J-1.36
G1 X122.245
X121.674 Y-133.557
X121.085 Y-133.722
X120.52 Y-134.028
X120.012 Y-134.42
X119.54 Y-134.856
X119.09 Y-135.314
X118.653 Y-135.785
X118.227 Y-136.265
X117.811 Y-136.755
X117.406 Y-137.253
X117.012 Y-137.76
X116.63 Y-138.276
X116.261 Y-138.802
X115.905 Y-139.336
X115.562 Y-139.879
X115.23 Y-140.429
X114.91 Y-140.986
X114.602 Y-141.549
X114.304 Y-142.118
X114.018 Y-142.693
X113.744 Y-143.274
X113.483 Y-143.86
X113.236 Y-144.453
X113.002 Y-145.051
X112.781 Y-145.654
X112.572 Y-146.262
X112.376 Y-146.873
X112.191 Y-147.488
X112.017 Y-148.106
X111.855 Y-148.728
X111.704 Y-149.352
X111.564 Y-149.979
X111.436 Y-150.608
X111.321 Y-151.239
X111.217 Y-151.873
X111.125 Y-152.509
X111.044 Y-153.146
X110.972 Y-153.784
X110.911 Y-154.423
X110.858 Y-155.063
X110.813 Y-155.704
X110.777 Y-156.345
X110.747 Y-156.987
X110.725 Y-157.628
X110.709 Y-158.27
X110.7 Y-158.912
X110.697 Y-159.555
X110.7 Y-160.197
X110.712 Y-160.839
X110.743 Y-161.48
X110.757 Y-161.58
X110.813 Y-161.72
X110.926 Y-161.818
X111.072 Y-161.854
X114.001
G3 X114.178 Y-161.28 I-0.011 J0.317
G1 X114.121 Y-161.238 Z-4.752
X114.067 Y-161.199 Z-4.729
X114.018 Y-161.163 Z-4.691
X113.978 Y-161.133 Z-4.64
X113.947 Y-161.111 Z-4.58
X113.928 Y-161.097 Z-4.513
X113.922 Y-161.092 Z-4.443
G0 Z5
X123.272 Y-133.912
Z-4.125
G1 Z-4.443 F250
X123.265 Y-133.908 Z-4.513
X123.245 Y-133.896 Z-4.58
X123.212 Y-133.877 Z-4.64
X123.169 Y-133.851 Z-4.691
X123.117 Y-133.82 Z-4.729
X123.059 Y-133.786 Z-4.752
X122.999 Y-133.75 Z-4.76
G3 X122.245 Y-133.529 I-0.809 J-1.36
G1 X118.161
X117.605 Y-133.556
X117.073 Y-133.705
X116.508 Y-134.011
X116.015 Y-134.422
X115.573 Y-134.888
X115.159 Y-135.379
X114.76 Y-135.883
X114.374 Y-136.396
X114.001 Y-136.919
X113.64 Y-137.45
X113.29 Y-137.988
X112.951 Y-138.534
X112.623 Y-139.086
X112.305 Y-139.644
X111.998 Y-140.207
X111.7 Y-140.777
X111.414 Y-141.351
X111.138 Y-141.931
X110.873 Y-142.516
X110.621 Y-143.107
X110.382 Y-143.703
X110.154 Y-144.303
X109.938 Y-144.908
X109.734 Y-145.517
X109.54 Y-146.129
X109.357 Y-146.745
X109.184 Y-147.363
X109.021 Y-147.984
X108.869 Y-148.608
X108.727 Y-149.235
X108.596 Y-149.863
X108.476 Y-150.494
X108.368 Y-151.127
X108.271 Y-151.762
X108.184 Y-152.398
X108.107 Y-153.036
X108.038 Y-153.674
X107.979 Y-154.314
X107.927 Y-154.954
X107.884 Y-155.595
X107.848 Y-156.236
X107.819 Y-156.877
X107.796 Y-157.519
X107.78 Y-158.161
X107.77 Y-158.803
X107.765 Y-159.445
X107.768 Y-160.087
X107.778 Y-160.73
X107.803 Y-161.371
X107.828 Y-161.574
X107.881 Y-161.716
X107.995 Y-161.817
X108.143 Y-161.854
X111.072
G3 X111.248 Y-161.28 I-0.011 J0.317
G1 X111.191 Y-161.238 Z-4.752
X111.137 Y-161.199 Z-4.729
X111.089 Y-161.163 Z-4.691
X111.048 Y-161.133 Z-4.64
X111.018 Y-161.111 Z-4.58
X110.999 Y-161.097 Z-4.513
X110.992 Y-161.092 Z-4.443
G0 Z5
X119.187 Y-133.912
Z-4.125
G1 Z-4.443 F250
X119.18 Y-133.908 Z-4.513
X119.16 Y-133.896 Z-4.58
X119.128 Y-133.877 Z-4.64
X119.084 Y-133.851 Z-4.691
X119.033 Y-133.82 Z-4.729
X118.975 Y-133.786 Z-4.752
X118.914 Y-133.75 Z-4.76
G3 X118.161 Y-133.529 I-0.809 J-1.36
G1 X114.368
X113.827 Y-133.556
X113.328 Y-133.695
X112.763 Y-134.001
X112.28 Y-134.424
X111.86 Y-134.91
X111.479 Y-135.427
X111.117 Y-135.957
X110.768 Y-136.496
X110.43 Y-137.042
X110.101 Y-137.594
X109.783 Y-138.152
X109.473 Y-138.714
X109.174 Y-139.282
X108.883 Y-139.855
X108.604 Y-140.433
X108.334 Y-141.016
X108.076 Y-141.604
X107.828 Y-142.197
X107.592 Y-142.794
X107.367 Y-143.395
X107.153 Y-144.001
X106.948 Y-144.609
X106.754 Y-145.222
X106.569 Y-145.837
X106.394 Y-146.454
X106.229 Y-147.075
X106.073 Y-147.698
X105.927 Y-148.323
X105.792 Y-148.951
X105.666 Y-149.581
X105.551 Y-150.213
X105.446 Y-150.846
X105.352 Y-151.481
X105.266 Y-152.118
X105.189 Y-152.756
X105.121 Y-153.394
X105.062 Y-154.034
X105.009 Y-154.674
X104.965 Y-155.314
X104.927 Y-155.955
X104.896 Y-156.597
X104.872 Y-157.238
X104.853 Y-157.88
X104.841 Y-158.522
X104.835 Y-159.165
X104.834 Y-159.807
X104.841 Y-160.449
X104.859 Y-161.091
X104.893 Y-161.559
X104.923 Y-161.673
X104.993 Y-161.768
X105.093 Y-161.831
X105.209 Y-161.854
X108.143
G3 X108.32 Y-161.28 I-0.011 J0.317
G1 X108.263 Y-161.238 Z-4.752
X108.209 Y-161.199 Z-4.729
X108.16 Y-161.163 Z-4.691
X108.119 Y-161.133 Z-4.64
X108.089 Y-161.111 Z-4.58
X108.07 Y-161.097 Z-4.513
X108.064 Y-161.092 Z-4.443
G0 Z5
X115.395 Y-133.912
Z-4.125
G1 Z-4.443 F250
X115.388 Y-133.908 Z-4.513
X115.367 Y-133.896 Z-4.58
X115.335 Y-133.877 Z-4.64
X115.292 Y-133.851 Z-4.691
X115.24 Y-133.82 Z-4.729
X115.182 Y-133.786 Z-4.752
X115.122 Y-133.75 Z-4.76
G3 X114.368 Y-133.529 I-0.809 J-1.36
G1 X110.721
X110.245 Y-133.552
X109.772 Y-133.685
X109.245 Y-133.97
X108.762 Y-134.393
X108.356 Y-134.891
X107.997 Y-135.423
X107.66 Y-135.969
X107.336 Y-136.524
X107.023 Y-137.085
X106.72 Y-137.651
X106.425 Y-138.221
X106.139 Y-138.797
X105.863 Y-139.376
X105.597 Y-139.961
X105.341 Y-140.55
X105.095 Y-141.143
X104.859 Y-141.74
X104.633 Y-142.341
X104.417 Y-142.946
X104.21 Y-143.554
X104.013 Y-144.165
X103.825 Y-144.779
X103.647 Y-145.396
X103.477 Y-146.015
X103.316 Y-146.637
X103.165 Y-147.261
X103.023 Y-147.888
X102.89 Y-148.516
X102.767 Y-149.146
X102.653 Y-149.778
X102.549 Y-150.412
X102.454 Y-151.047
X102.367 Y-151.683
X102.289 Y-152.321
X102.219 Y-152.959
X102.157 Y-153.598
X102.103 Y-154.238
X102.056 Y-154.879
X102.015 Y-155.52
X101.982 Y-156.161
X101.954 Y-156.802
X101.933 Y-157.444
X101.917 Y-158.086
X101.907 Y-158.728
X101.903 Y-159.371
X101.905 Y-160.013
X101.915 Y-160.655
X101.94 Y-161.297
X101.969 Y-161.569
X102.002 Y-161.68
X102.072 Y-161.772
X102.171 Y-161.832
X102.285 Y-161.854
X105.209
G3 X105.386 Y-161.28 I-0.011 J0.317
G1 X105.329 Y-161.238 Z-4.752
X105.275 Y-161.199 Z-4.729
X105.227 Y-161.163 Z-4.691
X105.186 Y-161.133 Z-4.64
X105.155 Y-161.111 Z-4.58
X105.137 Y-161.097 Z-4.513
X105.13 Y-161.092 Z-4.443
G0 Z5
X111.748 Y-133.912
Z-4.125
G1 Z-4.443 F250
X111.741 Y-133.908 Z-4.513
X111.721 Y-133.896 Z-4.58
X111.688 Y-133.877 Z-4.64
X111.645 Y-133.851 Z-4.691
X111.593 Y-133.82 Z-4.729
X111.536 Y-133.786 Z-4.752
X111.475 Y-133.75 Z-4.76
G3 X110.721 Y-133.529 I-0.809 J-1.36
G1 X107.22
X106.796 Y-133.55
X106.334 Y-133.679
X105.833 Y-133.95
X105.35 Y-134.373
X104.952 Y-134.878
X104.609 Y-135.42
X104.293 Y-135.979
X103.992 Y-136.547
X103.7 Y-137.119
X103.418 Y-137.695
X103.144 Y-138.276
X102.88 Y-138.862
X102.625 Y-139.451
X102.379 Y-140.044
X102.143 Y-140.642
X101.915 Y-141.242
X101.697 Y-141.846
X101.488 Y-142.453
X101.288 Y-143.063
X101.096 Y-143.676
X100.914 Y-144.292
X100.74 Y-144.91
X100.574 Y-145.531
X100.417 Y-146.154
X100.269 Y-146.778
X100.129 Y-147.405
X99.998 Y-148.034
X99.876 Y-148.664
X99.763 Y-149.296
X99.658 Y-149.93
X99.562 Y-150.565
X99.475 Y-151.201
X99.395 Y-151.838
X99.323 Y-152.477
X99.258 Y-153.115
X99.201 Y-153.755
X99.151 Y-154.395
X99.108 Y-155.036
X99.071 Y-155.677
X99.04 Y-156.319
X99.015 Y-156.96
X98.996 Y-157.602
X98.982 Y-158.244
X98.974 Y-158.886
X98.972 Y-159.529
X98.976 Y-160.171
X98.99 Y-160.813
X99.021 Y-161.454
X99.039 Y-161.58
X99.094 Y-161.72
X99.207 Y-161.818
X99.353 Y-161.854
X102.285
G3 X102.461 Y-161.28 I-0.011 J0.317
G1 X102.404 Y-161.238 Z-4.752
X102.35 Y-161.199 Z-4.729
X102.302 Y-161.163 Z-4.691
X102.261 Y-161.133 Z-4.64
X102.231 Y-161.111 Z-4.58
X102.212 Y-161.097 Z-4.513
X102.205 Y-161.092 Z-4.443
G0 Z5
X108.247 Y-133.912
Z-4.125
G1 Z-4.443 F250
X108.24 Y-133.908 Z-4.513
X108.22 Y-133.896 Z-4.58
X108.187 Y-133.877 Z-4.64
X108.144 Y-133.851 Z-4.691
X108.092 Y-133.82 Z-4.729
X108.035 Y-133.786 Z-4.752
X107.974 Y-133.75 Z-4.76
G3 X107.22 Y-133.529 I-0.809 J-1.36
G1 X103.865
X103.43 Y-133.55
X102.977 Y-133.677
X102.494 Y-133.938
X102.011 Y-134.361
X101.62 Y-134.871
X101.291 Y-135.422
X100.993 Y-135.991
X100.71 Y-136.568
X100.438 Y-137.149
X100.174 Y-137.735
X99.92 Y-138.325
X99.674 Y-138.918
X99.437 Y-139.515
X99.208 Y-140.115
X98.988 Y-140.718
X98.776 Y-141.324
X98.573 Y-141.933
X98.378 Y-142.545
X98.192 Y-143.16
X98.013 Y-143.777
X97.843 Y-144.396
X97.681 Y-145.017
X97.526 Y-145.641
X97.38 Y-146.266
X97.242 Y-146.893
X97.112 Y-147.522
X96.991 Y-148.153
X96.877 Y-148.785
X96.772 Y-149.418
X96.675 Y-150.053
X96.586 Y-150.689
X96.504 Y-151.326
X96.43 Y-151.964
X96.363 Y-152.603
X96.303 Y-153.242
X96.25 Y-153.882
X96.204 Y-154.522
X96.164 Y-155.163
X96.129 Y-155.805
X96.101 Y-156.446
X96.078 Y-157.088
X96.061 Y-157.73
X96.048 Y-158.372
X96.042 Y-159.014
X96.041 Y-159.656
X96.047 Y-160.298
X96.064 Y-160.94
X96.099 Y-161.582
X96.101 Y-161.59
X96.158 Y-161.725
X96.271 Y-161.82
X96.413 Y-161.854
X99.353
G3 X99.53 Y-161.28 I-0.011 J0.317
G1 X99.473 Y-161.238 Z-4.752
X99.419 Y-161.199 Z-4.729
X99.37 Y-161.163 Z-4.691
X99.33 Y-161.133 Z-4.64
X99.299 Y-161.111 Z-4.58
X99.28 Y-161.097 Z-4.513
X99.274 Y-161.092 Z-4.443
G0 Z5
X104.892 Y-133.912
Z-4.125
G1 Z-4.443 F250
X104.885 Y-133.908 Z-4.513
X104.865 Y-133.896 Z-4.58
X104.832 Y-133.877 Z-4.64
X104.789 Y-133.851 Z-4.691
X104.737 Y-133.82 Z-4.729
X104.68 Y-133.786 Z-4.752
X104.619 Y-133.75 Z-4.76
G3 X103.865 Y-133.529 I-0.809 J-1.36
G1 X100.51
X100.131 Y-133.547
X99.686 Y-133.672
X99.216 Y-133.927
X98.733 Y-134.35
X98.347 Y-134.863
X98.03 Y-135.422
X97.747 Y-135.998
X97.482 Y-136.583
X97.226 Y-137.172
X96.979 Y-137.765
X96.741 Y-138.361
X96.511 Y-138.961
X96.288 Y-139.563
X96.074 Y-140.168
X95.867 Y-140.777
X95.669 Y-141.387
X95.479 Y-142.001
X95.297 Y-142.617
X95.122 Y-143.234
X94.955 Y-143.854
X94.795 Y-144.476
X94.643 Y-145.1
X94.498 Y-145.726
X94.361 Y-146.353
X94.232 Y-146.982
X94.11 Y-147.613
X93.997 Y-148.245
X93.891 Y-148.878
X93.792 Y-149.513
X93.701 Y-150.149
X93.617 Y-150.785
X93.541 Y-151.423
X93.471 Y-152.061
X93.409 Y-152.701
X93.353 Y-153.34
X93.303 Y-153.981
X93.26 Y-154.621
X93.222 Y-155.262
X93.19 Y-155.904
X93.163 Y-156.545
X93.142 Y-157.187
X93.126 Y-157.829
X93.115 Y-158.471
X93.11 Y-159.114
Y-159.756
X93.118 Y-160.398
X93.137 Y-161.04
X93.166 Y-161.554
X93.195 Y-161.67
X93.265 Y-161.767
X93.365 Y-161.831
X93.483 Y-161.854
X96.413
G3 X96.59 Y-161.28 I-0.011 J0.317
G1 X96.533 Y-161.238 Z-4.752
X96.479 Y-161.199 Z-4.729
X96.43 Y-161.163 Z-4.691
X96.39 Y-161.133 Z-4.64
X96.359 Y-161.111 Z-4.58
X96.34 Y-161.097 Z-4.513
X96.334 Y-161.092 Z-4.443
G0 Z5
X101.537 Y-133.912
Z-4.125
G1 Z-4.443 F250
X101.53 Y-133.908 Z-4.513
X101.51 Y-133.896 Z-4.58
X101.477 Y-133.877 Z-4.64
X101.434 Y-133.851 Z-4.691
X101.382 Y-133.82 Z-4.729
X101.325 Y-133.786 Z-4.752
X101.264 Y-133.75 Z-4.76
G3 X100.51 Y-133.529 I-0.809 J-1.36
G1 X97.301
X96.881 Y-133.55
X96.443 Y-133.672
X95.982 Y-133.922
X95.499 Y-134.345
X95.119 Y-134.862
X94.812 Y-135.426
X94.542 Y-136.009
X94.291 Y-136.6
X94.051 Y-137.196
X93.818 Y-137.794
X93.594 Y-138.396
X93.377 Y-139
X93.168 Y-139.608
X92.966 Y-140.217
X92.773 Y-140.83
X92.586 Y-141.444
X92.407 Y-142.061
X92.235 Y-142.68
X92.07 Y-143.3
X91.913 Y-143.923
X91.762 Y-144.547
X91.619 Y-145.173
X91.483 Y-145.801
X91.354 Y-146.43
X91.232 Y-147.06
X91.118 Y-147.692
X91.011 Y-148.326
X90.911 Y-148.96
X90.818 Y-149.595
X90.733 Y-150.232
X90.654 Y-150.869
X90.582 Y-151.507
X90.516 Y-152.146
X90.458 Y-152.786
X90.405 Y-153.426
X90.358 Y-154.066
X90.318 Y-154.707
X90.282 Y-155.348
X90.252 Y-155.99
X90.227 Y-156.631
X90.207 Y-157.273
X90.193 Y-157.915
X90.183 Y-158.557
X90.178 Y-159.2
X90.18 Y-159.842
X90.19 Y-160.484
X90.21 Y-161.126
X90.24 Y-161.558
X90.27 Y-161.673
X90.34 Y-161.768
X90.44 Y-161.831
X90.557 Y-161.854
X93.483
G3 X93.66 Y-161.28 I-0.011 J0.317
G1 X93.603 Y-161.238 Z-4.752
X93.549 Y-161.199 Z-4.729
X93.5 Y-161.163 Z-4.691
X93.459 Y-161.133 Z-4.64
X93.429 Y-161.111 Z-4.58
X93.41 Y-161.097 Z-4.513
X93.404 Y-161.092 Z-4.443
G0 Z5
X98.328 Y-133.912
Z-4.125
G1 Z-4.443 F250
X98.321 Y-133.908 Z-4.513
X98.301 Y-133.896 Z-4.58
X98.268 Y-133.877 Z-4.64
X98.225 Y-133.851 Z-4.691
X98.173 Y-133.82 Z-4.729
X98.115 Y-133.786 Z-4.752
X98.055 Y-133.75 Z-4.76
G3 X97.301 Y-133.529 I-0.809 J-1.36
G1 X94.092
X93.675 Y-133.549
X93.242 Y-133.67
X92.788 Y-133.916
X92.31 Y-134.335
X91.932 Y-134.854
X91.633 Y-135.422
X91.375 Y-136.011
X91.136 Y-136.607
X90.908 Y-137.207
X90.688 Y-137.81
X90.477 Y-138.417
X90.272 Y-139.025
X90.075 Y-139.637
X89.885 Y-140.25
X89.702 Y-140.866
X89.525 Y-141.483
X89.355 Y-142.102
X89.193 Y-142.724
X89.036 Y-143.346
X88.887 Y-143.971
X88.744 Y-144.597
X88.609 Y-145.225
X88.48 Y-145.854
X88.358 Y-146.485
X88.243 Y-147.116
X88.135 Y-147.749
X88.034 Y-148.384
X87.939 Y-149.019
X87.851 Y-149.655
X87.77 Y-150.292
X87.696 Y-150.93
X87.628 Y-151.568
X87.566 Y-152.208
X87.511 Y-152.847
X87.461 Y-153.488
X87.416 Y-154.128
X87.378 Y-154.769
X87.344 Y-155.411
X87.315 Y-156.052
X87.292 Y-156.694
X87.273 Y-157.336
X87.259 Y-157.978
X87.251 Y-158.62
X87.247 Y-159.262
X87.25 Y-159.904
X87.26 Y-160.546
X87.282 Y-161.188
X87.313 Y-161.562
X87.344 Y-161.676
X87.415 Y-161.77
X87.514 Y-161.832
X87.63 Y-161.854
X90.557
G3 X90.733 Y-161.28 I-0.011 J0.317
G1 X90.676 Y-161.238 Z-4.752
X90.622 Y-161.199 Z-4.729
X90.574 Y-161.163 Z-4.691
X90.533 Y-161.133 Z-4.64
X90.503 Y-161.111 Z-4.58
X90.484 Y-161.097 Z-4.513
X90.477 Y-161.092 Z-4.443
G0 Z5
X95.118 Y-133.912
Z-4.125
G1 Z-4.443 F250
X95.112 Y-133.908 Z-4.513
X95.091 Y-133.896 Z-4.58
X95.059 Y-133.877 Z-4.64
X95.016 Y-133.851 Z-4.691
X94.964 Y-133.82 Z-4.729
X94.906 Y-133.786 Z-4.752
X94.846 Y-133.75 Z-4.76
G3 X94.092 Y-133.529 I-0.809 J-1.36
G1 X90.883
X90.502 Y-133.548
X90.074 Y-133.667
X89.625 Y-133.91
X89.16 Y-134.318
X88.782 Y-134.838
X88.487 Y-135.408
X88.238 Y-136
X88.01 Y-136.6
X87.794 Y-137.205
X87.587 Y-137.813
X87.386 Y-138.423
X87.192 Y-139.035
X87.005 Y-139.649
X86.824 Y-140.266
X86.65 Y-140.884
X86.482 Y-141.504
X86.32 Y-142.125
X86.165 Y-142.748
X86.017 Y-143.373
X85.875 Y-143.999
X85.739 Y-144.627
X85.611 Y-145.256
X85.488 Y-145.887
X85.372 Y-146.518
X85.263 Y-147.151
X85.16 Y-147.785
X85.064 Y-148.42
X84.974 Y-149.056
X84.891 Y-149.693
X84.814 Y-150.33
X84.743 Y-150.968
X84.678 Y-151.607
X84.62 Y-152.247
X84.567 Y-152.887
X84.519 Y-153.527
X84.477 Y-154.168
X84.439 Y-154.809
X84.407 Y-155.45
X84.38 Y-156.092
X84.358 Y-156.734
X84.34 Y-157.376
X84.327 Y-158.018
X84.319 Y-158.66
X84.316 Y-159.302
X84.319 Y-159.944
X84.33 Y-160.586
X84.353 Y-161.228
X84.385 Y-161.566
X84.417 Y-161.678
X84.487 Y-161.771
X84.586 Y-161.832
X84.701 Y-161.854
X87.63
G3 X87.806 Y-161.28 I-0.011 J0.317
G1 X87.749 Y-161.238 Z-4.752
X87.695 Y-161.199 Z-4.729
X87.647 Y-161.163 Z-4.691
X87.606 Y-161.133 Z-4.64
X87.576 Y-161.111 Z-4.58
X87.557 Y-161.097 Z-4.513
X87.55 Y-161.092 Z-4.443
G0 Z5
X91.909 Y-133.912
Z-4.125
G1 Z-4.443 F250
X91.902 Y-133.908 Z-4.513
X91.882 Y-133.896 Z-4.58
X91.85 Y-133.877 Z-4.64
X91.807 Y-133.851 Z-4.691
X91.755 Y-133.82 Z-4.729
X91.697 Y-133.786 Z-4.752
X91.636 Y-133.75 Z-4.76
G3 X90.883 Y-133.529 I-0.809 J-1.36
G1 X87.82
X87.354 Y-133.552
X86.93 Y-133.671
X86.486 Y-133.911
X86.03 Y-134.31
X85.652 Y-134.83
X85.362 Y-135.402
X85.121 Y-135.998
X84.904 Y-136.602
X84.699 Y-137.211
X84.501 Y-137.822
X84.31 Y-138.435
X84.125 Y-139.05
X83.947 Y-139.667
X83.774 Y-140.285
X83.608 Y-140.906
X83.448 Y-141.528
X83.294 Y-142.151
X83.147 Y-142.776
X83.005 Y-143.402
X82.87 Y-144.03
X82.741 Y-144.659
X82.618 Y-145.29
X82.501 Y-145.921
X82.391 Y-146.554
X82.287 Y-147.188
X82.189 Y-147.822
X82.097 Y-148.458
X82.011 Y-149.094
X81.932 Y-149.731
X81.859 Y-150.369
X81.792 Y-151.008
X81.73 Y-151.647
X81.674 Y-152.287
X81.623 Y-152.927
X81.578 Y-153.568
X81.537 Y-154.209
X81.502 Y-154.85
X81.471 Y-155.491
X81.445 Y-156.133
X81.423 Y-156.775
X81.406 Y-157.417
X81.394 Y-158.059
X81.387 Y-158.701
X81.385 Y-159.343
X81.389 Y-159.985
X81.4 Y-160.627
X81.424 Y-161.269
X81.455 Y-161.569
X81.488 Y-161.68
X81.558 Y-161.772
X81.657 Y-161.832
X81.771 Y-161.854
X84.701
G3 X84.878 Y-161.28 I-0.011 J0.317
G1 X84.821 Y-161.238 Z-4.752
X84.767 Y-161.199 Z-4.729
X84.718 Y-161.163 Z-4.691
X84.677 Y-161.133 Z-4.64
X84.647 Y-161.111 Z-4.58
X84.628 Y-161.097 Z-4.513
X84.622 Y-161.092 Z-4.443
G0 Z5
X88.846 Y-133.912
Z-4.125
G1 Z-4.443 F250
X88.839 Y-133.908 Z-4.513
X88.819 Y-133.896 Z-4.58
X88.786 Y-133.877 Z-4.64
X88.743 Y-133.851 Z-4.691
X88.692 Y-133.82 Z-4.729
X88.634 Y-133.786 Z-4.752
X88.573 Y-133.75 Z-4.76
G3 X87.82 Y-133.529 I-0.809 J-1.36
G1 X84.61
X84.232 Y-133.547
X83.811 Y-133.665
X83.371 Y-133.904
X82.924 Y-134.295
X82.546 Y-134.815
X82.26 Y-135.389
X82.027 Y-135.988
X81.819 Y-136.595
X81.622 Y-137.207
X81.433 Y-137.82
X81.251 Y-138.436
X81.074 Y-139.054
X80.904 Y-139.673
X80.739 Y-140.293
X80.58 Y-140.916
X80.427 Y-141.539
X80.28 Y-142.164
X80.138 Y-142.791
X80.003 Y-143.419
X79.874 Y-144.048
X79.75 Y-144.678
X79.633 Y-145.309
X79.522 Y-145.942
X79.416 Y-146.575
X79.316 Y-147.21
X79.223 Y-147.845
X79.135 Y-148.481
X79.053 Y-149.118
X78.978 Y-149.756
X78.908 Y-150.394
X78.844 Y-151.033
X78.784 Y-151.672
X78.731 Y-152.312
X78.682 Y-152.953
X78.638 Y-153.593
X78.599 Y-154.234
X78.565 Y-154.876
X78.535 Y-155.517
X78.51 Y-156.159
X78.49 Y-156.801
X78.474 Y-157.443
X78.462 Y-158.085
X78.455 Y-158.727
X78.453 Y-159.369
X78.458 Y-160.011
X78.47 Y-160.653
X78.494 Y-161.295
X78.524 Y-161.571
X78.558 Y-161.681
X78.628 Y-161.772
X78.727 Y-161.833
X78.84 Y-161.854
X81.771
G3 X81.948 Y-161.28 I-0.011 J0.317
G1 X81.891 Y-161.238 Z-4.752
X81.837 Y-161.199 Z-4.729
X81.788 Y-161.163 Z-4.691
X81.748 Y-161.133 Z-4.64
X81.717 Y-161.111 Z-4.58
X81.698 Y-161.097 Z-4.513
X81.692 Y-161.092 Z-4.443
G0 Z5
X85.637 Y-133.912
Z-4.125
G1 Z-4.443 F250
X85.63 Y-133.908 Z-4.513
X85.61 Y-133.896 Z-4.58
X85.577 Y-133.877 Z-4.64
X85.534 Y-133.851 Z-4.691
X85.482 Y-133.82 Z-4.729
X85.425 Y-133.786 Z-4.752
X85.364 Y-133.75 Z-4.76
G3 X84.61 Y-133.529 I-0.809 J-1.36
G1 X81.547
X81.128 Y-133.549
X80.71 Y-133.666
X80.273 Y-133.903
X79.833 Y-134.288
X79.456 Y-134.808
X79.173 Y-135.384
X78.946 Y-135.985
X78.746 Y-136.595
X78.557 Y-137.209
X78.376 Y-137.825
X78.201 Y-138.443
X78.032 Y-139.063
X77.869 Y-139.684
X77.711 Y-140.306
X77.559 Y-140.93
X77.412 Y-141.555
X77.271 Y-142.182
X77.136 Y-142.81
X77.006 Y-143.439
X76.882 Y-144.069
X76.764 Y-144.7
X76.652 Y-145.332
X76.545 Y-145.965
X76.444 Y-146.6
X76.348 Y-147.235
X76.259 Y-147.87
X76.175 Y-148.507
X76.097 Y-149.145
X76.025 Y-149.783
X75.958 Y-150.421
X75.896 Y-151.061
X75.84 Y-151.7
X75.788 Y-152.34
X75.741 Y-152.981
X75.699 Y-153.622
X75.661 Y-154.263
X75.629 Y-154.904
X75.6 Y-155.546
X75.576 Y-156.187
X75.556 Y-156.829
X75.541 Y-157.471
X75.53 Y-158.113
X75.523 Y-158.756
X75.522 Y-159.398
X75.527 Y-160.04
X75.54 Y-160.682
X75.564 Y-161.324
X75.593 Y-161.572
X75.647 Y-161.715
X75.76 Y-161.817
X75.909 Y-161.854
X78.84
G3 X79.017 Y-161.28 I-0.011 J0.317
G1 X78.96 Y-161.238 Z-4.752
X78.906 Y-161.199 Z-4.729
X78.857 Y-161.163 Z-4.691
X78.817 Y-161.133 Z-4.64
X78.786 Y-161.111 Z-4.58
X78.767 Y-161.097 Z-4.513
X78.761 Y-161.092 Z-4.443
G0 Z5
X82.574 Y-133.912
Z-4.125
G1 Z-4.443 F250
X82.567 Y-133.908 Z-4.513
X82.547 Y-133.896 Z-4.58
X82.514 Y-133.877 Z-4.64
X82.471 Y-133.851 Z-4.691
X82.419 Y-133.82 Z-4.729
X82.361 Y-133.786 Z-4.752
X82.301 Y-133.75 Z-4.76
G3 X81.547 Y-133.529 I-0.809 J-1.36
G1 X78.484
X78.041 Y-133.551
X77.626 Y-133.667
X77.192 Y-133.902
X76.758 Y-134.282
X76.38 Y-134.802
X76.1 Y-135.379
X75.879 Y-135.983
X75.685 Y-136.595
X75.504 Y-137.211
X75.33 Y-137.829
X75.162 Y-138.449
X75 Y-139.07
X74.843 Y-139.693
X74.691 Y-140.317
X74.545 Y-140.942
X74.405 Y-141.569
X74.269 Y-142.197
X74.14 Y-142.826
X74.015 Y-143.456
X73.896 Y-144.087
X73.783 Y-144.719
X73.675 Y-145.352
X73.572 Y-145.986
X73.475 Y-146.621
X73.384 Y-147.256
X73.298 Y-147.893
X73.218 Y-148.53
X73.144 Y-149.168
X73.074 Y-149.806
X73.01 Y-150.445
X72.95 Y-151.085
X72.896 Y-151.725
X72.846 Y-152.365
X72.801 Y-153.005
X72.76 Y-153.646
X72.724 Y-154.287
X72.692 Y-154.929
X72.665 Y-155.57
X72.642 Y-156.212
X72.623 Y-156.854
X72.608 Y-157.496
X72.597 Y-158.138
X72.592 Y-158.78
X72.591 Y-159.423
X72.596 Y-160.065
X72.609 Y-160.707
X72.634 Y-161.348
X72.661 Y-161.574
X72.715 Y-161.716
X72.829 Y-161.817
X72.977 Y-161.854
X75.909
G3 X76.085 Y-161.28 I-0.011 J0.317
G1 X76.028 Y-161.238 Z-4.752
X75.974 Y-161.199 Z-4.729
X75.926 Y-161.163 Z-4.691
X75.885 Y-161.133 Z-4.64
X75.855 Y-161.111 Z-4.58
X75.836 Y-161.097 Z-4.513
X75.829 Y-161.092 Z-4.443
G0 Z5
X79.51 Y-133.912
Z-4.125
G1 Z-4.443 F250
X79.503 Y-133.908 Z-4.513
X79.483 Y-133.896 Z-4.58
X79.451 Y-133.877 Z-4.64
X79.408 Y-133.851 Z-4.691
X79.356 Y-133.82 Z-4.729
X79.298 Y-133.786 Z-4.752
X79.237 Y-133.75 Z-4.76
G3 X78.484 Y-133.529 I-0.809 J-1.36
G1 X75.42
X74.969 Y-133.551
X74.556 Y-133.667
X74.124 Y-133.901
X73.694 Y-134.277
X73.317 Y-134.796
X73.039 Y-135.375
X72.823 Y-135.98
X72.635 Y-136.594
X72.461 Y-137.212
X72.294 Y-137.832
X72.132 Y-138.454
X71.976 Y-139.077
X71.825 Y-139.701
X71.679 Y-140.326
X71.539 Y-140.953
X71.403 Y-141.581
X71.273 Y-142.21
X71.149 Y-142.84
X71.029 Y-143.471
X70.915 Y-144.103
X70.806 Y-144.735
X70.702 Y-145.369
X70.603 Y-146.004
X70.51 Y-146.639
X70.422 Y-147.275
X70.34 Y-147.912
X70.263 Y-148.55
X70.192 Y-149.188
X70.125 Y-149.827
X70.063 Y-150.466
X70.006 Y-151.105
X69.953 Y-151.745
X69.905 Y-152.386
X69.862 Y-153.027
X69.822 Y-153.668
X69.787 Y-154.309
X69.757 Y-154.95
X69.73 Y-155.592
X69.708 Y-156.234
X69.689 Y-156.876
X69.675 Y-157.518
X69.665 Y-158.16
X69.66 Y-158.802
Y-159.444
X69.665 Y-160.086
X69.679 Y-160.728
X69.703 Y-161.37
X69.729 Y-161.575
X69.783 Y-161.717
X69.897 Y-161.817
X70.044 Y-161.854
X72.977
G3 X73.153 Y-161.28 I-0.011 J0.317
G1 X73.096 Y-161.238 Z-4.752
X73.042 Y-161.199 Z-4.729
X72.994 Y-161.163 Z-4.691
X72.953 Y-161.133 Z-4.64
X72.923 Y-161.111 Z-4.58
X72.904 Y-161.097 Z-4.513
X72.897 Y-161.092 Z-4.443
G0 Z5
X76.447 Y-133.912
Z-4.125
G1 Z-4.443 F250
X76.44 Y-133.908 Z-4.513
X76.42 Y-133.896 Z-4.58
X76.387 Y-133.877 Z-4.64
X76.344 Y-133.851 Z-4.691
X76.292 Y-133.82 Z-4.729
X76.235 Y-133.786 Z-4.752
X76.174 Y-133.75 Z-4.76
G3 X75.42 Y-133.529 I-0.809 J-1.36
G1 X72.357
X71.909 Y-133.551
X71.498 Y-133.666
X71.068 Y-133.899
X70.642 Y-134.272
X70.264 Y-134.791
X69.988 Y-135.371
X69.777 Y-135.978
X69.595 Y-136.594
X69.426 Y-137.213
X69.265 Y-137.835
X69.109 Y-138.458
X68.959 Y-139.082
X68.814 Y-139.708
X68.673 Y-140.334
X68.538 Y-140.962
X68.408 Y-141.591
X68.282 Y-142.221
X68.162 Y-142.852
X68.047 Y-143.483
X67.937 Y-144.116
X67.832 Y-144.75
X67.732 Y-145.384
X67.637 Y-146.019
X67.548 Y-146.655
X67.464 Y-147.292
X67.385 Y-147.929
X67.311 Y-148.567
X67.241 Y-149.205
X67.177 Y-149.844
X67.117 Y-150.484
X67.062 Y-151.124
X67.011 Y-151.764
X66.965 Y-152.404
X66.923 Y-153.045
X66.885 Y-153.686
X66.851 Y-154.327
X66.821 Y-154.969
X66.796 Y-155.611
X66.774 Y-156.252
X66.756 Y-156.894
X66.743 Y-157.536
X66.733 Y-158.178
X66.728 Y-158.821
Y-159.463
X66.734 Y-160.105
X66.748 Y-160.747
X66.772 Y-161.389
X66.797 Y-161.577
X66.851 Y-161.718
X66.965 Y-161.818
X67.112 Y-161.854
X70.044
G3 X70.221 Y-161.28 I-0.011 J0.317
G1 X70.164 Y-161.238 Z-4.752
X70.11 Y-161.199 Z-4.729
X70.061 Y-161.163 Z-4.691
X70.021 Y-161.133 Z-4.64
X69.99 Y-161.111 Z-4.58
X69.971 Y-161.097 Z-4.513
X69.965 Y-161.092 Z-4.443
G0 Z5
X73.384 Y-133.912
Z-4.125
G1 Z-4.443 F250
X73.377 Y-133.908 Z-4.513
X73.357 Y-133.896 Z-4.58
X73.324 Y-133.877 Z-4.64
X73.281 Y-133.851 Z-4.691
X73.229 Y-133.82 Z-4.729
X73.171 Y-133.786 Z-4.752
X73.111 Y-133.75 Z-4.76
G3 X72.357 Y-133.529 I-0.809 J-1.36
G1 X69.294
X68.859 Y-133.55
X68.45 Y-133.665
X68.022 Y-133.896
X67.599 Y-134.267
X67.221 Y-134.787
X66.947 Y-135.367
X66.739 Y-135.975
X66.563 Y-136.593
X66.4 Y-137.214
X66.244 Y-137.837
X66.094 Y-138.461
X65.948 Y-139.087
X65.808 Y-139.713
X65.673 Y-140.341
X65.542 Y-140.97
X65.417 Y-141.6
X65.296 Y-142.23
X65.18 Y-142.862
X65.069 Y-143.494
X64.963 Y-144.128
X64.861 Y-144.762
X64.765 Y-145.397
X64.674 Y-146.033
X64.588 Y-146.669
X64.507 Y-147.306
X64.431 Y-147.944
X64.359 Y-148.582
X64.293 Y-149.221
X64.23 Y-149.86
X64.173 Y-150.499
X64.119 Y-151.139
X64.07 Y-151.78
X64.025 Y-152.42
X63.984 Y-153.061
X63.948 Y-153.702
X63.915 Y-154.344
X63.886 Y-154.985
X63.861 Y-155.627
X63.84 Y-156.269
X63.823 Y-156.911
X63.81 Y-157.553
X63.801 Y-158.195
X63.797 Y-158.837
Y-159.479
X63.803 Y-160.121
X63.817 Y-160.763
X63.841 Y-161.405
X63.864 Y-161.578
X63.919 Y-161.718
X64.032 Y-161.818
X64.179 Y-161.854
X67.112
G3 X67.288 Y-161.28 I-0.011 J0.317
G1 X67.231 Y-161.238 Z-4.752
X67.177 Y-161.199 Z-4.729
X67.129 Y-161.163 Z-4.691
X67.088 Y-161.133 Z-4.64
X67.058 Y-161.111 Z-4.58
X67.039 Y-161.097 Z-4.513
X67.032 Y-161.092 Z-4.443
G0 Z5
X70.32 Y-133.912
Z-4.125
G1 Z-4.443 F250
X70.314 Y-133.908 Z-4.513
X70.293 Y-133.896 Z-4.58
X70.261 Y-133.877 Z-4.64
X70.218 Y-133.851 Z-4.691
X70.166 Y-133.82 Z-4.729
X70.108 Y-133.786 Z-4.752
X70.047 Y-133.75 Z-4.76
G3 X69.294 Y-133.529 I-0.809 J-1.36
G1 X66.231
X65.819 Y-133.549
X65.411 Y-133.663
X64.985 Y-133.894
X64.564 Y-134.263
X64.186 Y-134.782
X63.914 Y-135.364
X63.71 Y-135.973
X63.538 Y-136.591
X63.38 Y-137.214
X63.229 Y-137.838
X63.084 Y-138.463
X62.944 Y-139.09
X62.808 Y-139.718
X62.677 Y-140.347
X62.551 Y-140.976
X62.43 Y-141.607
X62.313 Y-142.238
X62.201 Y-142.871
X62.094 Y-143.504
X61.991 Y-144.138
X61.893 Y-144.773
X61.801 Y-145.408
X61.713 Y-146.044
X61.63 Y-146.681
X61.552 Y-147.318
X61.479 Y-147.956
X61.41 Y-148.595
X61.345 Y-149.234
X61.285 Y-149.873
X61.229 Y-150.513
X61.177 Y-151.153
X61.13 Y-151.793
X61.086 Y-152.434
X61.047 Y-153.075
X61.011 Y-153.716
X60.979 Y-154.358
X60.951 Y-154.999
X60.927 Y-155.641
X60.907 Y-156.283
X60.89 Y-156.925
X60.878 Y-157.567
X60.869 Y-158.209
X60.865 Y-158.851
X60.866 Y-159.493
X60.872 Y-160.136
X60.886 Y-160.778
X60.91 Y-161.419
X60.931 Y-161.578
X60.986 Y-161.719
X61.1 Y-161.818
X61.246 Y-161.854
X64.179
G3 X64.356 Y-161.28 I-0.011 J0.317
G1 X64.299 Y-161.238 Z-4.752
X64.244 Y-161.199 Z-4.729
X64.196 Y-161.163 Z-4.691
X64.155 Y-161.133 Z-4.64
X64.125 Y-161.111 Z-4.58
X64.106 Y-161.097 Z-4.513
X64.1 Y-161.092 Z-4.443
G0 Z5
X67.257 Y-133.912
Z-4.125
G1 Z-4.443 F250
X67.25 Y-133.908 Z-4.513
X67.23 Y-133.896 Z-4.58
X67.198 Y-133.877 Z-4.64
X67.154 Y-133.851 Z-4.691
X67.103 Y-133.82 Z-4.729
X67.045 Y-133.786 Z-4.752
X66.984 Y-133.75 Z-4.76
G3 X66.231 Y-133.529 I-0.809 J-1.36
G1 X63.167
X62.786 Y-133.548
X62.379 Y-133.662
X61.955 Y-133.891
X61.536 Y-134.258
X61.159 Y-134.777
X60.888 Y-135.36
X60.687 Y-135.97
X60.519 Y-136.59
X60.366 Y-137.213
X60.22 Y-137.839
X60.08 Y-138.465
X59.944 Y-139.093
X59.813 Y-139.722
X59.686 Y-140.351
X59.564 Y-140.982
X59.447 Y-141.613
X59.334 Y-142.245
X59.226 Y-142.878
X59.122 Y-143.512
X59.023 Y-144.146
X58.928 Y-144.782
X58.839 Y-145.418
X58.754 Y-146.054
X58.674 Y-146.691
X58.599 Y-147.329
X58.528 Y-147.967
X58.461 Y-148.606
X58.399 Y-149.245
X58.34 Y-149.885
X58.286 Y-150.525
X58.236 Y-151.165
X58.19 Y-151.805
X58.148 Y-152.446
X58.109 Y-153.087
X58.075 Y-153.728
X58.044 Y-154.37
X58.017 Y-155.012
X57.993 Y-155.653
X57.973 Y-156.295
X57.957 Y-156.937
X57.945 Y-157.579
X57.937 Y-158.221
X57.933 Y-158.864
X57.934 Y-159.506
X57.941 Y-160.148
X57.954 Y-160.79
X57.979 Y-161.432
X57.999 Y-161.579
X58.054 Y-161.719
X58.167 Y-161.818
X58.313 Y-161.854
X61.246
G3 X61.423 Y-161.28 I-0.011 J0.317
G1 X61.366 Y-161.238 Z-4.752
X61.312 Y-161.199 Z-4.729
X61.263 Y-161.163 Z-4.691
X61.223 Y-161.133 Z-4.64
X61.192 Y-161.111 Z-4.58
X61.173 Y-161.097 Z-4.513
X61.167 Y-161.092 Z-4.443
G0 Z5
X64.194 Y-133.912
Z-4.125
G1 Z-4.443 F250
X64.187 Y-133.908 Z-4.513
X64.167 Y-133.896 Z-4.58
X64.134 Y-133.877 Z-4.64
X64.091 Y-133.851 Z-4.691
X64.039 Y-133.82 Z-4.729
X63.982 Y-133.786 Z-4.752
X63.921 Y-133.75 Z-4.76
G3 X63.167 Y-133.529 I-0.809 J-1.36
G1 X60.104
X59.761 Y-133.546
X59.355 Y-133.659
X58.932 Y-133.888
X58.515 Y-134.253
X58.138 Y-134.773
X57.869 Y-135.356
X57.67 Y-135.967
X57.506 Y-136.588
X57.357 Y-137.212
X57.216 Y-137.839
X57.08 Y-138.466
X56.949 Y-139.095
X56.822 Y-139.725
X56.699 Y-140.355
X56.581 Y-140.986
X56.467 Y-141.618
X56.358 Y-142.251
X56.253 Y-142.885
X56.153 Y-143.519
X56.057 Y-144.154
X55.966 Y-144.79
X55.88 Y-145.426
X55.798 Y-146.063
X55.72 Y-146.7
X55.647 Y-147.338
X55.579 Y-147.977
X55.514 Y-148.616
X55.453 Y-149.255
X55.397 Y-149.895
X55.344 Y-150.535
X55.295 Y-151.175
X55.251 Y-151.816
X55.209 Y-152.457
X55.172 Y-153.098
X55.138 Y-153.739
X55.108 Y-154.381
X55.082 Y-155.022
X55.059 Y-155.664
X55.04 Y-156.306
X55.025 Y-156.948
X55.013 Y-157.59
X55.005 Y-158.232
X55.002 Y-158.874
X55.003 Y-159.516
X55.01 Y-160.159
X55.023 Y-160.801
X55.047 Y-161.442
X55.066 Y-161.58
X55.121 Y-161.719
X55.235 Y-161.818
X55.381 Y-161.854
X58.313
G3 X58.49 Y-161.28 I-0.011 J0.317
G1 X58.433 Y-161.238 Z-4.752
X58.379 Y-161.199 Z-4.729
X58.33 Y-161.163 Z-4.691
X58.29 Y-161.133 Z-4.64
X58.259 Y-161.111 Z-4.58
X58.241 Y-161.097 Z-4.513
X58.234 Y-161.092 Z-4.443
G0 Z5
X61.131 Y-133.912
Z-4.125
G1 Z-4.443 F250
X61.124 Y-133.908 Z-4.513
X61.103 Y-133.896 Z-4.58
X61.071 Y-133.877 Z-4.64
X61.028 Y-133.851 Z-4.691
X60.976 Y-133.82 Z-4.729
X60.918 Y-133.786 Z-4.752
X60.858 Y-133.75 Z-4.76
G3 X60.104 Y-133.529 I-0.809 J-1.36
G1 X57.187
X56.739 Y-133.551
X56.335 Y-133.664
X55.913 Y-133.892
X55.498 Y-134.256
X55.121 Y-134.775
X54.853 Y-135.359
X54.658 Y-135.971
X54.497 Y-136.592
X54.352 Y-137.218
X54.215 Y-137.845
X54.083 Y-138.474
X53.956 Y-139.103
X53.833 Y-139.734
X53.714 Y-140.365
X53.6 Y-140.997
X53.49 Y-141.629
X53.384 Y-142.263
X53.282 Y-142.897
X53.185 Y-143.532
X53.092 Y-144.167
X53.004 Y-144.803
X52.921 Y-145.44
X52.842 Y-146.077
X52.767 Y-146.715
X52.696 Y-147.353
X52.63 Y-147.992
X52.567 Y-148.631
X52.508 Y-149.271
X52.453 Y-149.911
X52.402 Y-150.551
X52.355 Y-151.191
X52.311 Y-151.832
X52.271 Y-152.473
X52.235 Y-153.114
X52.202 Y-153.755
X52.173 Y-154.397
X52.147 Y-155.038
X52.125 Y-155.68
X52.107 Y-156.322
X52.092 Y-156.964
X52.081 Y-157.606
X52.073 Y-158.248
X52.07 Y-158.891
X52.071 Y-159.533
X52.078 Y-160.175
X52.092 Y-160.817
X52.116 Y-161.459
X52.133 Y-161.581
X52.189 Y-161.72
X52.302 Y-161.818
X52.448 Y-161.854
X55.381
G3 X55.557 Y-161.28 I-0.011 J0.317
G1 X55.5 Y-161.238 Z-4.752
X55.446 Y-161.199 Z-4.729
X55.398 Y-161.163 Z-4.691
X55.357 Y-161.133 Z-4.64
X55.327 Y-161.111 Z-4.58
X55.308 Y-161.097 Z-4.513
X55.301 Y-161.092 Z-4.443
G0 Z5
X58.213 Y-133.912
Z-4.125
G1 Z-4.443 F250
X58.206 Y-133.908 Z-4.513
X58.186 Y-133.896 Z-4.58
X58.154 Y-133.877 Z-4.64
X58.11 Y-133.851 Z-4.691
X58.059 Y-133.82 Z-4.729
X58.001 Y-133.786 Z-4.752
X57.94 Y-133.75 Z-4.76
G3 X57.187 Y-133.529 I-0.809 J-1.36
G1 X54.123
X53.727 Y-133.548
X53.323 Y-133.661
X52.903 Y-133.889
X52.489 Y-134.251
X52.111 Y-134.771
X51.845 Y-135.355
X51.651 Y-135.968
X51.494 Y-136.59
X51.353 Y-137.217
X51.22 Y-137.845
X51.092 Y-138.474
X50.968 Y-139.105
X50.849 Y-139.736
X50.734 Y-140.367
X50.623 Y-141
X50.516 Y-141.633
X50.413 Y-142.267
X50.315 Y-142.902
X50.221 Y-143.537
X50.131 Y-144.173
X50.046 Y-144.809
X49.965 Y-145.446
X49.888 Y-146.084
X49.816 Y-146.722
X49.747 Y-147.36
X49.682 Y-147.999
X49.621 Y-148.639
X49.564 Y-149.278
X49.511 Y-149.918
X49.461 Y-150.559
X49.415 Y-151.199
X49.373 Y-151.84
X49.334 Y-152.481
X49.298 Y-153.122
X49.267 Y-153.763
X49.238 Y-154.405
X49.213 Y-155.047
X49.192 Y-155.689
X49.174 Y-156.33
X49.159 Y-156.972
X49.148 Y-157.615
X49.141 Y-158.257
X49.138 Y-158.899
X49.14 Y-159.541
X49.147 Y-160.183
X49.161 Y-160.825
X49.184 Y-161.467
X49.201 Y-161.581
X49.256 Y-161.72
X49.37 Y-161.818
X49.515 Y-161.854
X52.448
G3 X52.625 Y-161.28 I-0.011 J0.317
G1 X52.568 Y-161.238 Z-4.752
X52.513 Y-161.199 Z-4.729
X52.465 Y-161.163 Z-4.691
X52.424 Y-161.133 Z-4.64
X52.394 Y-161.111 Z-4.58
X52.375 Y-161.097 Z-4.513
X52.369 Y-161.092 Z-4.443
G0 Z5
X55.15 Y-133.912
Z-4.125
G1 Z-4.443 F250
X55.143 Y-133.908 Z-4.513
X55.123 Y-133.896 Z-4.58
X55.09 Y-133.877 Z-4.64
X55.047 Y-133.851 Z-4.691
X54.995 Y-133.82 Z-4.729
X54.938 Y-133.786 Z-4.752
X54.877 Y-133.75 Z-4.76
G3 X54.123 Y-133.529 I-0.809 J-1.36
G1 X51.06
X50.719 Y-133.546
X50.316 Y-133.658
X49.896 Y-133.885
X49.484 Y-134.247
X49.106 Y-134.766
X48.841 Y-135.351
X48.65 Y-135.964
X48.496 Y-136.588
X48.358 Y-137.215
X48.229 Y-137.844
X48.104 Y-138.474
X47.984 Y-139.105
X47.868 Y-139.736
X47.756 Y-140.369
X47.648 Y-141.002
X47.545 Y-141.636
X47.445 Y-142.27
X47.349 Y-142.905
X47.258 Y-143.541
X47.172 Y-144.177
X47.089 Y-144.814
X47.011 Y-145.451
X46.936 Y-146.089
X46.866 Y-146.727
X46.799 Y-147.366
X46.736 Y-148.005
X46.677 Y-148.645
X46.621 Y-149.284
X46.569 Y-149.925
X46.521 Y-150.565
X46.476 Y-151.206
X46.434 Y-151.846
X46.397 Y-152.487
X46.362 Y-153.129
X46.331 Y-153.77
X46.303 Y-154.412
X46.279 Y-155.053
X46.258 Y-155.695
X46.241 Y-156.337
X46.226 Y-156.979
X46.216 Y-157.621
X46.209 Y-158.264
X46.207 Y-158.906
X46.208 Y-159.548
X46.215 Y-160.19
X46.229 Y-160.832
X46.253 Y-161.474
X46.268 Y-161.582
X46.324 Y-161.72
X46.437 Y-161.818
X46.582 Y-161.854
X49.515
G3 X49.692 Y-161.28 I-0.011 J0.317
G1 X49.635 Y-161.238 Z-4.752
X49.581 Y-161.199 Z-4.729
X49.532 Y-161.163 Z-4.691
X49.492 Y-161.133 Z-4.64
X49.461 Y-161.111 Z-4.58
X49.442 Y-161.097 Z-4.513
X49.436 Y-161.092 Z-4.443
G0 Z5
X52.087 Y-133.912
Z-4.125
G1 Z-4.443 F250
X52.08 Y-133.908 Z-4.513
X52.059 Y-133.896 Z-4.58
X52.027 Y-133.877 Z-4.64
X51.984 Y-133.851 Z-4.691
X51.932 Y-133.82 Z-4.729
X51.874 Y-133.786 Z-4.752
X51.814 Y-133.75 Z-4.76
G3 X51.06 Y-133.529 I-0.809 J-1.36
G1 X48.143
X47.713 Y-133.55
X47.311 Y-133.663
X46.892 Y-133.889
X46.481 Y-134.249
X46.104 Y-134.768
X45.839 Y-135.354
X45.651 Y-135.968
X45.5 Y-136.592
X45.366 Y-137.22
X45.239 Y-137.849
X45.118 Y-138.48
X45.002 Y-139.112
X44.889 Y-139.744
X44.78 Y-140.377
X44.675 Y-141.01
X44.575 Y-141.645
X44.478 Y-142.279
X44.385 Y-142.915
X44.297 Y-143.551
X44.213 Y-144.188
X44.133 Y-144.825
X44.057 Y-145.463
X43.985 Y-146.101
X43.916 Y-146.739
X43.851 Y-147.378
X43.79 Y-148.017
X43.732 Y-148.657
X43.678 Y-149.297
X43.627 Y-149.937
X43.58 Y-150.577
X43.537 Y-151.218
X43.496 Y-151.859
X43.459 Y-152.5
X43.426 Y-153.141
X43.395 Y-153.783
X43.368 Y-154.425
X43.345 Y-155.066
X43.324 Y-155.708
X43.307 Y-156.35
X43.294 Y-156.992
X43.284 Y-157.634
X43.277 Y-158.276
X43.275 Y-158.919
X43.277 Y-159.561
X43.284 Y-160.203
X43.298 Y-160.845
X43.321 Y-161.487
X43.336 Y-161.583
X43.392 Y-161.721
X43.505 Y-161.818
X43.65 Y-161.854
X46.582
G3 X46.759 Y-161.28 I-0.011 J0.317
G1 X46.702 Y-161.238 Z-4.752
X46.648 Y-161.199 Z-4.729
X46.6 Y-161.163 Z-4.691
X46.559 Y-161.133 Z-4.64
X46.529 Y-161.111 Z-4.58
X46.51 Y-161.097 Z-4.513
X46.503 Y-161.092 Z-4.443
G0 Z5
X49.169 Y-133.912
Z-4.125
G1 Z-4.443 F250
X49.162 Y-133.908 Z-4.513
X49.142 Y-133.896 Z-4.58
X49.11 Y-133.877 Z-4.64
X49.066 Y-133.851 Z-4.691
X49.015 Y-133.82 Z-4.729
X48.957 Y-133.786 Z-4.752
X48.896 Y-133.75 Z-4.76
G3 X48.143 Y-133.529 I-0.809 J-1.36
G1 X45.079
X44.714 Y-133.547
X44.313 Y-133.659
X43.895 Y-133.885
X43.485 Y-134.245
X43.107 Y-134.764
X42.844 Y-135.35
X42.657 Y-135.964
X42.509 Y-136.589
X42.377 Y-137.218
X42.255 Y-137.848
X42.137 Y-138.479
X42.023 Y-139.111
X41.914 Y-139.744
X41.808 Y-140.378
X41.706 Y-141.012
X41.608 Y-141.646
X41.514 Y-142.282
X41.424 Y-142.917
X41.339 Y-143.554
X41.257 Y-144.191
X41.179 Y-144.828
X41.105 Y-145.466
X41.035 Y-146.105
X40.968 Y-146.743
X40.905 Y-147.382
X40.845 Y-148.022
X40.789 Y-148.661
X40.736 Y-149.301
X40.687 Y-149.942
X40.641 Y-150.582
X40.598 Y-151.223
X40.559 Y-151.864
X40.523 Y-152.505
X40.49 Y-153.147
X40.46 Y-153.788
X40.434 Y-154.43
X40.411 Y-155.071
X40.391 Y-155.713
X40.374 Y-156.355
X40.361 Y-156.997
X40.351 Y-157.639
X40.345 Y-158.282
X40.343 Y-158.924
X40.345 Y-159.566
X40.352 Y-160.208
X40.366 Y-160.85
X40.389 Y-161.492
X40.403 Y-161.583
X40.459 Y-161.721
X40.572 Y-161.818
X40.717 Y-161.854
X43.65
G3 X43.826 Y-161.28 I-0.011 J0.317
G1 X43.769 Y-161.238 Z-4.752
X43.715 Y-161.199 Z-4.729
X43.667 Y-161.163 Z-4.691
X43.626 Y-161.133 Z-4.64
X43.596 Y-161.111 Z-4.58
X43.577 Y-161.097 Z-4.513
X43.57 Y-161.092 Z-4.443
G0 Z5
X46.106 Y-133.912
Z-4.125
G1 Z-4.443 F250
X46.099 Y-133.908 Z-4.513
X46.079 Y-133.896 Z-4.58
X46.046 Y-133.877 Z-4.64
X46.003 Y-133.851 Z-4.691
X45.951 Y-133.82 Z-4.729
X45.894 Y-133.786 Z-4.752
X45.833 Y-133.75 Z-4.76
G3 X45.079 Y-133.529 I-0.809 J-1.36
G1 X42.162
X41.717 Y-133.551
X41.316 Y-133.663
X40.899 Y-133.888
X40.49 Y-134.247
X40.113 Y-134.766
X39.85 Y-135.352
X39.665 Y-135.967
X39.519 Y-136.593
X39.391 Y-137.222
X39.271 Y-137.853
X39.157 Y-138.485
X39.046 Y-139.117
X38.939 Y-139.751
X38.836 Y-140.385
X38.737 Y-141.019
X38.642 Y-141.654
X38.551 Y-142.29
X38.464 Y-142.926
X38.381 Y-143.563
X38.302 Y-144.2
X38.226 Y-144.838
X38.154 Y-145.476
X38.085 Y-146.114
X38.02 Y-146.753
X37.958 Y-147.393
X37.9 Y-148.032
X37.845 Y-148.672
X37.794 Y-149.312
X37.746 Y-149.952
X37.701 Y-150.593
X37.659 Y-151.234
X37.621 Y-151.875
X37.586 Y-152.516
X37.554 Y-153.158
X37.525 Y-153.799
X37.499 Y-154.441
X37.477 Y-155.083
X37.457 Y-155.724
X37.441 Y-156.366
X37.428 Y-157.008
X37.419 Y-157.651
X37.413 Y-158.293
X37.411 Y-158.935
X37.414 Y-159.577
X37.421 Y-160.219
X37.435 Y-160.861
X37.458 Y-161.503
X37.47 Y-161.583
X37.527 Y-161.721
X37.639 Y-161.819
X37.784 Y-161.854
X40.717
G3 X40.894 Y-161.28 I-0.011 J0.317
G1 X40.837 Y-161.238 Z-4.752
X40.783 Y-161.199 Z-4.729
X40.734 Y-161.163 Z-4.691
X40.694 Y-161.133 Z-4.64
X40.663 Y-161.111 Z-4.58
X40.644 Y-161.097 Z-4.513
X40.638 Y-161.092 Z-4.443
G0 Z5
X43.188 Y-133.912
Z-4.125
G1 Z-4.443 F250
X43.182 Y-133.908 Z-4.513
X43.161 Y-133.896 Z-4.58
X43.129 Y-133.877 Z-4.64
X43.086 Y-133.851 Z-4.691
X43.034 Y-133.82 Z-4.729
X42.976 Y-133.786 Z-4.752
X42.915 Y-133.75 Z-4.76
G3 X42.162 Y-133.529 I-0.809 J-1.36
G1 X39.099
X38.725 Y-133.547
X38.325 Y-133.659
X37.91 Y-133.884
X37.501 Y-134.242
X37.123 Y-134.762
X36.861 Y-135.348
X36.678 Y-135.964
X36.534 Y-136.59
X36.409 Y-137.22
X36.292 Y-137.851
X36.18 Y-138.483
X36.072 Y-139.116
X35.968 Y-139.75
X35.868 Y-140.384
X35.772 Y-141.019
X35.679 Y-141.655
X35.591 Y-142.291
X35.506 Y-142.928
X35.426 Y-143.565
X35.348 Y-144.202
X35.274 Y-144.84
X35.204 Y-145.478
X35.137 Y-146.117
X35.074 Y-146.756
X35.014 Y-147.395
X34.957 Y-148.035
X34.903 Y-148.675
X34.853 Y-149.315
X34.806 Y-149.956
X34.762 Y-150.596
X34.722 Y-151.237
X34.684 Y-151.878
X34.65 Y-152.52
X34.618 Y-153.161
X34.59 Y-153.803
X34.565 Y-154.444
X34.543 Y-155.086
X34.524 Y-155.728
X34.508 Y-156.37
X34.496 Y-157.012
X34.487 Y-157.654
X34.481 Y-158.296
X34.479 Y-158.939
X34.482 Y-159.581
X34.489 Y-160.223
X34.503 Y-160.865
X34.526 Y-161.507
X34.538 Y-161.584
X34.594 Y-161.721
X34.707 Y-161.819
X34.852 Y-161.854
X37.784
G3 X37.961 Y-161.28 I-0.011 J0.317
G1 X37.904 Y-161.238 Z-4.752
X37.85 Y-161.199 Z-4.729
X37.801 Y-161.163 Z-4.691
X37.761 Y-161.133 Z-4.64
X37.73 Y-161.111 Z-4.58
X37.711 Y-161.097 Z-4.513
X37.705 Y-161.092 Z-4.443
G0 Z5
X40.125 Y-133.912
Z-4.125
G1 Z-4.443 F250
X40.118 Y-133.908 Z-4.513
X40.098 Y-133.896 Z-4.58
X40.066 Y-133.877 Z-4.64
X40.022 Y-133.851 Z-4.691
X39.971 Y-133.82 Z-4.729
X39.913 Y-133.786 Z-4.752
X39.852 Y-133.75 Z-4.76
G3 X39.099 Y-133.529 I-0.809 J-1.36
G1 X36.181
X35.735 Y-133.551
X35.335 Y-133.663
X34.92 Y-133.887
X34.512 Y-134.244
X34.135 Y-134.764
X33.874 Y-135.351
X33.692 Y-135.967
X33.551 Y-136.593
X33.428 Y-137.223
X33.314 Y-137.855
X33.205 Y-138.488
X33.1 Y-139.122
X32.998 Y-139.756
X32.901 Y-140.391
X32.807 Y-141.026
X32.718 Y-141.662
X32.632 Y-142.298
X32.549 Y-142.935
X32.47 Y-143.572
