(1001)
(T25  D=3.175 CR=0 - ZMIN=-4.8 - flat end mill)
G90 G94
G17
G21
G28 G91 Z0
G90

(2D Contour6)
T25
S18000 M3
G54
M8
G0 X115.085 Y-83.861
Z15
Z5
G1 Z2 F317.5
Z-0.683
X115.093 Z-0.753 F635
X115.117 Z-0.82
X115.155 Z-0.88
X115.205 Z-0.931
X115.265 Y-83.86 Z-0.969
X115.332 Z-0.992
X115.403 Z-1
X115.72
G3 X116.037 Y-83.542 I0 J0.318
X23.962 Y-83.672 I-46.038 J-0.065
X70 Y-129.645 I46.038 J0.065
G1 X125
G2 X126.588 Y-131.232 I0 J-1.587
G1 Y-140
G2 X125 Y-141.587 I-1.588 J0
G1 X31.72
G2 X13.413 Y-123.28 I0 J18.307
G1 Y-37.071
G2 X15.342 Y-32.413 I6.588 J0
G1 X32.413 Y-15.342
G2 X37.071 Y-13.413 I4.658 J-4.658
G1 X102.929
G2 X107.587 Y-15.342 I0 J-6.587
G1 X124.659 Y-32.413
G2 X126.588 Y-37.071 I-4.659 J-4.658
G1 Y-124.232
G2 X125 Y-125.82 I-1.588 J0
G1 X97.585
G2 X96.063 Y-124.684 I0 J1.588
G1 X95.62 Y-123.193
G2 X96.237 Y-121.437 I1.522 J0.452
G3 X116.037 Y-83.542 I-26.237 J37.83
X115.719 Y-83.225 I-0.317 J0
G1 X115.402
X115.331 Z-0.992
X115.264 Z-0.969
X115.204 Y-83.226 Z-0.931
X115.154 Z-0.88
X115.116 Z-0.82
X115.092 Z-0.753
X115.084 Z-0.683
G0 Z5
X115.085 Y-83.861
G1 Z1 F317.5
Z-1.683
X115.093 Z-1.753 F635
X115.117 Z-1.82
X115.155 Z-1.88
X115.205 Z-1.931
X115.265 Y-83.86 Z-1.969
X115.332 Z-1.992
X115.403 Z-2
X115.72
G3 X116.037 Y-83.542 I0 J0.318
X23.962 Y-83.672 I-46.038 J-0.065
X70 Y-129.645 I46.038 J0.065
G1 X125
G2 X126.588 Y-131.232 I0 J-1.587
G1 Y-140
G2 X125 Y-141.587 I-1.588 J0
G1 X31.72
G2 X13.413 Y-123.28 I0 J18.307
G1 Y-37.071
G2 X15.342 Y-32.413 I6.588 J0
G1 X32.413 Y-15.342
G2 X37.071 Y-13.413 I4.658 J-4.658
G1 X102.929
G2 X107.587 Y-15.342 I0 J-6.587
G1 X124.659 Y-32.413
G2 X126.588 Y-37.071 I-4.659 J-4.658
G1 Y-124.232
G2 X125 Y-125.82 I-1.588 J0
G1 X97.585
G2 X96.063 Y-124.684 I0 J1.588
G1 X95.62 Y-123.193
G2 X96.237 Y-121.437 I1.522 J0.452
G3 X116.037 Y-83.542 I-26.237 J37.83
X115.719 Y-83.225 I-0.317 J0
G1 X115.402
X115.331 Z-1.992
X115.264 Z-1.969
X115.204 Y-83.226 Z-1.931
X115.154 Z-1.88
X115.116 Z-1.82
X115.092 Z-1.753
X115.084 Z-1.683
G0 Z5
X115.085 Y-83.861
G1 Z0 F317.5
Z-2.683
X115.093 Z-2.753 F635
X115.117 Z-2.82
X115.155 Z-2.88
X115.205 Z-2.931
X115.265 Y-83.86 Z-2.969
X115.332 Z-2.992
X115.403 Z-3
X115.72
G3 X116.037 Y-83.542 I0 J0.318
X23.962 Y-83.672 I-46.038 J-0.065
X70 Y-129.645 I46.038 J0.065
G1 X125
G2 X126.588 Y-131.232 I0 J-1.587
G1 Y-140
G2 X125 Y-141.587 I-1.588 J0
G1 X31.72
G2 X13.413 Y-123.28 I0 J18.307
G1 Y-37.071
G2 X15.342 Y-32.413 I6.588 J0
G1 X32.413 Y-15.342
G2 X37.071 Y-13.413 I4.658 J-4.658
G1 X102.929
G2 X107.587 Y-15.342 I0 J-6.587
G1 X124.659 Y-32.413
G2 X126.588 Y-37.071 I-4.659 J-4.658
G1 Y-124.232
G2 X125 Y-125.82 I-1.588 J0
G1 X97.585
G2 X96.063 Y-124.684 I0 J1.588
G1 X95.62 Y-123.193
G2 X96.237 Y-121.437 I1.522 J0.452
G3 X116.037 Y-83.542 I-26.237 J37.83
X115.719 Y-83.225 I-0.317 J0
G1 X115.402
X115.331 Z-2.992
X115.264 Z-2.969
X115.204 Y-83.226 Z-2.931
X115.154 Z-2.88
X115.116 Z-2.82
X115.092 Z-2.753
X115.084 Z-2.683
G0 Z5
X115.085 Y-83.861
G1 Z-1 F317.5
Z-3.683
X115.093 Z-3.753 F635
X115.117 Z-3.82
X115.155 Z-3.88
X115.205 Z-3.931
X115.265 Y-83.86 Z-3.969
X115.332 Z-3.992
X115.403 Z-4
X115.72
G3 X116.037 Y-83.542 I0 J0.318
X23.962 Y-83.672 I-46.038 J-0.065
X70 Y-129.645 I46.038 J0.065
G1 X125
G2 X126.588 Y-131.232 I0 J-1.587
G1 Y-140
G2 X125 Y-141.587 I-1.588 J0
G1 X31.72
G2 X13.413 Y-123.28 I0 J18.307
G1 Y-37.071
G2 X15.342 Y-32.413 I6.588 J0
G1 X32.413 Y-15.342
G2 X37.071 Y-13.413 I4.658 J-4.658
G1 X102.929
G2 X107.587 Y-15.342 I0 J-6.587
G1 X124.659 Y-32.413
G2 X126.588 Y-37.071 I-4.659 J-4.658
G1 Y-124.232
G2 X125 Y-125.82 I-1.588 J0
G1 X97.585
G2 X96.063 Y-124.684 I0 J1.588
G1 X95.62 Y-123.193
G2 X96.237 Y-121.437 I1.522 J0.452
G3 X116.037 Y-83.542 I-26.237 J37.83
X115.719 Y-83.225 I-0.317 J0
G1 X115.402
X115.331 Z-3.992
X115.264 Z-3.969
X115.204 Y-83.226 Z-3.931
X115.154 Z-3.88
X115.116 Z-3.82
X115.092 Z-3.753
X115.084 Z-3.683
G0 Z5
X115.085 Y-83.861
G1 Z-2 F317.5
Z-4.483
X115.093 Z-4.553 F635
X115.117 Z-4.62
X115.155 Z-4.68
X115.205 Z-4.731
X115.265 Y-83.86 Z-4.769
X115.332 Z-4.792
X115.403 Z-4.8
X115.72
G3 X116.037 Y-83.542 I0 J0.318
X23.962 Y-83.672 I-46.038 J-0.065
X70 Y-129.645 I46.038 J0.065
G1 X125
G2 X126.588 Y-131.232 I0 J-1.587
G1 Y-140
G2 X125 Y-141.587 I-1.588 J0
G1 X31.72
G2 X13.413 Y-123.28 I0 J18.307
G1 Y-37.071
G2 X15.342 Y-32.413 I6.588 J0
G1 X32.413 Y-15.342
G2 X37.071 Y-13.413 I4.658 J-4.658
G1 X102.929
G2 X107.587 Y-15.342 I0 J-6.587
G1 X124.659 Y-32.413
G2 X126.588 Y-37.071 I-4.659 J-4.658
G1 Y-124.232
G2 X125 Y-125.82 I-1.588 J0
G1 X97.585
G2 X96.063 Y-124.684 I0 J1.588
G1 X95.62 Y-123.193
G2 X96.237 Y-121.437 I1.522 J0.452
G3 X116.037 Y-83.542 I-26.237 J37.83
X115.719 Y-83.225 I-0.317 J0
G1 X115.402
X115.331 Z-4.792
X115.264 Z-4.769
X115.204 Y-83.226 Z-4.731
X115.154 Z-4.68
X115.116 Z-4.62
X115.092 Z-4.553
X115.084 Z-4.483
G0 Z15
M9
G28 G91 Z0
G90
G28 G91 X0 Y0
G90
M5
M30
