(1001)
(T1  D=3.175 CR=0 - ZMIN=-4.76 - flat end mill)
G90 G94
G17
G21
G28 G91 Z0
G90

(2D Contour2)
T1
S5000 M3
G54
M8
G0 X146.769 Y45.292
Z15
Z5
G1 Z1 F333.3
Z-4.443
G18 G2 X147.087 Z-4.76 I0.318 K0 F1000
G1 X147.404
G17 G3 X147.721 Y45.61 I0 J0.318
G1 Y178.229
G3 X145.938 Y180.012 I-1.783 J0
G1 X112.68
G3 X110.896 Y178.229 I0 J-1.783
G1 Y64.971
G2 X105.938 Y60.013 I-4.958 J0
G1 X92.68
G3 X90.897 Y58.229 I0 J-1.784
G1 Y24.971
G3 X92.68 Y23.188 I1.784 J0
G1 X145.938
G3 X147.721 Y24.971 I0 J1.784
G1 Y45.61
G3 X147.404 Y45.927 I-0.317 J0
G1 X147.087
G18 G3 X146.769 Z-4.443 I0 K0.318
G0 Z5
X216.769 Y157.273
G1 Z1 F333.3
Z-4.443
G2 X217.087 Z-4.76 I0.318 K0 F1000
G1 X217.404
G17 G3 X217.721 Y157.59 I0 J0.317
G1 Y178.229
G3 X215.938 Y180.012 I-1.783 J0
G1 X162.68
G3 X160.896 Y178.229 I0 J-1.783
G1 Y144.971
G3 X162.68 Y143.188 I1.783 J0
G1 X175.938
G2 X180.896 Y138.229 I0 J-4.958
G1 Y24.971
G3 X182.68 Y23.188 I1.783 J0
G1 X215.938
G3 X217.721 Y24.971 I0 J1.784
G1 Y157.59
G3 X217.404 Y157.908 I-0.317 J0
G1 X217.087
G18 G3 X216.769 Z-4.443 I0 K0.318
G0 Z5
X76.769 Y159.777
G1 Z1 F333.3
Z-4.443
G2 X77.086 Z-4.76 I0.318 K0 F1000
G1 X77.404
G17 G3 X77.721 Y160.094 I0 J0.317
G1 Y178.229
G3 X75.938 Y180.012 I-1.784 J0
G1 X32.68
G3 X30.896 Y178.229 I0 J-1.783
G1 Y144.971
G3 X32.68 Y143.188 I1.784 J0
G1 X45.938
G2 X50.896 Y138.229 I0 J-4.958
G1 Y64.971
G2 X45.938 Y60.013 I-4.958 J0
G1 X32.68
G3 X30.896 Y58.229 I0 J-1.784
G1 Y24.971
G3 X32.68 Y23.188 I1.784 J0
G1 X75.938
G3 X77.721 Y24.971 I0 J1.784
G1 Y160.094
G3 X77.404 Y160.412 I-0.317 J0
G1 X77.086
G18 G3 X76.769 Z-4.443 I0 K0.318
G0 Z15
G17
M9
G28 G91 Z0
G90
G28 G91 X0 Y0
G90
M5
M30
