(1001)
(T1  D=3.175 CR=0 - ZMIN=-4.76 - flat end mill)
G90 G94
G17
G21
G28 G91 Z0
G90

(2D Contour3)
T1
S5000 M3
G54
M8
G0 X-107.231 Y-157.908
Z15
Z5
G1 Z1 F333.3
Z-4.443
G18 G2 X-106.913 Z-4.76 I0.318 K0 F1000
G1 X-106.596
G17 G3 X-106.279 Y-157.59 I0 J0.318
G1 Y-24.971
G3 X-108.062 Y-23.188 I-1.783 J0
G1 X-141.32
G3 X-143.104 Y-24.971 I0 J-1.784
G1 Y-138.229
G2 X-148.062 Y-143.188 I-4.958 J0
G1 X-161.32
G3 X-163.104 Y-144.971 I0 J-1.783
G1 Y-178.229
G3 X-161.32 Y-180.012 I1.783 J0
G1 X-108.062
G3 X-106.279 Y-178.229 I0 J1.783
G1 Y-157.59
G3 X-106.596 Y-157.273 I-0.317 J0
G1 X-106.913
G18 G3 X-107.231 Z-4.443 I0 K0.318
G0 Z5
X-37.231 Y-45.927
G1 Z1 F333.3
Z-4.443
G2 X-36.914 Z-4.76 I0.318 K0 F1000
G1 X-36.596
G17 G3 X-36.279 Y-45.61 I0 J0.318
G1 Y-24.971
G3 X-38.062 Y-23.188 I-1.783 J0
G1 X-91.32
G3 X-93.104 Y-24.971 I0 J-1.784
G1 Y-58.229
G3 X-91.32 Y-60.013 I1.784 J0
G1 X-78.062
G2 X-73.104 Y-64.971 I0 J-4.958
G1 Y-178.229
G3 X-71.32 Y-180.012 I1.784 J0
G1 X-38.062
G3 X-36.279 Y-178.229 I0 J1.783
G1 Y-45.61
G3 X-36.596 Y-45.292 I-0.317 J0
G1 X-36.914
G18 G3 X-37.231 Z-4.443 I0 K0.318
G0 Z5
X-177.231 Y-43.423
G1 Z1 F333.3
Z-4.443
G2 X-176.913 Z-4.76 I0.318 K0 F1000
G1 X-176.596
G17 G3 X-176.279 Y-43.106 I0 J0.318
G1 Y-24.971
G3 X-178.062 Y-23.188 I-1.783 J0
G1 X-221.32
G3 X-223.104 Y-24.971 I0 J-1.784
G1 Y-58.229
G3 X-221.32 Y-60.013 I1.783 J0
G1 X-208.062
G2 X-203.104 Y-64.971 I0 J-4.958
G1 Y-138.229
G2 X-208.062 Y-143.188 I-4.958 J0
G1 X-221.32
G3 X-223.104 Y-144.971 I0 J-1.783
G1 Y-178.229
G3 X-221.32 Y-180.012 I1.783 J0
G1 X-178.062
G3 X-176.279 Y-178.229 I0 J1.783
G1 Y-43.106
G3 X-176.596 Y-42.788 I-0.317 J0
G1 X-176.913
G18 G3 X-177.231 Z-4.443 I0 K0.318
G0 Z15
G17
M9
G28 G91 Z0
G90
G28 G91 X0 Y0
G90
M5
M30
