(1001)
(T1  D=3.175 CR=0 - ZMIN=-4.76 - flat end mill)
G90 G94
G17
G21
G28 G91 Z0
G90

(2D Contour3)
T1
S5000 M3
G54
M8
G0 X143.658 Y142.184
Z15
Z5
G1 Z1 F333.3
Z-4.443
X143.663 Y142.179 Z-4.513 F1000
X143.68 Y142.162 Z-4.58
X143.707 Y142.135 Z-4.64
X143.742 Y142.1 Z-4.691
X143.785 Y142.057 Z-4.729
X143.832 Y142.01 Z-4.752
X143.882 Y141.96 Z-4.76
X144.107 Y141.735
G3 X144.556 Y141.735 I0.225 J0.225
G2 X148.062 Y143.188 I3.506 J-3.506
G1 X161.32
G3 X163.104 Y144.971 I0 J1.783
G1 Y178.229
G3 X161.32 Y180.012 I-1.783 J0
G1 X108.062
G3 X106.279 Y178.229 I0 J-1.783
G1 Y24.971
G3 X108.062 Y23.188 I1.783 J0
G1 X141.32
G3 X143.104 Y24.971 I0 J1.784
G1 Y138.229
G2 X144.556 Y141.735 I4.958 J0
G3 X144.556 Y142.184 I-0.225 J0.225
G1 X144.331 Y142.409
X144.281 Y142.459 Z-4.752
X144.234 Y142.506 Z-4.729
X144.191 Y142.549 Z-4.691
X144.156 Y142.584 Z-4.64
X144.129 Y142.611 Z-4.58
X144.112 Y142.628 Z-4.513
X144.107 Y142.633 Z-4.443
G0 Z5
X204.964 Y143.273
G1 Z1 F333.3
Z-4.443
X204.967 Y143.266 Z-4.513 F1000
X204.979 Y143.245 Z-4.58
X204.997 Y143.212 Z-4.64
X205.021 Y143.168 Z-4.691
X205.049 Y143.115 Z-4.729
X205.081 Y143.056 Z-4.752
X205.115 Y142.994 Z-4.76
X205.267 Y142.715
G3 X205.697 Y142.587 I0.279 J0.151
G2 X208.062 Y143.188 I2.365 J-4.358
G1 X221.32
G3 X223.104 Y144.971 I0 J1.783
G1 Y178.229
G3 X221.32 Y180.012 I-1.783 J0
G1 X178.062
G3 X176.279 Y178.229 I0 J-1.783
G1 Y24.971
G3 X178.062 Y23.188 I1.783 J0
G1 X221.32
G3 X223.104 Y24.971 I0 J1.784
G1 Y58.229
G3 X221.32 Y60.013 I-1.783 J0
G1 X208.062
G2 X203.104 Y64.971 I0 J4.958
G1 Y138.229
G2 X205.697 Y142.587 I4.958 J0
G3 X205.825 Y143.018 I-0.151 J0.279
G1 X205.673 Y143.297
X205.64 Y143.359 Z-4.752
X205.608 Y143.418 Z-4.729
X205.579 Y143.471 Z-4.691
X205.555 Y143.515 Z-4.64
X205.537 Y143.548 Z-4.58
X205.526 Y143.569 Z-4.513
X205.522 Y143.576 Z-4.443
G0 Z5
X74.107 Y60.567
G1 Z1 F333.3
Z-4.443
X74.113 Y60.572 Z-4.513 F1000
X74.129 Y60.589 Z-4.58
X74.156 Y60.616 Z-4.64
X74.192 Y60.651 Z-4.691
X74.234 Y60.694 Z-4.729
X74.282 Y60.741 Z-4.752
X74.332 Y60.791 Z-4.76
X74.556 Y61.016
G3 X74.556 Y61.465 I-0.225 J0.225
G2 X73.104 Y64.971 I3.506 J3.506
G1 Y178.229
G3 X71.32 Y180.012 I-1.784 J0
G1 X38.062
G3 X36.279 Y178.229 I0 J-1.783
G1 Y24.971
G3 X38.062 Y23.188 I1.783 J0
G1 X91.32
G3 X93.104 Y24.971 I0 J1.784
G1 Y58.229
G3 X91.32 Y60.013 I-1.784 J0
G1 X78.062
G2 X74.556 Y61.465 I0 J4.958
G3 X74.107 Y61.465 I-0.225 J-0.225
G1 X73.882 Y61.24
X73.833 Y61.19 Z-4.752
X73.785 Y61.143 Z-4.729
X73.743 Y61.1 Z-4.691
X73.707 Y61.065 Z-4.64
X73.68 Y61.038 Z-4.58
X73.664 Y61.021 Z-4.513
X73.658 Y61.016 Z-4.443
G0 Z15
M9
G28 G91 Z0
G90
G28 G91 X0 Y0
G90
M5
M30
