(1001)
(T1  D=3.175 CR=0 - ZMIN=-4.76 - flat end mill)
G90 G94
G17
G21
G28 G91 Z0
G90

(2D Contour1)
T1
S5000 M3
G54
M8
G0 X24.781 Y-37.193
Z15
Z5
G1 Z1 F333.3
Z-4.443
X24.776 Y-37.187 Z-4.513 F1000
X24.763 Y-37.167 Z-4.58
X24.743 Y-37.135 Z-4.64
X24.715 Y-37.093 Z-4.691
X24.682 Y-37.043 Z-4.729
X24.645 Y-36.987 Z-4.752
X24.606 Y-36.928 Z-4.76
X24.432 Y-36.662
G3 X23.993 Y-36.571 I-0.265 J-0.174
X23.188 Y-38.062 I0.978 J-1.491
G1 Y-91.32
G3 X24.971 Y-93.104 I1.784 J0
G1 X58.229
G3 X60.013 Y-91.32 I0 J1.784
G1 Y-78.062
G2 X64.971 Y-73.104 I4.958 J0
G1 X178.229
G3 X180.012 Y-71.32 I0 J1.784
G1 Y-38.062
G3 X178.229 Y-36.279 I-1.783 J0
G1 X24.971
G3 X23.993 Y-36.571 I0 J-1.783
X23.901 Y-37.011 I0.174 J-0.265
G1 X24.076 Y-37.276
X24.114 Y-37.335 Z-4.752
X24.151 Y-37.391 Z-4.729
X24.184 Y-37.442 Z-4.691
X24.212 Y-37.484 Z-4.64
X24.232 Y-37.515 Z-4.58
X24.245 Y-37.535 Z-4.513
X24.25 Y-37.542 Z-4.443
G0 Z5
X25.093 Y-107.181
G1 Z1 F333.3
Z-4.443
X25.091 Y-107.173 Z-4.513 F1000
X25.086 Y-107.15 Z-4.58
X25.078 Y-107.113 Z-4.64
X25.066 Y-107.064 Z-4.691
X25.053 Y-107.006 Z-4.729
X25.038 Y-106.94 Z-4.752
X25.022 Y-106.872 Z-4.76
X24.95 Y-106.562
G3 X24.569 Y-106.324 I-0.309 J-0.071
X23.188 Y-108.062 I0.402 J-1.738
G1 Y-141.32
G3 X24.971 Y-143.104 I1.784 J0
G1 X138.229
G2 X143.188 Y-148.062 I0 J-4.958
G1 Y-161.32
G3 X144.971 Y-163.104 I1.783 J0
G1 X178.229
G3 X180.012 Y-161.32 I0 J1.783
G1 Y-108.062
G3 X178.229 Y-106.279 I-1.783 J0
G1 X24.971
G3 X24.569 Y-106.324 I0 J-1.783
X24.332 Y-106.705 I0.071 J-0.309
G1 X24.403 Y-107.014
X24.419 Y-107.083 Z-4.752
X24.434 Y-107.149 Z-4.729
X24.448 Y-107.207 Z-4.691
X24.459 Y-107.256 Z-4.64
X24.467 Y-107.293 Z-4.58
X24.473 Y-107.316 Z-4.513
X24.475 Y-107.324 Z-4.443
G0 Z5
X25.17 Y-177.195
G1 Z1 F333.3
Z-4.443
X25.169 Y-177.187 Z-4.513 F1000
X25.166 Y-177.164 Z-4.58
X25.16 Y-177.126 Z-4.64
X25.153 Y-177.077 Z-4.691
X25.145 Y-177.017 Z-4.729
X25.136 Y-176.951 Z-4.752
X25.126 Y-176.881 Z-4.76
X25.082 Y-176.566
G3 X24.723 Y-176.296 I-0.314 J-0.044
X23.188 Y-178.062 I0.248 J-1.766
G1 Y-221.32
G3 X24.971 Y-223.104 I1.784 J0
G1 X58.229
G3 X60.013 Y-221.32 I0 J1.783
G1 Y-208.062
G2 X64.971 Y-203.104 I4.958 J0
G1 X138.229
G2 X143.188 Y-208.062 I0 J-4.958
G1 Y-221.32
G3 X144.971 Y-223.104 I1.783 J0
G1 X178.229
G3 X180.012 Y-221.32 I0 J1.783
G1 Y-178.062
G3 X178.229 Y-176.279 I-1.783 J0
G1 X24.971
X24.847 Y-176.283
X24.723 Y-176.296
G3 X24.453 Y-176.654 I0.044 J-0.314
G1 X24.497 Y-176.969
X24.507 Y-177.039 Z-4.752
X24.516 Y-177.105 Z-4.729
X24.525 Y-177.165 Z-4.691
X24.532 Y-177.215 Z-4.64
X24.537 Y-177.252 Z-4.58
X24.54 Y-177.275 Z-4.513
X24.541 Y-177.283 Z-4.443
G0 Z15
M9
G28 G91 Z0
G90
G28 G91 X0 Y0
G90
M5
M30
