(1001)
(T9  D=3.175 CR=0 - ZMIN=-6.26 - flat end mill)
G90 G94
G17
G21
G28 G91 Z0
G90

(2D Contour5)
T9
S18000 M3
G54
G0 X7.031 Y-7.389
Z15
Z5
G1 Z1 F50
Z-5.943
G18 G2 X7.349 Z-6.26 I0.317 K0 F150
G1 X7.666
G17 G3 X7.984 Y-7.071 I0 J0.317
X6.159 Y-7.071 I-0.912 J0
X7.984 Y-7.071 I0.912 J0
X7.666 Y-6.754 I-0.318 J0
G1 X7.349
G18 G3 X7.031 Z-5.943 I0 K0.318
G0 Z5
X82.889 Y-7.389
G1 Z1 F50
Z-5.943
G2 X83.206 Z-6.26 I0.317 K0 F150
G1 X83.524
G17 G3 X83.841 Y-7.071 I0 J0.317
X82.016 Y-7.071 I-0.912 J0
X83.841 Y-7.071 I0.912 J0
X83.524 Y-6.754 I-0.317 J0
G1 X83.206
G18 G3 X82.889 Z-5.943 I0 K0.318
G0 Z5
Y-223.247
G1 Z1 F50
Z-5.943
G2 X83.206 Z-6.26 I0.317 K0 F150
G1 X83.524
G17 G3 X83.841 Y-222.929 I0 J0.318
X82.016 Y-222.929 I-0.912 J0
X83.841 Y-222.929 I0.912 J0
X83.524 Y-222.611 I-0.317 J0
G1 X83.206
G18 G3 X82.889 Z-5.943 I0 K0.318
G0 Z5
X7.148 Y-223.24
G1 Z1 F50
Z-5.943
X7.156 Y-223.237 Z-6.013 F150
X7.178 Y-223.228 Z-6.08
X7.213 Y-223.214 Z-6.14
X7.26 Y-223.196 Z-6.191
X7.316 Y-223.175 Z-6.229
X7.379 Y-223.15 Z-6.252
X7.445 Y-223.125 Z-6.26
X7.741 Y-223.01
G17 G3 X7.922 Y-222.599 I-0.115 J0.296
X6.22 Y-223.259 I-0.851 J-0.33
X7.922 Y-222.599 I0.851 J0.33
X7.511 Y-222.418 I-0.296 J-0.115
G1 X7.215 Y-222.533
X7.149 Y-222.558 Z-6.252
X7.087 Y-222.582 Z-6.229
X7.031 Y-222.604 Z-6.191
X6.984 Y-222.622 Z-6.14
X6.948 Y-222.636 Z-6.08
X6.926 Y-222.645 Z-6.013
X6.919 Y-222.647 Z-5.943
G0 Z15
G28 G91 Z0
G90
G28 G91 X0 Y0
G90
M5
M30
