(1001)
(T2  D=6.35 CR=0 - ZMIN=-14.7 - flat end mill)
G90 G94
G17
G21
G28 G91 Z0
G90

(2D Contour1)
T2
S18000 M3
G54
G0 X-0.635 Y-30.92
Z15
Z5
G1 Z1 F1016
Z-14.065
G19 G2 Y-31.555 Z-14.7 J-0.635 K0 F3048
G1 Y-32.19
G17 G3 X0 Y-32.825 I0.635 J0
G1 X11.144
G3 X11.825 Y-32.144 I0 J0.681
G1 Y-27.5
G2 X73.175 Y-27.5 I30.675 J0
G1 Y-32.144
G3 X73.856 Y-32.825 I0.681 J0
G1 X85
G2 X88.175 Y-36 I0 J-3.175
G1 Y-44
G2 X85 Y-47.175 I-3.175 J0
G1 X62
G2 X58.825 Y-44 I0 J3.175
G1 Y-27.5
G3 X26.175 Y-27.5 I-16.325 J0
G1 Y-44
G2 X23 Y-47.175 I-3.175 J0
G1 X0
G2 X-3.175 Y-44 I0 J3.175
G1 Y-36
G2 X0 Y-32.825 I3.175 J0
G3 X0.635 Y-32.19 I0 J0.635
G1 Y-31.555
G19 G3 Y-30.92 Z-14.065 J0 K0.635
G1 Z5
G0 Z15
G17
G28 G91 Z0
G90
G28 G91 X0 Y0
G90
M5
M30
