(1001)
(T1  D=3.175 CR=0 - ZMIN=-14.7 - flat end mill)
G90 G94
G17
G21
G28 G91 Z0
G90

(2D Contour1)
T1
S18000 M3
G54
G0 X-0.317 Y-33.46
Z15
Z5
G1 Z1 F16.7
Z-14.383
G19 G2 Y-33.778 Z-14.7 J-0.318 K0 F50
G1 Y-34.095
G17 G3 X0 Y-34.412 I0.317 J0
G1 X11.144
G3 X13.413 Y-32.144 I0 J2.268
G1 Y-27.5
G2 X71.588 Y-27.5 I29.087 J0
G1 Y-32.144
G3 X73.856 Y-34.412 I2.269 J0
G1 X85
G2 X86.588 Y-36 I0 J-1.588
G1 Y-44
G2 X85 Y-45.588 I-1.588 J0
G1 X62
G2 X60.412 Y-44 I0 J1.588
G1 Y-27.5
G3 X24.587 Y-27.5 I-17.912 J0
G1 Y-44
G2 X23 Y-45.588 I-1.587 J0
G1 X0
G2 X-1.587 Y-44 I0 J1.588
G1 Y-36
G2 X0 Y-34.412 I1.587 J0
G3 X0.317 Y-34.095 I0 J0.317
G1 Y-33.778
G19 G3 Y-33.46 Z-14.383 J0 K0.318
G1 Z5
G0 Z15
G17
G28 G91 Z0
G90
G28 G91 X0 Y0
G90
M5
M30
