(1001)
(T1  D=3.175 CR=0 - ZMIN=-6 - flat end mill)
G90 G94
G17
G21
G28 G91 Z0
G90

(2D Contour1)
T1
S18000 M3
G54
G0 X40.384 Y-79.325
Z15
Z5
G1 Z1 F100
Z-5.683
X40.379 Y-79.331 Z-5.753 F150
X40.362 Y-79.347 Z-5.82
X40.335 Y-79.374 Z-5.88
X40.3 Y-79.41 Z-5.931
X40.257 Y-79.452 Z-5.969
X40.21 Y-79.5 Z-5.992
X40.16 Y-79.55 Z-6
X39.935 Y-79.774
G3 X39.935 Y-80.223 I0.225 J-0.225
G1 X163.228 Y-203.515 F350
G3 X177.952 Y-203.515 I7.362 J7.362
G1 X177.953
X178.661 Y-202.808
G3 X178.66 Y-188.083 I-7.364 J7.363
G1 X54.209 Y-63.632
G3 X39.484 Y-63.632 I-7.363 J-7.363
G1 X38.777 Y-64.339
G3 X38.777 Y-79.065 I7.363 J-7.363
G1 X39.935 Y-80.223
G3 X40.384 Y-80.223 I0.225 J0.225 F150
G1 X40.609 Y-79.999
X40.659 Y-79.949 Z-5.992
X40.706 Y-79.901 Z-5.969
X40.749 Y-79.859 Z-5.931
X40.784 Y-79.823 Z-5.88
X40.811 Y-79.796 Z-5.82
X40.828 Y-79.78 Z-5.753
X40.833 Y-79.774 Z-5.683
G0 Z5
X63.974 Y-53.418
G1 Z1 F100
Z-5.683
X63.969 Y-53.424 Z-5.753 F150
X63.952 Y-53.44 Z-5.82
X63.925 Y-53.467 Z-5.88
X63.89 Y-53.503 Z-5.931
X63.847 Y-53.545 Z-5.969
X63.8 Y-53.593 Z-5.992
X63.75 Y-53.643 Z-6
X63.525 Y-53.867
G3 X63.525 Y-54.316 I0.225 J-0.225
G1 X187.69 Y-178.48 F350
G3 X202.415 Y-178.48 I7.363 J7.363
G1 X203.122 Y-177.773
G3 X203.122 Y-163.048 I-7.363 J7.363
G1 X78.671 Y-38.597
G3 X63.946 Y-38.597 I-7.363 J-7.363
G1 X63.239 Y-39.304
G3 X63.239 Y-54.029 I7.363 J-7.363
G1 X63.525 Y-54.316
G3 X63.974 Y-54.316 I0.225 J0.225 F150
G1 X64.199 Y-54.092
X64.249 Y-54.042 Z-5.992
X64.296 Y-53.994 Z-5.969
X64.339 Y-53.952 Z-5.931
X64.374 Y-53.916 Z-5.88
X64.401 Y-53.889 Z-5.82
X64.418 Y-53.873 Z-5.753
X64.423 Y-53.867 Z-5.683
G0 Z15
G28 G91 Z0
G90
G28 G91 X0 Y0
G90
M5
M30
