(1001)
(T1  D=3.175 CR=0 - ZMIN=-5 - flat end mill)
G90 G94
G17
G21
G28 G91 Z0
G90

(2D Contour1)
T1
S18000 M3
G54
G0 X43.054 Y-25.151
Z15
Z5
G1 Z1 F100
Z-4.683
G19 G2 Y-25.469 Z-5 J-0.318 K0 F150
G1 Y-25.786
G17 G3 X43.371 Y-26.104 I0.317 J0
G1 X196.629 F350
G2 X201.587 Y-31.062 I0 J-4.958
G1 Y-64.32
G2 X196.629 Y-69.279 I-4.958 J0
G1 X83.371
G3 X81.588 Y-71.062 I0 J-1.784
G1 Y-84.32
G2 X76.629 Y-89.279 I-4.959 J0
G1 X43.371
G2 X38.412 Y-84.32 I0 J4.959
G1 Y-31.062
G2 X43.371 Y-26.104 I4.958 J0
G3 X43.688 Y-25.786 I0 J0.318 F150
G1 Y-25.469
G19 G3 Y-25.151 Z-4.683 J0 K0.318
G0 Z5
X43.053 Y-95.151
G1 Z1 F100
Z-4.683
G2 Y-95.468 Z-5 J-0.317 K0 F150
G1 Y-95.786
G17 G3 X43.371 Y-96.103 I0.317 J0
G1 X196.629 F350
G2 X201.587 Y-101.062 I0 J-4.959
G1 Y-154.32
G2 X196.629 Y-159.279 I-4.958 J0
G1 X163.371
G2 X158.413 Y-154.32 I0 J4.958
G1 Y-141.062
G3 X156.629 Y-139.279 I-1.784 J0
G1 X43.371
G2 X38.412 Y-134.32 I0 J4.958
G1 Y-101.062
G2 X43.371 Y-96.103 I4.959 J0
G3 X43.688 Y-95.786 I0 J0.318 F150
G1 Y-95.468
G19 G3 Y-95.151 Z-4.683 J0 K0.318
G0 Z5
X43.054 Y-165.151
G1 Z1 F100
Z-4.683
G2 Y-165.469 Z-5 J-0.318 K0 F150
G1 Y-165.786
G17 G3 X43.371 Y-166.104 I0.317 J0
G1 X196.629 F350
G2 X201.587 Y-171.062 I0 J-4.958
G1 Y-214.32
G2 X196.629 Y-219.279 I-4.958 J0
G1 X163.371
G2 X158.413 Y-214.32 I0 J4.958
G1 Y-201.062
G3 X156.629 Y-199.279 I-1.784 J0
G1 X83.371
G3 X81.588 Y-201.062 I0 J-1.783
G1 Y-214.32
G2 X76.629 Y-219.279 I-4.959 J0
G1 X43.371
G2 X38.412 Y-214.32 I0 J4.958
G1 Y-171.062
G2 X43.371 Y-166.104 I4.958 J0
G3 X43.688 Y-165.786 I0 J0.318 F150
G1 Y-165.469
G19 G3 Y-165.151 Z-4.683 J0 K0.318
G0 Z15
G17
G28 G91 Z0
G90
G28 G91 X0 Y0
G90
M5
M30
