(1001)
(T1  D=3.175 CR=0 - ZMIN=-6 - flat end mill)
G90 G94
G17
G21
G28 G91 Z0
G90

(2D Contour1)
T1
S18000 M3
G54
M8
G0 X163.459 Y-40.071
Z15
Z5
G1 Z1 F100
Z-5.683
X163.453 Y-40.065 Z-5.753 F150
X163.437 Y-40.048 Z-5.82
X163.41 Y-40.022 Z-5.88
X163.375 Y-39.986 Z-5.931
X163.332 Y-39.943 Z-5.969
X163.284 Y-39.896 Z-5.992
X163.235 Y-39.846 Z-6
X163.01 Y-39.622
G3 X162.561 Y-39.622 I-0.225 J-0.225
G1 X39.269 Y-162.914 F350
G3 X39.268 Y-177.639 I7.363 J-7.363
G1 X39.976 Y-178.346
G3 X54.701 Y-178.346 I7.363 J7.362
G1 X179.151 Y-53.896
G3 X179.151 Y-39.17 I-7.362 J7.363
G1 X178.444 Y-38.463
G3 X163.72 Y-38.463 I-7.362 J-7.363
G1 X162.561 Y-39.622
G3 X162.561 Y-40.071 I0.225 J-0.225 F150
G1 X162.786 Y-40.295
X162.835 Y-40.345 Z-5.992
X162.883 Y-40.392 Z-5.969
X162.925 Y-40.435 Z-5.931
X162.961 Y-40.471 Z-5.88
X162.988 Y-40.497 Z-5.82
X163.004 Y-40.514 Z-5.753
X163.01 Y-40.52 Z-5.683
G0 Z5
X189.139 Y-63.892
G1 Z1 F100
Z-5.683
X189.134 Y-63.886 Z-5.753 F150
X189.117 Y-63.87 Z-5.82
X189.091 Y-63.843 Z-5.88
X189.056 Y-63.807 Z-5.931
X189.013 Y-63.764 Z-5.969
X188.966 Y-63.716 Z-5.992
X188.917 Y-63.666 Z-6
X188.694 Y-63.439
G3 X188.245 Y-63.435 I-0.226 J-0.223
G1 X188.182 Y-63.498 F350
X63.731 Y-187.95
G3 X63.731 Y-202.674 I7.363 J-7.362
G1 X64.438 Y-203.381
G3 X79.163 Y-203.381 I7.363 J7.362
G1 X203.614 Y-78.931
G3 X203.615 Y-64.206 I-7.363 J7.363
G1 X202.907 Y-63.499
G3 X188.245 Y-63.435 I-7.363 J-7.362
X188.241 Y-63.884 I0.223 J-0.226 F150
G1 X188.464 Y-64.111
X188.513 Y-64.161 Z-5.992
X188.56 Y-64.209 Z-5.969
X188.603 Y-64.252 Z-5.931
X188.638 Y-64.288 Z-5.88
X188.664 Y-64.315 Z-5.82
X188.681 Y-64.332 Z-5.753
X188.686 Y-64.337 Z-5.683
G0 Z15
M9
G28 G91 Z0
G90
G28 G91 X0 Y0
G90
M5
M30
