(1001)
(T9  D=3.175 CR=0 - ZMIN=-6.26 - flat end mill)
G90 G94
G17
G21
G28 G91 Z0
G90

(2D Contour1)
T9
S18000 M3
G54
G0 X93.101 Y-28.775
Z15
Z5
G1 Z1 F50
Z-5.943
X93.094 Y-28.772 Z-6.013 F150
X93.071 Y-28.765 Z-6.08
X93.035 Y-28.753 Z-6.14
X92.987 Y-28.738 Z-6.191
X92.93 Y-28.719 Z-6.229
X92.866 Y-28.698 Z-6.252
X92.799 Y-28.677 Z-6.26
X92.497 Y-28.579
G3 X92.097 Y-28.782 I-0.098 J-0.302
X91.588 Y-32 I9.903 J-3.218
G1 Y-208
G3 X102 Y-218.413 I10.412 J0
G1 X103
G3 X113.412 Y-208 I0 J10.413
G1 Y-32
G3 X103 Y-21.587 I-10.412 J0
G1 X102
G3 X92.097 Y-28.782 I0 J-10.413
X92.301 Y-29.182 I0.302 J-0.098
G1 X92.603 Y-29.281
X92.67 Y-29.302 Z-6.252
X92.734 Y-29.323 Z-6.229
X92.791 Y-29.342 Z-6.191
X92.839 Y-29.357 Z-6.14
X92.875 Y-29.369 Z-6.08
X92.897 Y-29.376 Z-6.013
X92.905 Y-29.379 Z-5.943
G0 Z5
X127.595 Y-30.93
G1 Z1 F50
Z-5.943
X127.587 Y-30.929 Z-6.013 F150
X127.564 Y-30.928 Z-6.08
X127.526 Y-30.925 Z-6.14
X127.476 Y-30.921 Z-6.191
X127.416 Y-30.916 Z-6.229
X127.349 Y-30.91 Z-6.252
X127.279 Y-30.905 Z-6.26
X126.962 Y-30.88
G3 X126.621 Y-31.171 I-0.025 J-0.316
X126.588 Y-32 I10.379 J-0.829
G1 Y-208
G3 X137 Y-218.413 I10.412 J0
G1 X138
G3 X148.413 Y-208 I0 J10.413
G1 Y-32
G3 X138 Y-21.587 I-10.413 J0
G1 X137
G3 X126.621 Y-31.171 I0 J-10.413
X126.912 Y-31.513 I0.316 J-0.025
G1 X127.228 Y-31.538
X127.299 Y-31.543 Z-6.252
X127.366 Y-31.549 Z-6.229
X127.426 Y-31.554 Z-6.191
X127.476 Y-31.558 Z-6.14
X127.513 Y-31.561 Z-6.08
X127.537 Y-31.562 Z-6.013
X127.545 Y-31.563 Z-5.943
G0 Z15
G28 G91 Z0
G90
G28 G91 X0 Y0
G90
M5
M30
