(1001)
(T9  D=3.175 CR=0 - ZMIN=-6.26 - flat end mill)
G90 G94
G17
G21
G28 G91 Z0
G90

(2D Contour1)
T9
S18000 M3
G54
G0 X162.459 Y-39.071
Z15
Z5
G1 Z1 F50
Z-5.943
X162.453 Y-39.065 Z-6.013 F150
X162.437 Y-39.048 Z-6.08
X162.41 Y-39.022 Z-6.14
X162.375 Y-38.986 Z-6.191
X162.332 Y-38.943 Z-6.229
X162.284 Y-38.896 Z-6.252
X162.235 Y-38.846 Z-6.26
X162.01 Y-38.622
G3 X161.561 Y-38.622 I-0.225 J-0.225
G1 X38.269 Y-161.914
G3 X38.268 Y-176.639 I7.363 J-7.363
G1 X38.976 Y-177.346
G3 X53.701 Y-177.346 I7.363 J7.362
G1 X178.151 Y-52.896
G3 X178.151 Y-38.17 I-7.362 J7.363
G1 X177.444 Y-37.463
G3 X162.72 Y-37.463 I-7.362 J-7.363
G1 X161.561 Y-38.622
G3 X161.561 Y-39.071 I0.225 J-0.225
G1 X161.786 Y-39.295
X161.835 Y-39.345 Z-6.252
X161.883 Y-39.392 Z-6.229
X161.925 Y-39.435 Z-6.191
X161.961 Y-39.471 Z-6.14
X161.988 Y-39.497 Z-6.08
X162.004 Y-39.514 Z-6.013
X162.01 Y-39.52 Z-5.943
G0 Z5
X188.139 Y-62.892
G1 Z1 F50
Z-5.943
X188.134 Y-62.886 Z-6.013 F150
X188.117 Y-62.87 Z-6.08
X188.091 Y-62.843 Z-6.14
X188.056 Y-62.807 Z-6.191
X188.013 Y-62.764 Z-6.229
X187.966 Y-62.716 Z-6.252
X187.917 Y-62.666 Z-6.26
X187.694 Y-62.439
G3 X187.245 Y-62.435 I-0.226 J-0.223
G1 X187.182 Y-62.498
X62.731 Y-186.95
G3 X62.731 Y-201.674 I7.363 J-7.362
G1 X63.438 Y-202.381
G3 X78.163 Y-202.381 I7.363 J7.362
G1 X202.614 Y-77.931
G3 X202.615 Y-63.206 I-7.363 J7.363
G1 X201.907 Y-62.499
G3 X187.245 Y-62.435 I-7.363 J-7.362
X187.241 Y-62.884 I0.223 J-0.226
G1 X187.464 Y-63.111
X187.513 Y-63.161 Z-6.252
X187.56 Y-63.209 Z-6.229
X187.603 Y-63.252 Z-6.191
X187.638 Y-63.288 Z-6.14
X187.664 Y-63.315 Z-6.08
X187.681 Y-63.331 Z-6.013
X187.686 Y-63.337 Z-5.943
G0 Z15
G28 G91 Z0
G90
G28 G91 X0 Y0
G90
M5
M30
