(1001)
(T9  D=3.175 CR=0 - ZMIN=-6.26 - flat end mill)
G90 G94
G17
G21
G28 G91 Z0
G90

(2D Contour1)
T9
S18000 M3
G54
M8
G0 X39.384 Y-78.325
Z15
Z5
G1 Z1 F50
Z-5.943
X39.379 Y-78.331 Z-6.013 F150
X39.362 Y-78.347 Z-6.08
X39.335 Y-78.374 Z-6.14
X39.3 Y-78.41 Z-6.191
X39.257 Y-78.452 Z-6.229
X39.21 Y-78.5 Z-6.252
X39.16 Y-78.55 Z-6.26
X38.935 Y-78.774
G3 X38.935 Y-79.223 I0.225 J-0.225
G1 X162.228 Y-202.515
G3 X176.952 Y-202.515 I7.362 J7.362
G1 X176.953
X177.661 Y-201.808
G3 X177.66 Y-187.083 I-7.364 J7.363
G1 X53.209 Y-62.632
G3 X38.484 Y-62.632 I-7.363 J-7.363
G1 X37.777 Y-63.339
G3 X37.777 Y-78.065 I7.363 J-7.363
G1 X38.935 Y-79.223
G3 X39.384 Y-79.223 I0.225 J0.225
G1 X39.609 Y-78.999
X39.659 Y-78.949 Z-6.252
X39.706 Y-78.901 Z-6.229
X39.749 Y-78.859 Z-6.191
X39.784 Y-78.823 Z-6.14
X39.811 Y-78.796 Z-6.08
X39.828 Y-78.78 Z-6.013
X39.833 Y-78.774 Z-5.943
G0 Z5
X62.974 Y-52.418
G1 Z1 F50
Z-5.943
X62.969 Y-52.424 Z-6.013 F150
X62.952 Y-52.44 Z-6.08
X62.925 Y-52.467 Z-6.14
X62.89 Y-52.503 Z-6.191
X62.847 Y-52.545 Z-6.229
X62.8 Y-52.593 Z-6.252
X62.75 Y-52.643 Z-6.26
X62.525 Y-52.867
G3 X62.525 Y-53.316 I0.225 J-0.225
G1 X186.69 Y-177.48
G3 X201.415 Y-177.48 I7.363 J7.363
G1 X202.122 Y-176.773
G3 X202.122 Y-162.048 I-7.363 J7.363
G1 X77.671 Y-37.597
G3 X62.946 Y-37.597 I-7.363 J-7.363
G1 X62.239 Y-38.304
G3 X62.239 Y-53.029 I7.363 J-7.363
G1 X62.525 Y-53.316
G3 X62.974 Y-53.316 I0.225 J0.225
G1 X63.199 Y-53.092
X63.249 Y-53.042 Z-6.252
X63.296 Y-52.994 Z-6.229
X63.339 Y-52.952 Z-6.191
X63.374 Y-52.916 Z-6.14
X63.401 Y-52.889 Z-6.08
X63.418 Y-52.873 Z-6.013
X63.423 Y-52.867 Z-5.943
G0 Z15
M9
G28 G91 Z0
G90
G28 G91 X0 Y0
G90
M5
M30
