(1001)
(T9  D=3.175 CR=0 - ZMIN=-6.26 - flat end mill)
G90 G94
G17
G21
G28 G91 Z0
G90

(2D Contour1)
T9
S18000 M3
G54
M8
G0 X31.38 Y-42.54
Z15
Z5
G1 Z1 F50
Z-5.943
G19 G3 Y-42.222 Z-6.26 J0.318 K0 F150
G1 Y-41.905
G17 G3 X31.062 Y-41.588 I-0.317 J0
X29.279 Y-43.371 I0 J-1.783
G1 Y-196.629
G3 X31.062 Y-198.413 I1.784 J0
G1 X84.32
G3 X86.104 Y-196.629 I0 J1.784
G1 Y-163.371
G3 X84.32 Y-161.587 I-1.784 J0
G1 X71.062
G2 X66.104 Y-156.629 I0 J4.958
G1 Y-43.371
G3 X64.32 Y-41.588 I-1.784 J0
G1 X31.062
G3 X30.745 Y-41.905 I0 J-0.317
G1 Y-42.222
G19 G2 Y-42.54 Z-5.943 J0 K0.318
G0 Z5
X100.247 Y-43.014
G1 Z1 F50
Z-5.943
X100.239 Z-6.013 F150
X100.216 Y-43.012 Z-6.08
X100.178 Y-43.011 Z-6.14
X100.128 Y-43.008 Z-6.191
X100.068 Y-43.005 Z-6.229
X100.001 Y-43.002 Z-6.252
X99.93 Y-42.999 Z-6.26
X99.613 Y-42.983
G17 G3 X99.28 Y-43.285 I-0.015 J-0.317
G1 X99.278 Y-43.371
Y-196.629
G3 X101.062 Y-198.413 I1.784 J0
G1 X134.32
G3 X136.104 Y-196.629 I0 J1.784
G1 Y-83.371
G2 X141.062 Y-78.412 I4.958 J0
G1 X154.32
G3 X156.104 Y-76.629 I0 J1.784
G1 Y-43.371
G3 X154.32 Y-41.588 I-1.783 J0
G1 X101.062
G3 X99.28 Y-43.285 I0 J-1.784
X99.582 Y-43.618 I0.317 J-0.015
G1 X99.899 Y-43.633
X99.97 Y-43.636 Z-6.252
X100.037 Y-43.64 Z-6.229
X100.097 Y-43.642 Z-6.191
X100.147 Y-43.645 Z-6.14
X100.185 Y-43.647 Z-6.08
X100.209 Y-43.648 Z-6.013
X100.217 Z-5.943
G0 Z5
X170.239 Y-43.034
G1 Z1 F50
Z-5.943
X170.231 Y-43.033 Z-6.013 F150
X170.207 Z-6.08
X170.17 Y-43.032 Z-6.14
X170.119 Y-43.031 Z-6.191
X170.059 Y-43.029 Z-6.229
X169.992 Y-43.028 Z-6.252
X169.921 Y-43.026 Z-6.26
X169.604 Y-43.018
G3 X169.279 Y-43.328 I-0.008 J-0.317
G1 Y-43.371
Y-196.629
G3 X171.062 Y-198.413 I1.783 J0
G1 X214.32
G3 X216.104 Y-196.629 I0 J1.784
G1 Y-163.371
G3 X214.32 Y-161.587 I-1.783 J0
G1 X201.062
G2 X196.104 Y-156.629 I0 J4.958
G1 Y-83.371
G2 X201.062 Y-78.412 I4.958 J0
G1 X214.32
G3 X216.104 Y-76.629 I0 J1.784
G1 Y-43.371
G3 X214.32 Y-41.588 I-1.783 J0
G1 X171.062
G3 X169.279 Y-43.328 I0 J-1.783
X169.589 Y-43.653 I0.317 J-0.008
G1 X169.906 Y-43.661
X169.977 Y-43.662 Z-6.252
X170.044 Y-43.664 Z-6.229
X170.104 Y-43.666 Z-6.191
X170.154 Y-43.667 Z-6.14
X170.192 Y-43.668 Z-6.08
X170.216 Z-6.013
X170.224 Z-5.943
G0 Z15
M9
G28 G91 Z0
G90
G28 G91 X0 Y0
G90
M5
M30
