(1001)
(T9  D=3.175 CR=0 - ZMIN=-6.26 - flat end mill)
G90 G94
G17
G21
G28 G91 Z0
G90

(2D Contour5)
T9
S18000 M3
G54
G0 X48.374 Y2.46
Z15
Z5
G1 Z1 F50
Z-5.943
X48.373 Y2.452 Z-6.013 F150
X48.369 Y2.429 Z-6.08
X48.363 Y2.392 Z-6.14
X48.355 Y2.342 Z-6.191
X48.345 Y2.283 Z-6.229
X48.333 Y2.216 Z-6.252
X48.322 Y2.147 Z-6.26
X48.269 Y1.834
G3 X48.529 Y1.468 I0.313 J-0.053
G2 X53.173 Y-0.928 I-1.429 J-8.468
G1 X58.686 Y-6.441
G3 X62.513 Y-8.026 I3.827 J3.827
G1 X137.487
G3 X141.314 Y-6.441 I0 J5.413
G1 X146.827 Y-0.928
G2 X152.899 Y1.587 I6.072 J-6.072
G1 X190
G2 X201.587 Y-10 I0 J-11.587
G1 Y-220
G2 X190 Y-231.587 I-11.587 J0
G1 X152.899
G2 X146.828 Y-229.073 I0 J8.587
G1 X141.314 Y-223.56
G3 X137.487 Y-221.973 I-3.828 J-3.826
G1 X62.513
G3 X58.686 Y-223.559 I0.001 J-5.412
G1 X53.173 Y-229.073
G2 X47.1 Y-231.587 I-6.072 J6.073
G1 X10
G2 X-1.587 Y-220 I0 J11.587
G1 Y-10
G2 X10 Y1.587 I11.587 J0
G1 X47.1
G2 X48.529 Y1.468 I0 J-8.588
G3 X48.895 Y1.728 I0.053 J0.313
G1 X48.948 Y2.041
X48.96 Y2.111 Z-6.252
X48.971 Y2.177 Z-6.229
X48.981 Y2.236 Z-6.191
X48.989 Y2.286 Z-6.14
X48.995 Y2.323 Z-6.08
X48.999 Y2.346 Z-6.013
X49.001 Y2.354 Z-5.943
G0 Z15
G28 G91 Z0
G90
G28 G91 X0 Y0
G90
M5
M30
