(1001)
(T9  D=3.175 CR=0 - ZMIN=-6.26 - flat end mill)
G90 G94
G17
G21
G28 G91 Z0
G90

(2D Contour4)
T9
S18000 M3
G54
G0 X10.862 Y-10.8
Z15
Z5
G1 Z1 F50
Z-5.943
X10.866 Y-10.793 Z-6.013 F150
X10.877 Y-10.773 Z-6.08
X10.896 Y-10.74 Z-6.14
X10.921 Y-10.696 Z-6.191
X10.951 Y-10.644 Z-6.229
X10.985 Y-10.586 Z-6.252
X11.02 Y-10.525 Z-6.26
X11.179 Y-10.25
G3 X11.063 Y-9.816 I-0.275 J0.159
X10.15 Y-11.397 I-0.456 J-0.79
X11.063 Y-9.816 I0.456 J0.79
X10.629 Y-9.933 I-0.159 J-0.275
G1 X10.47 Y-10.208
X10.435 Y-10.269 Z-6.252
X10.402 Y-10.327 Z-6.229
X10.371 Y-10.379 Z-6.191
X10.346 Y-10.423 Z-6.14
X10.327 Y-10.455 Z-6.08
X10.316 Y-10.476 Z-6.013
X10.312 Y-10.482 Z-5.943
G0 Z5
X189.669 Y-10.769
G1 Z1 F50
Z-5.943
X189.672 Y-10.762 Z-6.013 F150
X189.681 Y-10.74 Z-6.08
X189.696 Y-10.706 Z-6.14
X189.716 Y-10.66 Z-6.191
X189.74 Y-10.604 Z-6.229
X189.767 Y-10.543 Z-6.252
X189.795 Y-10.478 Z-6.26
X189.921 Y-10.186
G3 X189.755 Y-9.769 I-0.291 J0.126
X189.031 Y-11.444 I-0.362 J-0.838
X189.755 Y-9.769 I0.362 J0.838
X189.338 Y-9.934 I-0.126 J-0.291
G1 X189.212 Y-10.226
X189.184 Y-10.291 Z-6.252
X189.157 Y-10.352 Z-6.229
X189.133 Y-10.408 Z-6.191
X189.113 Y-10.454 Z-6.14
X189.098 Y-10.488 Z-6.08
X189.089 Y-10.51 Z-6.013
X189.086 Y-10.517 Z-5.943
G0 Z5
X189.669 Y-219.556
G1 Z1 F50
Z-5.943
X189.672 Y-219.548 Z-6.013 F150
X189.681 Y-219.527 Z-6.08
X189.696 Y-219.492 Z-6.14
X189.716 Y-219.446 Z-6.191
X189.74 Y-219.391 Z-6.229
X189.767 Y-219.329 Z-6.252
X189.795 Y-219.264 Z-6.26
X189.921 Y-218.973
G3 X189.755 Y-218.555 I-0.291 J0.126
X189.031 Y-220.231 I-0.362 J-0.838
X189.755 Y-218.555 I0.362 J0.838
X189.338 Y-218.721 I-0.126 J-0.291
G1 X189.212 Y-219.012
X189.184 Y-219.077 Z-6.252
X189.157 Y-219.139 Z-6.229
X189.133 Y-219.194 Z-6.191
X189.113 Y-219.24 Z-6.14
X189.098 Y-219.275 Z-6.08
X189.089 Y-219.296 Z-6.013
X189.086 Y-219.304 Z-5.943
G0 Z5
X10.78 Y-219.662
G1 Z1 F50
Z-5.943
X10.786 Y-219.657 Z-6.013 F150
X10.804 Y-219.642 Z-6.08
X10.833 Y-219.617 Z-6.14
X10.872 Y-219.585 Z-6.191
X10.918 Y-219.546 Z-6.229
X10.969 Y-219.503 Z-6.252
X11.023 Y-219.458 Z-6.26
X11.266 Y-219.254
G3 X11.306 Y-218.806 I-0.204 J0.243
X9.908 Y-219.98 I-0.699 J-0.587
X11.306 Y-218.806 I0.699 J0.587
X10.858 Y-218.767 I-0.243 J-0.204
G1 X10.615 Y-218.971
X10.561 Y-219.017 Z-6.252
X10.51 Y-219.06 Z-6.229
X10.463 Y-219.099 Z-6.191
X10.425 Y-219.131 Z-6.14
X10.396 Y-219.155 Z-6.08
X10.378 Y-219.17 Z-6.013
X10.372 Y-219.175 Z-5.943
G0 Z15
G28 G91 Z0
G90
G28 G91 X0 Y0
G90
M5
M30
