(spot_01)
(T4  D=6.35 CR=0 TAPER=90deg - ZMIN=-4 - spot drill)
G90 G94
G17
G21
G28 G91 Z0
G90

(Drill1)
T4
S11999 M3
G54
M8
G0 X12.75 Y-12.75
Z15
Z5
Z1
G1 Z-4 F1064.1
G0 Z5
Z15
M9
G28 G91 Z0
G90
G28 G91 X0 Y0
G90
M5
M30
