(tetsile)
(T1  D=6.35 CR=0 - ZMIN=-14 - flat end mill)
G90 G94
G17
G21
G28 G91 Z0
G90

(2D Contour1)
T1
S11999 M3
G0 Z10
G0 X53.12 Y54.059
Z15
Z5
G1 Z4 F300
Z3.135
X53.114 Y54.054 Z3.036 F2000
X53.098 Y54.037 Z2.939
X53.071 Y54.01 Z2.847
X53.034 Y53.973 Z2.762
X52.989 Y53.927 Z2.686
X52.936 Y53.873 Z2.621
X52.876 Y53.813 Z2.569
X52.811 Y53.747 Z2.531
X52.743 Y53.678 Z2.508
X52.673 Y53.608 Z2.5
X52.227 Y53.156
G3 X52.232 Y52.258 I0.452 J-0.446
S12000
G2 X53.175 Y50 Z2.412 I-2.232 J-2.258
G1 Y-50 Z-1.08
G2 X50 Y-53.175 Z-1.254 I-3.175 J0
G1 X0 Z-3
S11999
X-50 F2200
G2 X-53.175 Y-50 I0 J3.175
G1 Y50
G2 X-50 Y53.175 I3.175 J0
G1 X50
G2 X53.175 Y50 I0 J-3.175
G1 Y-50
G2 X50 Y-53.175 I-3.175 J0
G1 X0
S12000
X-50 Z-4.746 F2000
G2 X-53.175 Y-50 Z-4.92 I0 J3.175
G1 Y-19.079 Z-6
S11999
Y50 F2200
G2 X-50 Y53.175 I3.175 J0
G1 X50
G2 X53.175 Y50 I0 J-3.175
G1 Y-50
G2 X50 Y-53.175 I-3.175 J0
G1 X-50
G2 X-53.175 Y-50 I0 J3.175
G1 Y-19.079
S12000
Y50 Z-8.412 F2000
G2 X-50 Y53.175 Z-8.586 I3.175 J0
G1 X-38.157 Z-9
S11999
X50 F2200
G2 X53.175 Y50 I0 J-3.175
G1 Y-50
G2 X50 Y-53.175 I-3.175 J0
G1 X-50
G2 X-53.175 Y-50 I0 J3.175
G1 Y50
G2 X-50 Y53.175 I3.175 J0
G1 X-38.157
S12000
X47.752 Z-12 F2000
S11999
X50 F2200
G2 X53.175 Y50 I0 J-3.175
G1 Y-50
G2 X50 Y-53.175 I-3.175 J0
G1 X-50
G2 X-53.175 Y-50 I0 J3.175
G1 Y50
G2 X-50 Y53.175 I3.175 J0
G1 X47.752
S12000
X50 Z-12.079 F2000
G2 X53.175 Y50 Z-12.253 I0 J-3.175
G1 Y6.35 Z-13.777
Z-12.413
Y-0.037
S11999
Y-6.35 F2200
Z-14 F300
Y-50 F2200
G2 X50 Y-53.175 I-3.175 J0
G1 X6.35
Z-12.413
X-6.35
Z-14 F300
X-50 F2200
G2 X-53.175 Y-50 I0 J3.175
G1 Y-6.35
Z-12.413
Y6.35
Z-14 F300
Y50 F2200
G2 X-50 Y53.175 I3.175 J0
G1 X-6.35
Z-12.413
X6.35
Z-14 F300
X50 F2200
G2 X53.175 Y50 I0 J-3.175
G1 Y6.35
Z-12.413
Y-0.037
G3 X53.81 Y-0.672 I0.635 J0 F2000
G1 X55.08
G0 Z15
G28 G91 Z0
G90
G28 G91 X0 Y0
G90
M5
M30
