(1001)
(T9  D=3.175 CR=0 - ZMIN=-6.26 - flat end mill)
G90 G94
G17
G21
G28 G91 Z0
G90

(2D Contour5)
T9
S18000 M3
G54
G0 X95.536 Y-122.461
Z15
Z5
G1 Z1 F66.7
Z-5.943
Y-122.469 Z-6.013 F200
X95.537 Y-122.492 Z-6.08
Y-122.53 Z-6.14
Y-122.58 Z-6.191
X95.538 Y-122.641 Z-6.229
Y-122.708 Z-6.252
X95.539 Y-122.778 Z-6.26
X95.541 Y-123.096
G3 X95.86 Y-123.411 I0.317 J0.002
X153.883 Y-65 I-0.389 J58.411
X37.058 Y-65 I-58.413 J0
X95.86 Y-123.411 I58.413 J0
X96.176 Y-123.092 I-0.002 J0.317
G1 X96.174 Y-122.774
X96.173 Y-122.703 Z-6.252
Y-122.636 Z-6.229
X96.172 Y-122.576 Z-6.191
Y-122.526 Z-6.14
Y-122.488 Z-6.08
X96.171 Y-122.465 Z-6.013
Y-122.457 Z-5.943
Z1
Z5
G0 X147.931 Y-117.817
G1 Z1 F66.7
Z-5.943
G18 G2 X148.249 Z-6.26 I0.318 K0 F200
G1 X148.566
G17 G3 X148.883 Y-117.5 I0 J0.317
X147.058 Y-117.5 I-0.913 J0
X148.883 Y-117.5 I0.913 J0
X148.566 Y-117.183 I-0.318 J0
G1 X148.249
G18 G3 X147.931 Z-5.943 I0 K0.318
G1 Z1
Z5
G0 Y-12.818
G1 Z1 F66.7
Z-5.943
G2 X148.249 Z-6.26 I0.318 K0 F200
G1 X148.566
G17 G3 X148.883 Y-12.5 I0 J0.318
X147.058 Y-12.5 I-0.913 J0
X148.883 Y-12.5 I0.913 J0
X148.566 Y-12.182 I-0.318 J0
G1 X148.249
G18 G3 X147.931 Z-5.943 I0 K0.318
G1 Z1
Z5
G0 X42.931 Y-12.818
G1 Z1 F66.7
Z-5.943
G2 X43.248 Z-6.26 I0.318 K0 F200
G1 X43.566
G17 G3 X43.883 Y-12.5 I0 J0.318
X42.058 Y-12.5 I-0.913 J0
X43.883 Y-12.5 I0.913 J0
X43.566 Y-12.182 I-0.318 J0
G1 X43.248
G18 G3 X42.931 Z-5.943 I0 K0.318
G1 Z1
Z5
G0 Y-117.817
G1 Z1 F66.7
Z-5.943
G2 X43.248 Z-6.26 I0.318 K0 F200
G1 X43.566
G17 G3 X43.883 Y-117.5 I0 J0.317
X42.058 Y-117.5 I-0.913 J0
X43.883 Y-117.5 I0.913 J0
X43.566 Y-117.183 I-0.318 J0
G1 X43.248
G18 G3 X42.931 Z-5.943 I0 K0.318
G1 Z1
Z5
G0 X402.471 Y-65.317
G1 Z1 F66.7
Z-5.943
G2 X402.789 Z-6.26 I0.318 K0 F200
G1 X403.106
G17 G3 X403.423 Y-65 I0 J0.317
X286.598 Y-65 I-58.413 J0
X403.423 Y-65 I58.413 J0
X403.106 Y-64.683 I-0.318 J0
G1 X402.789
G18 G3 X402.471 Z-5.943 I0 K0.318
G1 Z1
Z5
G0 X397.471 Y-12.818
G1 Z1 F66.7
Z-5.943
G2 X397.789 Z-6.26 I0.318 K0 F200
G1 X398.106
G17 G3 X398.423 Y-12.5 I0 J0.318
X396.598 Y-12.5 I-0.913 J0
X398.423 Y-12.5 I0.913 J0
X398.106 Y-12.182 I-0.318 J0
G1 X397.789
G18 G3 X397.471 Z-5.943 I0 K0.318
G1 Z1
Z5
G0 X292.471 Y-12.818
G1 Z1 F66.7
Z-5.943
G2 X292.789 Z-6.26 I0.318 K0 F200
G1 X293.106
G17 G3 X293.423 Y-12.5 I0 J0.318
X291.598 Y-12.5 I-0.913 J0
X293.423 Y-12.5 I0.913 J0
X293.106 Y-12.182 I-0.318 J0
G1 X292.789
G18 G3 X292.471 Z-5.943 I0 K0.318
G1 Z1
Z5
G0 Y-117.817
G1 Z1 F66.7
Z-5.943
G2 X292.789 Z-6.26 I0.318 K0 F200
G1 X293.106
G17 G3 X293.423 Y-117.5 I0 J0.317
X291.598 Y-117.5 I-0.913 J0
X293.423 Y-117.5 I0.913 J0
X293.106 Y-117.183 I-0.318 J0
G1 X292.789
G18 G3 X292.471 Z-5.943 I0 K0.318
G1 Z1
Z5
G0 X397.588 Y-117.811
G1 Z1 F66.7
Z-5.943
X397.596 Y-117.808 Z-6.013 F200
X397.618 Y-117.799 Z-6.08
X397.653 Y-117.785 Z-6.14
X397.7 Y-117.767 Z-6.191
X397.756 Y-117.746 Z-6.229
X397.819 Y-117.721 Z-6.252
X397.884 Y-117.696 Z-6.26
X398.181 Y-117.581
G17 G3 X398.362 Y-117.17 I-0.115 J0.296
X396.66 Y-117.83 I-0.851 J-0.33
X398.362 Y-117.17 I0.851 J0.33
X397.951 Y-116.989 I-0.296 J-0.115
G1 X397.655 Y-117.104
X397.589 Y-117.129 Z-6.252
X397.527 Y-117.153 Z-6.229
X397.47 Y-117.175 Z-6.191
X397.424 Y-117.193 Z-6.14
X397.388 Y-117.207 Z-6.08
X397.366 Y-117.216 Z-6.013
X397.359 Y-117.218 Z-5.943
Z5
G0 Z15

(2D Contour6)
X440.798 Y-132.54
Z15
Z5
G1 Z1 F66.7
Z-5.943
G19 G3 Y-132.223 Z-6.26 J0.317 K0 F200
G1 Y-131.905
G17 G3 X440.481 Y-131.587 I-0.318 J0
G1 X286.224
G2 X274.495 Y-126.73 I-0.001 J16.588
G1 X264.138 Y-116.373
G3 X254.654 Y-112.445 I-9.484 J-9.485
G1 X185.827
G3 X176.343 Y-116.373 I-0.001 J-13.413
G1 X165.987 Y-126.729
G2 X154.257 Y-131.587 I-11.729 J11.73
G1 X0
G2 X-1.587 Y-130 I0 J1.587
G1 Y0
G2 X0 Y1.587 I1.587 J0
G1 X143.799
G2 X165.387 Y-20 I0 J-21.587
G1 Y-59
G3 X178.799 Y-72.412 I13.412 J0
G1 X261.682
G3 X275.095 Y-59 I0 J13.412
G1 Y-20
G2 X296.682 Y1.587 I21.587 J0
G1 X440.481
G2 X442.069 Y0 I0 J-1.587
G1 Y-130
G2 X440.481 Y-131.587 I-1.588 J0
G3 X440.164 Y-131.905 I0 J-0.318
G1 Y-132.223
G19 G2 Y-132.54 Z-5.943 J0 K0.318
G1 Z5
G0 Z15
G17
G28 G91 Z0
G90
G28 G91 X0 Y0
G90
M5
M30
