(1001)
(T9  D=3.175 CR=0 - ZMIN=-6.26 - flat end mill)
G90 G94
G17
G21
G28 G91 Z0
G90

(2D Contour1)
T9
S18000 M3
G54
G0 X325.368 Y-91.301
Z15
Z5
G1 Z1 F50
Z-5.943
G19 G2 Y-91.618 Z-6.26 J-0.317 K0 F150
G1 Y-91.936
G17 G3 X325.686 Y-92.253 I0.318 J0
G1 X436.686
G3 X439.099 Y-89.841 I0 J2.413
G1 Y-87.841
G3 X436.686 Y-85.428 I-2.413 J0
G1 X324.686
G3 X322.273 Y-87.841 I0 J-2.412
G1 Y-89.841
G3 X324.686 Y-92.253 I2.413 J0
G1 X325.686
G3 X326.004 Y-91.936 I0 J0.318
G1 Y-91.618
G19 G3 Y-91.301 Z-5.943 J0 K0.318
G0 Z5
X438.146 Y-109.159
G1 Z1 F50
Z-5.943
G18 G2 X438.464 Z-6.26 I0.318 K0 F150
G1 X438.781
G17 G3 X439.099 Y-108.841 I0 J0.317
G1 Y-107.841
G3 X436.686 Y-105.428 I-2.413 J0
G1 X324.686
G3 X322.273 Y-107.841 I0 J-2.413
G1 Y-109.841
G3 X324.686 Y-112.254 I2.413 J0
G1 X436.686
G3 X439.099 Y-109.841 I0 J2.412
G1 Y-108.841
G3 X438.781 Y-108.523 I-0.318 J0
G1 X438.464
G18 G3 X438.146 Z-5.943 I0 K0.318
G0 Z5
X325.368 Y-131.301
G1 Z1 F50
Z-5.943
G19 G2 Y-131.618 Z-6.26 J-0.318 K0 F150
G1 Y-131.936
G17 G3 X325.686 Y-132.253 I0.318 J0
G1 X436.686
G3 X439.099 Y-129.841 I0 J2.412
G1 Y-127.841
G3 X436.686 Y-125.428 I-2.413 J0
G1 X324.686
G3 X322.273 Y-127.841 I0 J-2.413
G1 Y-129.841
G3 X324.686 Y-132.253 I2.413 J0
G1 X325.686
G3 X326.004 Y-131.936 I0 J0.317
G1 Y-131.618
G19 G3 Y-131.301 Z-5.943 J0 K0.318
G0 Z5
X325.368 Y-151.301
G1 Z1 F50
Z-5.943
G2 Y-151.618 Z-6.26 J-0.318 K0 F150
G1 Y-151.936
G17 G3 X325.686 Y-152.253 I0.318 J0
G1 X436.686
G3 X439.099 Y-149.841 I0 J2.412
G1 Y-147.841
G3 X436.686 Y-145.428 I-2.413 J0
G1 X324.686
G3 X322.273 Y-147.841 I0 J-2.413
G1 Y-149.841
G3 X324.686 Y-152.253 I2.413 J0
G1 X325.686
G3 X326.004 Y-151.936 I0 J0.317
G1 Y-151.618
G19 G3 Y-151.301 Z-5.943 J0 K0.318
G0 Z5
X325.368 Y-71.301
G1 Z1 F50
Z-5.943
G2 Y-71.618 Z-6.26 J-0.317 K0 F150
G1 Y-71.936
G17 G3 X325.686 Y-72.253 I0.318 J0
G1 X436.686
G3 X439.099 Y-69.841 I0 J2.413
G1 Y-67.841
G3 X436.686 Y-65.428 I-2.413 J0
G1 X324.686
G3 X322.273 Y-67.841 I0 J-2.412
G1 Y-69.841
G3 X324.686 Y-72.253 I2.413 J0
G1 X325.686
G3 X326.004 Y-71.936 I0 J0.318
G1 Y-71.618
G19 G3 Y-71.301 Z-5.943 J0 K0.318
G0 Z5
X438.146 Y-49.158
G1 Z1 F50
Z-5.943
G18 G2 X438.464 Z-6.26 I0.318 K0 F150
G1 X438.781
G17 G3 X439.099 Y-48.841 I0 J0.318
G1 Y-47.841
G3 X436.686 Y-45.428 I-2.413 J0
G1 X324.686
G3 X322.273 Y-47.841 I0 J-2.413
G1 Y-49.841
G3 X324.686 Y-52.253 I2.413 J0
G1 X436.686
G3 X439.099 Y-49.841 I0 J2.412
G1 Y-48.841
G3 X438.781 Y-48.523 I-0.318 J0
G1 X438.464
G18 G3 X438.146 Z-5.943 I0 K0.318
G0 Z5
X75.828 Y-51.301
G1 Z1 F50
Z-5.943
G19 G2 Y-51.618 Z-6.26 J-0.318 K0 F150
G1 Y-51.936
G17 G3 X76.145 Y-52.253 I0.318 J0
G1 X187.145
G3 X189.557 Y-49.841 I0 J2.412
G1 Y-47.841
G3 X187.145 Y-45.428 I-2.412 J0
G1 X75.145
G3 X72.733 Y-47.841 I0 J-2.413
G1 Y-49.841
G3 X75.145 Y-52.253 I2.413 J0
G1 X76.145
G3 X76.463 Y-51.936 I0 J0.317
G1 Y-51.618
G19 G3 Y-51.301 Z-5.943 J0 K0.318
G0 Z5
X75.828 Y-71.301
G1 Z1 F50
Z-5.943
G2 Y-71.618 Z-6.26 J-0.317 K0 F150
G1 Y-71.936
G17 G3 X76.145 Y-72.253 I0.318 J0
G1 X187.145
G3 X189.557 Y-69.841 I0 J2.413
G1 Y-67.841
G3 X187.145 Y-65.428 I-2.412 J0
G1 X75.145
G3 X72.733 Y-67.841 I0 J-2.412
G1 Y-69.841
G3 X75.145 Y-72.253 I2.413 J0
G1 X76.145
G3 X76.463 Y-71.936 I0 J0.318
G1 Y-71.618
G19 G3 Y-71.301 Z-5.943 J0 K0.318
G0 Z5
X188.605 Y-89.158
G1 Z1 F50
Z-5.943
G18 G2 X188.923 Z-6.26 I0.318 K0 F150
G1 X189.24
G17 G3 X189.557 Y-88.841 I0 J0.318
G1 Y-87.841
G3 X187.145 Y-85.428 I-2.412 J0
G1 X75.145
G3 X72.733 Y-87.841 I0 J-2.412
G1 Y-89.841
G3 X75.145 Y-92.253 I2.413 J0
G1 X187.145
G3 X189.557 Y-89.841 I0 J2.413
G1 Y-88.841
G3 X189.24 Y-88.523 I-0.317 J0
G1 X188.923
G18 G3 X188.605 Z-5.943 I0 K0.318
G0 Z5
Y-109.159
G1 Z1 F50
Z-5.943
G2 X188.923 Z-6.26 I0.318 K0 F150
G1 X189.24
G17 G3 X189.557 Y-108.841 I0 J0.317
G1 Y-107.841
G3 X187.145 Y-105.428 I-2.412 J0
G1 X75.145
G3 X72.733 Y-107.841 I0 J-2.413
G1 Y-109.841
G3 X75.145 Y-112.254 I2.413 J0
G1 X187.145
G3 X189.557 Y-109.841 I0 J2.412
G1 Y-108.841
G3 X189.24 Y-108.523 I-0.317 J0
G1 X188.923
G18 G3 X188.605 Z-5.943 I0 K0.318
G0 Z5
Y-129.158
G1 Z1 F50
Z-5.943
G2 X188.923 Z-6.26 I0.318 K0 F150
G1 X189.24
G17 G3 X189.557 Y-128.841 I0 J0.317
G1 Y-127.841
G3 X187.145 Y-125.428 I-2.412 J0
G1 X75.145
G3 X72.733 Y-127.841 I0 J-2.413
G1 Y-129.841
G3 X75.145 Y-132.253 I2.413 J0
G1 X187.145
G3 X189.557 Y-129.841 I0 J2.412
G1 Y-128.841
G3 X189.24 Y-128.523 I-0.317 J0
G1 X188.923
G18 G3 X188.605 Z-5.943 I0 K0.318
G0 Z5
Y-149.158
G1 Z1 F50
Z-5.943
G2 X188.923 Z-6.26 I0.318 K0 F150
G1 X189.24
G17 G3 X189.557 Y-148.841 I0 J0.317
G1 Y-147.841
G3 X187.145 Y-145.428 I-2.412 J0
G1 X75.145
G3 X72.733 Y-147.841 I0 J-2.413
G1 Y-149.841
G3 X75.145 Y-152.253 I2.413 J0
G1 X187.145
G3 X189.557 Y-149.841 I0 J2.412
G1 Y-148.841
G3 X189.24 Y-148.523 I-0.317 J0
G1 X188.923
G18 G3 X188.605 Z-5.943 I0 K0.318
G0 Z15
G17
G28 G91 Z0
G90
G28 G91 X0 Y0
G90
M5
M30
