(1001)
(T9  D=3.175 CR=0 - ZMIN=-6.26 - flat end mill)
G90 G94
G17
G21
G28 G91 Z0
G90

(2D Contour3)
T9
S18000 M3
G54
G0 X95.536 Y-122.461
Z15
Z5
G1 Z1 F66.7
Z-5.943
Y-122.469 Z-6.013 F200
X95.537 Y-122.492 Z-6.08
Y-122.53 Z-6.14
Y-122.58 Z-6.191
X95.538 Y-122.641 Z-6.229
Y-122.708 Z-6.252
X95.539 Y-122.778 Z-6.26
X95.541 Y-123.096
G3 X95.86 Y-123.411 I0.317 J0.002
X153.883 Y-65 I-0.389 J58.411
X37.058 Y-65 I-58.413 J0
X95.86 Y-123.411 I58.413 J0
X96.176 Y-123.092 I-0.002 J0.317
G1 X96.174 Y-122.774
X96.173 Y-122.703 Z-6.252
Y-122.636 Z-6.229
X96.172 Y-122.576 Z-6.191
Y-122.526 Z-6.14
Y-122.488 Z-6.08
X96.171 Y-122.465 Z-6.013
Y-122.457 Z-5.943
Z1
Z5
G0 X147.931 Y-117.817
G1 Z1 F66.7
Z-5.943
G18 G2 X148.249 Z-6.26 I0.318 K0 F200
G1 X148.566
G17 G3 X148.883 Y-117.5 I0 J0.317
X147.058 Y-117.5 I-0.913 J0
X148.883 Y-117.5 I0.913 J0
X148.566 Y-117.183 I-0.318 J0
G1 X148.249
G18 G3 X147.931 Z-5.943 I0 K0.318
G1 Z1
Z5
G0 Y-12.818
G1 Z1 F66.7
Z-5.943
G2 X148.249 Z-6.26 I0.318 K0 F200
G1 X148.566
G17 G3 X148.883 Y-12.5 I0 J0.318
X147.058 Y-12.5 I-0.913 J0
X148.883 Y-12.5 I0.913 J0
X148.566 Y-12.182 I-0.318 J0
G1 X148.249
G18 G3 X147.931 Z-5.943 I0 K0.318
G1 Z1
Z5
G0 X42.931 Y-12.818
G1 Z1 F66.7
Z-5.943
G2 X43.248 Z-6.26 I0.318 K0 F200
G1 X43.566
G17 G3 X43.883 Y-12.5 I0 J0.318
X42.058 Y-12.5 I-0.913 J0
X43.883 Y-12.5 I0.913 J0
X43.566 Y-12.182 I-0.318 J0
G1 X43.248
G18 G3 X42.931 Z-5.943 I0 K0.318
G1 Z1
Z5
G0 X10.96 Y-116.817
G1 Z1 F66.7
Z-5.943
G2 X11.278 Z-6.26 I0.318 K0 F200
G1 X11.595
G17 G3 X11.913 Y-116.5 I0 J0.317
G1 Y-12
G3 X11.5 Y-11.587 I-0.413 J0
G1 X8.5
G3 X8.087 Y-12 I0 J-0.413
G1 Y-118
G3 X8.5 Y-118.412 I0.413 J0
G1 X11.5
G3 X11.913 Y-118 I0 J0.412
G1 Y-116.5
G3 X11.595 Y-116.183 I-0.318 J0
G1 X11.278
G18 G3 X10.96 Z-5.943 I0 K0.318
G1 Z1
Z5
G0 X42.931 Y-117.817
G1 Z1 F66.7
Z-5.943
G2 X43.248 Z-6.26 I0.318 K0 F200
G1 X43.566
G17 G3 X43.883 Y-117.5 I0 J0.317
X42.058 Y-117.5 I-0.913 J0
X43.883 Y-117.5 I0.913 J0
X43.566 Y-117.183 I-0.318 J0
G1 X43.248
G18 G3 X42.931 Z-5.943 I0 K0.318
G1 Z1
Z5
G0 X402.471 Y-65.317
G1 Z1 F66.7
Z-5.943
G2 X402.789 Z-6.26 I0.318 K0 F200
G1 X403.106
G17 G3 X403.423 Y-65 I0 J0.317
X286.598 Y-65 I-58.413 J0
X403.423 Y-65 I58.413 J0
X403.106 Y-64.683 I-0.318 J0
G1 X402.789
G18 G3 X402.471 Z-5.943 I0 K0.318
G1 Z1
Z5
G0 X431.441 Y-116.817
G1 Z1 F66.7
Z-5.943
G2 X431.759 Z-6.26 I0.318 K0 F200
G1 X432.076
G17 G3 X432.393 Y-116.5 I0 J0.317
G1 Y-12
G3 X431.981 Y-11.587 I-0.413 J0
G1 X428.981
G3 X428.569 Y-12 I0 J-0.413
G1 Y-118
G3 X428.981 Y-118.412 I0.412 J0
G1 X431.981
G3 X432.393 Y-118 I0 J0.412
G1 Y-116.5
G3 X432.076 Y-116.183 I-0.318 J0
G1 X431.759
G18 G3 X431.441 Z-5.943 I0 K0.318
G1 Z1
Z5
G0 X397.471 Y-117.817
G1 Z1 F66.7
Z-5.943
G2 X397.789 Z-6.26 I0.318 K0 F200
G1 X398.106
G17 G3 X398.423 Y-117.5 I0 J0.317
X396.598 Y-117.5 I-0.913 J0
X398.423 Y-117.5 I0.913 J0
X398.106 Y-117.183 I-0.318 J0
G1 X397.789
G18 G3 X397.471 Z-5.943 I0 K0.318
G1 Z1
Z5
G0 Y-12.818
G1 Z1 F66.7
Z-5.943
G2 X397.789 Z-6.26 I0.318 K0 F200
G1 X398.106
G17 G3 X398.423 Y-12.5 I0 J0.318
X396.598 Y-12.5 I-0.913 J0
X398.423 Y-12.5 I0.913 J0
X398.106 Y-12.182 I-0.318 J0
G1 X397.789
G18 G3 X397.471 Z-5.943 I0 K0.318
G1 Z1
Z5
G0 X292.588 Y-12.811
G1 Z1 F66.7
Z-5.943
X292.596 Y-12.808 Z-6.013 F200
X292.618 Y-12.799 Z-6.08
X292.653 Y-12.785 Z-6.14
X292.7 Y-12.767 Z-6.191
X292.756 Y-12.746 Z-6.229
X292.819 Y-12.721 Z-6.252
X292.884 Y-12.696 Z-6.26
X293.181 Y-12.581
G17 G3 X293.362 Y-12.17 I-0.115 J0.296
X291.66 Y-12.83 I-0.851 J-0.33
X293.362 Y-12.17 I0.851 J0.33
X292.951 Y-11.989 I-0.296 J-0.115
G1 X292.655 Y-12.104
X292.589 Y-12.129 Z-6.252
X292.527 Y-12.153 Z-6.229
X292.47 Y-12.175 Z-6.191
X292.424 Y-12.193 Z-6.14
X292.388 Y-12.207 Z-6.08
X292.366 Y-12.216 Z-6.013
X292.359 Y-12.218 Z-5.943
Z1
Z5
G0 X292.471 Y-117.817
G1 Z1 F66.7
Z-5.943
G18 G2 X292.789 Z-6.26 I0.318 K0 F200
G1 X293.106
G17 G3 X293.423 Y-117.5 I0 J0.317
X291.598 Y-117.5 I-0.913 J0
X293.423 Y-117.5 I0.913 J0
X293.106 Y-117.183 I-0.318 J0
G1 X292.789
G18 G3 X292.471 Z-5.943 I0 K0.318
G1 Z5
G0 Z15
G17

(2D Contour4)
G0 X435.798 Y-132.54
Z15
Z5
G1 Z1 F66.7
Z-5.943
G19 G3 Y-132.223 Z-6.26 J0.317 K0 F200
G1 Y-131.905
G17 G3 X435.481 Y-131.587 I-0.318 J0
G1 X286.224
G2 X274.495 Y-126.73 I-0.001 J16.588
G1 X264.138 Y-116.373
G3 X254.654 Y-112.445 I-9.484 J-9.485
G1 X185.827
G3 X176.343 Y-116.373 I-0.001 J-13.413
G1 X165.987 Y-126.729
G2 X154.257 Y-131.587 I-11.729 J11.73
G1 X5
G2 X-1.587 Y-125 I0 J6.587
G1 Y-5
G2 X5 Y1.587 I6.587 J0
G1 X143.799
G2 X165.387 Y-20 I0 J-21.587
G1 Y-59
G3 X178.799 Y-72.412 I13.412 J0
G1 X261.682
G3 X275.095 Y-59 I0 J13.412
G1 Y-20
G2 X296.682 Y1.587 I21.587 J0
G1 X435.481
G2 X442.069 Y-5 I0 J-6.587
G1 Y-125
G2 X435.481 Y-131.587 I-6.588 J0
G3 X435.164 Y-131.905 I0 J-0.318
G1 Y-132.223
G19 G2 Y-132.54 Z-5.943 J0 K0.318
G1 Z5
G0 Z15
G17
G28 G91 Z0
G90
G28 G91 X0 Y0
G90
M5
M30
