(1001)
(T9  D=3.175 CR=0 - ZMIN=-6.26 - flat end mill)
G90 G94
G17
G21
G28 G91 Z0
G90

(2D Contour1)
T9
S18000 M3
G54
G0 X76.914 Y-427.107
Z15
Z5
G1 Z1 F50
Z-5.943
G19 G2 Y-427.424 Z-6.26 J-0.318 K0 F150
G1 Y-427.742
G17 G3 X77.232 Y-428.06 I0.317 J0
G1 X188.232
G3 X190.645 Y-425.647 I0 J2.413
G1 Y-423.647
G3 X188.232 Y-421.234 I-2.413 J0
G1 X76.232
G3 X73.819 Y-423.647 I0 J-2.413
G1 Y-425.647
G3 X76.232 Y-428.06 I2.412 J0
G1 X77.232
G3 X77.549 Y-427.742 I0 J0.318
G1 Y-427.424
G19 G3 Y-427.107 Z-5.943 J0 K0.318
G0 Z5
X189.692 Y-444.965
G1 Z1 F50
Z-5.943
G18 G2 X190.01 Z-6.26 I0.318 K0 F150
G1 X190.327
G17 G3 X190.645 Y-444.647 I0 J0.318
G1 Y-443.647
G3 X188.232 Y-441.234 I-2.413 J0
G1 X76.232
G3 X73.819 Y-443.647 I0 J-2.413
G1 Y-445.647
G3 X76.232 Y-448.06 I2.412 J0
G1 X188.232
G3 X190.645 Y-445.647 I0 J2.413
G1 Y-444.647
G3 X190.327 Y-444.329 I-0.318 J0
G1 X190.01
G18 G3 X189.692 Z-5.943 I0 K0.318
G0 Z5
Y-464.965
G1 Z1 F50
Z-5.943
G2 X190.01 Z-6.26 I0.318 K0 F150
G1 X190.327
G17 G3 X190.645 Y-464.647 I0 J0.318
G1 Y-463.647
G3 X188.232 Y-461.234 I-2.413 J0
G1 X76.232
G3 X73.819 Y-463.647 I0 J-2.413
G1 Y-465.647
G3 X76.232 Y-468.06 I2.412 J0
G1 X188.232
G3 X190.645 Y-465.647 I0 J2.413
G1 Y-464.647
G3 X190.327 Y-464.329 I-0.318 J0
G1 X190.01
G18 G3 X189.692 Z-5.943 I0 K0.318
G0 Z5
Y-484.965
G1 Z1 F50
Z-5.943
G2 X190.01 Z-6.26 I0.318 K0 F150
G1 X190.327
G17 G3 X190.645 Y-484.647 I0 J0.318
G1 Y-483.647
G3 X188.232 Y-481.234 I-2.413 J0
G1 X76.232
G3 X73.819 Y-483.647 I0 J-2.413
G1 Y-485.647
G3 X76.232 Y-488.06 I2.412 J0
G1 X188.232
G3 X190.645 Y-485.647 I0 J2.413
G1 Y-484.647
G3 X190.327 Y-484.329 I-0.318 J0
G1 X190.01
G18 G3 X189.692 Z-5.943 I0 K0.318
G0 Z5
X76.914 Y-407.107
G1 Z1 F50
Z-5.943
G19 G2 Y-407.424 Z-6.26 J-0.318 K0 F150
G1 Y-407.742
G17 G3 X77.232 Y-408.06 I0.317 J0
G1 X188.232
G3 X190.645 Y-405.647 I0 J2.413
G1 Y-403.647
G3 X188.232 Y-401.234 I-2.413 J0
G1 X76.232
G3 X73.819 Y-403.647 I0 J-2.413
G1 Y-405.647
G3 X76.232 Y-408.06 I2.412 J0
G1 X77.232
G3 X77.549 Y-407.742 I0 J0.318
G1 Y-407.424
G19 G3 Y-407.107 Z-5.943 J0 K0.318
G0 Z5
X76.914 Y-387.107
G1 Z1 F50
Z-5.943
G2 Y-387.424 Z-6.26 J-0.318 K0 F150
G1 Y-387.742
G17 G3 X77.232 Y-388.06 I0.317 J0
G1 X188.232
G3 X190.645 Y-385.647 I0 J2.413
G1 Y-383.647
G3 X188.232 Y-381.234 I-2.413 J0
G1 X76.232
G3 X73.819 Y-383.647 I0 J-2.413
G1 Y-385.647
G3 X76.232 Y-388.06 I2.412 J0
G1 X77.232
G3 X77.549 Y-387.742 I0 J0.318
G1 Y-387.424
G19 G3 Y-387.107 Z-5.943 J0 K0.318
G0 Z5
X439.232 Y-384.965
G1 Z1 F50
Z-5.943
G18 G2 X439.549 Z-6.26 I0.318 K0 F150
G1 X439.867
G17 G3 X440.185 Y-384.647 I0 J0.318
G1 Y-383.647
G3 X437.772 Y-381.234 I-2.413 J0
G1 X325.772
G3 X323.359 Y-383.647 I0 J-2.413
G1 Y-385.647
G3 X325.772 Y-388.06 I2.413 J0
G1 X437.772
G3 X440.185 Y-385.647 I0 J2.413
G1 Y-384.647
G3 X439.867 Y-384.329 I-0.318 J0
G1 X439.549
G18 G3 X439.232 Z-5.943 I0 K0.318
G0 Z5
Y-404.965
G1 Z1 F50
Z-5.943
G2 X439.549 Z-6.26 I0.318 K0 F150
G1 X439.867
G17 G3 X440.185 Y-404.647 I0 J0.318
G1 Y-403.647
G3 X437.772 Y-401.234 I-2.413 J0
G1 X325.772
G3 X323.359 Y-403.647 I0 J-2.413
G1 Y-405.647
G3 X325.772 Y-408.06 I2.413 J0
G1 X437.772
G3 X440.185 Y-405.647 I0 J2.413
G1 Y-404.647
G3 X439.867 Y-404.329 I-0.318 J0
G1 X439.549
G18 G3 X439.232 Z-5.943 I0 K0.318
G0 Z5
X326.454 Y-427.107
G1 Z1 F50
Z-5.943
G19 G2 Y-427.424 Z-6.26 J-0.318 K0 F150
G1 Y-427.742
G17 G3 X326.772 Y-428.06 I0.318 J0
G1 X437.772
G3 X440.185 Y-425.647 I0 J2.413
G1 Y-423.647
G3 X437.772 Y-421.234 I-2.413 J0
G1 X325.772
G3 X323.359 Y-423.647 I0 J-2.413
G1 Y-425.647
G3 X325.772 Y-428.06 I2.413 J0
G1 X326.772
G3 X327.09 Y-427.742 I0 J0.318
G1 Y-427.424
G19 G3 Y-427.107 Z-5.943 J0 K0.318
G0 Z5
X439.232 Y-444.965
G1 Z1 F50
Z-5.943
G18 G2 X439.549 Z-6.26 I0.318 K0 F150
G1 X439.867
G17 G3 X440.185 Y-444.647 I0 J0.318
G1 Y-443.647
G3 X437.772 Y-441.234 I-2.413 J0
G1 X325.772
G3 X323.359 Y-443.647 I0 J-2.413
G1 Y-445.647
G3 X325.772 Y-448.06 I2.413 J0
G1 X437.772
G3 X440.185 Y-445.647 I0 J2.413
G1 Y-444.647
G3 X439.867 Y-444.329 I-0.318 J0
G1 X439.549
G18 G3 X439.232 Z-5.943 I0 K0.318
G0 Z5
X326.454 Y-467.107
G1 Z1 F50
Z-5.943
G19 G2 Y-467.424 Z-6.26 J-0.318 K0 F150
G1 Y-467.742
G17 G3 X326.772 Y-468.06 I0.318 J0
G1 X437.772
G3 X440.185 Y-465.647 I0 J2.413
G1 Y-463.647
G3 X437.772 Y-461.234 I-2.413 J0
G1 X325.772
G3 X323.359 Y-463.647 I0 J-2.413
G1 Y-465.647
G3 X325.772 Y-468.06 I2.413 J0
G1 X326.772
G3 X327.09 Y-467.742 I0 J0.318
G1 Y-467.424
G19 G3 Y-467.107 Z-5.943 J0 K0.318
G0 Z5
X326.454 Y-487.107
G1 Z1 F50
Z-5.943
G2 Y-487.424 Z-6.26 J-0.318 K0 F150
G1 Y-487.742
G17 G3 X326.772 Y-488.06 I0.318 J0
G1 X437.772
G3 X440.185 Y-485.647 I0 J2.413
G1 Y-483.647
G3 X437.772 Y-481.234 I-2.413 J0
G1 X325.772
G3 X323.359 Y-483.647 I0 J-2.413
G1 Y-485.647
G3 X325.772 Y-488.06 I2.413 J0
G1 X326.772
G3 X327.09 Y-487.742 I0 J0.318
G1 Y-487.424
G19 G3 Y-487.107 Z-5.943 J0 K0.318
G0 Z15
G17
G28 G91 Z0
G90
G28 G91 X0 Y0
G90
M5
M30
