(1001)
(T9  D=3.175 CR=0 - ZMIN=-6.26 - flat end mill)
G90 G94
G17
G21
G28 G91 Z0
G90

(2D Contour4)
T9
S18000 M3
G54
G0 X435.798 Y-132.54
Z15
Z5
G1 Z1 F66.7
Z-5.943
G19 G3 Y-132.223 Z-6.26 J0.317 K0 F200
G1 Y-131.905
G17 G3 X435.481 Y-131.587 I-0.318 J0
G1 X286.224
G2 X274.495 Y-126.73 I-0.001 J16.588
G1 X264.138 Y-116.373
G3 X254.654 Y-112.445 I-9.484 J-9.485
G1 X185.827
G3 X176.343 Y-116.373 I-0.001 J-13.413
G1 X165.987 Y-126.729
G2 X154.257 Y-131.587 I-11.729 J11.73
G1 X5
G2 X-1.587 Y-125 I0 J6.587
G1 Y-5
G2 X5 Y1.587 I6.587 J0
G1 X143.799
G2 X165.387 Y-20 I0 J-21.587
G1 Y-59
G3 X178.799 Y-72.412 I13.412 J0
G1 X261.682
G3 X275.095 Y-59 I0 J13.412
G1 Y-20
G2 X296.682 Y1.587 I21.587 J0
G1 X435.481
G2 X442.069 Y-5 I0 J-6.587
G1 Y-125
G2 X435.481 Y-131.587 I-6.588 J0
G3 X435.164 Y-131.905 I0 J-0.318
G1 Y-132.223
G19 G2 Y-132.54 Z-5.943 J0 K0.318
G1 Z5
G0 Z15
G17
G28 G91 Z0
G90
G28 G91 X0 Y0
G90
M5
M30
