(ventAdapterInner_hole_v2)
(T9  D=3.175 CR=0 - ZMIN=-6.26 - flat end mill)
G90 G94
G17
G21
G28 G91 Z0
G90

(2D Contour1)
T9
S18000 M3
G54
G0 X43.266 Y-12.376
Z15
Z5
G1 Z1 F66.7
Z-5.943
X43.262 Y-12.369 Z-6.013 F200
X43.25 Y-12.349 Z-6.08
X43.231 Y-12.316 Z-6.14
X43.206 Y-12.272 Z-6.191
X43.176 Y-12.22 Z-6.229
X43.142 Y-12.162 Z-6.252
X43.107 Y-12.101 Z-6.26
X42.948 Y-11.826
G3 X42.514 Y-11.71 I-0.275 J-0.159
X43.427 Y-13.29 I0.456 J-0.79
X42.514 Y-11.71 I-0.456 J0.79
X42.398 Y-12.143 I0.159 J-0.275
G1 X42.557 Y-12.418
X42.592 Y-12.48 Z-6.252
X42.626 Y-12.538 Z-6.229
X42.656 Y-12.59 Z-6.191
X42.681 Y-12.633 Z-6.14
X42.7 Y-12.666 Z-6.08
X42.712 Y-12.686 Z-6.013
X42.716 Y-12.693 Z-5.943
Z1
Z5
G0 X55.411 Y-23.806
G1 Z1 F66.7
Z-5.943
X55.406 Y-23.8 Z-6.013 F200
X55.389 Y-23.783 Z-6.08
X55.363 Y-23.756 Z-6.14
X55.327 Y-23.72 Z-6.191
X55.285 Y-23.677 Z-6.229
X55.238 Y-23.63 Z-6.252
X55.189 Y-23.579 Z-6.26
X54.966 Y-23.353
G3 X54.517 Y-23.349 I-0.226 J-0.223
X37.058 Y-65 I40.954 J-41.651
X153.883 Y-65 I58.413 J0
X54.517 Y-23.349 I-58.413 J0
X54.513 Y-23.798 I0.223 J-0.226
G1 X54.736 Y-24.024
X54.785 Y-24.075 Z-6.252
X54.832 Y-24.123 Z-6.229
X54.875 Y-24.166 Z-6.191
X54.91 Y-24.201 Z-6.14
X54.936 Y-24.228 Z-6.08
X54.953 Y-24.245 Z-6.013
X54.958 Y-24.251 Z-5.943
Z1
Z5
G0 X10.193 Y-41.505
G1 Z1 F66.7
Z-5.943
X10.199 Y-41.5 Z-6.013 F200
X10.215 Y-41.483 Z-6.08
X10.243 Y-41.457 Z-6.14
X10.279 Y-41.422 Z-6.191
X10.322 Y-41.38 Z-6.229
X10.37 Y-41.333 Z-6.252
X10.42 Y-41.284 Z-6.26
X10.648 Y-41.062
G3 X10.653 Y-40.613 I-0.222 J0.227
X9.347 Y-41.887 I-0.653 J-0.637
X10.653 Y-40.613 I0.653 J0.637
X10.205 Y-40.607 I-0.227 J-0.222
G1 X9.977 Y-40.829
X9.927 Y-40.878 Z-6.252
X9.878 Y-40.925 Z-6.229
X9.835 Y-40.967 Z-6.191
X9.799 Y-41.002 Z-6.14
X9.772 Y-41.029 Z-6.08
X9.755 Y-41.045 Z-6.013
X9.75 Y-41.051 Z-5.943
Z1
Z5
G0 X10.279 Y-88.906
G1 Z1 F66.7
Z-5.943
X10.282 Y-88.899 Z-6.013 F200
X10.291 Y-88.877 Z-6.08
X10.305 Y-88.842 Z-6.14
X10.324 Y-88.795 Z-6.191
X10.347 Y-88.74 Z-6.229
X10.372 Y-88.677 Z-6.252
X10.398 Y-88.612 Z-6.26
X10.517 Y-88.317
G3 X10.342 Y-87.904 I-0.294 J0.119
X9.658 Y-89.596 I-0.342 J-0.846
X10.342 Y-87.904 I0.342 J0.846
X9.929 Y-88.079 I-0.119 J-0.294
G1 X9.81 Y-88.374
X9.783 Y-88.439 Z-6.252
X9.758 Y-88.501 Z-6.229
X9.735 Y-88.557 Z-6.191
X9.717 Y-88.604 Z-6.14
X9.702 Y-88.639 Z-6.08
X9.694 Y-88.661 Z-6.013
X9.691 Y-88.668 Z-5.943
Z1
Z5
G0 X43.289 Y-117.536
G1 Z1 F66.7
Z-5.943
Y-117.528 Z-6.013 F200
X43.288 Y-117.505 Z-6.08
Y-117.467 Z-6.14
X43.287 Y-117.417 Z-6.191
Y-117.357 Z-6.229
X43.286 Y-117.289 Z-6.252
X43.285 Y-117.219 Z-6.26
X43.281 Y-116.901
G3 X42.96 Y-116.588 I-0.317 J-0.004
X42.981 Y-118.412 I0.011 J-0.912
X42.96 Y-116.588 I-0.011 J0.912
X42.646 Y-116.909 I0.004 J-0.317
G1 X42.65 Y-117.226
X42.651 Y-117.297 Z-6.252
X42.652 Y-117.364 Z-6.229
Y-117.424 Z-6.191
X42.653 Y-117.474 Z-6.14
Y-117.512 Z-6.08
X42.654 Y-117.536 Z-6.013
Y-117.544 Z-5.943
Z1
Z5
G0 X148.225 Y-117.305
G1 Z1 F66.7
Z-5.943
X148.219 Y-117.299 Z-6.013 F200
X148.202 Y-117.283 Z-6.08
X148.176 Y-117.256 Z-6.14
X148.14 Y-117.22 Z-6.191
X148.098 Y-117.177 Z-6.229
X148.051 Y-117.13 Z-6.252
X148.001 Y-117.079 Z-6.26
X147.778 Y-116.854
G3 X147.329 Y-116.852 I-0.225 J-0.224
X148.613 Y-118.148 I0.642 J-0.648
X147.329 Y-116.852 I-0.642 J0.648
X147.327 Y-117.301 I0.224 J-0.225
G1 X147.55 Y-117.526
X147.6 Y-117.577 Z-6.252
X147.647 Y-117.624 Z-6.229
X147.69 Y-117.667 Z-6.191
X147.725 Y-117.703 Z-6.14
X147.752 Y-117.73 Z-6.08
X147.768 Y-117.746 Z-6.013
X147.774 Y-117.752 Z-5.943
Z1
Z5
G0 X200.423 Y-92.165
G1 Z1 F66.7
Z-5.943
X200.415 Y-92.161 Z-6.013 F200
X200.395 Y-92.15 Z-6.08
X200.361 Y-92.133 Z-6.14
X200.316 Y-92.11 Z-6.191
X200.263 Y-92.082 Z-6.229
X200.203 Y-92.051 Z-6.252
X200.141 Y-92.019 Z-6.26
X199.859 Y-91.873
G3 X199.431 Y-92.009 I-0.146 J-0.282
X201.051 Y-92.848 I0.81 J-0.42
X199.431 Y-92.009 I-0.81 J0.42
X199.567 Y-92.437 I0.282 J-0.146
G1 X199.849 Y-92.583
X199.911 Y-92.615 Z-6.252
X199.971 Y-92.646 Z-6.229
X200.024 Y-92.674 Z-6.191
X200.069 Y-92.697 Z-6.14
X200.103 Y-92.714 Z-6.08
X200.123 Y-92.725 Z-6.013
X200.131 Y-92.729 Z-5.943
Z1
Z5
G0 X240.399 Y-92.15
G1 Z1 F66.7
Z-5.943
X240.392 Y-92.147 Z-6.013 F200
X240.37 Y-92.138 Z-6.08
X240.335 Y-92.124 Z-6.14
X240.289 Y-92.105 Z-6.191
X240.233 Y-92.082 Z-6.229
X240.171 Y-92.056 Z-6.252
X240.106 Y-92.029 Z-6.26
X239.812 Y-91.908
G3 X239.398 Y-92.08 I-0.121 J-0.293
X241.084 Y-92.777 I0.843 J-0.349
X239.398 Y-92.08 I-0.843 J0.349
X239.57 Y-92.495 I0.293 J-0.121
G1 X239.863 Y-92.616
X239.929 Y-92.643 Z-6.252
X239.991 Y-92.669 Z-6.229
X240.046 Y-92.692 Z-6.191
X240.093 Y-92.711 Z-6.14
X240.128 Y-92.725 Z-6.08
X240.149 Y-92.734 Z-6.013
X240.157 Y-92.737 Z-5.943
Z1
Z5
G0 X288.519 Y-54.495
G1 Z1 F66.7
Z-5.943
X288.511 Y-54.494 Z-6.013 F200
X288.488 Y-54.49 Z-6.08
X288.45 Y-54.483 Z-6.14
X288.401 Y-54.474 Z-6.191
X288.342 Y-54.463 Z-6.229
X288.276 Y-54.451 Z-6.252
X288.206 Y-54.439 Z-6.26
X287.894 Y-54.383
G3 X287.525 Y-54.639 I-0.056 J-0.312
X402.497 Y-75.361 I57.486 J-10.361
X287.525 Y-54.639 I-57.486 J10.361
X287.781 Y-55.007 I0.312 J-0.056
G1 X288.093 Y-55.064
X288.163 Y-55.076 Z-6.252
X288.229 Y-55.088 Z-6.229
X288.288 Y-55.099 Z-6.191
X288.338 Y-55.108 Z-6.14
X288.375 Y-55.115 Z-6.08
X288.398 Y-55.119 Z-6.013
X288.406 Y-55.12 Z-5.943
Z1
Z5
G0 X292.551 Y-12.182
G1 Z1 F66.7
Z-5.943
G18 G3 X292.233 Z-6.26 I-0.318 K0 F200
G1 X291.916
G17 G3 X291.599 Y-12.5 I0 J-0.318
X293.423 Y-12.5 I0.912 J0
X291.599 Y-12.5 I-0.912 J0
X291.916 Y-12.818 I0.317 J0
G1 X292.233
G18 G2 X292.551 Z-5.943 I0 K0.318
G1 Z1
Z5
G0 X292.673 Y-117.224
G1 Z1 F66.7
Z-5.943
X292.665 Y-117.221 Z-6.013 F200
X292.644 Y-117.211 Z-6.08
X292.609 Y-117.197 Z-6.14
X292.563 Y-117.177 Z-6.191
X292.507 Y-117.153 Z-6.229
X292.446 Y-117.127 Z-6.252
X292.381 Y-117.099 Z-6.26
X292.089 Y-116.974
G17 G3 X291.672 Y-117.141 I-0.125 J-0.292
X293.35 Y-117.859 I0.839 J-0.359
X291.672 Y-117.141 I-0.839 J0.359
X291.839 Y-117.558 I0.292 J-0.125
G1 X292.131 Y-117.683
X292.196 Y-117.711 Z-6.252
X292.258 Y-117.737 Z-6.229
X292.313 Y-117.761 Z-6.191
X292.359 Y-117.78 Z-6.14
X292.394 Y-117.795 Z-6.08
X292.416 Y-117.805 Z-6.013
X292.423 Y-117.808 Z-5.943
Z1
Z5
G0 X397.641 Y-117.208
G1 Z1 F66.7
Z-5.943
X397.633 Y-117.205 Z-6.013 F200
X397.611 Y-117.198 Z-6.08
X397.575 Y-117.188 Z-6.14
X397.526 Y-117.173 Z-6.191
X397.469 Y-117.156 Z-6.229
X397.405 Y-117.136 Z-6.252
X397.337 Y-117.116 Z-6.26
X397.033 Y-117.024
G3 X396.637 Y-117.237 I-0.092 J-0.304
X398.385 Y-117.763 I0.874 J-0.263
X396.637 Y-117.237 I-0.874 J0.263
X396.85 Y-117.632 I0.304 J-0.092
G1 X397.154 Y-117.724
X397.221 Y-117.744 Z-6.252
X397.286 Y-117.764 Z-6.229
X397.343 Y-117.781 Z-6.191
X397.391 Y-117.796 Z-6.14
X397.428 Y-117.806 Z-6.08
X397.45 Y-117.813 Z-6.013
X397.458 Y-117.816 Z-5.943
Z1
Z5
G0 X430.583 Y-88.447
G1 Z1 F66.7
Z-5.943
X430.575 Y-88.445 Z-6.013 F200
X430.552 Y-88.44 Z-6.08
X430.515 Y-88.433 Z-6.14
X430.466 Y-88.423 Z-6.191
X430.407 Y-88.411 Z-6.229
X430.341 Y-88.398 Z-6.252
X430.272 Y-88.384 Z-6.26
X429.961 Y-88.321
G3 X429.587 Y-88.57 I-0.063 J-0.311
X431.375 Y-88.93 I0.894 J-0.18
X429.587 Y-88.57 I-0.894 J0.18
X429.835 Y-88.944 I0.311 J-0.063
G1 X430.146 Y-89.006
X430.215 Y-89.02 Z-6.252
X430.281 Y-89.034 Z-6.229
X430.34 Y-89.046 Z-6.191
X430.39 Y-89.055 Z-6.14
X430.427 Y-89.063 Z-6.08
X430.45 Y-89.068 Z-6.013
X430.457 Y-89.069 Z-5.943
Z1
Z5
G0 X430.546 Y-40.937
G1 Z1 F66.7
Z-5.943
X430.538 Y-40.936 Z-6.013 F200
X430.515 Y-40.934 Z-6.08
X430.477 Y-40.931 Z-6.14
X430.427 Y-40.927 Z-6.191
X430.367 Y-40.922 Z-6.229
X430.3 Y-40.917 Z-6.252
X430.23 Y-40.912 Z-6.26
X429.913 Y-40.886
G3 X429.571 Y-41.178 I-0.025 J-0.316
X431.391 Y-41.322 I0.91 J-0.072
X429.571 Y-41.178 I-0.91 J0.072
X429.863 Y-41.519 I0.316 J-0.025
G1 X430.179 Y-41.545
X430.25 Y-41.55 Z-6.252
X430.317 Y-41.555 Z-6.229
X430.377 Y-41.56 Z-6.191
X430.427 Y-41.564 Z-6.14
X430.464 Y-41.567 Z-6.08
X430.488 Y-41.569 Z-6.013
X430.496 Y-41.57 Z-5.943
Z1
Z5
G0 X397.551 Y-12.182
G1 Z1 F66.7
Z-5.943
G18 G3 X397.233 Z-6.26 I-0.318 K0 F200
G1 X396.916
G17 G3 X396.599 Y-12.5 I0 J-0.318
X398.423 Y-12.5 I0.912 J0
X396.599 Y-12.5 I-0.912 J0
X396.916 Y-12.818 I0.317 J0
G1 X397.233
G18 G2 X397.551 Z-5.943 I0 K0.318
G1 Z1
Z5
G0 X148.017 Y-12.183
G1 Z1 F66.7
Z-5.943
X148.009 Z-6.013 F200
X147.986 Z-6.08
X147.948 Y-12.182 Z-6.14
X147.898 Y-12.181 Z-6.191
X147.838 Y-12.18 Z-6.229
X147.771 Y-12.178 Z-6.252
X147.7 Y-12.177 Z-6.26
X147.383 Y-12.17
G17 G3 X147.059 Y-12.481 I-0.006 J-0.317
X148.883 Y-12.519 I0.912 J-0.019
X147.059 Y-12.481 I-0.912 J0.019
X147.37 Y-12.805 I0.317 J-0.006
G1 X147.687 Y-12.812
X147.758 Y-12.813 Z-6.252
X147.825 Y-12.815 Z-6.229
X147.885 Y-12.816 Z-6.191
X147.935 Y-12.817 Z-6.14
X147.973 Y-12.818 Z-6.08
X147.997 Z-6.013
X148.005 Z-5.943
Z5
G0 Z15
G28 G91 Z0
G90
G28 G91 X0 Y0
G90
M5
M30
