(1001)
(T9  D=3.175 CR=0 - ZMIN=-6.26 - flat end mill)
G90 G94
G17
G21
G28 G91 Z0
G90

(2D Contour2)
T9
S18000 M3
G54
G0 X442.985 Y-83.908
Z15
Z5
G1 Z1 F66.7
Z-5.943
X442.977 Y-83.909 Z-6.013 F200
X442.954 Y-83.91 Z-6.08
X442.916 Y-83.913 Z-6.14
X442.866 Y-83.916 Z-6.191
X442.806 Y-83.919 Z-6.229
X442.739 Y-83.924 Z-6.252
X442.668 Y-83.928 Z-6.26
X442.352 Y-83.947
G3 X442.054 Y-84.284 I0.02 J-0.317
G2 X442.069 Y-84.75 I-7.573 J-0.466
G1 Y-92.75
G2 X434.481 Y-100.338 I-7.588 J0
G1 X426.481
G3 X422.069 Y-104.75 I0 J-4.412
G1 Y-110
G2 X400.481 Y-131.587 I-21.588 J0
G1 X286.224
G2 X274.495 Y-126.73 I-0.001 J16.588
G1 X264.138 Y-116.373
G3 X254.654 Y-112.445 I-9.484 J-9.485
G1 X185.827
G3 X176.343 Y-116.373 I-0.001 J-13.413
G1 X165.987 Y-126.729
G2 X154.257 Y-131.587 I-11.729 J11.73
G1 X40
G2 X18.413 Y-110 I0 J21.587
G1 Y-104.75
G3 X14 Y-100.338 I-4.413 J0
G1 X6
G2 X-1.587 Y-92.75 I0 J7.588
G1 Y-84.75
G2 X6 Y-77.162 I7.587 J0
G1 X14
G3 X18.413 Y-72.75 I0 J4.412
G1 Y-57.25
G3 X14 Y-52.838 I-4.413 J0
G1 X6
G2 X-1.587 Y-45.25 I0 J7.588
G1 Y-37.25
G2 X6 Y-29.663 I7.587 J0
G1 X14
G3 X18.413 Y-25.25 I0 J4.413
G1 Y-20
G2 X40 Y1.587 I21.587 J0
G1 X143.799
G2 X165.387 Y-20 I0 J-21.587
G1 Y-59
G3 X178.799 Y-72.412 I13.412 J0
G1 X261.682
G3 X275.095 Y-59 I0 J13.412
G1 Y-20
G2 X296.682 Y1.587 I21.587 J0
G1 X400.481
G2 X422.069 Y-20 I0 J-21.587
G1 Y-25.25
G3 X426.481 Y-29.663 I4.412 J0
G1 X434.481
G2 X442.069 Y-37.25 I0 J-7.587
G1 Y-45.25
G2 X434.481 Y-52.838 I-7.588 J0
G1 X426.481
G3 X422.069 Y-57.25 I0 J-4.412
G1 Y-72.75
G3 X426.481 Y-77.162 I4.412 J0
G1 X434.481
G2 X442.054 Y-84.284 I0 J-7.588
G3 X442.391 Y-84.581 I0.317 J0.02
G1 X442.707 Y-84.562
X442.778 Y-84.557 Z-6.252
X442.845 Y-84.553 Z-6.229
X442.905 Y-84.55 Z-6.191
X442.955 Y-84.547 Z-6.14
X442.993 Y-84.544 Z-6.08
X443.016 Y-84.543 Z-6.013
X443.024 Y-84.542 Z-5.943
Z5
G0 Z15
G28 G91 Z0
G90
G28 G91 X0 Y0
G90
M5
M30
