(1001)
(T9  D=3.175 CR=0 - ZMIN=-6.26 - flat end mill)
G90 G94
G17
G21
G28 G91 Z0
G90

(2D Contour2)
T9
S18000 M3
G54
G0 X140.348 Y-82.7
Z15
Z5
G1 Z1 F50
Z-5.943
G18 G2 X140.665 Z-6.26 I0.317 K0 F150
G1 X140.983
G17 G3 X141.301 Y-82.383 I0 J0.318
G1 Y-81.383
G3 X138.888 Y-78.97 I-2.413 J0
G1 X26.888
G3 X24.475 Y-81.383 I0 J-2.412
G1 Y-83.383
G3 X26.888 Y-85.795 I2.413 J0
G1 X138.888
G3 X141.301 Y-83.383 I0 J2.412
G1 Y-82.383
G3 X140.983 Y-82.065 I-0.318 J0
G1 X140.665
G18 G3 X140.348 Z-5.943 I0 K0.318
G0 Z5
Y-62.7
G1 Z1 F50
Z-5.943
G2 X140.665 Z-6.26 I0.317 K0 F150
G1 X140.983
G17 G3 X141.301 Y-62.383 I0 J0.317
G1 Y-61.383
G3 X138.888 Y-58.97 I-2.413 J0
G1 X26.888
G3 X24.475 Y-61.383 I0 J-2.413
G1 Y-63.383
G3 X26.888 Y-65.795 I2.413 J0
G1 X138.888
G3 X141.301 Y-63.383 I0 J2.412
G1 Y-62.383
G3 X140.983 Y-62.065 I-0.318 J0
G1 X140.665
G18 G3 X140.348 Z-5.943 I0 K0.318
G0 Z5
X27.57 Y-44.843
G1 Z1 F50
Z-5.943
G19 G2 Y-45.16 Z-6.26 J-0.317 K0 F150
G1 Y-45.478
G17 G3 X27.888 Y-45.795 I0.318 J0
G1 X138.888
G3 X141.301 Y-43.383 I0 J2.412
G1 Y-41.383
G3 X138.888 Y-38.97 I-2.413 J0
G1 X26.888
G3 X24.475 Y-41.383 I0 J-2.413
G1 Y-43.383
G3 X26.888 Y-45.795 I2.413 J0
G1 X27.888
G3 X28.205 Y-45.478 I0 J0.318
G1 Y-45.16
G19 G3 Y-44.843 Z-5.943 J0 K0.318
G0 Z5
X27.57 Y-24.843
G1 Z1 F50
Z-5.943
G2 Y-25.16 Z-6.26 J-0.318 K0 F150
G1 Y-25.478
G17 G3 X27.888 Y-25.795 I0.318 J0
G1 X138.888
G3 X141.301 Y-23.383 I0 J2.413
G1 Y-21.383
G3 X138.888 Y-18.97 I-2.413 J0
G1 X26.888
G3 X24.475 Y-21.383 I0 J-2.413
G1 Y-23.383
G3 X26.888 Y-25.795 I2.413 J0
G1 X27.888
G3 X28.205 Y-25.478 I0 J0.318
G1 Y-25.16
G19 G3 Y-24.843 Z-5.943 J0 K0.318
G0 Z5
Y-99.923
G1 Z1 F50
Z-5.943
G3 Y-99.605 Z-6.26 J0.317 K0 F150
G1 Y-99.288
G17 G3 X27.888 Y-98.97 I-0.318 J0
G1 X26.888
G3 X24.475 Y-101.383 I0 J-2.413
G1 Y-103.383
G3 X26.888 Y-105.796 I2.413 J0
G1 X138.888
G3 X141.301 Y-103.383 I0 J2.412
G1 Y-101.383
G3 X138.888 Y-98.97 I-2.413 J0
G1 X27.888
G3 X27.57 Y-99.288 I0 J-0.317
G1 Y-99.605
G19 G2 Y-99.923 Z-5.943 J0 K0.318
G0 Z5
X140.348 Y-122.701
G1 Z1 F50
Z-5.943
G18 G2 X140.665 Z-6.26 I0.317 K0 F150
G1 X140.983
G17 G3 X141.301 Y-122.383 I0 J0.317
G1 Y-121.383
G3 X138.888 Y-118.97 I-2.413 J0
G1 X26.888
G3 X24.475 Y-121.383 I0 J-2.413
G1 Y-123.383
G3 X26.888 Y-125.796 I2.413 J0
G1 X138.888
G3 X141.301 Y-123.383 I0 J2.412
G1 Y-122.383
G3 X140.983 Y-122.065 I-0.318 J0
G1 X140.665
G18 G3 X140.348 Z-5.943 I0 K0.318
G0 Z5
X277.111 Y-124.843
G1 Z1 F50
Z-5.943
G19 G2 Y-125.16 Z-6.26 J-0.317 K0 F150
G1 Y-125.478
G17 G3 X277.428 Y-125.796 I0.318 J0
G1 X388.428
G3 X390.841 Y-123.383 I0 J2.412
G1 Y-121.383
G3 X388.428 Y-118.97 I-2.413 J0
G1 X276.428
G3 X274.016 Y-121.383 I0 J-2.413
G1 Y-123.383
G3 X276.428 Y-125.796 I2.413 J0
G1 X277.428
G3 X277.746 Y-125.478 I0 J0.318
G1 Y-125.16
G19 G3 Y-124.843 Z-5.943 J0 K0.318
G0 Z5
Y-99.923
G1 Z1 F50
Z-5.943
G3 Y-99.605 Z-6.26 J0.317 K0 F150
G1 Y-99.288
G17 G3 X277.428 Y-98.97 I-0.317 J0
G1 X276.428
G3 X274.016 Y-101.383 I0 J-2.413
G1 Y-103.383
G3 X276.428 Y-105.796 I2.413 J0
G1 X388.428
G3 X390.841 Y-103.383 I0 J2.412
G1 Y-101.383
G3 X388.428 Y-98.97 I-2.413 J0
G1 X277.428
G3 X277.111 Y-99.288 I0 J-0.317
G1 Y-99.605
G19 G2 Y-99.923 Z-5.943 J0 K0.318
G0 Z5
X389.888 Y-82.7
G1 Z1 F50
Z-5.943
G18 G2 X390.206 Z-6.26 I0.318 K0 F150
G1 X390.523
G17 G3 X390.841 Y-82.383 I0 J0.318
G1 Y-81.383
G3 X388.428 Y-78.97 I-2.413 J0
G1 X276.428
G3 X274.016 Y-81.383 I0 J-2.412
G1 Y-83.383
G3 X276.428 Y-85.795 I2.413 J0
G1 X388.428
G3 X390.841 Y-83.383 I0 J2.412
G1 Y-82.383
G3 X390.523 Y-82.065 I-0.318 J0
G1 X390.206
G18 G3 X389.888 Z-5.943 I0 K0.318
G0 Z5
X277.111 Y-64.843
G1 Z1 F50
Z-5.943
G19 G2 Y-65.16 Z-6.26 J-0.318 K0 F150
G1 Y-65.478
G17 G3 X277.428 Y-65.795 I0.318 J0
G1 X388.428
G3 X390.841 Y-63.383 I0 J2.412
G1 Y-61.383
G3 X388.428 Y-58.97 I-2.413 J0
G1 X276.428
G3 X274.016 Y-61.383 I0 J-2.413
G1 Y-63.383
G3 X276.428 Y-65.795 I2.413 J0
G1 X277.428
G3 X277.746 Y-65.478 I0 J0.317
G1 Y-65.16
G19 G3 Y-64.843 Z-5.943 J0 K0.318
G0 Z5
X389.888 Y-42.7
G1 Z1 F50
Z-5.943
G18 G2 X390.206 Z-6.26 I0.318 K0 F150
G1 X390.523
G17 G3 X390.841 Y-42.383 I0 J0.317
G1 Y-41.383
G3 X388.428 Y-38.97 I-2.413 J0
G1 X276.428
G3 X274.016 Y-41.383 I0 J-2.413
G1 Y-43.383
G3 X276.428 Y-45.795 I2.413 J0
G1 X388.428
G3 X390.841 Y-43.383 I0 J2.412
G1 Y-42.383
G3 X390.523 Y-42.065 I-0.318 J0
G1 X390.206
G18 G3 X389.888 Z-5.943 I0 K0.318
G0 Z5
Y-22.7
G1 Z1 F50
Z-5.943
G2 X390.206 Z-6.26 I0.318 K0 F150
G1 X390.523
G17 G3 X390.841 Y-22.383 I0 J0.317
G1 Y-21.383
G3 X388.428 Y-18.97 I-2.413 J0
G1 X276.428
G3 X274.016 Y-21.383 I0 J-2.413
G1 Y-23.383
G3 X276.428 Y-25.795 I2.413 J0
G1 X388.428
G3 X390.841 Y-23.383 I0 J2.413
G1 Y-22.383
G3 X390.523 Y-22.065 I-0.318 J0
G1 X390.206
G18 G3 X389.888 Z-5.943 I0 K0.318
G0 Z15
G17
G28 G91 Z0
G90
G28 G91 X0 Y0
G90
M5
M30
