(1001)
(T9  D=3.175 CR=0 - ZMIN=-6.26 - flat end mill)
G90 G94
G17
G21
G28 G91 Z0
G90

(2D Contour1)
T9
S18000 M3
G54
G0 X-176.975 Y52.624
Z15
Z5
G1 Z1 F66.7
Z-5.943
X-176.979 Y52.631 Z-6.013 F200
X-176.991 Y52.651 Z-6.08
X-177.01 Y52.684 Z-6.14
X-177.035 Y52.728 Z-6.191
X-177.065 Y52.78 Z-6.229
X-177.098 Y52.838 Z-6.252
X-177.134 Y52.899 Z-6.26
X-177.293 Y53.174
G3 X-177.726 Y53.29 I-0.275 J-0.159
X-176.814 Y51.71 I0.456 J-0.79
X-177.726 Y53.29 I-0.456 J0.79
X-177.842 Y52.857 I0.159 J-0.275
G1 X-177.684 Y52.582
X-177.648 Y52.52 Z-6.252
X-177.615 Y52.462 Z-6.229
X-177.585 Y52.41 Z-6.191
X-177.56 Y52.367 Z-6.14
X-177.541 Y52.334 Z-6.08
X-177.529 Y52.314 Z-6.013
X-177.525 Y52.307 Z-5.943
Z1
Z5
G0 X-164.83 Y41.194
G1 Z1 F66.7
Z-5.943
X-164.835 Y41.2 Z-6.013 F200
X-164.852 Y41.217 Z-6.08
X-164.878 Y41.244 Z-6.14
X-164.913 Y41.28 Z-6.191
X-164.956 Y41.323 Z-6.229
X-165.003 Y41.37 Z-6.252
X-165.052 Y41.421 Z-6.26
X-165.275 Y41.647
G3 X-165.724 Y41.651 I-0.226 J-0.223
X-83.816 Y-41.651 I40.954 J-41.651
X-165.724 Y41.651 I-40.954 J41.651
X-165.728 Y41.202 I0.223 J-0.226
G1 X-165.505 Y40.976
X-165.455 Y40.925 Z-6.252
X-165.408 Y40.877 Z-6.229
X-165.366 Y40.834 Z-6.191
X-165.331 Y40.799 Z-6.14
X-165.304 Y40.772 Z-6.08
X-165.288 Y40.755 Z-6.013
X-165.282 Y40.749 Z-5.943
Z1
Z5
G0 X-210.048 Y23.495
G1 Z1 F66.7
Z-5.943
X-210.042 Y23.5 Z-6.013 F200
X-210.026 Y23.517 Z-6.08
X-209.998 Y23.543 Z-6.14
X-209.962 Y23.578 Z-6.191
X-209.919 Y23.62 Z-6.229
X-209.871 Y23.667 Z-6.252
X-209.821 Y23.716 Z-6.26
X-209.593 Y23.938
G3 X-209.588 Y24.387 I-0.222 J0.227
X-210.894 Y23.113 I-0.653 J-0.637
X-209.588 Y24.387 I0.653 J0.637
X-210.036 Y24.393 I-0.227 J-0.222
G1 X-210.264 Y24.171
X-210.314 Y24.122 Z-6.252
X-210.363 Y24.075 Z-6.229
X-210.406 Y24.033 Z-6.191
X-210.442 Y23.998 Z-6.14
X-210.469 Y23.971 Z-6.08
X-210.486 Y23.955 Z-6.013
X-210.491 Y23.949 Z-5.943
Z1
Z5
G0 X-209.962 Y-23.906
G1 Z1 F66.7
Z-5.943
X-209.959 Y-23.899 Z-6.013 F200
X-209.95 Y-23.877 Z-6.08
X-209.936 Y-23.842 Z-6.14
X-209.917 Y-23.795 Z-6.191
X-209.894 Y-23.74 Z-6.229
X-209.869 Y-23.677 Z-6.252
X-209.843 Y-23.612 Z-6.26
X-209.724 Y-23.317
G3 X-209.899 Y-22.904 I-0.294 J0.119
X-210.583 Y-24.596 I-0.342 J-0.846
X-209.899 Y-22.904 I0.342 J0.846
X-210.312 Y-23.079 I-0.119 J-0.294
G1 X-210.431 Y-23.374
X-210.458 Y-23.439 Z-6.252
X-210.483 Y-23.501 Z-6.229
X-210.505 Y-23.557 Z-6.191
X-210.524 Y-23.604 Z-6.14
X-210.539 Y-23.639 Z-6.08
X-210.547 Y-23.661 Z-6.013
X-210.55 Y-23.668 Z-5.943
Z1
Z5
G0 X-176.952 Y-52.536
G1 Z1 F66.7
Z-5.943
Y-52.528 Z-6.013 F200
Y-52.505 Z-6.08
X-176.953 Y-52.467 Z-6.14
Y-52.417 Z-6.191
X-176.954 Y-52.357 Z-6.229
X-176.955 Y-52.289 Z-6.252
X-176.956 Y-52.219 Z-6.26
X-176.959 Y-51.901
G3 X-177.281 Y-51.588 I-0.317 J-0.004
X-177.259 Y-53.412 I0.011 J-0.912
X-177.281 Y-51.588 I-0.011 J0.912
X-177.594 Y-51.909 I0.004 J-0.317
G1 X-177.591 Y-52.226
X-177.59 Y-52.297 Z-6.252
X-177.589 Y-52.364 Z-6.229
X-177.588 Y-52.424 Z-6.191
Y-52.474 Z-6.14
X-177.587 Y-52.512 Z-6.08
Y-52.536 Z-6.013
Y-52.544 Z-5.943
Z1
Z5
G0 X-72.016 Y-52.305
G1 Z1 F66.7
Z-5.943
X-72.022 Y-52.299 Z-6.013 F200
X-72.039 Y-52.283 Z-6.08
X-72.065 Y-52.256 Z-6.14
X-72.101 Y-52.22 Z-6.191
X-72.143 Y-52.177 Z-6.229
X-72.19 Y-52.13 Z-6.252
X-72.24 Y-52.079 Z-6.26
X-72.463 Y-51.854
G3 X-72.912 Y-51.852 I-0.225 J-0.224
X-71.628 Y-53.148 I0.642 J-0.648
X-72.912 Y-51.852 I-0.642 J0.648
X-72.914 Y-52.301 I0.224 J-0.225
G1 X-72.691 Y-52.526
X-72.641 Y-52.577 Z-6.252
X-72.594 Y-52.624 Z-6.229
X-72.551 Y-52.667 Z-6.191
X-72.516 Y-52.703 Z-6.14
X-72.489 Y-52.73 Z-6.08
X-72.473 Y-52.746 Z-6.013
X-72.467 Y-52.752 Z-5.943
Z1
Z5
G0 X-19.818 Y-27.165
G1 Z1 F66.7
Z-5.943
X-19.826 Y-27.161 Z-6.013 F200
X-19.846 Y-27.15 Z-6.08
X-19.88 Y-27.133 Z-6.14
X-19.925 Y-27.11 Z-6.191
X-19.978 Y-27.082 Z-6.229
X-20.038 Y-27.051 Z-6.252
X-20.1 Y-27.019 Z-6.26
X-20.382 Y-26.873
G3 X-20.81 Y-27.009 I-0.146 J-0.282
X-19.19 Y-27.848 I0.81 J-0.42
X-20.81 Y-27.009 I-0.81 J0.42
X-20.674 Y-27.437 I0.282 J-0.146
G1 X-20.392 Y-27.583
X-20.33 Y-27.615 Z-6.252
X-20.27 Y-27.646 Z-6.229
X-20.217 Y-27.674 Z-6.191
X-20.172 Y-27.697 Z-6.14
X-20.138 Y-27.714 Z-6.08
X-20.118 Y-27.725 Z-6.013
X-20.11 Y-27.729 Z-5.943
Z1
Z5
G0 X20.158 Y-27.15
G1 Z1 F66.7
Z-5.943
X20.151 Y-27.147 Z-6.013 F200
X20.129 Y-27.138 Z-6.08
X20.094 Y-27.124 Z-6.14
X20.048 Y-27.105 Z-6.191
X19.992 Y-27.082 Z-6.229
X19.93 Y-27.056 Z-6.252
X19.865 Y-27.029 Z-6.26
X19.571 Y-26.908
G3 X19.157 Y-27.08 I-0.121 J-0.293
X20.843 Y-27.777 I0.843 J-0.349
X19.157 Y-27.08 I-0.843 J0.349
X19.329 Y-27.495 I0.293 J-0.121
G1 X19.622 Y-27.616
X19.688 Y-27.643 Z-6.252
X19.75 Y-27.669 Z-6.229
X19.805 Y-27.692 Z-6.191
X19.852 Y-27.711 Z-6.14
X19.887 Y-27.725 Z-6.08
X19.908 Y-27.734 Z-6.013
X19.916 Y-27.737 Z-5.943
Z1
Z5
G0 X68.278 Y10.505
G1 Z1 F66.7
Z-5.943
X68.27 Y10.506 Z-6.013 F200
X68.247 Y10.51 Z-6.08
X68.209 Y10.517 Z-6.14
X68.16 Y10.526 Z-6.191
X68.101 Y10.537 Z-6.229
X68.035 Y10.549 Z-6.252
X67.965 Y10.561 Z-6.26
X67.653 Y10.617
G3 X67.284 Y10.361 I-0.056 J-0.312
X182.256 Y-10.361 I57.486 J-10.361
X67.284 Y10.361 I-57.486 J10.361
X67.54 Y9.993 I0.312 J-0.056
G1 X67.852 Y9.936
X67.922 Y9.924 Z-6.252
X67.988 Y9.912 Z-6.229
X68.047 Y9.901 Z-6.191
X68.097 Y9.892 Z-6.14
X68.134 Y9.885 Z-6.08
X68.157 Y9.881 Z-6.013
X68.165 Y9.88 Z-5.943
Z1
Z5
G0 X72.31 Y52.818
G1 Z1 F66.7
Z-5.943
G18 G3 X71.993 Z-6.26 I-0.317 K0 F200
G1 X71.675
G17 G3 X71.357 Y52.5 I0 J-0.318
X73.182 Y52.5 I0.912 J0
X71.357 Y52.5 I-0.912 J0
X71.675 Y52.182 I0.318 J0
G1 X71.993
G18 G2 X72.31 Z-5.943 I0 K0.318
G1 Z1
Z5
G0 X72.432 Y-52.224
G1 Z1 F66.7
Z-5.943
X72.424 Y-52.221 Z-6.013 F200
X72.403 Y-52.211 Z-6.08
X72.368 Y-52.197 Z-6.14
X72.322 Y-52.177 Z-6.191
X72.266 Y-52.153 Z-6.229
X72.205 Y-52.127 Z-6.252
X72.14 Y-52.099 Z-6.26
X71.848 Y-51.974
G17 G3 X71.431 Y-52.141 I-0.125 J-0.292
X73.109 Y-52.859 I0.839 J-0.359
X71.431 Y-52.141 I-0.839 J0.359
X71.598 Y-52.558 I0.292 J-0.125
G1 X71.89 Y-52.683
X71.955 Y-52.711 Z-6.252
X72.017 Y-52.737 Z-6.229
X72.072 Y-52.761 Z-6.191
X72.118 Y-52.78 Z-6.14
X72.153 Y-52.795 Z-6.08
X72.175 Y-52.805 Z-6.013
X72.182 Y-52.808 Z-5.943
Z1
Z5
G0 X177.4 Y-52.208
G1 Z1 F66.7
Z-5.943
X177.392 Y-52.205 Z-6.013 F200
X177.37 Y-52.198 Z-6.08
X177.334 Y-52.188 Z-6.14
X177.285 Y-52.173 Z-6.191
X177.228 Y-52.156 Z-6.229
X177.164 Y-52.136 Z-6.252
X177.096 Y-52.116 Z-6.26
X176.792 Y-52.024
G3 X176.396 Y-52.237 I-0.092 J-0.304
X178.144 Y-52.763 I0.874 J-0.263
X176.396 Y-52.237 I-0.874 J0.263
X176.609 Y-52.632 I0.304 J-0.092
G1 X176.913 Y-52.724
X176.98 Y-52.744 Z-6.252
X177.045 Y-52.764 Z-6.229
X177.102 Y-52.781 Z-6.191
X177.15 Y-52.796 Z-6.14
X177.187 Y-52.806 Z-6.08
X177.209 Y-52.813 Z-6.013
X177.217 Y-52.816 Z-5.943
Z1
Z5
G0 X210.343 Y-23.447
G1 Z1 F66.7
Z-5.943
X210.335 Y-23.445 Z-6.013 F200
X210.312 Y-23.44 Z-6.08
X210.275 Y-23.433 Z-6.14
X210.226 Y-23.423 Z-6.191
X210.167 Y-23.411 Z-6.229
X210.101 Y-23.398 Z-6.252
X210.032 Y-23.384 Z-6.26
X209.721 Y-23.321
G3 X209.347 Y-23.57 I-0.063 J-0.311
X211.135 Y-23.93 I0.894 J-0.18
X209.347 Y-23.57 I-0.894 J0.18
X209.595 Y-23.944 I0.311 J-0.063
G1 X209.906 Y-24.006
X209.975 Y-24.02 Z-6.252
X210.041 Y-24.034 Z-6.229
X210.1 Y-24.046 Z-6.191
X210.15 Y-24.055 Z-6.14
X210.187 Y-24.063 Z-6.08
X210.21 Y-24.068 Z-6.013
X210.217 Y-24.069 Z-5.943
Z1
Z5
G0 X210.306 Y24.063
G1 Z1 F66.7
Z-5.943
X210.298 Y24.064 Z-6.013 F200
X210.275 Y24.066 Z-6.08
X210.237 Y24.069 Z-6.14
X210.187 Y24.073 Z-6.191
X210.127 Y24.078 Z-6.229
X210.06 Y24.083 Z-6.252
X209.99 Y24.088 Z-6.26
X209.673 Y24.114
G3 X209.331 Y23.822 I-0.025 J-0.317
X211.151 Y23.678 I0.91 J-0.072
X209.331 Y23.822 I-0.91 J0.072
X209.623 Y23.481 I0.316 J-0.025
G1 X209.939 Y23.455
X210.01 Y23.45 Z-6.252
X210.077 Y23.445 Z-6.229
X210.137 Y23.44 Z-6.191
X210.187 Y23.436 Z-6.14
X210.224 Y23.433 Z-6.08
X210.248 Y23.431 Z-6.013
X210.256 Y23.43 Z-5.943
Z1
Z5
G0 X177.31 Y52.818
G1 Z1 F66.7
Z-5.943
G18 G3 X176.992 Z-6.26 I-0.318 K0 F200
G1 X176.675
G17 G3 X176.357 Y52.5 I0 J-0.318
X178.183 Y52.5 I0.913 J0
X176.357 Y52.5 I-0.913 J0
X176.675 Y52.182 I0.318 J0
G1 X176.992
G18 G2 X177.31 Z-5.943 I0 K0.318
G1 Z1
Z5
G0 X-72.224 Y52.817
G1 Z1 F66.7
Z-5.943
X-72.232 Z-6.013 F200
X-72.255 Z-6.08
X-72.293 Y52.818 Z-6.14
X-72.343 Y52.819 Z-6.191
X-72.403 Y52.82 Z-6.229
X-72.47 Y52.822 Z-6.252
X-72.541 Y52.823 Z-6.26
X-72.858 Y52.83
G17 G3 X-73.182 Y52.519 I-0.006 J-0.317
X-71.358 Y52.481 I0.912 J-0.019
X-73.182 Y52.519 I-0.912 J0.019
X-72.871 Y52.195 I0.317 J-0.006
G1 X-72.554 Y52.188
X-72.483 Y52.187 Z-6.252
X-72.416 Y52.185 Z-6.229
X-72.356 Y52.184 Z-6.191
X-72.306 Y52.183 Z-6.14
X-72.268 Y52.182 Z-6.08
X-72.244 Z-6.013
X-72.236 Z-5.943
Z5
G0 Z15
G28 G91 Z0
G90
G28 G91 X0 Y0
G90
M5
M30
