(1001)
(T9  D=3.175 CR=0 - ZMIN=-6.26 - flat end mill)
G90 G94
G17
G21
G28 G91 Z0
G90

(2D Contour2)
T9
S18000 M3
G54
G0 X222.784 Y19.542
Z15
Z5
G1 Z1 F66.7
Z-5.943
X222.776 Y19.543 Z-6.013 F200
X222.753 Y19.544 Z-6.08
X222.715 Y19.547 Z-6.14
X222.665 Y19.55 Z-6.191
X222.605 Y19.553 Z-6.229
X222.538 Y19.557 Z-6.252
X222.467 Y19.562 Z-6.26
X222.151 Y19.581
G3 X221.814 Y19.284 I-0.02 J-0.317
G2 X214.241 Y12.163 I-7.573 J0.466
G1 X206.241
G3 X201.829 Y7.75 I0 J-4.413
G1 Y-7.75
G3 X206.241 Y-12.163 I4.412 J0
G1 X214.241
G2 X221.829 Y-19.75 I0 J-7.587
G1 Y-27.75
G2 X214.241 Y-35.338 I-7.588 J0
G1 X206.241
G3 X201.829 Y-39.75 I0 J-4.412
G1 Y-45
G2 X180.241 Y-66.588 I-21.588 J0
G1 X65.983
G2 X54.254 Y-61.729 I0 J16.588
G1 X43.898 Y-51.373
G3 X34.414 Y-47.444 I-9.484 J-9.484
G1 X-34.414
G3 X-43.898 Y-51.373 I0 J-13.412
G1 X-54.254 Y-61.729
G2 X-65.983 Y-66.588 I-11.729 J11.729
G1 X-180.241
G2 X-201.829 Y-45 I0 J21.588
G1 Y-39.75
G3 X-206.241 Y-35.338 I-4.412 J0
G1 X-214.241
G2 X-221.829 Y-27.75 I0 J7.588
G1 Y-19.75
G2 X-214.241 Y-12.163 I7.588 J0
G1 X-206.241
G3 X-201.829 Y-7.75 I0 J4.413
G1 Y7.75
G3 X-206.241 Y12.163 I-4.412 J0
G1 X-214.241
G2 X-221.829 Y19.75 I0 J7.587
G1 Y27.75
G2 X-214.241 Y35.338 I7.588 J0
G1 X-206.241
G3 X-201.829 Y39.75 I0 J4.412
G1 Y45
G2 X-180.241 Y66.588 I21.588 J0
G1 X-76.441
G2 X-54.854 Y45 I0 J-21.588
G1 Y6
G3 X-41.441 Y-7.412 I13.413 J0
G1 X41.441
G3 X54.854 Y6 I0 J13.412
G1 Y45
G2 X76.441 Y66.588 I21.587 J0
G1 X180.241
G2 X201.829 Y45 I0 J-21.588
G1 Y39.75
G3 X206.241 Y35.338 I4.412 J0
G1 X214.241
G2 X221.829 Y27.75 I0 J-7.588
G1 Y19.75
G2 X221.814 Y19.284 I-7.588 J0
G3 X222.112 Y18.947 I0.317 J-0.02
G1 X222.428 Y18.928
X222.499 Y18.924 Z-6.252
X222.566 Y18.919 Z-6.229
X222.626 Y18.916 Z-6.191
X222.676 Y18.913 Z-6.14
X222.714 Y18.91 Z-6.08
X222.737 Y18.909 Z-6.013
X222.745 Y18.908 Z-5.943
Z5
G0 Z15
G28 G91 Z0
G90
G28 G91 X0 Y0
G90
M5
M30
