(1001)
(T9  D=3.175 CR=0 - ZMIN=-6.26 - flat end mill)
G90 G94
G17
G21
G28 G91 Z0
G90

(2D Contour1)
T9
S18000 M3
G54
G0 X67.054 Y-30.317
Z15
Z5
G1 Z1 F66.7
Z-5.943
G18 G2 X67.372 Z-6.26 I0.318 K0 F200
G1 X67.689
G17 G3 X68.007 Y-30 I0 J0.317
X56.182 Y-30 I-5.912 J0
X68.007 Y-30 I5.912 J0
X67.689 Y-29.683 I-0.317 J0
G1 X67.372
G18 G3 X67.054 Z-5.943 I0 K0.318
G1 Z1
Z5
G0 X97.054 Y-30.317
G1 Z1 F66.7
Z-5.943
G2 X97.372 Z-6.26 I0.318 K0 F200
G1 X97.689
G17 G3 X98.007 Y-30 I0 J0.317
X86.182 Y-30 I-5.912 J0
X98.007 Y-30 I5.912 J0
X97.689 Y-29.683 I-0.317 J0
G1 X97.372
G18 G3 X97.054 Z-5.943 I0 K0.318
G1 Z1
Z5
G0 X127.054 Y-30.317
G1 Z1 F66.7
Z-5.943
G2 X127.371 Z-6.26 I0.317 K0 F200
G1 X127.689
G17 G3 X128.007 Y-30 I0 J0.317
X116.182 Y-30 I-5.912 J0
X128.007 Y-30 I5.912 J0
X127.689 Y-29.683 I-0.317 J0
G1 X127.371
G18 G3 X127.054 Z-5.943 I0 K0.318
G1 Z1
Z5
G0 X139.96 Y-10.318
G1 Z1 F66.7
Z-5.943
G2 X140.277 Z-6.26 I0.317 K0 F200
G1 X140.595
G17 G3 X140.913 Y-10 I0 J0.318
X139.087 Y-10 I-0.913 J0
X140.913 Y-10 I0.913 J0
X140.595 Y-9.682 I-0.318 J0
G1 X140.277
G18 G3 X139.96 Z-5.943 I0 K0.318
G1 Z1
Z5
G0 Y-50.318
G1 Z1 F66.7
Z-5.943
G2 X140.277 Z-6.26 I0.317 K0 F200
G1 X140.595
G17 G3 X140.913 Y-50 I0 J0.318
X139.087 Y-50 I-0.913 J0
X140.913 Y-50 I0.913 J0
X140.595 Y-49.682 I-0.318 J0
G1 X140.277
G18 G3 X139.96 Z-5.943 I0 K0.318
G1 Z1
Z5
G0 X39.554 Y-30.317
G1 Z1 F66.7
Z-5.943
G2 X39.872 Z-6.26 I0.317 K0 F200
G1 X40.189
G17 G3 X40.507 Y-30 I0 J0.317
X23.682 Y-30 I-8.413 J0
X40.507 Y-30 I8.413 J0
X40.189 Y-29.683 I-0.318 J0
G1 X39.872
G18 G3 X39.554 Z-5.943 I0 K0.318
G1 Z1
Z5
G0 X9.96 Y-10.318
G1 Z1 F66.7
Z-5.943
G2 X10.278 Z-6.26 I0.318 K0 F200
G1 X10.595
G17 G3 X10.913 Y-10 I0 J0.318
X9.087 Y-10 I-0.913 J0
X10.913 Y-10 I0.913 J0
X10.595 Y-9.682 I-0.318 J0
G1 X10.278
G18 G3 X9.96 Z-5.943 I0 K0.318
G1 Z1
Z5
G0 Y-50.318
G1 Z1 F66.7
Z-5.943
G2 X10.278 Z-6.26 I0.318 K0 F200
G1 X10.595
G17 G3 X10.913 Y-50 I0 J0.318
X9.087 Y-50 I-0.913 J0
X10.913 Y-50 I0.913 J0
X10.595 Y-49.682 I-0.318 J0
G1 X10.278
G18 G3 X9.96 Z-5.943 I0 K0.318
G1 Z5
G0 Z15
G17

(2D Contour2)
G0 X9.682 Y2.54
Z15
Z5
G1 Z1 F66.7
Z-5.943
G19 G2 Y2.223 Z-6.26 J-0.317 K0 F200
G1 Y1.905
G17 G3 X10 Y1.587 I0.318 J0
G1 X49.559
G2 X50.681 Y1.123 I0 J-1.587
G1 X56.755 Y-4.951
X93.245
X99.318 Y1.123
G2 X100.441 Y1.587 I1.123 J-1.123
G1 X140
G2 X151.587 Y-10 I0 J-11.587
G1 Y-50
G2 X140 Y-61.588 I-11.587 J0
G1 X100.441
G2 X99.318 Y-61.123 I0 J1.588
G1 X93.245 Y-55.049
X56.755
X50.681 Y-61.123
G2 X49.559 Y-61.588 I-1.123 J1.123
G1 X10
G2 X-1.587 Y-50 I0 J11.588
G1 Y-10
G2 X10 Y1.587 I11.587 J0
G3 X10.318 Y1.905 I0 J0.317
G1 Y2.223
G19 G3 Y2.54 Z-5.943 J0 K0.318
G1 Z5
G0 Z15
G17
G28 G91 Z0
G90
G28 G91 X0 Y0
G90
M5
M30
