(1001)
(T9  D=3.175 CR=0 - ZMIN=-6.26 - flat end mill)
G90 G94
G17
G21
G28 G91 Z0
G90

(2D Contour9)
T9
S18000 M3
G54
G0 X50.849 Y-109.032
Z15
Z5
G1 Z1 F50
Z-5.943
X50.856 Y-109.029 Z-6.013 F150
X50.878 Y-109.02 Z-6.08
X50.913 Y-109.006 Z-6.14
X50.96 Y-108.988 Z-6.191
X51.016 Y-108.967 Z-6.229
X51.079 Y-108.942 Z-6.252
X51.145 Y-108.917 Z-6.26
X51.441 Y-108.802
G3 X51.622 Y-108.391 I-0.115 J0.296
X49.92 Y-109.051 I-0.851 J-0.33
X51.622 Y-108.391 I0.851 J0.33
X51.211 Y-108.21 I-0.296 J-0.115
G1 X50.915 Y-108.325
X50.849 Y-108.35 Z-6.252
X50.787 Y-108.374 Z-6.229
X50.731 Y-108.396 Z-6.191
X50.684 Y-108.414 Z-6.14
X50.649 Y-108.428 Z-6.08
X50.627 Y-108.437 Z-6.013
X50.619 Y-108.439 Z-5.943
G0 Z5
X108.823 Y-47.065
G1 Z1 F50
Z-5.943
X108.831 Y-47.063 Z-6.013 F150
X108.853 Y-47.054 Z-6.08
X108.888 Y-47.04 Z-6.14
X108.935 Y-47.022 Z-6.191
X108.991 Y-47 Z-6.229
X109.054 Y-46.976 Z-6.252
X109.119 Y-46.951 Z-6.26
X109.416 Y-46.836
G3 X109.597 Y-46.425 I-0.115 J0.296
X107.895 Y-47.085 I-0.851 J-0.33
X109.597 Y-46.425 I0.851 J0.33
X109.186 Y-46.244 I-0.296 J-0.115
G1 X108.89 Y-46.359
X108.824 Y-46.384 Z-6.252
X108.762 Y-46.408 Z-6.229
X108.705 Y-46.43 Z-6.191
X108.659 Y-46.448 Z-6.14
X108.623 Y-46.462 Z-6.08
X108.601 Y-46.47 Z-6.013
X108.594 Y-46.473 Z-5.943
G0 Z5
X166.631 Y-109.038
G1 Z1 F50
Z-5.943
G18 G2 X166.949 Z-6.26 I0.318 K0 F150
G1 X167.266
G17 G3 X167.583 Y-108.721 I0 J0.317
X165.759 Y-108.721 I-0.912 J0
X167.583 Y-108.721 I0.912 J0
X167.266 Y-108.404 I-0.317 J0
G1 X166.949
G18 G3 X166.631 Z-5.943 I0 K0.318
G0 Z5
X108.706 Y-171.005
G1 Z1 F50
Z-5.943
G2 X109.023 Z-6.26 I0.317 K0 F150
G1 X109.341
G17 G3 X109.659 Y-170.687 I0 J0.318
X107.834 Y-170.687 I-0.912 J0
X109.659 Y-170.687 I0.912 J0
X109.341 Y-170.37 I-0.317 J0
G1 X109.023
G18 G3 X108.706 Z-5.943 I0 K0.318
G0 Z5
X16.494 Y-201.66
G1 Z1 F50
Z-5.943
G2 X16.811 Z-6.26 I0.317 K0 F150
G1 X17.129
G17 G3 X17.446 Y-201.342 I0 J0.318
X15.621 Y-201.342 I-0.913 J0
X17.446 Y-201.342 I0.913 J0
X17.129 Y-201.025 I-0.317 J0
G1 X16.811
G18 G3 X16.494 Z-5.943 I0 K0.318
G0 Z5
X200.868 Y-201.66
G1 Z1 F50
Z-5.943
G2 X201.186 Z-6.26 I0.318 K0 F150
G1 X201.503
G17 G3 X201.82 Y-201.342 I0 J0.318
X199.996 Y-201.342 I-0.912 J0
X201.82 Y-201.342 I0.912 J0
X201.503 Y-201.025 I-0.317 J0
G1 X201.186
G18 G3 X200.868 Z-5.943 I0 K0.318
G0 Z5
Y-16.418
G1 Z1 F50
Z-5.943
G2 X201.186 Z-6.26 I0.318 K0 F150
G1 X201.503
G17 G3 X201.82 Y-16.1 I0 J0.318
X199.996 Y-16.1 I-0.912 J0
X201.82 Y-16.1 I0.912 J0
X201.503 Y-15.783 I-0.317 J0
G1 X201.186
G18 G3 X200.868 Z-5.943 I0 K0.318
G0 Z5
X16.494 Y-16.418
G1 Z1 F50
Z-5.943
G2 X16.811 Z-6.26 I0.317 K0 F150
G1 X17.129
G17 G3 X17.446 Y-16.1 I0 J0.318
X15.621 Y-16.1 I-0.913 J0
X17.446 Y-16.1 I0.913 J0
X17.129 Y-15.783 I-0.317 J0
G1 X16.811
G18 G3 X16.494 Z-5.943 I0 K0.318
G0 Z15
G17
G28 G91 Z0
G90
G28 G91 X0 Y0
G90
M5
M30
