(1001)
(T9  D=3.175 CR=0 - ZMIN=-6.26 - flat end mill)
G90 G94
G17
G21
G28 G91 Z0
G90

(2D Contour10)
T9
S18000 M3
G54
G0 X-1.789 Y-39.877
Z15
Z5
G1 Z1 F50
Z-5.943
X-1.781 Y-39.875 Z-6.013 F150
X-1.758 Y-39.87 Z-6.08
X-1.721 Y-39.863 Z-6.14
X-1.672 Y-39.853 Z-6.191
X-1.613 Y-39.841 Z-6.229
X-1.547 Y-39.828 Z-6.252
X-1.478 Y-39.813 Z-6.26
X-1.167 Y-39.75
G3 X-0.919 Y-39.376 I-0.063 J0.311
G2 X8.25 Y-8.957 I32.919 J6.669
G1 X8.957 Y-8.25
G2 X56.457 Y-8.25 I23.75 J-23.75
G1 X74.364 Y-26.157
G3 X94.454 Y-34.478 I20.091 J20.091
G1 X122.988
G3 X143.078 Y-26.157 I0 J28.412
G1 X160.985 Y-8.25
G2 X208.484 Y-8.25 I23.75 J-23.75
G1 X209.192 Y-8.956
X209.193 Y-8.957
G2 X209.193 Y-56.457 I-23.751 J-23.75
G1 X191.286 Y-74.364
G3 X182.964 Y-94.454 I20.09 J-20.091
G1 Y-122.988
G3 X191.286 Y-143.078 I28.412 J0
G1 X209.193 Y-160.985
G2 X209.193 Y-208.485 I-23.751 J-23.75
G1 X208.485 Y-209.193
G2 X184.95 Y-219.029 I-23.75 J23.75
G1 X184.94
X184.53
X184.52
G2 X160.985 Y-209.193 I0.216 J33.587
G1 X143.078 Y-191.286
G3 X122.988 Y-182.964 I-20.091 J-20.09
G1 X94.454
G3 X74.364 Y-191.286 I0 J-28.412
G1 X56.457 Y-209.193
G2 X32.923 Y-219.029 I-23.75 J23.75
G1 X32.912
X32.502
X32.491
G2 X8.957 Y-209.193 I0.216 J33.587
G1 X8.745 Y-208.98
X8.25 Y-208.484
G2 X8.25 Y-160.985 I23.75 J23.749
G1 X26.157 Y-143.078
G3 X34.478 Y-122.988 I-20.091 J20.091
G1 Y-94.454
G3 X26.157 Y-74.364 I-28.413 J0
G1 X8.25 Y-56.457
G2 X-0.919 Y-39.376 I23.75 J23.75
G3 X-1.293 Y-39.128 I-0.311 J-0.063
G1 X-1.604 Y-39.191
X-1.673 Y-39.205 Z-6.252
X-1.739 Y-39.218 Z-6.229
X-1.798 Y-39.23 Z-6.191
X-1.847 Y-39.24 Z-6.14
X-1.884 Y-39.248 Z-6.08
X-1.907 Y-39.253 Z-6.013
X-1.915 Y-39.254 Z-5.943
G0 Z15
G28 G91 Z0
G90
G28 G91 X0 Y0
G90
M5
M30
